peipl15/reBot_Arm/outputs/gravity_calib_20260622_153645.csv
t_s,phase,swept_joint,direction,q1,q2,q3,q4,q5,q6,q7,v1,v2,v3,v4,v5,v6,v7,tau1,tau2,tau3,tau4,tau5,tau6,tau7,st1,st2,st3,st4,st5,st6,st7
0.0027,approach,4,to_lo,0.06008,1.31628,1.20985,0.19665,-0.12493,0.34505,-0.00362,-0.0024,-0.0024,-0.0024,0.0073,-0.0220,-0.0073,-0.0220,-0.0205,-0.1162,0.6906,-0.0073,-0.0024,-0.0073,-0.0073,1,1,1,1,1,1,1
0.0424,approach,4,to_lo,0.05970,1.32124,1.20413,0.16728,-0.12455,0.34505,-0.00362,-0.0073,-0.0073,-0.0024,-0.0073,-0.0073,-0.0073,-0.0073,0.0479,-5.9556,8.3897,2.1514,0.0024,-0.0073,-0.0122,1,1,1,1,1,1,1
0.0836,approach,4,to_lo,0.05970,1.32124,1.20413,0.16728,-0.12455,0.34505,-0.00362,-0.0073,-0.0073,-0.0024,-0.0073,-0.0073,-0.0073,-0.0073,0.0479,-5.9556,8.3897,2.1514,0.0024,-0.0073,-0.0122,1,1,1,1,1,1,1
0.1229,approach,4,to_lo,0.05970,1.32124,1.20413,0.15469,-0.12455,0.34505,-0.00362,-0.0073,-0.0024,-0.0024,-0.3297,-0.0073,-0.0073,-0.0073,0.0615,-6.6120,9.3060,1.9365,-0.0073,-0.0024,-0.0122,1,1,1,1,1,1,1
0.1625,approach,4,to_lo,0.05970,1.32124,1.20413,0.15469,-0.12455,0.34505,-0.00362,-0.0073,-0.0024,-0.0024,-0.3297,-0.0073,-0.0073,-0.0073,0.0615,-6.6120,9.3060,1.9365,-0.0073,-0.0024,-0.0122,1,1,1,1,1,1,1
0.2025,approach,4,to_lo,0.05970,1.32124,1.20413,0.15469,-0.12455,0.34505,-0.00362,-0.0073,-0.0024,-0.0024,-0.3297,-0.0073,-0.0073,-0.0073,0.0615,-6.6120,9.3060,1.9365,-0.0073,-0.0024,-0.0122,1,1,1,1,1,1,1
0.2423,approach,4,to_lo,0.05970,1.32124,1.20413,0.12989,-0.12455,0.34466,-0.00362,0.0024,-0.0024,0.0024,-0.1392,0.0073,-0.0220,-0.0073,0.1026,-7.6923,10.6051,2.0195,-0.0171,-0.0073,-0.0122,1,1,1,1,1,1,1
0.2824,approach,4,to_lo,0.05970,1.32124,1.20413,0.12989,-0.12455,0.34466,-0.00362,0.0024,-0.0024,0.0024,-0.1392,0.0073,-0.0220,-0.0073,0.1026,-7.6923,10.6051,2.0195,-0.0171,-0.0073,-0.0122,1,1,1,1,1,1,1
0.3232,approach,4,to_lo,0.05970,1.32086,1.20527,0.11540,-0.12455,0.34505,-0.00362,-0.0024,-0.0073,0.0073,-0.1245,-0.0073,0.0073,0.0073,0.1162,-7.9932,10.0718,1.8779,-0.0269,0.0024,-0.0122,1,1,1,1,1,1,1
0.3628,approach,4,to_lo,0.05970,1.32086,1.20527,0.11540,-0.12455,0.34505,-0.00362,-0.0024,-0.0073,0.0073,-0.1245,-0.0073,0.0073,0.0073,0.1162,-7.9932,10.0718,1.8779,-0.0269,0.0024,-0.0122,1,1,1,1,1,1,1
0.4025,approach,4,to_lo,0.05970,1.32086,1.20527,0.11540,-0.12455,0.34505,-0.00362,-0.0024,-0.0073,0.0073,-0.1245,-0.0073,0.0073,0.0073,0.1162,-7.9932,10.0718,1.8779,-0.0269,0.0024,-0.0122,1,1,1,1,1,1,1
0.4431,approach,4,to_lo,0.05970,1.32086,1.20565,0.08793,-0.12455,0.34505,-0.00362,0.0024,-0.0024,-0.0024,-0.2418,-0.0073,0.0073,-0.0073,0.1299,-8.8684,10.8513,2.1465,-0.0366,-0.0073,-0.0122,1,1,1,1,1,1,1
0.4830,approach,4,to_lo,0.05970,1.32086,1.20565,0.08793,-0.12455,0.34505,-0.00362,0.0024,-0.0024,-0.0024,-0.2418,-0.0073,0.0073,-0.0073,0.1299,-8.8684,10.8513,2.1465,-0.0366,-0.0073,-0.0122,1,1,1,1,1,1,1
0.5226,approach,4,to_lo,0.05970,1.32086,1.20565,0.07267,-0.12455,0.34505,-0.00362,-0.0024,-0.0073,-0.0024,-0.2711,-0.0073,-0.0073,-0.0073,0.1573,-9.4427,11.4940,2.0928,-0.0464,-0.0073,-0.0171,1,1,1,1,1,1,1
0.5626,approach,4,to_lo,0.05970,1.32086,1.20565,0.07267,-0.12455,0.34505,-0.00362,-0.0024,-0.0073,-0.0024,-0.2711,-0.0073,-0.0073,-0.0073,0.1573,-9.4427,11.4940,2.0928,-0.0464,-0.0073,-0.0171,1,1,1,1,1,1,1
0.6030,approach,4,to_lo,0.05970,1.32086,1.20565,0.07267,-0.12455,0.34505,-0.00362,-0.0024,-0.0073,-0.0024,-0.2711,-0.0073,-0.0073,-0.0073,0.1573,-9.4427,11.4940,2.0928,-0.0464,-0.0073,-0.0171,1,1,1,1,1,1,1
0.6425,approach,4,to_lo,0.05970,1.31971,1.20680,0.04902,-0.12455,0.34505,-0.00362,-0.0024,-0.0024,-0.0024,-0.2857,-0.0073,-0.0073,-0.0220,0.1846,-9.0462,10.8786,2.0635,-0.0611,-0.0073,-0.0171,1,1,1,1,1,1,1
0.6826,approach,4,to_lo,0.05970,1.31971,1.20680,0.04902,-0.12455,0.34505,-0.00362,-0.0024,-0.0024,-0.0024,-0.2857,-0.0073,-0.0073,-0.0220,0.1846,-9.0462,10.8786,2.0635,-0.0611,-0.0073,-0.0171,1,1,1,1,1,1,1
0.7233,approach,4,to_lo,0.05970,1.31971,1.20718,0.03224,-0.12455,0.34505,-0.00362,0.0024,-0.0024,0.0024,-0.1392,-0.0220,-0.0073,-0.0073,0.2120,-9.3197,11.2342,2.1319,-0.0708,-0.0122,-0.0171,1,1,1,1,1,1,1
0.7627,approach,4,to_lo,0.05970,1.31971,1.20718,0.03224,-0.12455,0.34505,-0.00362,0.0024,-0.0024,0.0024,-0.1392,-0.0220,-0.0073,-0.0073,0.2120,-9.3197,11.2342,2.1319,-0.0708,-0.0122,-0.0171,1,1,1,1,1,1,1
0.8028,approach,4,to_lo,0.05970,1.31971,1.20718,0.03224,-0.12455,0.34505,-0.00362,0.0024,-0.0024,0.0024,-0.1392,-0.0220,-0.0073,-0.0073,0.2120,-9.3197,11.2342,2.1319,-0.0708,-0.0122,-0.0171,1,1,1,1,1,1,1
0.8429,approach,4,to_lo,0.05970,1.31895,1.20756,0.00935,-0.12455,0.34505,-0.00362,0.0024,-0.0024,0.0024,-0.1392,-0.0073,0.0073,-0.0220,0.2530,-9.2650,11.4120,2.0293,-0.0757,-0.0073,-0.0171,1,1,1,1,1,1,1
0.8830,approach,4,to_lo,0.05970,1.31895,1.20756,0.00935,-0.12455,0.34505,-0.00362,0.0024,-0.0024,0.0024,-0.1392,-0.0073,0.0073,-0.0220,0.2530,-9.2650,11.4120,2.0293,-0.0757,-0.0073,-0.0171,1,1,1,1,1,1,1
0.9225,approach,4,to_lo,0.05970,1.31895,1.20794,-0.00820,-0.12455,0.34505,-0.00362,-0.0024,-0.0024,-0.0024,-0.2711,-0.0073,-0.0073,-0.0073,0.2940,-9.6068,11.1111,2.1661,-0.0904,-0.0073,-0.0220,1,1,1,1,1,1,1
0.9626,approach,4,to_lo,0.05970,1.31895,1.20794,-0.00820,-0.12455,0.34505,-0.00362,-0.0024,-0.0024,-0.0024,-0.2711,-0.0073,-0.0073,-0.0073,0.2940,-9.6068,11.1111,2.1661,-0.0904,-0.0073,-0.0220,1,1,1,1,1,1,1
1.0025,approach,4,to_lo,0.05970,1.31895,1.20794,-0.00820,-0.12455,0.34505,-0.00362,-0.0024,-0.0024,-0.0024,-0.2711,-0.0073,-0.0073,-0.0073,0.2940,-9.6068,11.1111,2.1661,-0.0904,-0.0073,-0.0220,1,1,1,1,1,1,1
1.0426,approach,4,to_lo,0.05970,1.31895,1.20832,-0.03185,-0.12455,0.34505,-0.00362,-0.0024,-0.0073,-0.0024,-0.2857,0.0073,-0.0073,-0.0073,0.3350,-9.9350,11.3573,2.1319,-0.1050,-0.0073,-0.0220,1,1,1,1,1,1,1
1.0826,approach,4,to_lo,0.05970,1.31895,1.20832,-0.03185,-0.12455,0.34505,-0.00362,-0.0024,-0.0073,-0.0024,-0.2857,0.0073,-0.0073,-0.0073,0.3350,-9.9350,11.3573,2.1319,-0.1050,-0.0073,-0.0220,1,1,1,1,1,1,1
1.1229,approach,4,to_lo,0.05970,1.31819,1.20870,-0.04635,-0.12455,0.34466,-0.00362,-0.0073,-0.0024,0.0073,-0.1831,0.0073,-0.0073,-0.0073,0.3624,-9.5795,11.3846,2.0000,-0.1148,-0.0024,-0.0269,1,1,1,1,1,1,1
1.1628,approach,4,to_lo,0.05970,1.31819,1.20870,-0.04635,-0.12455,0.34466,-0.00362,-0.0073,-0.0024,0.0073,-0.1831,0.0073,-0.0073,-0.0073,0.3624,-9.5795,11.3846,2.0000,-0.1148,-0.0024,-0.0269,1,1,1,1,1,1,1
1.2025,approach,4,to_lo,0.05970,1.31819,1.20870,-0.04635,-0.12455,0.34466,-0.00362,-0.0073,-0.0024,0.0073,-0.1831,0.0073,-0.0073,-0.0073,0.3624,-9.5795,11.3846,2.0000,-0.1148,-0.0024,-0.0269,1,1,1,1,1,1,1
1.2425,approach,4,to_lo,0.05970,1.31781,1.20909,-0.07191,-0.12455,0.34505,-0.00362,-0.0073,-0.0073,-0.0024,-0.1099,0.0073,0.0073,-0.0073,0.3761,-9.3197,11.2068,2.1465,-0.1343,-0.0024,-0.0269,1,1,1,1,1,1,1
1.2825,approach,4,to_lo,0.05970,1.31781,1.20909,-0.07191,-0.12455,0.34505,-0.00362,-0.0073,-0.0073,-0.0024,-0.1099,0.0073,0.0073,-0.0073,0.3761,-9.3197,11.2068,2.1465,-0.1343,-0.0024,-0.0269,1,1,1,1,1,1,1
1.3224,approach,4,to_lo,0.05970,1.31781,1.20909,-0.08869,-0.12455,0.34505,-0.00362,-0.0024,-0.0024,-0.0024,-0.2564,0.0073,-0.0073,-0.0220,0.3897,-9.4564,11.3846,2.2100,-0.1441,-0.0024,-0.0269,1,1,1,1,1,1,1
1.3625,approach,4,to_lo,0.05970,1.31781,1.20909,-0.08869,-0.12455,0.34505,-0.00362,-0.0024,-0.0024,-0.0024,-0.2564,0.0073,-0.0073,-0.0220,0.3897,-9.4564,11.3846,2.2100,-0.1441,-0.0024,-0.0269,1,1,1,1,1,1,1
1.4024,approach,4,to_lo,0.05970,1.31781,1.20909,-0.08869,-0.12455,0.34505,-0.00362,-0.0024,-0.0024,-0.0024,-0.2564,0.0073,-0.0073,-0.0220,0.3897,-9.4564,11.3846,2.2100,-0.1441,-0.0024,-0.0269,1,1,1,1,1,1,1
1.4425,approach,4,to_lo,0.05970,1.31743,1.20909,-0.11044,-0.12493,0.34505,-0.00362,-0.0024,-0.0073,-0.0024,-0.2564,-0.0073,-0.0220,-0.0220,0.4444,-9.3744,11.5077,2.0244,-0.1490,-0.0024,-0.0269,1,1,1,1,1,1,1
1.4826,approach,4,to_lo,0.05970,1.31743,1.20909,-0.11044,-0.12493,0.34505,-0.00362,-0.0024,-0.0073,-0.0024,-0.2564,-0.0073,-0.0220,-0.0220,0.4444,-9.3744,11.5077,2.0244,-0.1490,-0.0024,-0.0269,1,1,1,1,1,1,1
1.5227,approach,4,to_lo,0.05970,1.31743,1.20909,-0.12722,-0.12493,0.34505,-0.00362,-0.0024,-0.0073,-0.0024,-0.1392,-0.0073,0.0073,-0.0073,0.4308,-9.4427,11.7402,2.0635,-0.1538,-0.0024,-0.0269,1,1,1,1,1,1,1
1.5623,approach,4,to_lo,0.05970,1.31743,1.20909,-0.12722,-0.12493,0.34505,-0.00362,-0.0024,-0.0073,-0.0024,-0.1392,-0.0073,0.0073,-0.0073,0.4308,-9.4427,11.7402,2.0635,-0.1538,-0.0024,-0.0269,1,1,1,1,1,1,1
1.6025,approach,4,to_lo,0.05970,1.31743,1.20909,-0.12722,-0.12493,0.34505,-0.00362,-0.0024,-0.0073,-0.0024,-0.1392,-0.0073,0.0073,-0.0073,0.4308,-9.4427,11.7402,2.0635,-0.1538,-0.0024,-0.0269,1,1,1,1,1,1,1
1.6424,approach,4,to_lo,0.05970,1.31704,1.20947,-0.15087,-0.12493,0.34505,-0.00362,-0.0073,0.0024,-0.0024,-0.1978,-0.0073,-0.0073,-0.0073,0.4444,-9.4974,11.6855,2.0342,-0.1685,-0.0024,-0.0269,1,1,1,1,1,1,1
1.6825,approach,4,to_lo,0.05970,1.31704,1.20947,-0.15087,-0.12493,0.34505,-0.00362,-0.0073,0.0024,-0.0024,-0.1978,-0.0073,-0.0073,-0.0073,0.4444,-9.4974,11.6855,2.0342,-0.1685,-0.0024,-0.0269,1,1,1,1,1,1,1
1.7226,approach,4,to_lo,0.05970,1.31704,1.20985,-0.16575,-0.12493,0.34505,-0.00362,-0.0024,-0.0024,-0.0073,-0.2711,-0.0073,-0.0073,-0.0073,0.4991,-9.6479,11.2752,1.9512,-0.1734,-0.0024,-0.0269,1,1,1,1,1,1,1
1.7628,approach,4,to_lo,0.05970,1.31704,1.20985,-0.16575,-0.12493,0.34505,-0.00362,-0.0024,-0.0024,-0.0073,-0.2711,-0.0073,-0.0073,-0.0073,0.4991,-9.6479,11.2752,1.9512,-0.1734,-0.0024,-0.0269,1,1,1,1,1,1,1
1.8023,approach,4,to_lo,0.05970,1.31704,1.20985,-0.16575,-0.12493,0.34505,-0.00362,-0.0024,-0.0024,-0.0073,-0.2711,-0.0073,-0.0073,-0.0073,0.4991,-9.6479,11.2752,1.9512,-0.1734,-0.0024,-0.0269,1,1,1,1,1,1,1
1.8425,approach,4,to_lo,0.05970,1.31704,1.21023,-0.19055,-0.12493,0.34505,-0.00362,-0.0073,-0.0024,0.0024,-0.3004,-0.0073,-0.0220,-0.0220,0.5128,-9.8393,11.3299,2.0440,-0.1783,-0.0024,-0.0269,1,1,1,1,1,1,1
1.8826,approach,4,to_lo,0.05970,1.31704,1.21023,-0.19055,-0.12493,0.34505,-0.00362,-0.0073,-0.0024,0.0024,-0.3004,-0.0073,-0.0220,-0.0220,0.5128,-9.8393,11.3299,2.0440,-0.1783,-0.0024,-0.0269,1,1,1,1,1,1,1
1.9222,approach,4,to_lo,0.05970,1.31704,1.21023,-0.20581,-0.12493,0.34466,-0.00362,-0.0024,-0.0024,-0.0024,-0.1099,0.0073,-0.0073,-0.0073,0.5538,-9.9761,11.3709,1.9707,-0.1783,0.0024,-0.0269,1,1,1,1,1,1,1
1.9623,approach,4,to_lo,0.05970,1.31704,1.21023,-0.20581,-0.12493,0.34466,-0.00362,-0.0024,-0.0024,-0.0024,-0.1099,0.0073,-0.0073,-0.0073,0.5538,-9.9761,11.3709,1.9707,-0.1783,0.0024,-0.0269,1,1,1,1,1,1,1
2.0026,approach,4,to_lo,0.05970,1.31704,1.21023,-0.20581,-0.12493,0.34466,-0.00362,-0.0024,-0.0024,-0.0024,-0.1099,0.0073,-0.0073,-0.0073,0.5538,-9.9761,11.3709,1.9707,-0.1783,0.0024,-0.0269,1,1,1,1,1,1,1
2.0424,approach,4,to_lo,0.05970,1.31704,1.21023,-0.22946,-0.12493,0.34466,-0.00362,-0.0073,-0.0073,-0.0024,-0.1392,-0.0073,-0.0073,-0.0073,0.6222,-9.9077,11.2205,1.9267,-0.1978,-0.0024,-0.0269,1,1,1,1,1,1,1
2.0827,approach,4,to_lo,0.05970,1.31704,1.21023,-0.22946,-0.12493,0.34466,-0.00362,-0.0073,-0.0073,-0.0024,-0.1392,-0.0073,-0.0073,-0.0073,0.6222,-9.9077,11.2205,1.9267,-0.1978,-0.0024,-0.0269,1,1,1,1,1,1,1
2.1224,approach,4,to_lo,0.05970,1.31666,1.21061,-0.24739,-0.12493,0.34466,-0.00362,-0.0024,0.0024,-0.0024,-0.2418,-0.0220,-0.0073,-0.0073,0.6359,-9.9487,11.0564,2.0830,-0.2027,-0.0024,-0.0269,1,1,1,1,1,1,1
2.1628,approach,4,to_lo,0.05970,1.31666,1.21061,-0.24739,-0.12493,0.34466,-0.00362,-0.0024,0.0024,-0.0024,-0.2418,-0.0220,-0.0073,-0.0073,0.6359,-9.9487,11.0564,2.0830,-0.2027,-0.0024,-0.0269,1,1,1,1,1,1,1
2.2024,approach,4,to_lo,0.05970,1.31666,1.21061,-0.24739,-0.12493,0.34466,-0.00362,-0.0024,0.0024,-0.0024,-0.2418,-0.0220,-0.0073,-0.0073,0.6359,-9.9487,11.0564,2.0830,-0.2027,-0.0024,-0.0269,1,1,1,1,1,1,1
2.2425,approach,4,to_lo,0.05970,1.31666,1.21061,-0.26989,-0.12531,0.34505,-0.00362,0.0024,-0.0073,-0.0024,-0.2418,-0.0073,-0.0073,-0.0073,0.6496,-9.9487,11.0154,1.9414,-0.1880,-0.0024,-0.0317,1,1,1,1,1,1,1
2.2823,approach,4,to_lo,0.05970,1.31666,1.21061,-0.26989,-0.12531,0.34505,-0.00362,0.0024,-0.0073,-0.0024,-0.2418,-0.0073,-0.0073,-0.0073,0.6496,-9.9487,11.0154,1.9414,-0.1880,-0.0024,-0.0317,1,1,1,1,1,1,1
2.3223,approach,4,to_lo,0.05970,1.31666,1.21061,-0.29240,-0.12531,0.34505,-0.00362,0.0024,-0.0024,-0.0024,-0.2857,-0.0073,-0.0220,-0.0073,0.6496,-9.8393,11.0154,1.8926,-0.1929,-0.0024,-0.0317,1,1,1,1,1,1,1
2.3625,approach,4,to_lo,0.05970,1.31666,1.21061,-0.29240,-0.12531,0.34505,-0.00362,-0.0024,-0.0024,-0.0024,-0.2857,-0.0073,-0.0220,-0.0073,0.7179,-9.8393,11.0154,1.8926,-0.1929,-0.0024,-0.0317,1,1,1,1,1,1,1
2.4026,approach,4,to_lo,0.05970,1.31666,1.21061,-0.29240,-0.12531,0.34505,-0.00362,-0.0024,-0.0024,-0.0024,-0.2857,-0.0073,-0.0220,-0.0073,0.7179,-9.8393,11.0154,1.8926,-0.1929,-0.0024,-0.0317,1,1,1,1,1,1,1
2.4424,approach,4,to_lo,0.05970,1.31628,1.21061,-0.30957,-0.12531,0.34505,-0.00362,-0.0073,-0.0024,0.0024,-0.1831,-0.0073,-0.0220,-0.0073,0.7453,-9.7299,11.0154,1.9365,-0.1880,-0.0073,-0.0269,1,1,1,1,1,1,1
2.4826,approach,4,to_lo,0.05970,1.31628,1.21061,-0.30957,-0.12531,0.34505,-0.00362,-0.0073,-0.0024,0.0024,-0.1831,-0.0073,-0.0220,-0.0073,0.7453,-9.7299,11.0154,1.9365,-0.1880,-0.0073,-0.0269,1,1,1,1,1,1,1
2.5223,approach,4,to_lo,0.05970,1.31628,1.21061,-0.30957,-0.12531,0.34505,-0.00362,-0.0073,-0.0024,0.0024,-0.1831,-0.0073,0.0073,-0.0073,0.7453,-9.7299,11.0154,1.9365,-0.1832,-0.0024,-0.0317,1,1,1,1,1,1,1
2.5623,approach,4,to_lo,0.05970,1.31628,1.21061,-0.33322,-0.12531,0.34505,-0.00362,-0.0024,-0.0024,-0.0024,-0.1392,-0.0073,0.0073,-0.0073,0.7043,-9.5795,10.9880,1.9658,-0.1832,-0.0024,-0.0317,1,1,1,1,1,1,1
2.6025,approach,4,to_lo,0.05970,1.31628,1.21061,-0.33322,-0.12531,0.34505,-0.00362,-0.0024,-0.0024,-0.0024,-0.1392,-0.0073,0.0073,-0.0073,0.7043,-9.5795,10.9880,1.9658,-0.1832,-0.0024,-0.0317,1,1,1,1,1,1,1
2.6424,approach,4,to_lo,0.05970,1.31628,1.21061,-0.34810,-0.12531,0.34505,-0.00362,-0.0024,-0.0024,-0.0024,-0.3004,-0.0220,0.0073,-0.0073,0.7453,-9.6342,10.9333,1.8535,-0.1832,-0.0073,-0.0366,1,1,1,1,1,1,1
2.6828,approach,4,to_lo,0.05970,1.31628,1.21061,-0.34810,-0.12531,0.34505,-0.00362,-0.0024,-0.0024,-0.0024,-0.3004,-0.0220,0.0073,-0.0073,0.7453,-9.6342,10.9333,1.8535,-0.1832,-0.0073,-0.0366,1,1,1,1,1,1,1
2.7226,approach,4,to_lo,0.05970,1.31628,1.21061,-0.34810,-0.12531,0.34505,-0.00401,-0.0024,-0.0024,-0.0024,-0.3004,0.0073,-0.0073,-0.0220,0.7453,-9.6342,10.9333,1.8535,-0.1832,-0.0073,-0.0366,1,1,1,1,1,1,1
2.7628,approach,4,to_lo,0.05970,1.31628,1.21061,-0.37060,-0.12531,0.34505,-0.00401,-0.0024,-0.0024,0.0024,-0.2125,0.0073,-0.0073,-0.0220,0.8137,-9.5658,10.8239,1.7656,-0.1832,-0.0073,-0.0366,1,1,1,1,1,1,1
2.8024,approach,4,to_lo,0.05970,1.31628,1.21061,-0.37060,-0.12531,0.34505,-0.00401,-0.0024,-0.0024,0.0024,-0.2125,0.0073,-0.0073,-0.0220,0.8137,-9.5658,10.8239,1.7656,-0.1832,-0.0073,-0.0366,1,1,1,1,1,1,1
2.8426,approach,4,to_lo,0.05970,1.31590,1.21061,-0.38777,-0.12531,0.34466,-0.00362,0.0024,-0.0024,-0.0073,-0.1245,0.0073,-0.0220,0.0073,0.8000,-9.4974,10.8376,1.8437,-0.1734,-0.0024,-0.0317,1,1,1,1,1,1,1
2.8823,approach,4,to_lo,0.05970,1.31590,1.21061,-0.38777,-0.12531,0.34466,-0.00362,0.0024,-0.0024,-0.0073,-0.1245,0.0073,-0.0220,0.0073,0.8000,-9.4974,10.8376,1.8437,-0.1734,-0.0024,-0.0317,1,1,1,1,1,1,1
2.9223,approach,4,to_lo,0.05970,1.31590,1.21061,-0.38777,-0.12531,0.34466,-0.00362,0.0024,-0.0024,-0.0073,-0.1245,0.0073,-0.0220,0.0073,0.8000,-9.4974,10.8376,1.8437,-0.1734,-0.0024,-0.0317,1,1,1,1,1,1,1
2.9623,approach,4,to_lo,0.05970,1.31590,1.21061,-0.41257,-0.12531,0.34466,-0.00362,0.0024,-0.0024,-0.0024,-0.1685,-0.0220,-0.0073,-0.0073,0.8000,-9.4017,10.8650,1.9170,-0.1734,0.0024,-0.0317,1,1,1,1,1,1,1
3.0024,approach,4,to_lo,0.05970,1.31590,1.21061,-0.41257,-0.12531,0.34466,-0.00362,0.0024,-0.0024,-0.0024,-0.1685,-0.0220,-0.0073,-0.0073,0.8000,-9.4017,10.8650,1.9170,-0.1734,0.0024,-0.0317,1,1,1,1,1,1,1
3.0424,approach,4,to_lo,0.05970,1.31590,1.21061,-0.42630,-0.12531,0.34505,-0.00362,-0.0024,-0.0024,-0.0024,-0.2125,-0.0073,0.0073,0.0073,0.8137,-9.4017,10.8239,1.7314,-0.1734,-0.0024,-0.0317,1,1,1,1,1,1,1
3.0825,approach,4,to_lo,0.05970,1.31590,1.21061,-0.42630,-0.12531,0.34505,-0.00362,-0.0024,-0.0024,-0.0024,-0.2125,-0.0073,0.0073,0.0073,0.8137,-9.4017,10.8239,1.7314,-0.1734,-0.0024,-0.0317,1,1,1,1,1,1,1
3.1224,approach,4,to_lo,0.05970,1.31590,1.21061,-0.42630,-0.12531,0.34505,-0.00362,-0.0024,-0.0024,-0.0024,-0.2125,-0.0073,0.0073,0.0073,0.8137,-9.4017,10.8239,1.7314,-0.1734,-0.0024,-0.0317,1,1,1,1,1,1,1
3.1626,approach,4,to_lo,0.05970,1.31590,1.21061,-0.44919,-0.12531,0.34505,-0.00362,-0.0024,-0.0073,-0.0073,-0.2125,0.0073,-0.0073,-0.0073,0.8137,-9.4291,10.8923,1.6190,-0.1734,-0.0024,-0.0317,1,1,1,1,1,1,1
3.2023,approach,4,to_lo,0.05970,1.31590,1.21061,-0.44919,-0.12531,0.34505,-0.00362,-0.0024,-0.0073,-0.0073,-0.2125,0.0073,-0.0073,-0.0073,0.8137,-9.4291,10.8923,1.6190,-0.1734,-0.0024,-0.0317,1,1,1,1,1,1,1
3.2423,approach,4,to_lo,0.05970,1.31590,1.21061,-0.46712,-0.12493,0.34466,-0.00401,-0.0024,-0.0073,-0.0024,-0.1978,-0.0073,-0.0073,-0.0073,0.8410,-9.4154,10.8650,1.8046,-0.1783,-0.0073,-0.0366,1,1,1,1,1,1,1
3.2826,approach,4,to_lo,0.05970,1.31590,1.21061,-0.46712,-0.12493,0.34466,-0.00401,-0.0024,-0.0073,-0.0024,-0.1978,-0.0073,-0.0073,-0.0073,0.8410,-9.4154,10.8650,1.8046,-0.1783,-0.0073,-0.0366,1,1,1,1,1,1,1
3.3223,approach,4,to_lo,0.05970,1.31590,1.21061,-0.46712,-0.12493,0.34466,-0.00401,-0.0024,-0.0073,-0.0024,-0.1978,-0.0073,-0.0073,-0.0073,0.8410,-9.4154,10.8650,1.8046,-0.1783,-0.0073,-0.0366,1,1,1,1,1,1,1
3.3627,approach,4,to_lo,0.05970,1.31590,1.21061,-0.49077,-0.12531,0.34505,-0.00362,-0.0073,-0.0024,-0.0024,-0.1685,0.0073,-0.0073,-0.0073,0.8684,-9.4427,10.8923,1.7607,-0.1685,-0.0073,-0.0366,1,1,1,1,1,1,1
3.4023,approach,4,to_lo,0.05970,1.31590,1.21061,-0.49077,-0.12531,0.34505,-0.00362,-0.0073,-0.0024,-0.0024,-0.1685,0.0073,-0.0073,-0.0073,0.8684,-9.4427,10.8923,1.7607,-0.1685,-0.0073,-0.0366,1,1,1,1,1,1,1
3.4426,approach,4,to_lo,0.05970,1.31590,1.21099,-0.50526,-0.12531,0.34505,-0.00362,-0.0024,-0.0073,-0.0024,-0.2564,-0.0073,-0.0073,-0.0073,0.8684,-9.4017,10.8239,1.6630,-0.1636,-0.0073,-0.0317,1,1,1,1,1,1,1
3.4825,approach,4,to_lo,0.05970,1.31590,1.21099,-0.50526,-0.12531,0.34505,-0.00362,-0.0024,-0.0073,-0.0024,-0.2564,-0.0073,-0.0073,-0.0073,0.8684,-9.4017,10.8239,1.6630,-0.1636,-0.0073,-0.0317,1,1,1,1,1,1,1
3.5223,approach,4,to_lo,0.05970,1.31590,1.21099,-0.50526,-0.12531,0.34505,-0.00362,-0.0024,-0.0073,-0.0024,-0.2564,-0.0073,-0.0073,-0.0073,0.8684,-9.4017,10.8239,1.6630,-0.1636,-0.0073,-0.0317,1,1,1,1,1,1,1
3.5625,approach,4,to_lo,0.05970,1.31590,1.21099,-0.52815,-0.12493,0.34466,-0.00362,-0.0024,-0.0073,0.0024,-0.2125,0.0073,0.0073,0.0073,0.9504,-9.3880,10.7419,1.5702,-0.1636,-0.0024,-0.0366,1,1,1,1,1,1,1
3.6022,approach,4,to_lo,0.05970,1.31590,1.21099,-0.52815,-0.12493,0.34466,-0.00362,-0.0024,-0.0073,0.0024,-0.2125,0.0073,0.0073,0.0073,0.9504,-9.3880,10.7419,1.5702,-0.1636,-0.0024,-0.0366,1,1,1,1,1,1,1
3.6423,approach,4,to_lo,0.05970,1.31590,1.21099,-0.54494,-0.12493,0.34466,-0.00401,-0.0024,-0.0024,-0.0024,-0.1538,-0.0073,-0.0073,-0.0073,0.9368,-9.3333,10.7419,1.6190,-0.1685,-0.0024,-0.0317,1,1,1,1,1,1,1
3.6825,approach,4,to_lo,0.05970,1.31590,1.21099,-0.54494,-0.12493,0.34466,-0.00401,-0.0024,-0.0024,-0.0024,-0.1538,-0.0073,-0.0073,-0.0073,0.9368,-9.3333,10.7419,1.6190,-0.1685,-0.0024,-0.0317,1,1,1,1,1,1,1
3.7223,approach,4,to_lo,0.05970,1.31590,1.21099,-0.54494,-0.12493,0.34466,-0.00401,-0.0024,-0.0024,-0.0024,-0.1538,-0.0073,-0.0073,-0.0073,0.9368,-9.3333,10.7419,1.6190,-0.1685,-0.0024,-0.0317,1,1,1,1,1,1,1
3.7626,approach,4,to_lo,0.05970,1.31590,1.21099,-0.56821,-0.12531,0.34505,-0.00362,-0.0073,-0.0024,-0.0024,-0.1099,-0.0073,-0.0073,-0.0073,0.9368,-9.3060,10.7556,1.5507,-0.1685,-0.0024,-0.0366,1,1,1,1,1,1,1
3.8025,approach,4,to_lo,0.05970,1.31590,1.21099,-0.56821,-0.12531,0.34505,-0.00362,-0.0073,-0.0024,-0.0024,-0.1099,-0.0073,-0.0073,-0.0073,0.9368,-9.3060,10.7556,1.5507,-0.1685,-0.0024,-0.0366,1,1,1,1,1,1,1
3.8424,approach,4,to_lo,0.05970,1.31590,1.21099,-0.58423,-0.12493,0.34505,-0.00362,-0.0024,-0.0024,-0.0024,-0.2711,-0.0073,-0.0073,0.0073,0.9504,-9.2923,10.7009,1.5409,-0.1636,-0.0024,-0.0366,1,1,1,1,1,1,1
3.8825,approach,4,to_lo,0.05970,1.31590,1.21099,-0.58423,-0.12493,0.34505,-0.00362,-0.0024,-0.0024,-0.0024,-0.2711,-0.0073,-0.0073,0.0073,0.9504,-9.2923,10.7009,1.5409,-0.1636,-0.0024,-0.0366,1,1,1,1,1,1,1
3.9224,approach,4,to_lo,0.05970,1.31590,1.21099,-0.58423,-0.12493,0.34505,-0.00362,-0.0024,-0.0024,-0.0024,-0.2711,-0.0073,-0.0073,0.0073,0.9504,-9.2923,10.7009,1.5409,-0.1636,-0.0024,-0.0366,1,1,1,1,1,1,1
3.9625,approach,4,to_lo,0.05970,1.31590,1.21099,-0.60636,-0.12493,0.34505,-0.00362,-0.0024,-0.0024,-0.0024,-0.2564,-0.0073,0.0073,-0.0073,0.9778,-9.1829,10.7009,1.4090,-0.1636,0.0024,-0.0415,1,1,1,1,1,1,1
4.0025,approach,4,to_lo,0.05970,1.31590,1.21099,-0.60636,-0.12493,0.34505,-0.00362,-0.0024,-0.0024,-0.0024,-0.2564,-0.0073,0.0073,-0.0073,0.9778,-9.1829,10.7009,1.4090,-0.1636,0.0024,-0.0415,1,1,1,1,1,1,1
4.0423,approach,4,to_lo,0.05970,1.31590,1.21099,-0.62390,-0.12493,0.34466,-0.00401,-0.0024,0.0024,-0.0024,-0.1831,-0.0073,-0.0073,-0.0073,0.9504,-9.1282,10.7009,1.5409,-0.1587,-0.0073,-0.0415,1,1,1,1,1,1,1
4.0824,approach,4,to_lo,0.05970,1.31590,1.21099,-0.62390,-0.12493,0.34466,-0.00401,-0.0024,0.0024,-0.0024,-0.1831,-0.0073,-0.0073,-0.0073,0.9504,-9.1282,10.7009,1.5409,-0.1587,-0.0073,-0.0415,1,1,1,1,1,1,1
4.1223,approach,4,to_lo,0.05970,1.31590,1.21099,-0.62390,-0.12493,0.34466,-0.00401,-0.0024,0.0024,-0.0024,-0.1831,-0.0073,-0.0073,-0.0073,0.9504,-9.1282,10.7009,1.5409,-0.1587,-0.0073,-0.0415,1,1,1,1,1,1,1
4.1623,approach,4,to_lo,0.05970,1.31590,1.21099,-0.64832,-0.12531,0.34466,-0.00362,-0.0024,-0.0024,-0.0024,-0.1978,-0.0073,-0.0073,-0.0073,0.9368,-9.0598,10.6735,1.5849,-0.1587,-0.0024,-0.0415,1,1,1,1,1,1,1
4.2025,approach,4,to_lo,0.05970,1.31590,1.21099,-0.64832,-0.12531,0.34466,-0.00362,-0.0024,-0.0024,-0.0024,-0.1978,-0.0073,-0.0073,-0.0073,0.9368,-9.0598,10.6735,1.5849,-0.1587,-0.0024,-0.0415,1,1,1,1,1,1,1
4.2423,approach,4,to_lo,0.05970,1.31590,1.21099,-0.66167,-0.12493,0.34466,-0.00362,-0.0073,-0.0024,-0.0024,-0.2711,-0.0073,-0.0073,-0.0073,0.9504,-9.0598,10.6598,1.3602,-0.1587,-0.0024,-0.0415,1,1,1,1,1,1,1
4.2824,approach,4,to_lo,0.05970,1.31590,1.21099,-0.66167,-0.12493,0.34466,-0.00362,-0.0073,-0.0024,-0.0024,-0.2711,-0.0073,-0.0073,-0.0073,0.9504,-9.0598,10.6598,1.3602,-0.1587,-0.0024,-0.0415,1,1,1,1,1,1,1
4.3227,approach,4,to_lo,0.05970,1.31590,1.21099,-0.66167,-0.12493,0.34466,-0.00362,-0.0073,-0.0024,-0.0024,-0.2711,-0.0073,-0.0073,-0.0073,0.9504,-9.0598,10.6598,1.3602,-0.1587,-0.0024,-0.0415,1,1,1,1,1,1,1
4.3624,approach,4,to_lo,0.05970,1.31590,1.21099,-0.68418,-0.12493,0.34505,-0.00362,-0.0024,-0.0024,-0.0024,-0.1685,-0.0220,0.0073,-0.0073,0.9641,-9.0462,10.5915,1.2576,-0.1538,-0.0024,-0.0415,1,1,1,1,1,1,1
4.4025,approach,4,to_lo,0.05970,1.31590,1.21099,-0.68418,-0.12493,0.34505,-0.00362,-0.0024,-0.0024,-0.0024,-0.1685,-0.0220,0.0073,-0.0073,0.9641,-9.0462,10.5915,1.2576,-0.1538,-0.0024,-0.0415,1,1,1,1,1,1,1
4.4425,approach,4,to_lo,0.05970,1.31590,1.21099,-0.70287,-0.12493,0.34466,-0.00362,-0.0073,-0.0024,-0.0024,-0.1831,-0.0220,-0.0220,-0.0073,0.9368,-9.0598,10.5641,1.4286,-0.1538,-0.0024,-0.0415,1,1,1,1,1,1,1
4.4825,approach,4,to_lo,0.05970,1.31590,1.21099,-0.70287,-0.12493,0.34466,-0.00362,-0.0073,-0.0024,-0.0024,-0.1831,-0.0220,-0.0220,-0.0073,0.9368,-9.0598,10.5641,1.4286,-0.1538,-0.0024,-0.0415,1,1,1,1,1,1,1
4.5225,approach,4,to_lo,0.05970,1.31590,1.21099,-0.70287,-0.12493,0.34466,-0.00362,-0.0073,-0.0024,-0.0024,-0.1831,-0.0220,-0.0220,-0.0073,0.9368,-9.0598,10.5641,1.4286,-0.1538,-0.0024,-0.0415,1,1,1,1,1,1,1
4.5625,approach,4,to_lo,0.05970,1.31590,1.21099,-0.72614,-0.12493,0.34466,-0.00362,-0.0024,-0.0024,-0.0073,-0.1831,-0.0073,-0.0220,0.0073,0.9915,-9.0188,10.5368,1.3993,-0.1538,-0.0024,-0.0415,1,1,1,1,1,1,1
4.6025,approach,4,to_lo,0.05970,1.31590,1.21099,-0.72614,-0.12493,0.34466,-0.00362,-0.0024,-0.0024,-0.0073,-0.1831,-0.0073,-0.0220,0.0073,0.9915,-9.0188,10.5368,1.3993,-0.1538,-0.0024,-0.0415,1,1,1,1,1,1,1
4.6424,approach,4,to_lo,0.05970,1.31590,1.21099,-0.73987,-0.12493,0.34466,-0.00401,-0.0024,-0.0024,-0.0073,-0.2125,-0.0073,-0.0073,-0.0073,1.0051,-8.9778,10.5231,1.2283,-0.1538,0.0024,-0.0415,1,1,1,1,1,1,1
4.6824,approach,4,to_lo,0.05970,1.31590,1.21099,-0.73987,-0.12493,0.34466,-0.00401,-0.0024,-0.0024,-0.0073,-0.2125,-0.0073,-0.0073,-0.0073,1.0051,-8.9778,10.5231,1.2283,-0.1538,0.0024,-0.0415,1,1,1,1,1,1,1
4.7226,approach,4,to_lo,0.05970,1.31590,1.21099,-0.73987,-0.12493,0.34466,-0.00401,-0.0024,-0.0024,-0.0073,-0.2125,-0.0073,-0.0073,-0.0073,1.0051,-8.9778,10.5231,1.2283,-0.1538,0.0024,-0.0415,1,1,1,1,1,1,1
4.7624,approach,4,to_lo,0.05970,1.31590,1.21099,-0.76352,-0.12531,0.34505,-0.00362,-0.0024,-0.0024,-0.0024,-0.1978,-0.0220,-0.0073,-0.0073,1.0051,-8.9368,10.4684,1.2039,-0.1538,-0.0024,-0.0415,1,1,1,1,1,1,1
4.8026,approach,4,to_lo,0.05970,1.31590,1.21099,-0.76352,-0.12531,0.34505,-0.00362,-0.0024,-0.0024,-0.0024,-0.1978,-0.0220,-0.0073,-0.0073,1.0051,-8.9368,10.4684,1.2039,-0.1538,-0.0024,-0.0415,1,1,1,1,1,1,1
4.8424,approach,4,to_lo,0.05970,1.31590,1.21099,-0.78069,-0.12493,0.34505,-0.00362,0.0024,-0.0073,-0.0024,-0.1978,-0.0073,0.0073,-0.0073,1.0051,-8.9231,10.4821,1.2869,-0.1587,0.0073,-0.0415,1,1,1,1,1,1,1
4.8823,approach,4,to_lo,0.05970,1.31590,1.21099,-0.78069,-0.12493,0.34505,-0.00362,0.0024,-0.0073,-0.0024,-0.1978,-0.0073,0.0073,-0.0073,1.0051,-8.9231,10.4821,1.2869,-0.1587,0.0073,-0.0415,1,1,1,1,1,1,1
4.9226,approach,4,to_lo,0.05970,1.31590,1.21099,-0.78069,-0.12493,0.34505,-0.00362,0.0024,-0.0073,-0.0024,-0.1978,-0.0073,0.0073,-0.0073,1.0051,-8.9231,10.4821,1.2869,-0.1587,0.0073,-0.0415,1,1,1,1,1,1,1
4.9623,approach,4,to_lo,0.05970,1.31590,1.21099,-0.80396,-0.12493,0.34466,-0.00401,-0.0024,-0.0024,-0.0024,-0.1978,-0.0073,-0.0073,-0.0073,1.0462,-8.8684,10.4410,1.2527,-0.1538,0.0024,-0.0415,1,1,1,1,1,1,1
5.0024,approach,4,to_lo,0.05970,1.31590,1.21099,-0.80396,-0.12493,0.34466,-0.00401,-0.0024,-0.0024,-0.0024,-0.1978,-0.0073,-0.0073,-0.0073,1.0462,-8.8684,10.4410,1.2527,-0.1538,0.0024,-0.0415,1,1,1,1,1,1,1
5.0422,approach,4,to_lo,0.05970,1.31590,1.21099,-0.81807,-0.12493,0.34466,-0.00362,0.0024,-0.0024,-0.0024,-0.2711,-0.0073,-0.0073,-0.0073,1.0325,-8.7726,10.4000,1.0867,-0.1441,0.0024,-0.0415,1,1,1,1,1,1,1
5.0825,approach,4,to_lo,0.05970,1.31590,1.21099,-0.81807,-0.12493,0.34466,-0.00362,0.0024,-0.0024,-0.0024,-0.2711,-0.0073,-0.0073,-0.0073,1.0325,-8.7726,10.4000,1.0867,-0.1441,0.0024,-0.0415,1,1,1,1,1,1,1
5.1225,approach,4,to_lo,0.05970,1.31590,1.21099,-0.81807,-0.12493,0.34466,-0.00362,0.0024,-0.0024,-0.0024,-0.2711,-0.0073,-0.0073,-0.0073,1.0325,-8.7726,10.4000,1.0867,-0.1441,0.0024,-0.0415,1,1,1,1,1,1,1
5.1624,approach,4,to_lo,0.05970,1.31590,1.21099,-0.84134,-0.12493,0.34466,-0.00362,0.0024,-0.0024,-0.0024,-0.1831,-0.0073,-0.0220,-0.0073,1.0872,-8.7453,10.2906,1.0330,-0.1490,0.0024,-0.0366,1,1,1,1,1,1,1
5.2024,approach,4,to_lo,0.05970,1.31590,1.21099,-0.84134,-0.12493,0.34466,-0.00362,0.0024,-0.0024,-0.0024,-0.1831,-0.0073,-0.0220,-0.0073,1.0872,-8.7453,10.2906,1.0330,-0.1490,0.0024,-0.0366,1,1,1,1,1,1,1
5.2424,approach,4,to_lo,0.05970,1.31590,1.21099,-0.85851,-0.12493,0.34466,-0.00362,-0.0024,-0.0024,-0.0024,-0.1831,-0.0073,-0.0073,0.0073,1.0872,-8.6769,10.2632,1.1209,-0.1538,0.0024,-0.0415,1,1,1,1,1,1,1
5.2824,approach,4,to_lo,0.05970,1.31590,1.21099,-0.85851,-0.12493,0.34466,-0.00362,-0.0024,-0.0024,-0.0024,-0.1831,-0.0073,-0.0073,0.0073,1.0872,-8.6769,10.2632,1.1209,-0.1538,0.0024,-0.0415,1,1,1,1,1,1,1
5.3224,approach,4,to_lo,0.05970,1.31590,1.21099,-0.85851,-0.12493,0.34466,-0.00362,-0.0024,-0.0024,-0.0024,-0.1831,-0.0073,-0.0073,0.0073,1.0872,-8.6769,10.2632,1.1209,-0.1538,0.0024,-0.0415,1,1,1,1,1,1,1
5.3622,approach,4,to_lo,0.05970,1.31590,1.21099,-0.88293,-0.12493,0.34466,-0.00401,-0.0073,0.0024,-0.0024,-0.2271,-0.0073,-0.0073,-0.0073,1.0872,-8.6359,10.2496,1.1600,-0.1587,0.0073,-0.0415,1,1,1,1,1,1,1
5.4023,approach,4,to_lo,0.05970,1.31590,1.21099,-0.88293,-0.12493,0.34466,-0.00401,-0.0073,0.0024,-0.0024,-0.2271,-0.0073,-0.0073,-0.0073,1.0872,-8.6359,10.2496,1.1600,-0.1587,0.0073,-0.0415,1,1,1,1,1,1,1
5.4423,approach,4,to_lo,0.05970,1.31590,1.21099,-0.89551,-0.12531,0.34466,-0.00362,0.0024,0.0024,-0.0024,-0.2271,-0.0220,-0.0073,-0.0073,1.0872,-8.6085,10.2085,0.9109,-0.1636,0.0073,-0.0415,1,1,1,1,1,1,1
5.4824,approach,4,to_lo,0.05970,1.31590,1.21099,-0.89551,-0.12531,0.34466,-0.00362,0.0024,0.0024,-0.0024,-0.2271,-0.0220,-0.0073,-0.0073,1.0872,-8.6085,10.2085,0.9109,-0.1636,0.0073,-0.0415,1,1,1,1,1,1,1
5.5224,approach,4,to_lo,0.05970,1.31590,1.21099,-0.89551,-0.12531,0.34466,-0.00362,0.0024,0.0024,-0.0024,-0.2271,-0.0220,-0.0073,-0.0073,1.0872,-8.6085,10.2085,0.9109,-0.1636,0.0073,-0.0415,1,1,1,1,1,1,1
5.5624,approach,4,to_lo,0.05970,1.31590,1.21099,-0.91840,-0.12493,0.34466,-0.00362,-0.0024,-0.0024,0.0024,-0.1831,-0.0073,-0.0220,0.0073,1.0872,-8.4991,10.2222,0.8181,-0.1734,0.0024,-0.0415,1,1,1,1,1,1,1
5.6021,approach,4,to_lo,0.05970,1.31590,1.21099,-0.91840,-0.12493,0.34466,-0.00362,-0.0024,-0.0024,0.0024,-0.1831,-0.0073,-0.0220,0.0073,1.0872,-8.4991,10.2222,0.8181,-0.1734,0.0024,-0.0415,1,1,1,1,1,1,1
5.6424,approach,4,to_lo,0.05970,1.31590,1.21099,-0.93709,-0.12531,0.34505,-0.00362,-0.0024,-0.0024,-0.0073,-0.1831,-0.0220,0.0073,-0.0073,1.0325,-8.4718,10.2359,0.9988,-0.1832,-0.0024,-0.0415,1,1,1,1,1,1,1
5.6825,approach,4,to_lo,0.05970,1.31590,1.21099,-0.93709,-0.12531,0.34505,-0.00362,-0.0024,-0.0024,-0.0073,-0.1831,-0.0220,0.0073,-0.0073,1.0325,-8.4718,10.2359,0.9988,-0.1832,-0.0024,-0.0415,1,1,1,1,1,1,1
5.7225,approach,4,to_lo,0.05970,1.31590,1.21099,-0.93709,-0.12531,0.34505,-0.00362,-0.0024,-0.0024,-0.0073,-0.1831,-0.0220,0.0073,-0.0073,1.0325,-8.4718,10.2359,0.9988,-0.1832,-0.0024,-0.0415,1,1,1,1,1,1,1
5.7624,approach,4,to_lo,0.05970,1.31590,1.21099,-0.96075,-0.12493,0.34466,-0.00401,0.0024,-0.0024,-0.0024,-0.2271,-0.0073,-0.0073,-0.0220,1.0598,-8.3897,10.2496,0.9695,-0.1734,0.0024,-0.0366,1,1,1,1,1,1,1
5.8027,approach,4,to_lo,0.05970,1.31590,1.21099,-0.96075,-0.12493,0.34466,-0.00401,0.0024,-0.0024,-0.0024,-0.2271,-0.0073,-0.0073,-0.0220,1.0598,-8.3897,10.2496,0.9695,-0.1734,0.0024,-0.0366,1,1,1,1,1,1,1
5.8424,approach,4,to_lo,0.05970,1.31590,1.21099,-0.97334,-0.12493,0.34466,-0.00401,-0.0024,-0.0024,-0.0024,-0.2125,-0.0073,-0.0073,0.0073,1.0872,-8.3624,10.2359,0.7155,-0.1734,0.0024,-0.0415,1,1,1,1,1,1,1
5.8823,approach,4,to_lo,0.05970,1.31590,1.21099,-0.97334,-0.12493,0.34466,-0.00401,-0.0024,-0.0024,-0.0024,-0.2125,-0.0073,-0.0073,0.0073,1.0872,-8.3624,10.2359,0.7155,-0.1734,0.0024,-0.0415,1,1,1,1,1,1,1
5.9225,approach,4,to_lo,0.05970,1.31590,1.21099,-0.97334,-0.12493,0.34466,-0.00401,-0.0024,-0.0024,-0.0024,-0.2125,-0.0073,-0.0073,0.0073,1.0872,-8.3624,10.2359,0.7155,-0.1734,0.0024,-0.0415,1,1,1,1,1,1,1
5.9625,approach,4,to_lo,0.05970,1.31590,1.21099,-0.99737,-0.12531,0.34466,-0.00362,-0.0024,-0.0024,-0.0024,-0.1978,-0.0220,-0.0073,-0.0366,1.0872,-8.3761,10.1265,0.7350,-0.1685,0.0073,-0.0415,1,1,1,1,1,1,1
6.0023,approach,4,to_lo,0.05970,1.31590,1.21099,-0.99737,-0.12531,0.34466,-0.00362,-0.0024,-0.0024,-0.0024,-0.1978,-0.0220,-0.0073,-0.0366,1.0872,-8.3761,10.1265,0.7350,-0.1685,0.0073,-0.0415,1,1,1,1,1,1,1
6.0424,approach,4,to_lo,0.05970,1.31590,1.21099,-1.01453,-0.12493,0.34466,-0.00401,0.0024,0.0024,-0.0024,-0.1538,-0.0073,-0.0220,-0.0220,1.1009,-8.2940,10.0991,0.8376,-0.1685,0.0073,-0.0415,1,1,1,1,1,1,1
6.0824,approach,4,to_lo,0.05970,1.31590,1.21099,-1.01453,-0.12493,0.34466,-0.00401,0.0024,0.0024,-0.0024,-0.1538,-0.0073,-0.0220,-0.0220,1.1009,-8.2940,10.0991,0.8376,-0.1685,0.0073,-0.0415,1,1,1,1,1,1,1
6.1223,approach,4,to_lo,0.05970,1.31590,1.21099,-1.01453,-0.12493,0.34466,-0.00401,0.0024,0.0024,-0.0024,-0.1538,-0.0073,-0.0220,-0.0220,1.1009,-8.2940,10.0991,0.8376,-0.1685,0.0073,-0.0415,1,1,1,1,1,1,1
6.1623,approach,4,to_lo,0.05970,1.31590,1.21099,-1.02903,-0.12531,0.34466,-0.00401,-0.0024,-0.0024,-0.0024,-0.2271,-0.0220,0.0073,-0.0073,1.1145,-8.3077,10.0718,0.7253,-0.1734,0.0073,-0.0464,1,1,1,1,1,1,1
6.2025,approach,4,to_lo,0.05970,1.31590,1.21099,-1.02903,-0.12531,0.34466,-0.00401,-0.0024,-0.0024,-0.0024,-0.2271,-0.0220,0.0073,-0.0073,1.1145,-8.3077,10.0718,0.7253,-0.1734,0.0073,-0.0464,1,1,1,1,1,1,1
6.2423,approach,4,to_lo,0.05970,1.31590,1.21099,-1.05192,-0.12493,0.34466,-0.00362,-0.0024,-0.0024,0.0024,-0.2125,-0.0073,-0.0073,-0.0220,1.1009,-8.2667,10.0718,0.6422,-0.1685,0.0073,-0.0464,1,1,1,1,1,1,1
6.2826,approach,4,to_lo,0.05970,1.31590,1.21099,-1.05192,-0.12493,0.34466,-0.00362,-0.0024,-0.0024,0.0024,-0.2125,-0.0073,-0.0073,-0.0220,1.1009,-8.2667,10.0718,0.6422,-0.1685,0.0073,-0.0464,1,1,1,1,1,1,1
6.3226,approach,4,to_lo,0.05970,1.31590,1.21099,-1.05192,-0.12493,0.34466,-0.00362,-0.0024,-0.0024,0.0024,-0.2125,-0.0073,-0.0073,-0.0220,1.1009,-8.2667,10.0718,0.6422,-0.1685,0.0073,-0.0464,1,1,1,1,1,1,1
6.3625,approach,4,to_lo,0.05970,1.31590,1.21099,-1.07481,-0.12493,0.34505,-0.00362,-0.0024,-0.0024,-0.0073,-0.1685,0.0073,-0.0073,-0.0073,1.1009,-8.1573,10.0308,0.5495,-0.1636,0.0122,-0.0464,1,1,1,1,1,1,1
6.4022,approach,4,to_lo,0.05970,1.31590,1.21099,-1.07481,-0.12493,0.34505,-0.00362,-0.0024,-0.0024,-0.0073,-0.1685,0.0073,-0.0073,-0.0073,1.1009,-8.1573,10.0308,0.5495,-0.1636,0.0122,-0.0464,1,1,1,1,1,1,1
6.4424,approach,4,to_lo,0.05970,1.31590,1.21099,-1.09274,-0.12531,0.34466,-0.00401,0.0024,-0.0024,0.0024,-0.1685,-0.0220,-0.0073,-0.0073,1.1009,-8.1573,9.9897,0.6813,-0.1685,0.0073,-0.0464,1,1,1,1,1,1,1
6.4824,approach,4,to_lo,0.05970,1.31590,1.21099,-1.09274,-0.12531,0.34466,-0.00401,0.0024,-0.0024,0.0024,-0.1685,-0.0220,-0.0073,-0.0073,1.1009,-8.1573,9.9897,0.6813,-0.1685,0.0073,-0.0464,1,1,1,1,1,1,1
6.5225,approach,4,to_lo,0.05970,1.31590,1.21099,-1.09274,-0.12531,0.34466,-0.00401,0.0024,-0.0024,0.0024,-0.1685,-0.0220,-0.0073,-0.0073,1.1009,-8.1573,9.9897,0.6813,-0.1685,0.0073,-0.0464,1,1,1,1,1,1,1
6.5622,approach,4,to_lo,0.05970,1.31590,1.21099,-1.11677,-0.12493,0.34466,-0.00401,-0.0024,-0.0024,-0.0024,-0.2271,0.0073,-0.0220,-0.0220,1.1282,-8.1162,9.9214,0.6764,-0.1783,0.0073,-0.0513,1,1,1,1,1,1,1
6.6023,approach,4,to_lo,0.05970,1.31590,1.21099,-1.11677,-0.12493,0.34466,-0.00401,-0.0024,-0.0024,-0.0024,-0.2271,0.0073,-0.0220,-0.0220,1.1282,-8.1162,9.9214,0.6764,-0.1783,0.0073,-0.0513,1,1,1,1,1,1,1
6.6424,approach,4,to_lo,0.05970,1.31590,1.21099,-1.12898,-0.12493,0.34466,-0.00362,0.0024,-0.0024,-0.0073,-0.2418,-0.0073,0.0073,-0.0073,1.0872,-8.0342,9.8393,0.3932,-0.1783,0.0073,-0.0464,1,1,1,1,1,1,1
6.6823,approach,4,to_lo,0.05970,1.31590,1.21099,-1.12898,-0.12493,0.34466,-0.00362,0.0024,-0.0024,-0.0073,-0.2418,-0.0073,0.0073,-0.0073,1.0872,-8.0342,9.8393,0.3932,-0.1783,0.0073,-0.0464,1,1,1,1,1,1,1
6.7223,approach,4,to_lo,0.05970,1.31590,1.21099,-1.12898,-0.12493,0.34466,-0.00362,0.0024,-0.0024,-0.0073,-0.2418,-0.0073,0.0073,-0.0073,1.0872,-8.0342,9.8393,0.3932,-0.1783,0.0073,-0.0464,1,1,1,1,1,1,1
6.7623,approach,4,to_lo,0.05970,1.31590,1.21099,-1.15263,-0.12531,0.34466,-0.00362,-0.0024,-0.0024,-0.0024,-0.1685,-0.0073,-0.0073,0.0073,1.1009,-7.9932,9.7573,0.3053,-0.1880,0.0122,-0.0464,1,1,1,1,1,1,1
6.8023,approach,4,to_lo,0.05970,1.31590,1.21099,-1.15263,-0.12531,0.34466,-0.00362,-0.0024,-0.0024,-0.0024,-0.1685,-0.0073,-0.0073,0.0073,1.1009,-7.9932,9.7573,0.3053,-0.1880,0.0122,-0.0464,1,1,1,1,1,1,1
6.8425,approach,4,to_lo,0.05970,1.31590,1.21099,-1.17094,-0.12531,0.34466,-0.00401,-0.0024,-0.0024,-0.0024,-0.1685,-0.0220,0.0073,-0.0220,1.1009,-7.9521,9.7299,0.5446,-0.1929,0.0122,-0.0464,1,1,1,1,1,1,1
6.8824,approach,4,to_lo,0.05970,1.31590,1.21099,-1.17094,-0.12531,0.34466,-0.00401,-0.0024,-0.0024,-0.0024,-0.1685,-0.0220,0.0073,-0.0220,1.1009,-7.9521,9.7299,0.5446,-0.1929,0.0122,-0.0464,1,1,1,1,1,1,1
6.9222,approach,4,to_lo,0.05970,1.31590,1.21099,-1.17094,-0.12531,0.34466,-0.00401,-0.0024,-0.0024,-0.0024,-0.1685,-0.0220,0.0073,-0.0220,1.1009,-7.9521,9.7299,0.5446,-0.1929,0.0122,-0.0464,1,1,1,1,1,1,1
6.9624,approach,4,to_lo,0.05970,1.31590,1.21099,-1.19421,-0.12493,0.34466,-0.00362,-0.0024,-0.0024,-0.0073,-0.2125,0.0073,0.0073,-0.0073,1.1009,-7.8017,9.7026,0.4811,-0.1978,0.0122,-0.0513,1,1,1,1,1,1,1
7.0023,approach,4,to_lo,0.05970,1.31590,1.21099,-1.19421,-0.12493,0.34466,-0.00362,-0.0024,-0.0024,-0.0073,-0.2125,0.0073,0.0073,-0.0073,1.1009,-7.8017,9.7026,0.4811,-0.1978,0.0122,-0.0513,1,1,1,1,1,1,1
7.0422,approach,4,to_lo,0.06008,1.31590,1.21099,-1.20756,-0.12531,0.34466,-0.00401,0.0024,-0.0024,-0.0024,-0.1978,-0.0073,-0.0073,-0.0073,1.1145,-7.7470,9.6752,0.2808,-0.1880,0.0122,-0.0464,1,1,1,1,1,1,1
7.0823,approach,4,to_lo,0.06008,1.31590,1.21099,-1.20756,-0.12531,0.34466,-0.00401,0.0024,-0.0024,-0.0024,-0.1978,-0.0073,-0.0073,-0.0073,1.1145,-7.7470,9.6752,0.2808,-0.1880,0.0122,-0.0464,1,1,1,1,1,1,1
7.1224,approach,4,to_lo,0.06008,1.31590,1.21099,-1.20756,-0.12531,0.34466,-0.00401,0.0024,-0.0024,-0.0024,-0.1978,-0.0073,-0.0073,-0.0073,1.1145,-7.7470,9.6752,0.2808,-0.1880,0.0122,-0.0464,1,1,1,1,1,1,1
7.1623,approach,4,to_lo,0.06008,1.31590,1.21099,-1.23045,-0.12531,0.34466,-0.00362,-0.0024,-0.0024,-0.0024,-0.1245,-0.0073,-0.0220,-0.0073,1.1145,-7.6786,9.6342,0.2076,-0.2027,0.0171,-0.0464,1,1,1,1,1,1,1
7.2023,approach,4,to_lo,0.06008,1.31590,1.21099,-1.23045,-0.12531,0.34466,-0.00362,-0.0024,-0.0024,-0.0024,-0.1245,-0.0073,-0.0220,-0.0073,1.1145,-7.6786,9.6342,0.2076,-0.2027,0.0171,-0.0464,1,1,1,1,1,1,1
7.2424,approach,4,to_lo,0.05970,1.31590,1.21099,-1.24723,-0.12531,0.34466,-0.00401,-0.0073,-0.0024,-0.0024,-0.2125,-0.0220,-0.0073,-0.0073,1.1145,-7.5966,9.6068,0.3053,-0.2027,0.0122,-0.0464,1,1,1,1,1,1,1
7.2823,approach,4,to_lo,0.05970,1.31590,1.21099,-1.24723,-0.12531,0.34466,-0.00401,-0.0073,-0.0024,-0.0024,-0.2125,-0.0220,-0.0073,-0.0073,1.1145,-7.5966,9.6068,0.3053,-0.2027,0.0122,-0.0464,1,1,1,1,1,1,1
7.3223,approach,4,to_lo,0.05970,1.31590,1.21099,-1.24723,-0.12531,0.34466,-0.00401,-0.0073,-0.0024,-0.0024,-0.2125,-0.0220,-0.0073,-0.0073,1.1145,-7.5966,9.6068,0.3053,-0.2027,0.0122,-0.0464,1,1,1,1,1,1,1
7.3624,approach,4,to_lo,0.05970,1.31590,1.21099,-1.26135,-0.12531,0.34466,-0.00362,-0.0024,-0.0024,-0.0024,-0.1392,-0.0220,0.0073,-0.0073,1.1145,-7.4462,9.5385,0.2857,-0.2076,0.0171,-0.0464,1,1,1,1,1,1,1
7.8647,sweep,4,+up,0.05970,1.31590,1.21099,-1.26554,-0.12531,0.34466,-0.00401,-0.0024,-0.0024,-0.0024,-0.0952,-0.0073,-0.0073,-0.0220,1.1145,-7.4325,9.5111,0.3492,-0.2027,0.0171,-0.0464,1,1,1,1,1,1,1
7.9049,sweep,4,+up,0.05970,1.31590,1.21099,-1.26554,-0.12531,0.34466,-0.00401,-0.0024,-0.0024,-0.0024,-0.0952,-0.0073,-0.0073,-0.0220,1.1145,-7.4325,9.5111,0.3492,-0.2027,0.0171,-0.0464,1,1,1,1,1,1,1
7.9448,sweep,4,+up,0.05970,1.31590,1.21099,-1.27279,-0.12531,0.34466,-0.00401,-0.0024,0.0024,-0.0024,0.0952,-0.0220,-0.0073,-0.0073,1.1009,-7.0496,9.3333,0.5299,-0.2027,0.0220,-0.0464,1,1,1,1,1,1,1
7.9851,sweep,4,+up,0.05970,1.31590,1.21099,-1.27279,-0.12531,0.34466,-0.00401,-0.0024,0.0024,-0.0024,0.0952,-0.0220,-0.0073,-0.0073,1.1009,-7.0496,9.3333,0.5299,-0.2027,0.0220,-0.0464,1,1,1,1,1,1,1
8.0250,sweep,4,+up,0.05970,1.31590,1.21099,-1.27279,-0.12531,0.34466,-0.00401,-0.0024,0.0024,-0.0024,0.0952,-0.0220,-0.0073,-0.0073,1.1009,-7.0496,9.3333,0.5299,-0.2027,0.0220,-0.0464,1,1,1,1,1,1,1
8.0650,sweep,4,+up,0.05970,1.31590,1.21099,-1.24876,-0.12493,0.34505,-0.00362,-0.0024,0.0024,-0.0073,0.2271,0.0073,0.0073,-0.0073,1.1145,-6.9812,9.2650,0.5153,-0.2027,0.0220,-0.0415,1,1,1,1,1,1,1
8.1049,sweep,4,+up,0.05970,1.31590,1.21099,-1.24876,-0.12493,0.34505,-0.00362,-0.0024,0.0024,-0.0073,0.2271,0.0073,0.0073,-0.0073,1.1145,-6.9812,9.2650,0.5153,-0.2027,0.0220,-0.0415,1,1,1,1,1,1,1
8.1449,sweep,4,+up,0.06008,1.31590,1.21099,-1.23388,-0.12531,0.34505,-0.00401,-0.0024,0.0024,-0.0024,0.1831,-0.0073,-0.0073,-0.0073,1.1282,-6.9538,9.2103,0.6129,-0.2076,0.0171,-0.0415,1,1,1,1,1,1,1
8.1849,sweep,4,+up,0.06008,1.31590,1.21099,-1.23388,-0.12531,0.34505,-0.00401,-0.0024,0.0024,-0.0024,0.1831,-0.0073,-0.0073,-0.0073,1.1282,-6.9538,9.2103,0.6129,-0.2076,0.0171,-0.0415,1,1,1,1,1,1,1
8.2249,sweep,4,+up,0.06008,1.31590,1.21099,-1.23388,-0.12531,0.34505,-0.00401,-0.0024,0.0024,-0.0024,0.1831,-0.0073,-0.0073,-0.0073,1.1282,-6.9538,9.2103,0.6129,-0.2076,0.0171,-0.0415,1,1,1,1,1,1,1
8.2649,sweep,4,+up,0.05970,1.31590,1.21099,-1.20985,-0.12531,0.34505,-0.00401,-0.0073,-0.0024,-0.0024,0.1685,-0.0073,-0.0073,-0.0073,1.1145,-6.8855,9.1419,0.6032,-0.2125,0.0171,-0.0464,1,1,1,1,1,1,1
8.3049,sweep,4,+up,0.05970,1.31590,1.21099,-1.20985,-0.12531,0.34505,-0.00401,-0.0073,-0.0024,-0.0024,0.1685,-0.0073,-0.0073,-0.0073,1.1145,-6.8855,9.1419,0.6032,-0.2125,0.0171,-0.0464,1,1,1,1,1,1,1
8.3449,sweep,4,+up,0.06008,1.31552,1.21099,-1.19459,-0.12493,0.34466,-0.00362,0.0024,-0.0073,-0.0024,0.2271,-0.0073,-0.0220,-0.0073,1.1282,-6.8171,9.1282,0.6520,-0.2076,0.0171,-0.0415,1,1,1,1,1,1,1
8.3849,sweep,4,+up,0.06008,1.31552,1.21099,-1.19459,-0.12493,0.34466,-0.00362,0.0024,-0.0073,-0.0024,0.2271,-0.0073,-0.0220,-0.0073,1.1282,-6.8171,9.1282,0.6520,-0.2076,0.0171,-0.0415,1,1,1,1,1,1,1
8.4249,sweep,4,+up,0.06008,1.31552,1.21099,-1.19459,-0.12493,0.34466,-0.00362,0.0024,-0.0073,-0.0024,0.2271,-0.0073,-0.0220,-0.0073,1.1282,-6.8171,9.1282,0.6520,-0.2076,0.0171,-0.0415,1,1,1,1,1,1,1
8.4650,sweep,4,+up,0.05970,1.31552,1.21099,-1.17247,-0.12531,0.34505,-0.00401,-0.0024,-0.0073,-0.0024,0.1978,-0.0073,0.0073,-0.0073,1.1009,-6.7487,9.1419,0.8132,-0.2027,0.0122,-0.0415,1,1,1,1,1,1,1
8.5052,sweep,4,+up,0.05970,1.31552,1.21099,-1.17247,-0.12531,0.34505,-0.00401,-0.0024,-0.0073,-0.0024,0.1978,-0.0073,0.0073,-0.0073,1.1009,-6.7487,9.1419,0.8132,-0.2027,0.0122,-0.0415,1,1,1,1,1,1,1
8.5448,sweep,4,+up,0.06008,1.31590,1.21099,-1.15606,-0.12531,0.34505,-0.00401,-0.0024,-0.0024,-0.0024,0.1392,-0.0073,-0.0073,-0.0220,1.0872,-6.7077,9.1556,0.7790,-0.2076,0.0073,-0.0415,1,1,1,1,1,1,1
8.5847,sweep,4,+up,0.06008,1.31590,1.21099,-1.15606,-0.12531,0.34505,-0.00401,-0.0024,-0.0024,-0.0024,0.1392,-0.0073,-0.0073,-0.0220,1.0872,-6.7077,9.1556,0.7790,-0.2076,0.0073,-0.0415,1,1,1,1,1,1,1
8.6248,sweep,4,+up,0.06008,1.31590,1.21099,-1.15606,-0.12531,0.34505,-0.00401,-0.0024,-0.0024,-0.0024,0.1392,-0.0073,-0.0073,-0.0220,1.0872,-6.7077,9.1556,0.7790,-0.2076,0.0073,-0.0415,1,1,1,1,1,1,1
8.6650,sweep,4,+up,0.06008,1.31590,1.21099,-1.13127,-0.12531,0.34505,-0.00401,0.0024,-0.0024,-0.0073,0.1685,-0.0073,-0.0073,-0.0073,1.1556,-6.5709,9.0872,0.7009,-0.1978,0.0024,-0.0464,1,1,1,1,1,1,1
8.7051,sweep,4,+up,0.06008,1.31590,1.21099,-1.13127,-0.12531,0.34505,-0.00401,0.0024,-0.0024,-0.0073,0.1685,-0.0073,-0.0073,-0.0073,1.1556,-6.5709,9.0872,0.7009,-0.1978,0.0024,-0.0464,1,1,1,1,1,1,1
8.7450,sweep,4,+up,0.06008,1.31590,1.21099,-1.11830,-0.12531,0.34505,-0.00401,-0.0024,-0.0024,-0.0073,0.2711,-0.0073,-0.0073,-0.0073,1.1829,-6.5026,9.0188,0.9646,-0.1978,-0.0024,-0.0464,1,1,1,1,1,1,1
8.7849,sweep,4,+up,0.06008,1.31590,1.21099,-1.11830,-0.12531,0.34505,-0.00401,-0.0024,-0.0024,-0.0073,0.2711,-0.0073,-0.0073,-0.0073,1.1829,-6.5026,9.0188,0.9646,-0.1978,-0.0024,-0.0464,1,1,1,1,1,1,1
8.8251,sweep,4,+up,0.06008,1.31590,1.21099,-1.11830,-0.12531,0.34505,-0.00401,-0.0024,-0.0024,-0.0073,0.2711,-0.0073,-0.0073,-0.0073,1.1829,-6.5026,9.0188,0.9646,-0.1978,-0.0024,-0.0464,1,1,1,1,1,1,1
8.8649,sweep,4,+up,0.05970,1.31590,1.21099,-1.09579,-0.12531,0.34505,-0.00401,-0.0073,-0.0024,-0.0024,0.1978,0.0073,-0.0073,-0.0220,1.1829,-6.4342,8.9231,1.0818,-0.1929,0.0024,-0.0464,1,1,1,1,1,1,1
8.9051,sweep,4,+up,0.05970,1.31590,1.21099,-1.09579,-0.12531,0.34505,-0.00401,-0.0073,-0.0024,-0.0024,0.1978,0.0073,-0.0073,-0.0220,1.1829,-6.4342,8.9231,1.0818,-0.1929,0.0024,-0.0464,1,1,1,1,1,1,1
8.9449,sweep,4,+up,0.06008,1.31590,1.21099,-1.07748,-0.12493,0.34505,-0.00401,-0.0024,-0.0024,0.0024,0.1099,-0.0073,-0.0220,-0.0073,1.2103,-6.3521,8.9094,0.8913,-0.1978,-0.0024,-0.0464,1,1,1,1,1,1,1
8.9849,sweep,4,+up,0.06008,1.31590,1.21099,-1.07748,-0.12493,0.34505,-0.00401,-0.0024,-0.0024,0.0024,0.1099,-0.0073,-0.0220,-0.0073,1.2103,-6.3521,8.9094,0.8913,-0.1978,-0.0024,-0.0464,1,1,1,1,1,1,1
9.0249,sweep,4,+up,0.06008,1.31590,1.21099,-1.07748,-0.12493,0.34505,-0.00401,-0.0024,-0.0024,0.0024,0.1099,-0.0073,-0.0220,-0.0073,1.2103,-6.3521,8.9094,0.8913,-0.1978,-0.0024,-0.0464,1,1,1,1,1,1,1
9.0650,sweep,4,+up,0.06008,1.31590,1.21099,-1.05383,-0.12493,0.34505,-0.00401,-0.0073,-0.0024,-0.0024,0.1978,-0.0073,-0.0073,-0.0073,1.1829,-6.3111,8.8000,0.8962,-0.1978,-0.0024,-0.0464,1,1,1,1,1,1,1
9.1049,sweep,4,+up,0.06008,1.31590,1.21099,-1.05383,-0.12493,0.34505,-0.00401,-0.0073,-0.0024,-0.0024,0.1978,-0.0073,-0.0073,-0.0073,1.1829,-6.3111,8.8000,0.8962,-0.1978,-0.0024,-0.0464,1,1,1,1,1,1,1
9.1449,sweep,4,+up,0.05970,1.31590,1.21099,-1.04086,-0.12531,0.34505,-0.00401,-0.0024,-0.0024,-0.0024,0.2125,-0.0220,-0.0073,-0.0073,1.1829,-6.2564,8.7726,1.1453,-0.1978,-0.0024,-0.0464,1,1,1,1,1,1,1
9.1850,sweep,4,+up,0.05970,1.31590,1.21099,-1.04086,-0.12531,0.34505,-0.00401,-0.0024,-0.0024,-0.0024,0.2125,-0.0220,-0.0073,-0.0073,1.1829,-6.2564,8.7726,1.1453,-0.1978,-0.0024,-0.0464,1,1,1,1,1,1,1
9.2250,sweep,4,+up,0.05970,1.31590,1.21099,-1.04086,-0.12531,0.34505,-0.00401,-0.0024,-0.0024,-0.0024,0.2125,-0.0220,-0.0073,-0.0073,1.1829,-6.2564,8.7726,1.1453,-0.1978,-0.0024,-0.0464,1,1,1,1,1,1,1
9.2649,sweep,4,+up,0.06008,1.31590,1.21099,-1.01797,-0.12493,0.34505,-0.00401,-0.0024,-0.0024,-0.0024,0.1392,0.0073,-0.0073,-0.0220,1.1966,-6.2154,8.7726,1.2137,-0.1978,-0.0073,-0.0464,1,1,1,1,1,1,1
9.3051,sweep,4,+up,0.06008,1.31590,1.21099,-1.01797,-0.12493,0.34505,-0.00401,-0.0024,-0.0024,-0.0024,0.1392,0.0073,-0.0073,-0.0220,1.1966,-6.2154,8.7726,1.2137,-0.1978,-0.0073,-0.0464,1,1,1,1,1,1,1
9.3450,sweep,4,+up,0.06008,1.31590,1.21099,-0.99966,-0.12493,0.34505,-0.00401,-0.0024,-0.0024,-0.0024,0.1685,0.0073,0.0220,-0.0073,1.1966,-6.1607,8.7316,1.0379,-0.2027,-0.0073,-0.0464,1,1,1,1,1,1,1
9.3850,sweep,4,+up,0.06008,1.31590,1.21099,-0.99966,-0.12493,0.34505,-0.00401,-0.0024,-0.0024,-0.0024,0.1685,0.0073,0.0220,-0.0073,1.1966,-6.1607,8.7316,1.0379,-0.2027,-0.0073,-0.0464,1,1,1,1,1,1,1
9.4248,sweep,4,+up,0.06008,1.31590,1.21099,-0.99966,-0.12493,0.34505,-0.00401,-0.0024,-0.0024,-0.0024,0.1685,0.0073,0.0220,-0.0073,1.1966,-6.1607,8.7316,1.0379,-0.2027,-0.0073,-0.0464,1,1,1,1,1,1,1
9.4649,sweep,4,+up,0.05970,1.31590,1.21099,-0.97639,-0.12531,0.34505,-0.00362,-0.0073,-0.0024,-0.0073,0.2418,-0.0220,-0.0220,0.0073,1.1556,-6.1060,8.6496,1.1160,-0.1978,-0.0073,-0.0415,1,1,1,1,1,1,1
9.5047,sweep,4,+up,0.05970,1.31590,1.21099,-0.97639,-0.12531,0.34505,-0.00362,-0.0073,-0.0024,-0.0073,0.2418,-0.0220,-0.0220,0.0073,1.1556,-6.1060,8.6496,1.1160,-0.1978,-0.0073,-0.0415,1,1,1,1,1,1,1
9.5449,sweep,4,+up,0.06008,1.31590,1.21099,-0.96380,-0.12531,0.34505,-0.00362,-0.0024,0.0024,-0.0024,0.2125,-0.0073,-0.0073,-0.0073,1.1556,-6.0513,8.6496,1.3553,-0.2027,-0.0073,-0.0415,1,1,1,1,1,1,1
9.5847,sweep,4,+up,0.06008,1.31590,1.21099,-0.96380,-0.12531,0.34505,-0.00362,-0.0024,0.0024,-0.0024,0.2125,-0.0073,-0.0073,-0.0073,1.1556,-6.0513,8.6496,1.3553,-0.2027,-0.0073,-0.0415,1,1,1,1,1,1,1
9.6248,sweep,4,+up,0.06008,1.31590,1.21099,-0.96380,-0.12531,0.34505,-0.00362,-0.0024,0.0024,-0.0024,0.2125,-0.0073,-0.0073,-0.0073,1.1556,-6.0513,8.6496,1.3553,-0.2027,-0.0073,-0.0415,1,1,1,1,1,1,1
9.6651,sweep,4,+up,0.06008,1.31590,1.21099,-0.94015,-0.12531,0.34505,-0.00362,0.0024,-0.0024,0.0024,0.1685,0.0073,-0.0073,-0.0073,1.1692,-5.9829,8.6496,1.4042,-0.2027,-0.0073,-0.0415,1,1,1,1,1,1,1
9.7050,sweep,4,+up,0.06008,1.31590,1.21099,-0.94015,-0.12531,0.34505,-0.00362,0.0024,-0.0024,0.0024,0.1685,0.0073,-0.0073,-0.0073,1.1692,-5.9829,8.6496,1.4042,-0.2027,-0.0073,-0.0415,1,1,1,1,1,1,1
9.7451,sweep,4,+up,0.06008,1.31590,1.21099,-0.92260,-0.12493,0.34505,-0.00362,-0.0024,-0.0024,-0.0073,0.1978,-0.0073,0.0073,-0.0073,1.1966,-5.8735,8.5949,1.2869,-0.2076,-0.0073,-0.0415,1,1,1,1,1,1,1
9.7850,sweep,4,+up,0.06008,1.31590,1.21099,-0.92260,-0.12493,0.34505,-0.00362,-0.0024,-0.0024,-0.0073,0.1978,-0.0073,0.0073,-0.0073,1.1966,-5.8735,8.5949,1.2869,-0.2076,-0.0073,-0.0415,1,1,1,1,1,1,1
9.8250,sweep,4,+up,0.06008,1.31590,1.21099,-0.92260,-0.12493,0.34505,-0.00362,-0.0024,-0.0024,-0.0073,0.1978,-0.0073,0.0073,-0.0073,1.1966,-5.8735,8.5949,1.2869,-0.2076,-0.0073,-0.0415,1,1,1,1,1,1,1
9.8649,sweep,4,+up,0.06008,1.31590,1.21099,-0.89933,-0.12493,0.34505,-0.00401,-0.0024,-0.0024,-0.0024,0.2271,0.0073,0.0073,-0.0073,1.2239,-5.7915,8.5675,1.3114,-0.2027,-0.0122,-0.0415,1,1,1,1,1,1,1
9.9049,sweep,4,+up,0.06008,1.31590,1.21099,-0.89933,-0.12493,0.34505,-0.00401,-0.0024,-0.0024,-0.0024,0.2271,0.0073,0.0073,-0.0073,1.2239,-5.7915,8.5675,1.3114,-0.2027,-0.0122,-0.0415,1,1,1,1,1,1,1
9.9449,sweep,4,+up,0.06008,1.31590,1.21099,-0.88521,-0.12531,0.34505,-0.00362,-0.0024,-0.0073,-0.0024,0.1978,-0.0073,0.0073,-0.0073,1.2376,-5.7641,8.5538,1.4725,-0.2027,-0.0122,-0.0415,1,1,1,1,1,1,1
9.9850,sweep,4,+up,0.06008,1.31590,1.21099,-0.88521,-0.12531,0.34505,-0.00362,-0.0024,-0.0073,-0.0024,0.1978,-0.0073,0.0073,-0.0073,1.2376,-5.7641,8.5538,1.4725,-0.2027,-0.0122,-0.0415,1,1,1,1,1,1,1
10.0249,sweep,4,+up,0.06008,1.31590,1.21099,-0.88521,-0.12531,0.34505,-0.00362,-0.0024,-0.0073,-0.0024,0.1978,-0.0073,0.0073,-0.0073,1.2376,-5.7641,8.5538,1.4725,-0.2027,-0.0122,-0.0415,1,1,1,1,1,1,1
10.0649,sweep,4,+up,0.06008,1.31590,1.21099,-0.86271,-0.12531,0.34505,-0.00401,-0.0024,0.0024,-0.0024,0.1978,-0.0073,-0.0220,-0.0366,1.2650,-5.7504,8.4718,1.5702,-0.2027,-0.0122,-0.0415,1,1,1,1,1,1,1
10.1051,sweep,4,+up,0.06008,1.31590,1.21099,-0.86271,-0.12531,0.34505,-0.00401,-0.0024,0.0024,-0.0024,0.1978,-0.0073,-0.0220,-0.0366,1.2650,-5.7504,8.4718,1.5702,-0.2027,-0.0122,-0.0415,1,1,1,1,1,1,1
10.1450,sweep,4,+up,0.06008,1.31590,1.21099,-0.84440,-0.12493,0.34505,-0.00401,-0.0024,-0.0024,-0.0024,0.2271,-0.0220,-0.0220,-0.0073,1.2513,-5.6684,8.4444,1.3700,-0.2076,-0.0122,-0.0415,1,1,1,1,1,1,1
10.1849,sweep,4,+up,0.06008,1.31590,1.21099,-0.84440,-0.12493,0.34505,-0.00401,-0.0024,-0.0024,-0.0024,0.2271,-0.0220,-0.0220,-0.0073,1.2513,-5.6684,8.4444,1.3700,-0.2076,-0.0122,-0.0415,1,1,1,1,1,1,1
10.2250,sweep,4,+up,0.06008,1.31590,1.21099,-0.84440,-0.12493,0.34505,-0.00401,-0.0024,-0.0024,-0.0024,0.2271,-0.0220,-0.0220,-0.0073,1.2513,-5.6684,8.4444,1.3700,-0.2076,-0.0122,-0.0415,1,1,1,1,1,1,1
10.2648,sweep,4,+up,0.06008,1.31590,1.21099,-0.82074,-0.12493,0.34505,-0.00401,-0.0073,-0.0024,-0.0024,0.2418,0.0073,0.0073,-0.0073,1.2513,-5.6410,8.3897,1.3944,-0.2125,-0.0171,-0.0415,1,1,1,1,1,1,1
10.3047,sweep,4,+up,0.06008,1.31590,1.21099,-0.82074,-0.12493,0.34505,-0.00401,-0.0073,-0.0024,-0.0024,0.2418,0.0073,0.0073,-0.0073,1.2513,-5.6410,8.3897,1.3944,-0.2125,-0.0171,-0.0415,1,1,1,1,1,1,1
10.3448,sweep,4,+up,0.06008,1.31590,1.21099,-0.80930,-0.12531,0.34505,-0.00401,0.0024,-0.0073,-0.0024,0.1538,-0.0073,-0.0073,-0.0220,1.2239,-5.6137,8.4444,1.7411,-0.2125,-0.0171,-0.0415,1,1,1,1,1,1,1
10.3848,sweep,4,+up,0.06008,1.31590,1.21099,-0.80930,-0.12531,0.34505,-0.00401,0.0024,-0.0073,-0.0024,0.1538,-0.0073,-0.0073,-0.0220,1.2239,-5.6137,8.4444,1.7411,-0.2125,-0.0171,-0.0415,1,1,1,1,1,1,1
10.4250,sweep,4,+up,0.06008,1.31590,1.21099,-0.80930,-0.12531,0.34505,-0.00401,0.0024,-0.0073,-0.0024,0.1538,-0.0073,-0.0073,-0.0220,1.2239,-5.6137,8.4444,1.7411,-0.2125,-0.0171,-0.0415,1,1,1,1,1,1,1
10.4649,sweep,4,+up,0.05970,1.31590,1.21099,-0.78412,-0.12531,0.34505,-0.00362,-0.0073,-0.0024,-0.0024,0.1685,-0.0220,-0.0220,-0.0073,1.2239,-5.5316,8.4171,1.6630,-0.2076,-0.0220,-0.0415,1,1,1,1,1,1,1
10.5049,sweep,4,+up,0.05970,1.31590,1.21099,-0.78412,-0.12531,0.34505,-0.00362,-0.0073,-0.0024,-0.0024,0.1685,-0.0220,-0.0220,-0.0073,1.2239,-5.5316,8.4171,1.6630,-0.2076,-0.0220,-0.0415,1,1,1,1,1,1,1
10.5449,sweep,4,+up,0.06008,1.31590,1.21099,-0.76581,-0.12531,0.34505,-0.00401,-0.0024,-0.0024,0.0024,0.1831,0.0073,0.0073,-0.0073,1.2376,-5.5316,8.4171,1.4969,-0.2125,-0.0220,-0.0415,1,1,1,1,1,1,1
10.5851,sweep,4,+up,0.06008,1.31590,1.21099,-0.76581,-0.12531,0.34505,-0.00401,-0.0024,-0.0024,0.0024,0.1831,0.0073,0.0073,-0.0073,1.2376,-5.5316,8.4171,1.4969,-0.2125,-0.0220,-0.0415,1,1,1,1,1,1,1
10.6249,sweep,4,+up,0.06008,1.31590,1.21099,-0.76581,-0.12531,0.34505,-0.00401,-0.0024,-0.0024,0.0024,0.1831,0.0073,0.0073,-0.0073,1.2376,-5.5316,8.4171,1.4969,-0.2125,-0.0220,-0.0415,1,1,1,1,1,1,1
10.6652,sweep,4,+up,0.06008,1.31590,1.21099,-0.74292,-0.12531,0.34505,-0.00401,-0.0024,0.0024,0.0024,0.2564,-0.0073,-0.0073,-0.0073,1.2376,-5.4906,8.3487,1.5556,-0.2076,-0.0269,-0.0415,1,1,1,1,1,1,1
10.7051,sweep,4,+up,0.06008,1.31590,1.21099,-0.74292,-0.12531,0.34505,-0.00401,-0.0024,0.0024,0.0024,0.2564,-0.0073,-0.0073,-0.0073,1.2376,-5.4906,8.3487,1.5556,-0.2076,-0.0269,-0.0415,1,1,1,1,1,1,1
10.7449,sweep,4,+up,0.06008,1.31590,1.21099,-0.72881,-0.12493,0.34505,-0.00362,0.0024,-0.0024,-0.0024,0.1831,-0.0073,-0.0073,-0.0073,1.2513,-5.5179,8.3761,1.7265,-0.2125,-0.0269,-0.0415,1,1,1,1,1,1,1
10.7850,sweep,4,+up,0.06008,1.31590,1.21099,-0.72881,-0.12493,0.34505,-0.00362,0.0024,-0.0024,-0.0024,0.1831,-0.0073,-0.0073,-0.0073,1.2513,-5.5179,8.3761,1.7265,-0.2125,-0.0269,-0.0415,1,1,1,1,1,1,1
10.8252,sweep,4,+up,0.06008,1.31590,1.21099,-0.72881,-0.12493,0.34505,-0.00362,0.0024,-0.0024,-0.0024,0.1831,-0.0073,-0.0073,-0.0073,1.2513,-5.5179,8.3761,1.7265,-0.2125,-0.0269,-0.0415,1,1,1,1,1,1,1
10.8648,sweep,4,+up,0.05970,1.31590,1.21099,-0.70478,-0.12531,0.34505,-0.00401,-0.0024,-0.0024,-0.0073,0.1685,-0.0073,-0.0220,-0.0073,1.2376,-5.5453,8.3077,1.7118,-0.2076,-0.0317,-0.0366,1,1,1,1,1,1,1
10.9050,sweep,4,+up,0.05970,1.31590,1.21099,-0.70478,-0.12531,0.34505,-0.00401,-0.0024,-0.0024,-0.0073,0.1685,-0.0073,-0.0220,-0.0073,1.2376,-5.5453,8.3077,1.7118,-0.2076,-0.0317,-0.0366,1,1,1,1,1,1,1
10.9450,sweep,4,+up,0.06008,1.31590,1.21099,-0.68875,-0.12531,0.34505,-0.00401,-0.0024,-0.0024,0.0024,0.1831,0.0073,-0.0073,-0.0073,1.2376,-5.5453,8.2940,1.6972,-0.2027,-0.0317,-0.0415,1,1,1,1,1,1,1
10.9849,sweep,4,+up,0.06008,1.31590,1.21099,-0.68875,-0.12531,0.34505,-0.00401,-0.0024,-0.0024,0.0024,0.1831,0.0073,-0.0073,-0.0073,1.2376,-5.5453,8.2940,1.6972,-0.2027,-0.0317,-0.0415,1,1,1,1,1,1,1
11.0250,sweep,4,+up,0.06008,1.31590,1.21099,-0.68875,-0.12531,0.34505,-0.00401,-0.0024,-0.0024,0.0024,0.1831,0.0073,-0.0073,-0.0073,1.2376,-5.5453,8.2940,1.6972,-0.2027,-0.0317,-0.0415,1,1,1,1,1,1,1
11.0649,sweep,4,+up,0.06008,1.31590,1.21099,-0.66472,-0.12493,0.34505,-0.00362,-0.0024,-0.0024,-0.0024,0.2418,-0.0073,-0.0073,-0.0073,1.2239,-5.5590,8.3350,1.7070,-0.2027,-0.0317,-0.0415,1,1,1,1,1,1,1
11.1050,sweep,4,+up,0.06008,1.31590,1.21099,-0.66472,-0.12493,0.34505,-0.00362,-0.0024,-0.0024,-0.0024,0.2418,-0.0073,-0.0073,-0.0073,1.2239,-5.5590,8.3350,1.7070,-0.2027,-0.0317,-0.0415,1,1,1,1,1,1,1
11.1451,sweep,4,+up,0.05970,1.31590,1.21099,-0.64984,-0.12493,0.34505,-0.00401,-0.0024,-0.0024,-0.0024,0.1978,-0.0073,-0.0073,-0.0220,1.2513,-5.6000,8.3487,1.8095,-0.2076,-0.0366,-0.0464,1,1,1,1,1,1,1
11.1850,sweep,4,+up,0.05970,1.31590,1.21099,-0.64984,-0.12493,0.34505,-0.00401,-0.0024,-0.0024,-0.0024,0.1978,-0.0073,-0.0073,-0.0220,1.2513,-5.6000,8.3487,1.8095,-0.2076,-0.0366,-0.0464,1,1,1,1,1,1,1
11.2249,sweep,4,+up,0.05970,1.31590,1.21099,-0.64984,-0.12493,0.34505,-0.00401,-0.0024,-0.0024,-0.0024,0.1978,-0.0073,-0.0073,-0.0220,1.2513,-5.6000,8.3487,1.8095,-0.2076,-0.0366,-0.0464,1,1,1,1,1,1,1
11.2649,sweep,4,+up,0.06008,1.31590,1.21099,-0.62848,-0.12531,0.34505,-0.00362,0.0024,-0.0024,-0.0073,0.1245,-0.0220,-0.0073,-0.0073,1.2376,-5.6000,8.3214,1.9902,-0.2027,-0.0317,-0.0415,1,1,1,1,1,1,1
11.3050,sweep,4,+up,0.06008,1.31590,1.21099,-0.62848,-0.12531,0.34505,-0.00362,0.0024,-0.0024,-0.0073,0.1245,-0.0220,-0.0073,-0.0073,1.2376,-5.6000,8.3214,1.9902,-0.2027,-0.0317,-0.0415,1,1,1,1,1,1,1
11.3452,sweep,4,+up,0.06008,1.31590,1.21099,-0.60941,-0.12531,0.34505,-0.00362,0.0024,0.0024,-0.0024,0.1831,-0.0220,-0.0220,-0.0073,1.2103,-5.6273,8.3761,1.7607,-0.1978,-0.0366,-0.0415,1,1,1,1,1,1,1
11.3849,sweep,4,+up,0.06008,1.31590,1.21099,-0.60941,-0.12531,0.34505,-0.00362,0.0024,0.0024,-0.0024,0.1831,-0.0220,-0.0220,-0.0073,1.2103,-5.6273,8.3761,1.7607,-0.1978,-0.0366,-0.0415,1,1,1,1,1,1,1
11.4250,sweep,4,+up,0.06008,1.31590,1.21099,-0.60941,-0.12531,0.34505,-0.00362,0.0024,0.0024,-0.0024,0.1831,-0.0220,-0.0220,-0.0073,1.2103,-5.6273,8.3761,1.7607,-0.1978,-0.0366,-0.0415,1,1,1,1,1,1,1
11.4647,sweep,4,+up,0.06008,1.31590,1.21099,-0.58652,-0.12493,0.34505,-0.00362,0.0024,-0.0024,-0.0024,0.1978,-0.0073,-0.0073,0.0073,1.2376,-5.6410,8.4171,1.8437,-0.2027,-0.0366,-0.0415,1,1,1,1,1,1,1
11.5049,sweep,4,+up,0.06008,1.31590,1.21099,-0.58652,-0.12493,0.34505,-0.00362,0.0024,-0.0024,-0.0024,0.1978,-0.0073,-0.0073,0.0073,1.2376,-5.6410,8.4171,1.8437,-0.2027,-0.0366,-0.0415,1,1,1,1,1,1,1
11.5449,sweep,4,+up,0.05970,1.31590,1.21099,-0.57317,-0.12531,0.34505,-0.00401,-0.0073,-0.0024,-0.0024,0.1978,-0.0073,-0.0073,-0.0073,1.1966,-5.6684,8.3897,2.0830,-0.1978,-0.0366,-0.0415,1,1,1,1,1,1,1
11.5850,sweep,4,+up,0.05970,1.31590,1.21099,-0.57317,-0.12531,0.34505,-0.00401,-0.0073,-0.0024,-0.0024,0.1978,-0.0073,-0.0073,-0.0073,1.1966,-5.6684,8.3897,2.0830,-0.1978,-0.0366,-0.0415,1,1,1,1,1,1,1
11.6249,sweep,4,+up,0.05970,1.31590,1.21099,-0.57317,-0.12531,0.34505,-0.00401,-0.0073,-0.0024,-0.0024,0.1978,-0.0073,-0.0073,-0.0073,1.1966,-5.6684,8.3897,2.0830,-0.1978,-0.0366,-0.0415,1,1,1,1,1,1,1
11.6649,sweep,4,+up,0.06008,1.31590,1.21099,-0.54875,-0.12493,0.34505,-0.00362,0.0024,0.0024,-0.0024,0.1831,-0.0073,-0.0073,-0.0073,1.1829,-5.6684,8.4034,2.0342,-0.1880,-0.0415,-0.0415,1,1,1,1,1,1,1
11.7050,sweep,4,+up,0.06008,1.31590,1.21099,-0.54875,-0.12493,0.34505,-0.00362,0.0024,0.0024,-0.0024,0.1831,-0.0073,-0.0073,-0.0073,1.1829,-5.6684,8.4034,2.0342,-0.1880,-0.0415,-0.0415,1,1,1,1,1,1,1
11.7450,sweep,4,+up,0.05970,1.31590,1.21099,-0.53044,-0.12493,0.34505,-0.00362,-0.0024,0.0024,-0.0073,0.1685,-0.0073,-0.0073,-0.0073,1.1829,-5.6684,8.3487,1.8681,-0.1880,-0.0464,-0.0415,1,1,1,1,1,1,1
11.7849,sweep,4,+up,0.05970,1.31590,1.21099,-0.53044,-0.12493,0.34505,-0.00362,-0.0024,0.0024,-0.0073,0.1685,-0.0073,-0.0073,-0.0073,1.1829,-5.6684,8.3487,1.8681,-0.1880,-0.0464,-0.0415,1,1,1,1,1,1,1
11.8250,sweep,4,+up,0.05970,1.31590,1.21099,-0.53044,-0.12493,0.34505,-0.00362,-0.0024,0.0024,-0.0073,0.1685,-0.0073,-0.0073,-0.0073,1.1829,-5.6684,8.3487,1.8681,-0.1880,-0.0464,-0.0415,1,1,1,1,1,1,1
11.8648,sweep,4,+up,0.06008,1.31628,1.21061,-0.50832,-0.12493,0.34505,-0.00362,-0.0024,0.0024,-0.0024,0.2564,-0.0073,-0.0220,-0.0073,1.1556,-5.6821,8.4444,1.9902,-0.2027,-0.0464,-0.0415,1,1,1,1,1,1,1
11.9049,sweep,4,+up,0.06008,1.31628,1.21061,-0.50832,-0.12493,0.34505,-0.00362,-0.0024,0.0024,-0.0024,0.2564,-0.0073,-0.0220,-0.0073,1.1556,-5.6821,8.4444,1.9902,-0.2027,-0.0464,-0.0415,1,1,1,1,1,1,1
11.9447,sweep,4,+up,0.05970,1.31628,1.21061,-0.49458,-0.12493,0.34505,-0.00401,-0.0073,-0.0024,0.0024,0.1392,0.0073,-0.0073,-0.0220,1.1556,-5.7231,8.4581,2.1758,-0.1978,-0.0513,-0.0366,1,1,1,1,1,1,1
11.9851,sweep,4,+up,0.05970,1.31628,1.21061,-0.49458,-0.12493,0.34505,-0.00401,-0.0073,-0.0024,0.0024,0.1392,0.0073,-0.0073,-0.0220,1.1556,-5.7231,8.4581,2.1758,-0.1978,-0.0513,-0.0366,1,1,1,1,1,1,1
12.0248,sweep,4,+up,0.05970,1.31628,1.21061,-0.49458,-0.12493,0.34505,-0.00401,-0.0073,-0.0024,0.0024,0.1392,0.0073,-0.0073,-0.0220,1.1556,-5.7231,8.4581,2.1758,-0.1978,-0.0513,-0.0366,1,1,1,1,1,1,1
12.0647,sweep,4,+up,0.05970,1.31628,1.21061,-0.47131,-0.12493,0.34505,-0.00401,-0.0024,0.0024,-0.0024,0.1099,0.0073,-0.0073,-0.0073,1.1556,-5.7778,8.4855,2.2247,-0.2027,-0.0513,-0.0415,1,1,1,1,1,1,1
12.1048,sweep,4,+up,0.05970,1.31628,1.21061,-0.47131,-0.12493,0.34505,-0.00401,-0.0024,0.0024,-0.0024,0.1099,0.0073,-0.0073,-0.0073,1.1556,-5.7778,8.4855,2.2247,-0.2027,-0.0513,-0.0415,1,1,1,1,1,1,1
12.1450,sweep,4,+up,0.06008,1.31628,1.21061,-0.45262,-0.12493,0.34505,-0.00401,-0.0024,-0.0024,0.0024,0.2125,-0.0220,-0.0073,-0.0220,1.1692,-5.7778,8.4444,2.0391,-0.2076,-0.0513,-0.0415,1,1,1,1,1,1,1
12.1848,sweep,4,+up,0.06008,1.31628,1.21061,-0.45262,-0.12493,0.34505,-0.00401,-0.0024,-0.0024,0.0024,0.2125,-0.0220,-0.0073,-0.0220,1.1692,-5.7778,8.4444,2.0391,-0.2076,-0.0513,-0.0415,1,1,1,1,1,1,1
12.2248,sweep,4,+up,0.06008,1.31628,1.21061,-0.45262,-0.12493,0.34505,-0.00401,-0.0024,-0.0024,0.0024,0.2125,-0.0220,-0.0073,-0.0220,1.1692,-5.7778,8.4444,2.0391,-0.2076,-0.0513,-0.0415,1,1,1,1,1,1,1
12.2649,sweep,4,+up,0.05970,1.31628,1.21061,-0.42935,-0.12493,0.34505,-0.00362,0.0024,-0.0024,0.0024,0.1978,0.0073,-0.0073,-0.0073,1.1692,-5.7915,8.4171,2.0733,-0.2173,-0.0562,-0.0464,1,1,1,1,1,1,1
12.3049,sweep,4,+up,0.05970,1.31628,1.21061,-0.42935,-0.12493,0.34505,-0.00362,0.0024,-0.0024,0.0024,0.1978,0.0073,-0.0073,-0.0073,1.1692,-5.7915,8.4171,2.0733,-0.2173,-0.0562,-0.0464,1,1,1,1,1,1,1
12.3448,sweep,4,+up,0.05970,1.31628,1.21061,-0.41486,-0.12493,0.34505,-0.00362,-0.0073,-0.0024,-0.0024,0.1978,-0.0220,0.0073,-0.0073,1.1829,-5.7915,8.4308,2.2002,-0.2222,-0.0562,-0.0464,1,1,1,1,1,1,1
12.3849,sweep,4,+up,0.05970,1.31628,1.21061,-0.41486,-0.12493,0.34505,-0.00362,-0.0073,-0.0024,-0.0024,0.1978,-0.0220,0.0073,-0.0073,1.1829,-5.7915,8.4308,2.2002,-0.2222,-0.0562,-0.0464,1,1,1,1,1,1,1
12.4249,sweep,4,+up,0.05970,1.31628,1.21061,-0.41486,-0.12493,0.34505,-0.00362,-0.0073,-0.0024,-0.0024,0.1978,-0.0220,0.0073,-0.0073,1.1829,-5.7915,8.4308,2.2002,-0.2222,-0.0562,-0.0464,1,1,1,1,1,1,1
12.4648,sweep,4,+up,0.05970,1.31628,1.21061,-0.39235,-0.12493,0.34505,-0.00362,-0.0024,-0.0024,-0.0024,0.2271,-0.0220,-0.0073,-0.0073,1.2103,-5.8462,8.4308,2.3028,-0.2125,-0.0611,-0.0464,1,1,1,1,1,1,1
12.5047,sweep,4,+up,0.05970,1.31628,1.21061,-0.39235,-0.12493,0.34505,-0.00362,-0.0024,-0.0024,-0.0024,0.2271,-0.0220,-0.0073,-0.0073,1.2103,-5.8462,8.4308,2.3028,-0.2125,-0.0611,-0.0464,1,1,1,1,1,1,1
12.5449,sweep,4,+up,0.06008,1.31628,1.21061,-0.37404,-0.12493,0.34505,-0.00401,0.0024,0.0024,-0.0024,0.1831,0.0073,0.0073,-0.0073,1.1966,-5.8598,8.4991,2.1123,-0.2125,-0.0562,-0.0464,1,1,1,1,1,1,1
12.5849,sweep,4,+up,0.06008,1.31628,1.21061,-0.37404,-0.12493,0.34505,-0.00401,0.0024,0.0024,-0.0024,0.1831,0.0073,0.0073,-0.0073,1.1966,-5.8598,8.4991,2.1123,-0.2125,-0.0562,-0.0464,1,1,1,1,1,1,1
12.6249,sweep,4,+up,0.06008,1.31628,1.21061,-0.37404,-0.12493,0.34505,-0.00401,0.0024,0.0024,-0.0024,0.1831,0.0073,0.0073,-0.0073,1.1966,-5.8598,8.4991,2.1123,-0.2125,-0.0562,-0.0464,1,1,1,1,1,1,1
12.6648,sweep,4,+up,0.05970,1.31628,1.21061,-0.35153,-0.12531,0.34505,-0.00401,-0.0073,-0.0073,-0.0073,0.1685,-0.0073,-0.0220,-0.0073,1.2103,-5.8735,8.5538,2.2247,-0.2222,-0.0611,-0.0464,1,1,1,1,1,1,1
12.7049,sweep,4,+up,0.05970,1.31628,1.21061,-0.35153,-0.12531,0.34505,-0.00401,-0.0073,-0.0073,-0.0073,0.1685,-0.0073,-0.0220,-0.0073,1.2103,-5.8735,8.5538,2.2247,-0.2222,-0.0611,-0.0464,1,1,1,1,1,1,1
12.7449,sweep,4,+up,0.05970,1.31628,1.21061,-0.32750,-0.12493,0.34505,-0.00401,-0.0024,-0.0024,0.0024,0.2564,0.0073,-0.0073,-0.0220,1.1829,-5.9009,8.6222,2.1758,-0.2222,-0.0611,-0.0464,1,1,1,1,1,1,1
12.7848,sweep,4,+up,0.05970,1.31628,1.21061,-0.32750,-0.12493,0.34505,-0.00401,0.0024,-0.0024,0.0024,0.2564,0.0073,-0.0073,-0.0220,1.2103,-5.9282,8.6222,2.1758,-0.2222,-0.0611,-0.0464,1,1,1,1,1,1,1
12.8249,sweep,4,+up,0.05970,1.31628,1.21061,-0.32750,-0.12493,0.34505,-0.00401,0.0024,-0.0024,0.0024,0.2564,0.0073,-0.0073,-0.0220,1.2103,-5.9282,8.6222,2.1758,-0.2222,-0.0611,-0.0464,1,1,1,1,1,1,1
12.8648,sweep,4,+up,0.05970,1.31628,1.21061,-0.31415,-0.12493,0.34505,-0.00401,-0.0024,-0.0024,0.0024,0.1685,-0.0220,0.0073,-0.0220,1.2513,-5.9145,8.6632,2.4054,-0.2271,-0.0659,-0.0464,1,1,1,1,1,1,1
12.9050,sweep,4,+up,0.05970,1.31628,1.21061,-0.31415,-0.12493,0.34505,-0.00401,-0.0024,-0.0024,0.0024,0.1685,-0.0220,0.0073,-0.0220,1.2513,-5.9145,8.6632,2.4054,-0.2271,-0.0659,-0.0464,1,1,1,1,1,1,1
12.9451,sweep,4,+up,0.05970,1.31628,1.21061,-0.29164,-0.12493,0.34505,-0.00401,-0.0024,-0.0024,0.0024,0.1099,0.0073,-0.0073,-0.0073,1.2513,-5.9145,8.6632,2.5372,-0.2271,-0.0611,-0.0415,1,1,1,1,1,1,1
12.9849,sweep,4,+up,0.05970,1.31628,1.21061,-0.29164,-0.12493,0.34505,-0.00401,-0.0024,-0.0024,-0.0024,0.1099,0.0073,-0.0073,-0.0073,1.2239,-5.8872,8.6496,2.5372,-0.2271,-0.0611,-0.0415,1,1,1,1,1,1,1
13.0250,sweep,4,+up,0.05970,1.31628,1.21061,-0.29164,-0.12493,0.34505,-0.00401,-0.0024,-0.0024,-0.0024,0.1099,0.0073,-0.0073,-0.0073,1.2239,-5.8872,8.6496,2.5372,-0.2271,-0.0611,-0.0415,1,1,1,1,1,1,1
13.0649,sweep,4,+up,0.05970,1.31628,1.21061,-0.27218,-0.12493,0.34505,-0.00362,-0.0073,-0.0024,-0.0024,0.2271,-0.0073,-0.0220,-0.0073,1.2786,-5.9009,8.6906,2.2589,-0.2418,-0.0659,-0.0415,1,1,1,1,1,1,1
13.1048,sweep,4,+up,0.05970,1.31628,1.21061,-0.27218,-0.12493,0.34505,-0.00362,-0.0073,-0.0024,-0.0024,0.2271,-0.0073,-0.0220,-0.0073,1.2786,-5.9009,8.6906,2.2589,-0.2418,-0.0659,-0.0415,1,1,1,1,1,1,1
13.1450,sweep,4,+up,0.05970,1.31628,1.21061,-0.27218,-0.12493,0.34505,-0.00401,-0.0073,-0.0024,-0.0024,0.2271,-0.0073,-0.0220,-0.0073,1.2786,-5.9009,8.6906,2.2589,-0.2418,-0.0659,-0.0415,1,1,1,1,1,1,1
13.1848,sweep,4,+up,0.05970,1.31628,1.21061,-0.24777,-0.12493,0.34505,-0.00401,-0.0024,-0.0024,-0.0073,0.2271,-0.0073,-0.0073,-0.0073,1.2786,-5.9009,8.6906,2.2100,-0.2320,-0.0708,-0.0415,1,1,1,1,1,1,1
13.2248,sweep,4,+up,0.05970,1.31628,1.21061,-0.24777,-0.12493,0.34505,-0.00401,-0.0024,-0.0024,-0.0073,0.2271,-0.0073,-0.0073,-0.0073,1.2786,-5.9009,8.6906,2.2100,-0.2320,-0.0708,-0.0415,1,1,1,1,1,1,1
13.2651,sweep,4,+up,0.05970,1.31628,1.21061,-0.23556,-0.12531,0.34505,-0.00401,-0.0024,-0.0024,0.0024,0.1831,-0.0073,-0.0073,-0.0073,1.2513,-6.0103,8.6769,2.5324,-0.2271,-0.0708,-0.0415,1,1,1,1,1,1,1
13.3047,sweep,4,+up,0.05970,1.31628,1.21061,-0.23556,-0.12531,0.34505,-0.00401,-0.0024,-0.0024,0.0024,0.1831,-0.0073,-0.0073,-0.0073,1.2513,-6.0103,8.6769,2.5324,-0.2271,-0.0708,-0.0415,1,1,1,1,1,1,1
13.3450,sweep,4,+up,0.05970,1.31628,1.21061,-0.23556,-0.12531,0.34505,-0.00401,-0.0024,-0.0024,0.0024,0.1831,-0.0073,-0.0073,-0.0073,1.2513,-6.0103,8.6769,2.5324,-0.2271,-0.0708,-0.0415,1,1,1,1,1,1,1
13.3850,sweep,4,+up,0.06008,1.31628,1.21061,-0.21038,-0.12531,0.34466,-0.00362,-0.0024,0.0024,-0.0024,0.1099,-0.0220,-0.0073,0.0073,1.2513,-5.9966,8.6906,2.4493,-0.2271,-0.0757,-0.0415,1,1,1,1,1,1,1
13.4249,sweep,4,+up,0.06008,1.31628,1.21061,-0.21038,-0.12531,0.34466,-0.00362,-0.0024,0.0024,-0.0024,0.1099,-0.0220,-0.0073,0.0073,1.2513,-5.9966,8.6906,2.4493,-0.2271,-0.0757,-0.0415,1,1,1,1,1,1,1
13.4649,sweep,4,+up,0.05970,1.31628,1.21061,-0.19207,-0.12531,0.34505,-0.00362,-0.0024,-0.0024,-0.0024,0.2125,-0.0220,0.0073,-0.0073,1.2376,-6.0103,8.6906,2.2393,-0.2222,-0.0708,-0.0415,1,1,1,1,1,1,1
13.5051,sweep,4,+up,0.05970,1.31628,1.21061,-0.19207,-0.12531,0.34505,-0.00362,-0.0024,-0.0024,-0.0024,0.2125,-0.0220,0.0073,-0.0073,1.2376,-6.0103,8.6906,2.2393,-0.2222,-0.0708,-0.0415,1,1,1,1,1,1,1
13.5450,sweep,4,+up,0.05970,1.31628,1.21061,-0.19207,-0.12531,0.34505,-0.00362,-0.0024,-0.0024,-0.0024,0.2125,-0.0220,0.0073,-0.0073,1.2376,-6.0103,8.6906,2.2393,-0.2222,-0.0708,-0.0415,1,1,1,1,1,1,1
13.5850,sweep,4,+up,0.05970,1.31628,1.21061,-0.16957,-0.12531,0.34505,-0.00401,-0.0073,-0.0024,-0.0024,0.2418,-0.0073,-0.0073,-0.0073,1.2650,-6.0513,8.6769,2.3712,-0.2271,-0.0757,-0.0464,1,1,1,1,1,1,1
13.6250,sweep,4,+up,0.05970,1.31628,1.21061,-0.16957,-0.12531,0.34505,-0.00401,-0.0073,-0.0024,-0.0024,0.2418,-0.0073,-0.0073,-0.0073,1.2650,-6.0513,8.6769,2.3712,-0.2271,-0.0757,-0.0464,1,1,1,1,1,1,1
13.6649,sweep,4,+up,0.06008,1.31628,1.21061,-0.15545,-0.12531,0.34505,-0.00401,0.0024,-0.0024,-0.0073,0.2125,0.0073,-0.0073,-0.0073,1.2513,-6.0923,8.6906,2.5031,-0.2271,-0.0757,-0.0464,1,1,1,1,1,1,1
13.7049,sweep,4,+up,0.06008,1.31628,1.21061,-0.15545,-0.12531,0.34505,-0.00401,0.0024,-0.0024,-0.0073,0.2125,0.0073,-0.0073,-0.0073,1.2513,-6.0923,8.6906,2.5031,-0.2271,-0.0757,-0.0464,1,1,1,1,1,1,1
13.7448,sweep,4,+up,0.06008,1.31628,1.21061,-0.15545,-0.12531,0.34505,-0.00401,0.0024,-0.0024,-0.0073,0.2125,0.0073,-0.0073,-0.0073,1.2513,-6.0923,8.6906,2.5031,-0.2271,-0.0757,-0.0464,1,1,1,1,1,1,1
13.7849,sweep,4,+up,0.06008,1.31628,1.21061,-0.13104,-0.12493,0.34466,-0.00362,-0.0024,-0.0073,-0.0024,0.2271,-0.0220,-0.0073,0.0073,1.2239,-6.1880,8.6496,2.4933,-0.2125,-0.0708,-0.0415,1,1,1,1,1,1,1
13.8249,sweep,4,+up,0.06008,1.31628,1.21061,-0.13104,-0.12493,0.34466,-0.00362,-0.0024,-0.0073,-0.0024,0.2271,-0.0220,-0.0073,0.0073,1.2239,-6.1880,8.6496,2.4933,-0.2125,-0.0708,-0.0415,1,1,1,1,1,1,1
13.8649,sweep,4,+up,0.06008,1.31628,1.21061,-0.11425,-0.12531,0.34505,-0.00401,-0.0024,-0.0024,-0.0024,0.2418,-0.0073,0.0073,-0.0073,1.2786,-6.2154,8.6496,2.4444,-0.2173,-0.0708,-0.0415,1,1,1,1,1,1,1
13.9050,sweep,4,+up,0.06008,1.31628,1.21061,-0.11425,-0.12531,0.34505,-0.00401,-0.0024,-0.0024,-0.0024,0.2418,-0.0073,0.0073,-0.0073,1.2786,-6.2154,8.6496,2.4444,-0.2173,-0.0708,-0.0415,1,1,1,1,1,1,1
13.9449,sweep,4,+up,0.06008,1.31628,1.21061,-0.11425,-0.12531,0.34505,-0.00401,-0.0024,-0.0024,-0.0024,0.2418,-0.0073,0.0073,-0.0073,1.2786,-6.2154,8.6496,2.4444,-0.2173,-0.0708,-0.0415,1,1,1,1,1,1,1
13.9848,sweep,4,+up,0.05970,1.31628,1.21061,-0.08907,-0.12493,0.34466,-0.00362,-0.0024,-0.0073,-0.0073,0.1831,-0.0220,-0.0073,-0.0073,1.2786,-6.2427,8.6906,2.3321,-0.2173,-0.0708,-0.0415,1,1,1,1,1,1,1
14.0249,sweep,4,+up,0.05970,1.31628,1.21061,-0.08907,-0.12493,0.34466,-0.00362,-0.0024,-0.0073,-0.0073,0.1831,-0.0220,-0.0073,-0.0073,1.2786,-6.2427,8.6906,2.3321,-0.2173,-0.0708,-0.0415,1,1,1,1,1,1,1
14.0649,sweep,4,+up,0.06008,1.31628,1.21061,-0.07534,-0.12531,0.34466,-0.00401,-0.0024,-0.0024,-0.0024,0.1685,-0.0073,-0.0073,-0.0073,1.2786,-6.2701,8.6906,2.5079,-0.2222,-0.0708,-0.0415,1,1,1,1,1,1,1
14.1050,sweep,4,+up,0.06008,1.31628,1.21061,-0.07534,-0.12531,0.34466,-0.00401,-0.0024,-0.0024,-0.0024,0.1685,-0.0073,-0.0073,-0.0073,1.2786,-6.2701,8.6906,2.5079,-0.2222,-0.0708,-0.0415,1,1,1,1,1,1,1
14.1450,sweep,4,+up,0.06008,1.31628,1.21061,-0.07534,-0.12531,0.34466,-0.00401,-0.0024,-0.0024,-0.0024,0.1685,-0.0073,-0.0073,-0.0073,1.2786,-6.2701,8.6906,2.5079,-0.2222,-0.0708,-0.0415,1,1,1,1,1,1,1
14.1851,sweep,4,+up,0.05970,1.31628,1.21061,-0.05360,-0.12493,0.34466,-0.00401,-0.0073,-0.0024,-0.0073,0.1245,-0.0073,-0.0220,-0.0220,1.2513,-6.2838,8.7043,2.6935,-0.2222,-0.0757,-0.0464,1,1,1,1,1,1,1
14.2250,sweep,4,+up,0.05970,1.31628,1.21061,-0.05360,-0.12493,0.34466,-0.00401,-0.0073,-0.0024,-0.0073,0.1245,-0.0073,-0.0220,-0.0220,1.2513,-6.2838,8.7043,2.6935,-0.2222,-0.0757,-0.0464,1,1,1,1,1,1,1
14.2650,sweep,4,+up,0.06008,1.31628,1.21061,-0.03376,-0.12493,0.34505,-0.00401,-0.0024,-0.0024,-0.0024,0.1538,-0.0073,0.0073,-0.0073,1.2103,-6.3111,8.7179,2.4200,-0.2320,-0.0708,-0.0415,1,1,1,1,1,1,1
14.3048,sweep,4,+up,0.06008,1.31628,1.21061,-0.03376,-0.12493,0.34505,-0.00401,-0.0024,-0.0024,-0.0024,0.1538,-0.0073,0.0073,-0.0073,1.2103,-6.3111,8.7179,2.4200,-0.2320,-0.0708,-0.0415,1,1,1,1,1,1,1
14.3449,sweep,4,+up,0.06008,1.31628,1.21061,-0.03376,-0.12493,0.34505,-0.00401,-0.0024,-0.0024,-0.0024,0.1538,-0.0073,0.0073,-0.0073,1.2103,-6.3111,8.7179,2.4200,-0.2320,-0.0708,-0.0415,1,1,1,1,1,1,1
14.3850,sweep,4,+up,0.06008,1.31628,1.21061,-0.00935,-0.12493,0.34505,-0.00401,-0.0024,-0.0024,-0.0024,0.1978,0.0073,-0.0073,-0.0220,1.1966,-6.3658,8.7316,2.3614,-0.2271,-0.0708,-0.0464,1,1,1,1,1,1,1
14.4251,sweep,4,+up,0.06008,1.31628,1.21061,-0.00935,-0.12493,0.34505,-0.00401,-0.0024,-0.0024,-0.0024,0.1978,0.0073,-0.0073,-0.0220,1.1966,-6.3658,8.7316,2.3614,-0.2271,-0.0708,-0.0464,1,1,1,1,1,1,1
14.4650,sweep,4,+up,0.06008,1.31628,1.21061,0.00324,-0.12531,0.34505,-0.00401,-0.0073,-0.0024,-0.0024,0.3004,-0.0220,-0.0073,-0.0220,1.1556,-6.3795,8.7179,2.6252,-0.2271,-0.0708,-0.0415,1,1,1,1,1,1,1
14.5049,sweep,4,+up,0.06008,1.31628,1.21061,0.00324,-0.12531,0.34505,-0.00401,-0.0073,-0.0024,-0.0024,0.3004,-0.0220,-0.0073,-0.0220,1.1556,-6.3795,8.7179,2.6252,-0.2271,-0.0708,-0.0415,1,1,1,1,1,1,1
14.5449,sweep,4,+up,0.06008,1.31628,1.21061,0.00324,-0.12531,0.34505,-0.00401,-0.0073,-0.0024,-0.0024,0.3004,-0.0220,-0.0073,-0.0220,1.1556,-6.3795,8.7179,2.6252,-0.2271,-0.0708,-0.0415,1,1,1,1,1,1,1
14.5850,sweep,4,+up,0.06008,1.31628,1.21061,0.02804,-0.12531,0.34505,-0.00401,0.0024,-0.0024,-0.0073,0.2857,-0.0220,0.0073,-0.0220,1.1692,-6.4205,8.7453,2.5812,-0.2222,-0.0708,-0.0464,1,1,1,1,1,1,1
14.6248,sweep,4,+up,0.06008,1.31628,1.21061,0.02804,-0.12531,0.34505,-0.00401,0.0024,-0.0024,-0.0073,0.2857,-0.0220,0.0073,-0.0220,1.1692,-6.4205,8.7453,2.5812,-0.2222,-0.0708,-0.0464,1,1,1,1,1,1,1
14.6650,sweep,4,+up,0.05970,1.31628,1.21061,0.04559,-0.12531,0.34466,-0.00401,0.0024,-0.0024,-0.0024,0.1392,0.0073,0.0073,-0.0073,1.1692,-6.5162,8.7453,2.4298,-0.2222,-0.0708,-0.0464,1,1,1,1,1,1,1
14.7050,sweep,4,+up,0.05970,1.31628,1.21061,0.04559,-0.12531,0.34466,-0.00401,0.0024,-0.0024,-0.0024,0.1392,0.0073,0.0073,-0.0073,1.1692,-6.5162,8.7453,2.4298,-0.2222,-0.0708,-0.0464,1,1,1,1,1,1,1
14.7451,sweep,4,+up,0.05970,1.31628,1.21061,0.04559,-0.12531,0.34466,-0.00401,0.0024,-0.0024,-0.0024,0.1392,0.0073,0.0073,-0.0073,1.1692,-6.5162,8.7453,2.4298,-0.2222,-0.0708,-0.0464,1,1,1,1,1,1,1
14.7851,sweep,4,+up,0.05970,1.31628,1.21061,0.06847,-0.12493,0.34466,-0.00401,-0.0024,-0.0024,-0.0024,0.1099,0.0073,-0.0220,-0.0073,1.1692,-6.5299,8.7453,2.5177,-0.2173,-0.0708,-0.0464,1,1,1,1,1,1,1
14.8250,sweep,4,+up,0.05970,1.31628,1.21061,0.06847,-0.12493,0.34466,-0.00401,-0.0024,-0.0024,-0.0024,0.1099,0.0073,-0.0220,-0.0073,1.1692,-6.5299,8.7453,2.5177,-0.2173,-0.0708,-0.0464,1,1,1,1,1,1,1
14.8650,sweep,4,+up,0.05970,1.31628,1.21061,0.08335,-0.12531,0.34466,-0.00401,-0.0073,-0.0073,-0.0024,0.2271,-0.0073,-0.0073,-0.0073,1.1692,-6.5573,8.7863,2.6007,-0.2222,-0.0659,-0.0513,1,1,1,1,1,1,1
14.9050,sweep,4,+up,0.05970,1.31628,1.21061,0.08335,-0.12531,0.34466,-0.00401,-0.0073,-0.0073,-0.0024,0.2271,-0.0073,-0.0073,-0.0073,1.1692,-6.5573,8.7863,2.6007,-0.2222,-0.0659,-0.0513,1,1,1,1,1,1,1
14.9449,sweep,4,+up,0.05970,1.31628,1.21061,0.08335,-0.12531,0.34466,-0.00401,-0.0073,-0.0073,-0.0024,0.2271,-0.0073,-0.0073,-0.0073,1.1692,-6.5573,8.7863,2.6007,-0.2222,-0.0659,-0.0513,1,1,1,1,1,1,1
14.9848,sweep,4,+up,0.05970,1.31628,1.21061,0.10815,-0.12493,0.34466,-0.00401,-0.0024,-0.0073,0.0024,0.2564,-0.0220,-0.0073,-0.0073,1.1419,-6.6667,8.8137,2.5421,-0.2125,-0.0659,-0.0464,1,1,1,1,1,1,1
15.0251,sweep,4,+up,0.05970,1.31628,1.21061,0.10815,-0.12493,0.34466,-0.00401,-0.0024,-0.0073,0.0024,0.2564,-0.0220,-0.0073,-0.0073,1.1419,-6.6667,8.8137,2.5421,-0.2125,-0.0659,-0.0464,1,1,1,1,1,1,1
15.0652,sweep,4,+up,0.05970,1.31628,1.21061,0.12303,-0.12493,0.34466,-0.00362,0.0024,-0.0024,0.0024,0.2125,-0.0073,-0.0220,-0.0073,1.1419,-6.6120,8.8547,2.6545,-0.2076,-0.0708,-0.0464,1,1,1,1,1,1,1
15.1052,sweep,4,+up,0.05970,1.31628,1.21061,0.12303,-0.12493,0.34466,-0.00362,0.0024,-0.0024,0.0024,0.2125,-0.0073,-0.0220,-0.0073,1.1419,-6.6120,8.8547,2.6545,-0.2076,-0.0708,-0.0464,1,1,1,1,1,1,1
15.1452,sweep,4,+up,0.05970,1.31628,1.21061,0.12303,-0.12493,0.34466,-0.00362,0.0024,-0.0024,0.0024,0.2125,-0.0073,-0.0220,-0.0073,1.1419,-6.6120,8.8547,2.6545,-0.2076,-0.0708,-0.0464,1,1,1,1,1,1,1
15.1850,sweep,4,+up,0.05970,1.31628,1.21061,0.14935,-0.12531,0.34466,-0.00401,-0.0024,-0.0024,-0.0073,0.1392,-0.0220,-0.0220,-0.0073,1.1692,-6.6120,8.8957,2.4542,-0.2076,-0.0708,-0.0513,1,1,1,1,1,1,1
15.2251,sweep,4,+up,0.05970,1.31628,1.21061,0.14935,-0.12531,0.34466,-0.00401,-0.0024,-0.0024,-0.0073,0.1392,-0.0220,-0.0220,-0.0073,1.1692,-6.6120,8.8957,2.4542,-0.2076,-0.0708,-0.0513,1,1,1,1,1,1,1
15.2651,sweep,4,+up,0.05970,1.31628,1.21061,0.16575,-0.12493,0.34466,-0.00401,-0.0024,-0.0024,-0.0024,0.1978,-0.0073,-0.0073,-0.0073,1.1556,-6.5846,8.9231,2.3956,-0.2173,-0.0708,-0.0513,1,1,1,1,1,1,1
15.3050,sweep,4,+up,0.05970,1.31628,1.21061,0.16575,-0.12493,0.34466,-0.00401,-0.0024,-0.0024,-0.0024,0.1978,-0.0073,-0.0073,-0.0073,1.1556,-6.5846,8.9231,2.3956,-0.2173,-0.0708,-0.0513,1,1,1,1,1,1,1
15.3450,sweep,4,+up,0.05970,1.31628,1.21061,0.16575,-0.12493,0.34466,-0.00401,-0.0024,-0.0024,-0.0024,0.1978,-0.0073,-0.0073,-0.0073,1.1556,-6.5846,8.9231,2.3956,-0.2173,-0.0708,-0.0513,1,1,1,1,1,1,1
15.3850,sweep,4,+up,0.05970,1.31628,1.21061,0.18864,-0.12493,0.34466,-0.00401,-0.0024,-0.0073,-0.0073,0.2711,-0.0073,-0.0073,-0.0073,1.1692,-6.6667,8.9094,2.4982,-0.2173,-0.0708,-0.0464,1,1,1,1,1,1,1
15.4250,sweep,4,+up,0.05970,1.31628,1.21061,0.18864,-0.12493,0.34466,-0.00401,-0.0024,-0.0073,-0.0073,0.2711,-0.0073,-0.0073,-0.0073,1.1692,-6.6667,8.9094,2.4982,-0.2173,-0.0708,-0.0464,1,1,1,1,1,1,1
15.4649,sweep,4,+up,0.06008,1.31628,1.21061,0.20314,-0.12493,0.34466,-0.00362,0.0024,-0.0024,-0.0073,0.1538,0.0073,0.0073,0.0073,1.1829,-6.6393,8.9094,2.6349,-0.2173,-0.0708,-0.0464,1,1,1,1,1,1,1
15.5050,sweep,4,+up,0.06008,1.31628,1.21061,0.20314,-0.12493,0.34466,-0.00362,0.0024,-0.0024,-0.0073,0.1538,0.0073,0.0073,0.0073,1.1829,-6.6393,8.9094,2.6349,-0.2173,-0.0708,-0.0464,1,1,1,1,1,1,1
15.5450,sweep,4,+up,0.06008,1.31628,1.21061,0.20314,-0.12493,0.34466,-0.00362,0.0024,-0.0024,-0.0073,0.1538,0.0073,0.0073,0.0073,1.1829,-6.6393,8.9094,2.6349,-0.2173,-0.0708,-0.0464,1,1,1,1,1,1,1
15.5848,sweep,4,+up,0.05970,1.31628,1.21061,0.22717,-0.12493,0.34466,-0.00362,-0.0024,-0.0024,-0.0024,0.1831,0.0073,-0.0073,-0.0073,1.1556,-6.6803,9.0051,2.6398,-0.2125,-0.0659,-0.0464,1,1,1,1,1,1,1
15.6249,sweep,4,+up,0.05970,1.31628,1.21061,0.22717,-0.12493,0.34466,-0.00362,-0.0024,-0.0024,-0.0024,0.1831,0.0073,-0.0073,-0.0073,1.1556,-6.6803,9.0051,2.6398,-0.2125,-0.0659,-0.0464,1,1,1,1,1,1,1
15.6649,sweep,4,+up,0.05970,1.31628,1.21061,0.24357,-0.12493,0.34466,-0.00401,-0.0024,-0.0073,-0.0073,0.2418,-0.0073,-0.0073,-0.0073,1.1282,-6.7214,9.0188,2.6056,-0.2173,-0.0708,-0.0513,1,1,1,1,1,1,1
15.7049,sweep,4,+up,0.05970,1.31628,1.21061,0.24357,-0.12493,0.34466,-0.00401,-0.0024,-0.0073,-0.0073,0.2418,-0.0073,-0.0073,-0.0073,1.1282,-6.7214,9.0188,2.6056,-0.2173,-0.0708,-0.0513,1,1,1,1,1,1,1
15.7449,sweep,4,+up,0.05970,1.31628,1.21061,0.24357,-0.12493,0.34466,-0.00401,-0.0024,-0.0073,-0.0073,0.2418,-0.0073,-0.0073,-0.0073,1.1282,-6.7214,9.0188,2.6056,-0.2173,-0.0708,-0.0513,1,1,1,1,1,1,1
15.7849,sweep,4,+up,0.05970,1.31628,1.21061,0.26722,-0.12531,0.34466,-0.00401,0.0024,-0.0024,0.0024,0.3297,-0.0220,-0.0073,-0.0073,1.1692,-6.8034,9.0188,2.5910,-0.2173,-0.0659,-0.0513,1,1,1,1,1,1,1
15.8249,sweep,4,+up,0.05970,1.31628,1.21061,0.26722,-0.12531,0.34466,-0.00401,0.0024,-0.0024,0.0024,0.3297,-0.0220,-0.0073,-0.0073,1.1692,-6.8034,9.0188,2.5910,-0.2173,-0.0659,-0.0513,1,1,1,1,1,1,1
15.8649,sweep,4,+up,0.05970,1.31628,1.21061,0.28248,-0.12493,0.34466,-0.00362,-0.0024,-0.0024,-0.0024,0.1831,-0.0073,-0.0220,0.0073,1.1556,-6.8034,9.0598,2.6691,-0.2173,-0.0611,-0.0513,1,1,1,1,1,1,1
15.9050,sweep,4,+up,0.05970,1.31628,1.21061,0.28248,-0.12493,0.34466,-0.00362,-0.0024,-0.0024,-0.0024,0.1831,-0.0073,-0.0220,0.0073,1.1556,-6.8034,9.0598,2.6691,-0.2173,-0.0611,-0.0513,1,1,1,1,1,1,1
15.9451,sweep,4,+up,0.05970,1.31628,1.21061,0.28248,-0.12493,0.34466,-0.00362,-0.0024,-0.0024,-0.0024,0.1831,-0.0073,-0.0220,0.0073,1.1556,-6.8034,9.0598,2.6691,-0.2173,-0.0611,-0.0513,1,1,1,1,1,1,1
15.9849,sweep,4,+up,0.05970,1.31628,1.21061,0.30575,-0.12493,0.34466,-0.00401,-0.0073,-0.0073,-0.0073,0.0952,-0.0073,0.0073,-0.0073,1.1145,-6.7897,9.0872,2.7277,-0.2125,-0.0562,-0.0513,1,1,1,1,1,1,1
16.0249,sweep,4,+up,0.05970,1.31628,1.21061,0.30575,-0.12493,0.34466,-0.00401,-0.0073,-0.0073,-0.0073,0.0952,-0.0073,0.0073,-0.0073,1.1145,-6.7897,9.0872,2.7277,-0.2125,-0.0562,-0.0513,1,1,1,1,1,1,1
16.0650,sweep,4,+up,0.05970,1.31628,1.21061,0.32406,-0.12493,0.34466,-0.00401,-0.0024,0.0024,0.0024,0.2564,0.0073,-0.0073,-0.0073,1.1419,-6.8034,9.0462,2.5226,-0.2222,-0.0562,-0.0464,1,1,1,1,1,1,1
16.1049,sweep,4,+up,0.05970,1.31628,1.21061,0.32406,-0.12493,0.34466,-0.00401,-0.0024,0.0024,0.0024,0.2564,0.0073,-0.0073,-0.0073,1.1419,-6.8034,9.0462,2.5226,-0.2222,-0.0562,-0.0464,1,1,1,1,1,1,1
16.1449,sweep,4,+up,0.05970,1.31628,1.21061,0.32406,-0.12493,0.34466,-0.00401,-0.0024,0.0024,0.0024,0.2564,0.0073,-0.0073,-0.0073,1.1419,-6.8034,9.0462,2.5226,-0.2222,-0.0562,-0.0464,1,1,1,1,1,1,1
16.1849,sweep,4,+up,0.05970,1.31628,1.21061,0.34619,-0.12493,0.34466,-0.00362,-0.0024,-0.0073,-0.0024,0.1392,0.0073,-0.0073,-0.0220,1.1145,-6.8444,9.0188,2.7033,-0.2222,-0.0562,-0.0464,1,1,1,1,1,1,1
16.2249,sweep,4,+up,0.05970,1.31628,1.21061,0.34619,-0.12493,0.34466,-0.00362,-0.0024,-0.0073,-0.0024,0.1392,0.0073,-0.0073,-0.0220,1.1145,-6.8444,9.0188,2.7033,-0.2222,-0.0562,-0.0464,1,1,1,1,1,1,1
16.2649,sweep,4,+up,0.05970,1.31628,1.21061,0.36069,-0.12531,0.34466,-0.00401,-0.0024,-0.0024,-0.0024,0.1831,-0.0073,-0.0073,-0.0073,1.0872,-6.8991,8.9778,2.8059,-0.2271,-0.0562,-0.0513,1,1,1,1,1,1,1
16.3052,sweep,4,+up,0.05970,1.31628,1.21061,0.36069,-0.12531,0.34466,-0.00401,-0.0024,-0.0024,-0.0024,0.1831,-0.0073,-0.0073,-0.0073,1.0872,-6.8991,8.9778,2.8059,-0.2271,-0.0562,-0.0513,1,1,1,1,1,1,1
16.3450,sweep,4,+up,0.05970,1.31628,1.21061,0.36069,-0.12531,0.34466,-0.00401,-0.0024,-0.0024,-0.0024,0.1831,-0.0073,-0.0073,-0.0073,1.0872,-6.8991,8.9778,2.8059,-0.2271,-0.0562,-0.0513,1,1,1,1,1,1,1
16.3850,sweep,4,+up,0.05970,1.31628,1.21061,0.38548,-0.12493,0.34466,-0.00401,-0.0024,0.0024,0.0024,0.2564,-0.0073,-0.0220,-0.0220,1.0598,-6.9675,8.9641,2.7375,-0.2222,-0.0513,-0.0513,1,1,1,1,1,1,1
16.4249,sweep,4,+up,0.05970,1.31628,1.21061,0.38548,-0.12493,0.34466,-0.00401,-0.0024,0.0024,0.0024,0.2564,-0.0073,-0.0220,-0.0220,1.0598,-6.9675,8.9641,2.7375,-0.2222,-0.0513,-0.0513,1,1,1,1,1,1,1
16.4649,sweep,4,+up,0.05970,1.31628,1.21061,0.40188,-0.12493,0.34466,-0.00401,-0.0024,-0.0024,-0.0024,0.2711,-0.0073,-0.0073,-0.0073,1.0598,-6.9949,8.9641,2.7033,-0.2271,-0.0513,-0.0513,1,1,1,1,1,1,1
16.5053,sweep,4,+up,0.05970,1.31628,1.21061,0.40188,-0.12493,0.34466,-0.00401,-0.0024,-0.0024,-0.0024,0.2711,-0.0073,-0.0073,-0.0073,1.0598,-6.9949,8.9641,2.7033,-0.2271,-0.0513,-0.0513,1,1,1,1,1,1,1
16.5449,sweep,4,+up,0.05970,1.31628,1.21061,0.40188,-0.12493,0.34466,-0.00401,-0.0024,-0.0024,-0.0024,0.2711,-0.0073,-0.0073,-0.0073,1.0598,-6.9949,8.9641,2.7033,-0.2271,-0.0513,-0.0513,1,1,1,1,1,1,1
16.5852,sweep,4,+up,0.05970,1.31628,1.21061,0.42592,-0.12493,0.34466,-0.00401,0.0024,-0.0024,-0.0024,0.2418,0.0073,-0.0073,-0.0073,1.0735,-7.0496,8.9504,2.7033,-0.2418,-0.0464,-0.0513,1,1,1,1,1,1,1
16.6249,sweep,4,+up,0.05970,1.31628,1.21061,0.42592,-0.12493,0.34466,-0.00401,0.0024,-0.0024,-0.0024,0.2418,0.0073,-0.0073,-0.0073,1.0735,-7.0496,8.9504,2.7033,-0.2418,-0.0464,-0.0513,1,1,1,1,1,1,1
16.6652,sweep,4,+up,0.05970,1.31628,1.21061,0.44118,-0.12493,0.34466,-0.00401,-0.0024,-0.0073,-0.0024,0.0952,-0.0073,-0.0073,0.0073,1.0598,-7.0906,8.9504,2.7717,-0.2418,-0.0464,-0.0513,1,1,1,1,1,1,1
16.7053,sweep,4,+up,0.05970,1.31628,1.21061,0.44118,-0.12493,0.34466,-0.00401,-0.0024,-0.0073,-0.0024,0.0952,-0.0073,-0.0073,0.0073,1.0598,-7.0906,8.9504,2.7717,-0.2418,-0.0464,-0.0513,1,1,1,1,1,1,1
16.7454,sweep,4,+up,0.05970,1.31628,1.21061,0.44118,-0.12493,0.34466,-0.00401,-0.0024,-0.0073,-0.0024,0.0952,-0.0073,-0.0073,0.0073,1.0598,-7.0906,8.9504,2.7717,-0.2418,-0.0464,-0.0513,1,1,1,1,1,1,1
16.7851,sweep,4,+up,0.05970,1.31628,1.21061,0.46406,-0.12493,0.34466,-0.00401,-0.0024,-0.0024,-0.0073,0.1099,-0.0073,-0.0220,-0.0073,1.1009,-7.1590,8.9368,2.8791,-0.2466,-0.0464,-0.0513,1,1,1,1,1,1,1
16.8250,sweep,4,+up,0.05970,1.31628,1.21061,0.46406,-0.12493,0.34466,-0.00401,-0.0024,-0.0024,-0.0073,0.1099,-0.0073,-0.0220,-0.0073,1.1009,-7.1590,8.9368,2.8791,-0.2466,-0.0464,-0.0513,1,1,1,1,1,1,1
16.8650,sweep,4,+up,0.05970,1.31628,1.21061,0.48428,-0.12493,0.34466,-0.00401,-0.0073,-0.0024,0.0024,0.1978,-0.0073,-0.0220,-0.0073,1.0872,-7.2000,8.9778,2.5372,-0.2564,-0.0464,-0.0464,1,1,1,1,1,1,1
16.9051,sweep,4,+up,0.05970,1.31628,1.21061,0.48428,-0.12493,0.34466,-0.00401,-0.0073,-0.0024,0.0024,0.1978,-0.0073,-0.0220,-0.0073,1.0872,-7.2000,8.9778,2.5372,-0.2564,-0.0464,-0.0464,1,1,1,1,1,1,1
16.9452,sweep,4,+up,0.05970,1.31628,1.21061,0.48428,-0.12493,0.34466,-0.00401,-0.0073,-0.0024,0.0024,0.1978,-0.0073,-0.0220,-0.0073,1.0872,-7.2000,8.9778,2.5372,-0.2564,-0.0464,-0.0464,1,1,1,1,1,1,1
16.9851,sweep,4,+up,0.05970,1.31628,1.21061,0.50793,-0.12493,0.34466,-0.00401,-0.0024,-0.0024,0.0024,0.1538,-0.0073,-0.0220,-0.0073,1.1282,-7.2547,8.9778,2.5519,-0.2564,-0.0415,-0.0464,1,1,1,1,1,1,1
17.0250,sweep,4,+up,0.05970,1.31628,1.21061,0.50793,-0.12493,0.34466,-0.00401,-0.0024,-0.0024,0.0024,0.1538,-0.0073,-0.0220,-0.0073,1.1282,-7.2547,8.9778,2.5519,-0.2564,-0.0415,-0.0464,1,1,1,1,1,1,1
17.0649,sweep,4,+up,0.05970,1.31628,1.21061,0.52205,-0.12493,0.34466,-0.00401,-0.0024,-0.0024,-0.0024,0.2418,-0.0073,0.0073,-0.0220,1.1692,-7.2274,8.9504,2.6838,-0.2564,-0.0415,-0.0464,1,1,1,1,1,1,1
17.1051,sweep,4,+up,0.05970,1.31628,1.21061,0.52205,-0.12493,0.34466,-0.00401,-0.0024,-0.0024,-0.0024,0.2418,-0.0073,0.0073,-0.0220,1.1692,-7.2274,8.9504,2.6838,-0.2564,-0.0415,-0.0464,1,1,1,1,1,1,1
17.1449,sweep,4,+up,0.05970,1.31628,1.21061,0.52205,-0.12493,0.34466,-0.00401,-0.0024,-0.0024,-0.0024,0.2418,-0.0073,0.0073,-0.0220,1.1692,-7.2274,8.9504,2.6838,-0.2564,-0.0415,-0.0464,1,1,1,1,1,1,1
17.1851,sweep,4,+up,0.05970,1.31628,1.21061,0.54685,-0.12493,0.34466,-0.00401,-0.0024,0.0024,-0.0073,0.1685,-0.0073,-0.0073,-0.0073,1.1282,-7.2684,8.9094,2.6349,-0.2613,-0.0415,-0.0464,1,1,1,1,1,1,1
17.2249,sweep,4,+up,0.05970,1.31628,1.21061,0.54685,-0.12493,0.34466,-0.00401,-0.0024,0.0024,-0.0073,0.1685,-0.0073,-0.0073,-0.0073,1.1282,-7.2684,8.9094,2.6349,-0.2613,-0.0415,-0.0464,1,1,1,1,1,1,1
17.2650,sweep,4,+up,0.05970,1.31628,1.21061,0.56439,-0.12493,0.34466,-0.00362,-0.0024,-0.0024,-0.0024,0.1538,0.0073,-0.0073,0.0073,1.1419,-7.3094,8.9641,2.5226,-0.2564,-0.0415,-0.0464,1,1,1,1,1,1,1
17.3050,sweep,4,+up,0.05970,1.31628,1.21061,0.56439,-0.12493,0.34466,-0.00362,-0.0024,-0.0024,-0.0024,0.1538,0.0073,-0.0073,0.0073,1.1419,-7.3094,8.9641,2.5226,-0.2564,-0.0415,-0.0464,1,1,1,1,1,1,1
17.3451,sweep,4,+up,0.05970,1.31628,1.21061,0.56439,-0.12493,0.34466,-0.00362,-0.0024,-0.0024,-0.0024,0.1538,0.0073,-0.0073,0.0073,1.1419,-7.3094,8.9641,2.5226,-0.2564,-0.0415,-0.0464,1,1,1,1,1,1,1
17.3849,sweep,4,+up,0.05970,1.31628,1.21061,0.58957,-0.12493,0.34466,-0.00401,-0.0024,-0.0073,-0.0024,0.2125,0.0073,-0.0073,-0.0073,1.1419,-7.3504,8.9778,2.4151,-0.2613,-0.0415,-0.0464,1,1,1,1,1,1,1
17.4249,sweep,4,+up,0.05970,1.31628,1.21061,0.58957,-0.12493,0.34466,-0.00401,-0.0024,-0.0073,-0.0024,0.2125,0.0073,-0.0073,-0.0073,1.1419,-7.3504,8.9778,2.4151,-0.2613,-0.0415,-0.0464,1,1,1,1,1,1,1
17.4650,sweep,4,+up,0.06008,1.31628,1.21061,0.60445,-0.12493,0.34466,-0.00401,0.0024,-0.0073,-0.0024,0.3150,-0.0220,-0.0073,-0.0073,1.1556,-7.4051,8.9504,2.4786,-0.2564,-0.0415,-0.0464,1,1,1,1,1,1,1
17.5053,sweep,4,+up,0.06008,1.31628,1.21061,0.60445,-0.12493,0.34466,-0.00401,0.0024,-0.0073,-0.0024,0.3150,-0.0220,-0.0073,-0.0073,1.1556,-7.4051,8.9504,2.4786,-0.2564,-0.0415,-0.0464,1,1,1,1,1,1,1
17.5449,sweep,4,+up,0.06008,1.31628,1.21061,0.60445,-0.12493,0.34466,-0.00401,0.0024,-0.0073,-0.0024,0.3150,-0.0220,-0.0073,-0.0073,1.1556,-7.4051,8.9504,2.4786,-0.2564,-0.0415,-0.0464,1,1,1,1,1,1,1
17.5848,sweep,4,+up,0.05970,1.31628,1.21061,0.63039,-0.12493,0.34466,-0.00401,-0.0024,-0.0024,0.0024,0.2271,-0.0073,-0.0073,-0.0220,1.1692,-7.5009,8.9504,2.3126,-0.2662,-0.0415,-0.0464,1,1,1,1,1,1,1
17.6248,sweep,4,+up,0.05970,1.31628,1.21061,0.63039,-0.12493,0.34466,-0.00401,-0.0024,-0.0024,0.0024,0.2271,-0.0073,-0.0073,-0.0220,1.1692,-7.5009,8.9504,2.3126,-0.2662,-0.0415,-0.0464,1,1,1,1,1,1,1
17.6650,sweep,4,+up,0.05970,1.31628,1.21061,0.64488,-0.12493,0.34466,-0.00401,-0.0024,-0.0024,0.0024,0.1685,-0.0073,-0.0073,-0.0073,1.1692,-7.5282,8.9778,2.4493,-0.2662,-0.0415,-0.0464,1,1,1,1,1,1,1
17.7054,sweep,4,+up,0.05970,1.31628,1.21061,0.64488,-0.12493,0.34466,-0.00401,-0.0024,-0.0024,0.0024,0.1685,-0.0073,-0.0073,-0.0073,1.1692,-7.5282,8.9778,2.4493,-0.2662,-0.0415,-0.0464,1,1,1,1,1,1,1
17.7454,sweep,4,+up,0.05970,1.31628,1.21061,0.64488,-0.12493,0.34466,-0.00401,-0.0024,-0.0024,0.0024,0.1685,-0.0073,-0.0073,-0.0073,1.1692,-7.5282,8.9778,2.4493,-0.2662,-0.0415,-0.0464,1,1,1,1,1,1,1
17.7856,sweep,4,+up,0.05970,1.31628,1.21061,0.67159,-0.12531,0.34466,-0.00401,-0.0024,-0.0024,0.0024,0.2271,0.0073,-0.0220,-0.0073,1.1145,-7.5282,8.9778,2.2295,-0.2564,-0.0366,-0.0464,1,1,1,1,1,1,1
17.8255,sweep,4,+up,0.05970,1.31628,1.21061,0.67159,-0.12531,0.34466,-0.00401,-0.0024,-0.0024,0.0024,0.2271,0.0073,-0.0220,-0.0073,1.1145,-7.5282,8.9778,2.2295,-0.2564,-0.0366,-0.0464,1,1,1,1,1,1,1
17.8655,sweep,4,+up,0.06008,1.31628,1.21061,0.68914,-0.12493,0.34466,-0.00401,-0.0024,-0.0024,-0.0024,0.1978,0.0073,-0.0220,-0.0073,1.1282,-7.5419,9.0325,2.1319,-0.2564,-0.0366,-0.0464,1,1,1,1,1,1,1
17.9056,sweep,4,+up,0.06008,1.31628,1.21061,0.68914,-0.12493,0.34466,-0.00401,-0.0024,-0.0024,-0.0024,0.1978,0.0073,-0.0220,-0.0073,1.1282,-7.5419,9.0325,2.1319,-0.2564,-0.0366,-0.0464,1,1,1,1,1,1,1
17.9452,sweep,4,+up,0.06008,1.31628,1.21061,0.68914,-0.12493,0.34466,-0.00401,-0.0024,-0.0024,-0.0024,0.1978,0.0073,-0.0220,-0.0073,1.1282,-7.5419,9.0325,2.1319,-0.2564,-0.0366,-0.0464,1,1,1,1,1,1,1
17.9853,sweep,4,+up,0.06008,1.31628,1.21061,0.71202,-0.12493,0.34466,-0.00401,0.0024,-0.0024,-0.0024,0.2418,-0.0073,-0.0073,-0.0073,1.1556,-7.6103,9.0188,2.1709,-0.2613,-0.0366,-0.0464,1,1,1,1,1,1,1
18.0250,sweep,4,+up,0.06008,1.31628,1.21061,0.71202,-0.12493,0.34466,-0.00401,0.0024,-0.0024,-0.0024,0.2418,-0.0073,-0.0073,-0.0073,1.1556,-7.6103,9.0188,2.1709,-0.2613,-0.0366,-0.0464,1,1,1,1,1,1,1
18.0650,sweep,4,+up,0.05970,1.31628,1.21061,0.72843,-0.12531,0.34466,-0.00362,0.0024,-0.0024,-0.0024,0.1685,-0.0073,0.0073,0.0073,1.1145,-7.6376,9.0735,2.1758,-0.2662,-0.0366,-0.0464,1,1,1,1,1,1,1
18.1054,sweep,4,+up,0.05970,1.31628,1.21061,0.72843,-0.12531,0.34466,-0.00362,0.0024,-0.0024,-0.0024,0.1685,-0.0073,0.0073,0.0073,1.1145,-7.6376,9.0735,2.1758,-0.2662,-0.0366,-0.0464,1,1,1,1,1,1,1
18.1448,sweep,4,+up,0.05970,1.31628,1.21061,0.72843,-0.12531,0.34466,-0.00362,0.0024,-0.0024,-0.0024,0.1685,-0.0073,0.0073,0.0073,1.1145,-7.6376,9.0735,2.1758,-0.2662,-0.0366,-0.0464,1,1,1,1,1,1,1
18.1849,sweep,4,+up,0.05970,1.31628,1.21061,0.75170,-0.12531,0.34466,-0.00401,-0.0073,-0.0073,-0.0024,0.1685,-0.0073,0.0073,-0.0073,1.1009,-7.7197,9.1282,2.2344,-0.2564,-0.0366,-0.0464,1,1,1,1,1,1,1
18.2250,sweep,4,+up,0.05970,1.31628,1.21061,0.75170,-0.12531,0.34466,-0.00401,-0.0073,-0.0073,-0.0024,0.1685,-0.0073,0.0073,-0.0073,1.1009,-7.7197,9.1282,2.2344,-0.2564,-0.0366,-0.0464,1,1,1,1,1,1,1
18.2649,sweep,4,+up,0.05970,1.31628,1.21061,0.76963,-0.12531,0.34466,-0.00401,-0.0024,-0.0024,-0.0024,0.1831,0.0073,-0.0073,-0.0073,1.1009,-7.7607,9.1419,2.0733,-0.2515,-0.0317,-0.0464,1,1,1,1,1,1,1
18.3050,sweep,4,+up,0.05970,1.31628,1.21061,0.76963,-0.12531,0.34466,-0.00401,-0.0024,-0.0024,-0.0024,0.1831,0.0073,-0.0073,-0.0073,1.1009,-7.7607,9.1419,2.0733,-0.2515,-0.0317,-0.0464,1,1,1,1,1,1,1
18.3450,sweep,4,+up,0.05970,1.31628,1.21061,0.76963,-0.12531,0.34466,-0.00401,-0.0024,-0.0024,-0.0024,0.1831,0.0073,-0.0073,-0.0073,1.1009,-7.7607,9.1419,2.0733,-0.2515,-0.0317,-0.0464,1,1,1,1,1,1,1
18.3850,sweep,4,+up,0.05970,1.31628,1.21061,0.79557,-0.12531,0.34466,-0.00401,-0.0073,-0.0073,-0.0024,0.2418,0.0073,0.0073,-0.0073,1.1009,-7.7744,9.1556,1.9219,-0.2418,-0.0317,-0.0415,1,1,1,1,1,1,1
18.4250,sweep,4,+up,0.05970,1.31628,1.21061,0.79557,-0.12531,0.34466,-0.00401,-0.0073,-0.0073,-0.0024,0.2418,0.0073,0.0073,-0.0073,1.1009,-7.7744,9.1556,1.9219,-0.2418,-0.0317,-0.0415,1,1,1,1,1,1,1
18.4652,sweep,4,+up,0.05970,1.31628,1.21061,0.80892,-0.12531,0.34466,-0.00401,-0.0024,-0.0024,-0.0024,0.1831,0.0073,-0.0073,-0.0073,1.1145,-7.7607,9.1419,2.1026,-0.2418,-0.0269,-0.0366,1,1,1,1,1,1,1
18.5051,sweep,4,+up,0.05970,1.31628,1.21061,0.80892,-0.12531,0.34466,-0.00401,-0.0024,-0.0024,-0.0024,0.1831,0.0073,-0.0073,-0.0073,1.1145,-7.7607,9.1419,2.1026,-0.2418,-0.0269,-0.0366,1,1,1,1,1,1,1
18.5452,sweep,4,+up,0.05970,1.31628,1.21061,0.80892,-0.12531,0.34466,-0.00401,-0.0024,-0.0024,-0.0024,0.1831,0.0073,-0.0073,-0.0073,1.1145,-7.7607,9.1419,2.1026,-0.2418,-0.0269,-0.0366,1,1,1,1,1,1,1
18.5850,sweep,4,+up,0.05970,1.31628,1.21061,0.83371,-0.12531,0.34466,-0.00401,-0.0024,0.0024,-0.0073,0.1978,0.0073,-0.0073,-0.0073,1.0872,-7.8291,9.1419,2.0586,-0.2320,-0.0269,-0.0366,1,1,1,1,1,1,1
18.6249,sweep,4,+up,0.05970,1.31628,1.21061,0.83371,-0.12531,0.34466,-0.00401,-0.0024,0.0024,-0.0073,0.1978,0.0073,-0.0073,-0.0073,1.0872,-7.8291,9.1419,2.0586,-0.2320,-0.0269,-0.0366,1,1,1,1,1,1,1
18.6650,sweep,4,+up,0.05970,1.31628,1.21061,0.85126,-0.12531,0.34466,-0.00401,-0.0024,-0.0024,-0.0073,0.1978,-0.0073,-0.0220,0.0073,1.0872,-7.8564,9.1009,1.9072,-0.2222,-0.0269,-0.0366,1,1,1,1,1,1,1
18.7051,sweep,4,+up,0.05970,1.31628,1.21061,0.85126,-0.12531,0.34466,-0.00401,-0.0024,-0.0024,-0.0073,0.1978,-0.0073,-0.0220,0.0073,1.0872,-7.8564,9.1009,1.9072,-0.2222,-0.0269,-0.0366,1,1,1,1,1,1,1
18.7451,sweep,4,+up,0.05970,1.31628,1.21061,0.85126,-0.12531,0.34466,-0.00401,-0.0024,-0.0024,-0.0073,0.1978,-0.0073,-0.0220,0.0073,1.0872,-7.8564,9.1009,1.9072,-0.2222,-0.0269,-0.0366,1,1,1,1,1,1,1
18.7850,sweep,4,+up,0.05970,1.31628,1.21061,0.87491,-0.12531,0.34466,-0.00401,-0.0024,-0.0024,-0.0024,0.1831,-0.0073,-0.0220,-0.0073,1.0598,-7.8701,9.1282,1.9463,-0.2076,-0.0269,-0.0415,1,1,1,1,1,1,1
18.8250,sweep,4,+up,0.05970,1.31628,1.21061,0.87491,-0.12531,0.34466,-0.00401,-0.0024,-0.0024,-0.0024,0.1831,-0.0073,-0.0220,-0.0073,1.0598,-7.8701,9.1282,1.9463,-0.2076,-0.0269,-0.0415,1,1,1,1,1,1,1
18.8650,sweep,4,+up,0.05970,1.31628,1.21061,0.89055,-0.12531,0.34466,-0.00401,-0.0024,-0.0024,-0.0073,0.1978,-0.0220,-0.0220,-0.0073,1.0462,-7.8701,9.1419,1.9707,-0.2076,-0.0269,-0.0415,1,1,1,1,1,1,1
18.9052,sweep,4,+up,0.05970,1.31628,1.21061,0.89055,-0.12531,0.34466,-0.00401,-0.0024,-0.0024,-0.0073,0.1978,-0.0220,-0.0220,-0.0073,1.0462,-7.8701,9.1419,1.9707,-0.2076,-0.0269,-0.0415,1,1,1,1,1,1,1
18.9449,sweep,4,+up,0.05970,1.31628,1.21061,0.89055,-0.12531,0.34466,-0.00401,-0.0024,-0.0024,-0.0073,0.1978,-0.0220,-0.0220,-0.0073,1.0462,-7.8701,9.1419,1.9707,-0.2076,-0.0269,-0.0415,1,1,1,1,1,1,1
18.9849,sweep,4,+up,0.05970,1.31628,1.21061,0.91535,-0.12531,0.34466,-0.00362,-0.0024,-0.0024,-0.0024,0.1831,0.0073,-0.0220,-0.0073,1.1009,-7.8838,9.1556,1.9170,-0.2125,-0.0220,-0.0366,1,1,1,1,1,1,1
19.0250,sweep,4,+up,0.05970,1.31628,1.21061,0.91535,-0.12531,0.34466,-0.00362,-0.0024,-0.0024,-0.0024,0.1831,0.0073,-0.0220,-0.0073,1.1009,-7.8838,9.1556,1.9170,-0.2125,-0.0220,-0.0366,1,1,1,1,1,1,1
19.0650,sweep,4,+up,0.06008,1.31628,1.21061,0.93175,-0.12531,0.34466,-0.00401,-0.0024,-0.0024,0.0024,0.1831,-0.0073,-0.0220,-0.0073,1.1145,-7.8974,9.1556,1.9121,-0.2076,-0.0171,-0.0317,1,1,1,1,1,1,1
19.1051,sweep,4,+up,0.06008,1.31628,1.21061,0.93175,-0.12531,0.34466,-0.00401,-0.0024,-0.0024,0.0024,0.1831,-0.0073,-0.0220,-0.0073,1.1145,-7.8974,9.1556,1.9121,-0.2076,-0.0171,-0.0317,1,1,1,1,1,1,1
19.1449,sweep,4,+up,0.06008,1.31628,1.21061,0.93175,-0.12531,0.34466,-0.00401,-0.0024,-0.0024,0.0024,0.1831,-0.0073,-0.0220,-0.0073,1.1145,-7.8974,9.1556,1.9121,-0.2076,-0.0171,-0.0317,1,1,1,1,1,1,1
19.1851,sweep,4,+up,0.05970,1.31628,1.21061,0.95655,-0.12531,0.34466,-0.00362,-0.0024,-0.0073,-0.0024,0.1245,-0.0073,-0.0220,-0.0073,1.0872,-7.8838,9.2103,1.8046,-0.1978,-0.0122,-0.0269,1,1,1,1,1,1,1
19.2251,sweep,4,+up,0.05970,1.31628,1.21061,0.95655,-0.12531,0.34466,-0.00362,-0.0024,-0.0073,-0.0024,0.1245,-0.0073,-0.0220,-0.0073,1.0872,-7.8838,9.2103,1.8046,-0.1978,-0.0122,-0.0269,1,1,1,1,1,1,1
19.2651,sweep,4,+up,0.06008,1.31628,1.21061,0.97448,-0.12531,0.34466,-0.00401,-0.0024,-0.0073,0.0024,0.2418,0.0073,-0.0220,-0.0073,1.1145,-7.8838,9.2650,1.6581,-0.1880,-0.0122,-0.0269,1,1,1,1,1,1,1
19.3049,sweep,4,+up,0.06008,1.31628,1.21061,0.97448,-0.12531,0.34466,-0.00401,-0.0024,-0.0073,0.0024,0.2418,0.0073,-0.0220,-0.0073,1.1145,-7.8838,9.2650,1.6581,-0.1880,-0.0122,-0.0269,1,1,1,1,1,1,1
19.3452,sweep,4,+up,0.06008,1.31628,1.21061,0.97448,-0.12531,0.34466,-0.00401,-0.0024,-0.0073,0.0024,0.2418,0.0073,-0.0220,-0.0073,1.1145,-7.8838,9.2650,1.6581,-0.1880,-0.0122,-0.0269,1,1,1,1,1,1,1
19.3851,sweep,4,+up,0.05970,1.31628,1.21061,0.99775,-0.12531,0.34466,-0.00362,-0.0024,-0.0024,-0.0024,0.1978,-0.0073,-0.0073,-0.0073,1.1009,-7.9111,9.3333,1.7216,-0.1832,-0.0024,-0.0269,1,1,1,1,1,1,1
19.4251,sweep,4,+up,0.05970,1.31628,1.21061,0.99775,-0.12531,0.34466,-0.00362,-0.0024,-0.0024,-0.0024,0.1978,-0.0073,-0.0073,-0.0073,1.1009,-7.9111,9.3333,1.7216,-0.1832,-0.0024,-0.0269,1,1,1,1,1,1,1
19.4651,sweep,4,+up,0.05970,1.31628,1.21061,1.01377,-0.12531,0.34466,-0.00401,0.0024,-0.0024,-0.0024,0.2125,-0.0220,-0.0073,-0.0073,1.1419,-7.9111,9.3607,1.7363,-0.1783,-0.0024,-0.0269,1,1,1,1,1,1,1
19.5051,sweep,4,+up,0.05970,1.31628,1.21061,1.01377,-0.12531,0.34466,-0.00401,0.0024,-0.0024,-0.0024,0.2125,-0.0220,-0.0073,-0.0073,1.1419,-7.9111,9.3607,1.7363,-0.1783,-0.0024,-0.0269,1,1,1,1,1,1,1
19.5452,sweep,4,+up,0.05970,1.31628,1.21061,1.01377,-0.12531,0.34466,-0.00401,0.0024,-0.0024,-0.0024,0.2125,-0.0220,-0.0073,-0.0073,1.1419,-7.9111,9.3607,1.7363,-0.1783,-0.0024,-0.0269,1,1,1,1,1,1,1
19.5849,sweep,4,+up,0.06008,1.31628,1.21061,1.03895,-0.12531,0.34466,-0.00401,-0.0024,-0.0073,0.0024,0.1392,-0.0073,-0.0073,-0.0220,1.1282,-7.9385,9.3880,1.6190,-0.1734,-0.0024,-0.0317,1,1,1,1,1,1,1
19.6249,sweep,4,+up,0.06008,1.31628,1.21061,1.03895,-0.12531,0.34466,-0.00401,-0.0024,-0.0073,0.0024,0.1392,-0.0073,-0.0073,-0.0220,1.1282,-7.9385,9.3880,1.6190,-0.1734,-0.0024,-0.0317,1,1,1,1,1,1,1
19.6650,sweep,4,+up,0.05970,1.31628,1.21061,1.05535,-0.12531,0.34466,-0.00362,-0.0024,-0.0024,-0.0024,0.2418,-0.0073,-0.0073,-0.0073,1.1282,-7.9385,9.3880,1.5556,-0.1685,-0.0024,-0.0317,1,1,1,1,1,1,1
19.7049,sweep,4,+up,0.05970,1.31628,1.21061,1.05535,-0.12531,0.34466,-0.00362,-0.0024,-0.0024,-0.0024,0.2418,-0.0073,-0.0073,-0.0073,1.1282,-7.9385,9.3880,1.5556,-0.1685,-0.0024,-0.0317,1,1,1,1,1,1,1
19.7448,sweep,4,+up,0.05970,1.31628,1.21061,1.05535,-0.12531,0.34466,-0.00362,-0.0024,-0.0024,-0.0024,0.2418,-0.0073,-0.0073,-0.0073,1.1282,-7.9385,9.3880,1.5556,-0.1685,-0.0024,-0.0317,1,1,1,1,1,1,1
19.7849,sweep,4,+up,0.06008,1.31628,1.21061,1.08053,-0.12531,0.34466,-0.00362,-0.0073,-0.0024,-0.0024,0.2857,0.0073,0.0073,-0.0073,1.1145,-7.9521,9.4291,1.4823,-0.1587,0.0024,-0.0269,1,1,1,1,1,1,1
19.8250,sweep,4,+up,0.06008,1.31628,1.21061,1.08053,-0.12531,0.34466,-0.00362,-0.0073,-0.0024,-0.0024,0.2857,0.0073,0.0073,-0.0073,1.1145,-7.9521,9.4291,1.4823,-0.1587,0.0024,-0.0269,1,1,1,1,1,1,1
19.8650,sweep,4,+up,0.06008,1.31628,1.21061,1.09579,-0.12531,0.34466,-0.00401,-0.0024,-0.0024,-0.0024,0.1978,-0.0073,-0.0073,-0.0073,1.1282,-8.0205,9.4564,1.5849,-0.1538,0.0073,-0.0269,1,1,1,1,1,1,1
19.9050,sweep,4,+up,0.06008,1.31628,1.21061,1.09579,-0.12531,0.34466,-0.00401,-0.0024,-0.0024,-0.0024,0.1978,-0.0073,-0.0073,-0.0073,1.1282,-8.0205,9.4564,1.5849,-0.1538,0.0073,-0.0269,1,1,1,1,1,1,1
19.9448,sweep,4,+up,0.06008,1.31628,1.21061,1.09579,-0.12531,0.34466,-0.00401,-0.0024,-0.0024,-0.0024,0.1978,-0.0073,-0.0073,-0.0073,1.1282,-8.0205,9.4564,1.5849,-0.1538,0.0073,-0.0269,1,1,1,1,1,1,1
19.9850,sweep,4,+up,0.06008,1.31628,1.21061,1.12020,-0.12531,0.34466,-0.00401,-0.0024,-0.0073,-0.0024,0.2271,0.0073,-0.0073,-0.0073,1.1692,-8.0479,9.4427,1.5360,-0.1490,0.0073,-0.0269,1,1,1,1,1,1,1
20.0248,sweep,4,+up,0.06008,1.31628,1.21061,1.12020,-0.12531,0.34466,-0.00401,-0.0024,-0.0073,-0.0024,0.2271,0.0073,-0.0073,-0.0073,1.1692,-8.0479,9.4427,1.5360,-0.1490,0.0073,-0.0269,1,1,1,1,1,1,1
20.0649,sweep,4,+up,0.06008,1.31628,1.21061,1.13737,-0.12531,0.34466,-0.00362,-0.0024,-0.0024,-0.0024,0.1685,-0.0073,-0.0220,-0.0073,1.1966,-8.0752,9.4701,1.4481,-0.1490,0.0073,-0.0317,1,1,1,1,1,1,1
20.1050,sweep,4,+up,0.06008,1.31628,1.21061,1.13737,-0.12531,0.34466,-0.00362,-0.0024,-0.0024,-0.0024,0.1685,-0.0073,-0.0220,-0.0073,1.1966,-8.0752,9.4701,1.4481,-0.1490,0.0073,-0.0317,1,1,1,1,1,1,1
20.1451,sweep,4,+up,0.06008,1.31628,1.21061,1.13737,-0.12531,0.34466,-0.00362,-0.0024,-0.0024,-0.0024,0.1685,-0.0073,-0.0220,-0.0073,1.1966,-8.0752,9.4701,1.4481,-0.1490,0.0073,-0.0317,1,1,1,1,1,1,1
