peipl15/reBot_Arm/outputs/gravity_calib_20260622_002020.csv
t_s,phase,swept_joint,direction,q1,q2,q3,q4,q5,q6,q7,v1,v2,v3,v4,v5,v6,v7,tau1,tau2,tau3,tau4,tau5,tau6,tau7,st1,st2,st3,st4,st5,st6,st7
0.0023,approach,2,to_lo,-0.06657,-0.03605,1.47650,-0.03986,-0.04521,0.00401,-0.00324,-0.0073,-0.0024,-0.0024,-0.0073,-0.0073,-0.0073,-0.0073,-0.0342,-0.0068,-0.6769,-0.0122,-0.0073,-0.0122,-0.0024,1,1,1,1,1,1,1
0.0424,approach,2,to_lo,-0.06657,-0.03605,1.47650,-0.03986,-0.04521,0.00401,-0.00324,-0.0073,-0.0024,-0.0024,-0.0073,-0.0073,-0.0073,-0.0073,-0.0342,-0.0068,-0.6769,-0.0122,-0.0073,-0.0122,-0.0024,1,1,1,1,1,1,1
0.0832,approach,2,to_lo,-0.06657,-0.03224,1.47726,-0.03605,-0.04521,0.00362,-0.00324,0.0024,0.1294,-0.0073,-0.0073,-0.0073,-0.0220,-0.0073,-0.0889,3.4530,-1.6205,-0.2125,-0.0073,-0.0171,-0.0073,1,1,1,1,1,1,1
0.1223,approach,2,to_lo,-0.06657,-0.03224,1.47726,-0.03605,-0.04521,0.00362,-0.00324,0.0024,0.1294,-0.0073,-0.0073,-0.0073,-0.0220,-0.0073,-0.0889,3.4530,-1.6205,-0.2125,-0.0073,-0.0171,-0.0073,1,1,1,1,1,1,1
0.1625,approach,2,to_lo,-0.06657,-0.01431,1.47726,-0.03643,-0.04521,0.00362,-0.00324,-0.0024,0.1001,-0.0024,-0.0220,-0.0220,-0.0073,-0.0073,-0.0889,9.4974,-1.8393,-0.3297,-0.0122,-0.0171,-0.0122,1,1,1,1,1,1,1
0.2025,approach,2,to_lo,-0.06657,-0.01431,1.47726,-0.03643,-0.04521,0.00362,-0.00324,-0.0024,0.1001,-0.0024,-0.0220,-0.0220,-0.0073,-0.0073,-0.0889,9.4974,-1.8393,-0.3297,-0.0122,-0.0171,-0.0122,1,1,1,1,1,1,1
0.2429,approach,2,to_lo,-0.06657,-0.01431,1.47726,-0.03643,-0.04521,0.00362,-0.00324,-0.0024,0.1001,-0.0024,-0.0220,-0.0220,-0.0073,-0.0073,-0.0889,9.4974,-1.8393,-0.3297,-0.0122,-0.0171,-0.0122,1,1,1,1,1,1,1
0.2825,approach,2,to_lo,-0.06657,-0.00439,1.47688,-0.03910,-0.04521,0.00362,-0.00324,-0.0073,0.0904,-0.0024,0.0073,-0.0220,-0.0073,-0.0073,-0.0479,15.5692,-2.0581,-0.2515,-0.0220,-0.0220,-0.0122,1,1,1,1,1,1,1
0.3225,approach,2,to_lo,-0.06657,-0.00439,1.47688,-0.03910,-0.04521,0.00362,-0.00324,-0.0073,0.0904,-0.0024,0.0073,-0.0220,-0.0073,-0.0073,-0.0479,15.5692,-2.0581,-0.2515,-0.0220,-0.0220,-0.0122,1,1,1,1,1,1,1
0.3624,approach,2,to_lo,-0.06657,0.01202,1.47726,-0.03796,-0.04521,0.00362,-0.00324,0.0024,0.1343,-0.0024,0.0513,0.0073,-0.0366,-0.0073,-0.0615,18.1812,-2.4000,-0.4225,-0.0269,-0.0220,-0.0073,1,1,1,1,1,1,1
0.4025,approach,2,to_lo,-0.06657,0.01202,1.47726,-0.03796,-0.04521,0.00362,-0.00324,0.0024,0.1343,-0.0024,0.0513,0.0073,-0.0366,-0.0073,-0.0479,18.1812,-2.4000,-0.4225,-0.0269,-0.0220,-0.0073,1,1,1,1,1,1,1
0.4424,approach,2,to_lo,-0.06657,0.01202,1.47726,-0.03796,-0.04521,0.00362,-0.00324,0.0024,0.1343,-0.0024,0.0513,0.0073,-0.0366,-0.0073,-0.0479,18.1812,-2.4000,-0.4225,-0.0269,-0.0220,-0.0073,1,1,1,1,1,1,1
0.4823,approach,2,to_lo,-0.06657,0.02460,1.47688,-0.04063,-0.04521,0.00362,-0.00324,-0.0024,0.1587,-0.0073,-0.0366,-0.0220,0.0073,-0.0073,-0.0752,16.3214,-2.1538,-0.2662,-0.0317,-0.0220,-0.0122,1,1,1,1,1,1,1
0.5226,approach,2,to_lo,-0.06657,0.02460,1.47688,-0.04063,-0.04521,0.00362,-0.00324,-0.0024,0.1587,-0.0073,-0.0366,-0.0220,0.0073,-0.0073,-0.0752,16.3214,-2.1538,-0.2662,-0.0317,-0.0220,-0.0122,1,1,1,1,1,1,1
0.5628,approach,2,to_lo,-0.06657,0.03948,1.47612,-0.04215,-0.04521,0.00362,-0.00324,-0.0024,0.1148,-0.0024,-0.0366,-0.0073,0.0073,0.0073,-0.0752,15.4051,-1.5795,-0.1392,-0.0366,-0.0220,-0.0171,1,1,1,1,1,1,1
0.6046,approach,2,to_lo,-0.06657,0.03948,1.47612,-0.04215,-0.04521,0.00362,-0.00324,-0.0024,0.1148,-0.0024,-0.0366,-0.0073,0.0073,0.0073,-0.0615,15.4051,-1.5795,-0.1392,-0.0366,-0.0220,-0.0171,1,1,1,1,1,1,1
0.6424,approach,2,to_lo,-0.06657,0.03948,1.47612,-0.04215,-0.04521,0.00362,-0.00324,-0.0024,0.1148,-0.0024,-0.0366,-0.0073,0.0073,0.0073,-0.0615,15.4051,-1.5795,-0.1392,-0.0366,-0.0220,-0.0171,1,1,1,1,1,1,1
0.6827,approach,2,to_lo,-0.06657,0.04826,1.47574,-0.04330,-0.04521,0.00362,-0.00324,-0.0024,0.1099,-0.0122,-0.0073,-0.0073,-0.0073,-0.0073,-0.0752,14.8718,-1.3060,-0.0366,-0.0366,-0.0220,-0.0073,1,1,1,1,1,1,1
0.7227,approach,2,to_lo,-0.06657,0.04826,1.47574,-0.04330,-0.04521,0.00362,-0.00324,-0.0024,0.1099,-0.0122,-0.0073,-0.0073,-0.0073,-0.0073,-0.0752,14.8718,-1.3060,-0.0366,-0.0366,-0.0220,-0.0073,1,1,1,1,1,1,1
0.7624,approach,2,to_lo,-0.06657,0.04826,1.47574,-0.04330,-0.04521,0.00362,-0.00362,-0.0024,0.1099,-0.0122,-0.0073,-0.0073,-0.0073,-0.0220,-0.0752,14.8718,-1.3060,-0.0366,-0.0366,-0.0220,-0.0122,1,1,1,1,1,1,1
0.8024,approach,2,to_lo,-0.06657,0.05932,1.47574,-0.04406,-0.04521,0.00362,-0.00362,-0.0024,0.1001,-0.0073,0.0073,-0.0073,-0.0073,-0.0220,-0.1162,14.8718,-0.9641,0.0415,-0.0464,-0.0220,-0.0122,1,1,1,1,1,1,1
0.8425,approach,2,to_lo,-0.06657,0.05932,1.47574,-0.04406,-0.04521,0.00362,-0.00362,-0.0024,0.1001,-0.0073,0.0073,-0.0073,-0.0073,-0.0220,-0.1162,14.8718,-0.9641,0.0415,-0.0464,-0.0220,-0.0122,1,1,1,1,1,1,1
0.8825,approach,2,to_lo,-0.06657,0.06466,1.47574,-0.04330,-0.04521,0.00362,-0.00324,-0.0073,0.0659,0.0024,-0.0073,-0.0073,-0.0073,-0.0073,-0.1026,15.6103,-1.0188,0.0659,-0.0464,-0.0317,-0.0122,1,1,1,1,1,1,1
0.9224,approach,2,to_lo,-0.06657,0.06466,1.47574,-0.04330,-0.04521,0.00362,-0.00324,-0.0073,0.0659,0.0024,-0.0073,-0.0073,-0.0073,-0.0073,-0.1026,15.6103,-1.0188,0.0659,-0.0464,-0.0317,-0.0122,1,1,1,1,1,1,1
0.9627,approach,2,to_lo,-0.06657,0.06466,1.47574,-0.04330,-0.04521,0.00362,-0.00362,-0.0073,0.0659,0.0024,-0.0073,-0.0073,-0.0073,0.0073,-0.1026,15.6103,-1.0188,0.0659,-0.0464,-0.0317,-0.0073,1,1,1,1,1,1,1
1.0026,approach,2,to_lo,-0.06657,0.07305,1.47574,-0.04139,-0.04521,0.00362,-0.00362,-0.0024,0.0562,-0.0024,0.0220,-0.0073,-0.0220,0.0073,-0.1026,15.6786,-1.1692,0.0513,-0.0513,-0.0317,-0.0073,1,1,1,1,1,1,1
1.0424,approach,2,to_lo,-0.06657,0.07305,1.47574,-0.04139,-0.04521,0.00362,-0.00362,-0.0024,0.0562,-0.0024,0.0220,-0.0073,-0.0220,0.0073,-0.1026,15.6786,-1.1692,0.0513,-0.0513,-0.0317,-0.0073,1,1,1,1,1,1,1
1.0825,approach,2,to_lo,-0.06657,0.07839,1.47574,-0.04063,-0.04521,0.00362,-0.00362,0.0024,0.0562,-0.0024,-0.0073,0.0073,-0.0220,-0.0220,-0.1299,15.1453,-1.1009,0.0220,-0.0562,-0.0220,-0.0122,1,1,1,1,1,1,1
1.1224,approach,2,to_lo,-0.06657,0.07839,1.47574,-0.04063,-0.04521,0.00362,-0.00362,0.0024,0.0562,-0.0024,-0.0073,0.0073,-0.0220,-0.0220,-0.1299,15.1453,-1.1009,0.0220,-0.0562,-0.0220,-0.0122,1,1,1,1,1,1,1
1.1629,approach,2,to_lo,-0.06657,0.07839,1.47574,-0.04063,-0.04521,0.00362,-0.00362,0.0024,0.0562,-0.0024,-0.0073,0.0073,-0.0220,-0.0220,-0.1299,15.1453,-1.1009,0.0220,-0.0562,-0.0220,-0.0122,1,1,1,1,1,1,1
1.2029,approach,2,to_lo,-0.06657,0.08412,1.47574,-0.04101,-0.04521,0.00362,-0.00324,-0.0024,0.0562,0.0024,-0.0073,-0.0073,-0.0073,-0.0220,-0.1299,15.9521,-1.0462,0.0464,-0.0611,-0.0269,-0.0122,1,1,1,1,1,1,1
1.2428,approach,2,to_lo,-0.06657,0.08412,1.47574,-0.04101,-0.04521,0.00362,-0.00324,-0.0024,0.0562,0.0024,-0.0073,-0.0073,-0.0073,-0.0220,-0.1299,15.9521,-1.0462,0.0464,-0.0611,-0.0269,-0.0122,1,1,1,1,1,1,1
1.2826,approach,2,to_lo,-0.06657,0.08793,1.47574,-0.04101,-0.04521,0.00362,-0.00362,-0.0073,0.0269,-0.0024,0.0073,-0.0220,-0.0073,-0.0220,-0.1436,15.5282,-1.0872,0.0513,-0.0611,-0.0317,-0.0073,1,1,1,1,1,1,1
1.3228,approach,2,to_lo,-0.06657,0.08793,1.47574,-0.04101,-0.04521,0.00362,-0.00362,-0.0073,0.0269,-0.0024,0.0073,-0.0220,-0.0073,-0.0220,-0.1436,15.5282,-1.0872,0.0513,-0.0611,-0.0317,-0.0073,1,1,1,1,1,1,1
1.3624,approach,2,to_lo,-0.06657,0.08793,1.47574,-0.04101,-0.04521,0.00362,-0.00362,-0.0073,0.0269,-0.0024,0.0073,-0.0220,-0.0073,-0.0220,-0.1436,15.5282,-1.0872,0.0513,-0.0611,-0.0317,-0.0073,1,1,1,1,1,1,1
1.4024,approach,2,to_lo,-0.06657,0.09327,1.47574,-0.04101,-0.04521,0.00362,-0.00362,0.0024,0.0464,-0.0024,-0.0073,-0.0073,-0.0073,-0.0220,-0.1436,14.9675,-1.0598,0.0611,-0.0659,-0.0317,-0.0122,1,1,1,1,1,1,1
1.4427,approach,2,to_lo,-0.06657,0.09327,1.47574,-0.04101,-0.04521,0.00362,-0.00362,0.0024,0.0464,-0.0024,-0.0073,-0.0073,-0.0073,-0.0220,-0.1436,14.9675,-1.0598,0.0611,-0.0659,-0.0317,-0.0122,1,1,1,1,1,1,1
1.4828,approach,2,to_lo,-0.06657,0.09556,1.47574,-0.04101,-0.04521,0.00362,-0.00324,-0.0024,0.0122,-0.0024,-0.0220,-0.0073,-0.0073,-0.0073,-0.1573,15.5692,-1.0462,0.0708,-0.0659,-0.0317,-0.0122,1,1,1,1,1,1,1
1.5227,approach,2,to_lo,-0.06657,0.09556,1.47574,-0.04101,-0.04521,0.00362,-0.00324,-0.0024,0.0122,-0.0024,-0.0220,-0.0073,-0.0073,-0.0073,-0.1573,15.5692,-1.0462,0.0708,-0.0659,-0.0317,-0.0122,1,1,1,1,1,1,1
1.5630,approach,2,to_lo,-0.06657,0.09556,1.47574,-0.04101,-0.04521,0.00362,-0.00324,-0.0024,0.0122,-0.0024,-0.0220,-0.0073,-0.0073,-0.0073,-0.1573,15.5692,-1.0462,0.0708,-0.0659,-0.0317,-0.0122,1,1,1,1,1,1,1
1.6029,approach,2,to_lo,-0.06657,0.09937,1.47574,-0.04101,-0.04521,0.00362,-0.00362,0.0024,0.0122,-0.0024,-0.0073,0.0073,0.0073,-0.0073,-0.1709,15.5419,-1.0735,0.0855,-0.0659,-0.0366,-0.0122,1,1,1,1,1,1,1
1.6429,approach,2,to_lo,-0.06657,0.09937,1.47574,-0.04101,-0.04521,0.00362,-0.00362,0.0024,0.0122,-0.0024,-0.0073,0.0073,0.0073,-0.0073,-0.1709,15.5419,-1.0735,0.0855,-0.0659,-0.0366,-0.0122,1,1,1,1,1,1,1
1.6832,approach,2,to_lo,-0.06657,0.10090,1.47574,-0.04101,-0.04521,0.00362,-0.00324,-0.0024,0.0171,-0.0024,-0.0220,-0.0073,-0.0073,0.0073,-0.1846,15.9248,-1.0188,0.1001,-0.0659,-0.0317,-0.0122,1,1,1,1,1,1,1
2.1859,sweep,2,+up,-0.06657,0.10205,1.47574,-0.04101,-0.04521,0.00362,-0.00324,-0.0024,0.0415,-0.0024,-0.0220,-0.0366,-0.0073,-0.0073,-0.1846,15.8017,-1.0325,0.1001,-0.0708,-0.0317,-0.0122,1,1,1,1,1,1,1
2.2263,sweep,2,+up,-0.06657,0.10205,1.47574,-0.04101,-0.04521,0.00362,-0.00324,-0.0024,0.0415,-0.0024,-0.0220,-0.0366,-0.0073,-0.0073,-0.1846,15.8017,-1.0325,0.1001,-0.0708,-0.0317,-0.0122,1,1,1,1,1,1,1
2.2666,sweep,2,+up,-0.06657,0.12493,1.47574,-0.04063,-0.04521,0.00362,-0.00324,-0.0024,0.2173,0.0024,0.0073,-0.0073,-0.0220,-0.0073,-0.2667,16.6769,-1.1829,0.1538,-0.0855,-0.0269,-0.0122,1,1,1,1,1,1,1
2.3063,sweep,2,+up,-0.06657,0.12493,1.47574,-0.04063,-0.04521,0.00362,-0.00324,-0.0024,0.2173,0.0024,0.0073,-0.0073,-0.0220,-0.0073,-0.2667,16.6769,-1.1829,0.1538,-0.0855,-0.0269,-0.0122,1,1,1,1,1,1,1
2.3461,sweep,2,+up,-0.06657,0.12493,1.47574,-0.04063,-0.04521,0.00362,-0.00324,-0.0024,0.2173,0.0024,0.0073,-0.0073,-0.0220,-0.0073,-0.2667,16.6769,-1.1829,0.1538,-0.0855,-0.0269,-0.0122,1,1,1,1,1,1,1
2.3857,sweep,2,+up,-0.06657,0.14286,1.47574,-0.03643,-0.04559,0.00362,-0.00324,-0.0024,0.1978,-0.0024,-0.0220,-0.0073,-0.0366,0.0073,-0.2530,14.0650,-1.0872,-0.0708,-0.0904,-0.0317,-0.0122,1,1,1,1,1,1,1
2.4257,sweep,2,+up,-0.06657,0.14286,1.47574,-0.03643,-0.04559,0.00362,-0.00324,-0.0024,0.1978,-0.0024,-0.0220,-0.0073,-0.0366,0.0073,-0.2530,14.0650,-1.0872,-0.0708,-0.0904,-0.0317,-0.0122,1,1,1,1,1,1,1
2.4660,sweep,2,+up,-0.06657,0.14286,1.47574,-0.04444,-0.04521,0.00362,-0.00324,-0.0024,0.1978,-0.0024,-0.0220,0.0073,-0.0073,-0.0073,-0.2530,14.0650,-1.0872,0.2466,-0.0855,-0.0366,-0.0122,1,1,1,1,1,1,1
2.5059,sweep,2,+up,-0.06657,0.16575,1.47536,-0.04444,-0.04521,0.00362,-0.00324,-0.0024,0.1978,-0.0122,-0.0220,0.0073,-0.0073,-0.0073,-0.2803,15.4598,-0.7316,0.2466,-0.0855,-0.0366,-0.0122,1,1,1,1,1,1,1
2.5462,sweep,2,+up,-0.06657,0.16575,1.47536,-0.04444,-0.04521,0.00362,-0.00324,-0.0024,0.1978,-0.0122,-0.0220,0.0073,-0.0073,-0.0073,-0.2803,15.4598,-0.7316,0.2466,-0.0855,-0.0366,-0.0122,1,1,1,1,1,1,1
2.5858,sweep,2,+up,-0.06657,0.18330,1.47459,-0.04368,-0.04521,0.00362,-0.00324,-0.0024,0.1832,-0.0024,-0.0220,-0.0073,-0.0366,-0.0073,-0.2530,13.9009,-0.1573,0.3053,-0.0904,-0.0366,-0.0122,1,1,1,1,1,1,1
2.6260,sweep,2,+up,-0.06657,0.18330,1.47459,-0.04368,-0.04521,0.00362,-0.00324,-0.0024,0.1832,-0.0024,-0.0220,-0.0073,-0.0366,-0.0073,-0.2530,13.9009,-0.1573,0.3053,-0.0904,-0.0366,-0.0122,1,1,1,1,1,1,1
2.6661,sweep,2,+up,-0.06657,0.18330,1.47459,-0.04368,-0.04521,0.00362,-0.00324,-0.0024,0.1832,-0.0024,-0.0220,-0.0073,0.0073,-0.0073,-0.2530,13.9009,-0.1573,0.3053,-0.0952,-0.0366,-0.0122,1,1,1,1,1,1,1
2.7057,sweep,2,+up,-0.06657,0.20771,1.47459,-0.04330,-0.04521,0.00362,-0.00324,-0.0024,0.2027,-0.0122,-0.0220,-0.0073,0.0073,-0.0073,-0.2530,13.2034,0.0068,0.4420,-0.0952,-0.0366,-0.0122,1,1,1,1,1,1,1
2.7458,sweep,2,+up,-0.06657,0.20771,1.47459,-0.04330,-0.04521,0.00362,-0.00324,-0.0024,0.2027,-0.0122,-0.0220,-0.0073,0.0073,-0.0073,-0.2530,13.2034,0.0068,0.4420,-0.0952,-0.0366,-0.0122,1,1,1,1,1,1,1
2.7857,sweep,2,+up,-0.06657,0.22488,1.47269,-0.04482,-0.04521,0.00362,-0.00362,-0.0024,0.2173,-0.0220,-0.0659,-0.0073,-0.0073,-0.0073,-0.2667,11.4667,1.9487,0.6667,-0.0952,-0.0415,-0.0122,1,1,1,1,1,1,1
2.8258,sweep,2,+up,-0.06657,0.22488,1.47269,-0.04482,-0.04521,0.00362,-0.00362,-0.0024,0.2173,-0.0220,-0.0659,-0.0073,-0.0073,-0.0073,-0.2667,11.4667,1.9487,0.6667,-0.0952,-0.0415,-0.0122,1,1,1,1,1,1,1
2.8657,sweep,2,+up,-0.06657,0.22488,1.47269,-0.04482,-0.04521,0.00362,-0.00362,-0.0024,0.2173,-0.0220,-0.0659,-0.0073,-0.0073,-0.0073,-0.2667,11.4667,1.9487,0.6667,-0.0952,-0.0415,-0.0122,1,1,1,1,1,1,1
2.9058,sweep,2,+up,-0.06657,0.24929,1.47269,-0.04597,-0.04521,0.00362,-0.00324,0.0024,0.1636,0.0024,0.0513,-0.0073,0.0073,-0.0073,-0.3077,11.1385,2.7556,1.0867,-0.0952,-0.0415,-0.0073,1,1,1,1,1,1,1
2.9458,sweep,2,+up,-0.06657,0.24929,1.47269,-0.04597,-0.04521,0.00362,-0.00324,0.0024,0.1636,0.0024,0.0513,-0.0073,0.0073,-0.0073,-0.3077,11.1385,2.7556,1.0867,-0.0952,-0.0415,-0.0073,1,1,1,1,1,1,1
2.9859,sweep,2,+up,-0.06657,0.26379,1.47421,-0.03796,-0.04521,0.00362,-0.00324,0.0024,0.2027,0.0171,0.0220,-0.0073,-0.0073,-0.0220,-0.3214,13.1487,0.8684,0.4860,-0.1050,-0.0464,-0.0073,1,1,1,1,1,1,1
3.0257,sweep,2,+up,-0.06657,0.26379,1.47421,-0.03796,-0.04521,0.00362,-0.00324,0.0024,0.2027,0.0171,0.0220,-0.0073,-0.0073,-0.0220,-0.3214,13.1487,0.8684,0.4860,-0.1050,-0.0464,-0.0073,1,1,1,1,1,1,1
3.0657,sweep,2,+up,-0.06657,0.26379,1.47421,-0.03796,-0.04521,0.00362,-0.00324,0.0024,0.2027,0.0171,0.0220,-0.0073,-0.0073,-0.0220,-0.3214,13.1487,0.8684,0.4860,-0.1050,-0.0464,-0.0073,1,1,1,1,1,1,1
3.1059,sweep,2,+up,-0.06657,0.28897,1.47421,-0.04101,-0.04559,0.00362,-0.00324,-0.0024,0.2271,-0.0171,-0.0513,-0.0073,-0.0220,-0.0073,-0.2667,11.2342,1.4427,0.6667,-0.0904,-0.0513,-0.0122,1,1,1,1,1,1,1
3.1456,sweep,2,+up,-0.06657,0.28897,1.47421,-0.04101,-0.04559,0.00362,-0.00324,-0.0024,0.2271,-0.0171,-0.0513,-0.0073,-0.0220,-0.0073,-0.2667,11.2342,1.4427,0.6667,-0.0904,-0.0513,-0.0122,1,1,1,1,1,1,1
3.1859,sweep,2,+up,-0.06695,0.30652,1.47345,-0.04330,-0.04521,0.00362,-0.00324,-0.0024,0.1832,-0.0024,-0.0073,-0.0073,-0.0073,-0.0073,-0.2256,9.6342,2.2359,0.9158,-0.0904,-0.0513,-0.0122,1,1,1,1,1,1,1
3.2259,sweep,2,+up,-0.06695,0.30652,1.47345,-0.04330,-0.04521,0.00362,-0.00324,-0.0024,0.1832,-0.0024,-0.0073,-0.0073,-0.0073,-0.0073,-0.2256,9.6342,2.2359,0.9158,-0.0904,-0.0513,-0.0122,1,1,1,1,1,1,1
3.2660,sweep,2,+up,-0.06695,0.30652,1.47345,-0.04330,-0.04521,0.00362,-0.00324,-0.0024,0.1832,-0.0024,-0.0073,-0.0073,-0.0073,-0.0073,-0.2256,9.6342,2.2359,0.9158,-0.0904,-0.0513,-0.0122,1,1,1,1,1,1,1
3.3057,sweep,2,+up,-0.06657,0.32902,1.47383,-0.04025,-0.04521,0.00362,-0.00362,-0.0024,0.1929,0.0024,0.0073,-0.0073,0.0073,-0.0073,-0.3077,11.5624,2.3316,0.7546,-0.1197,-0.0562,-0.0122,1,1,1,1,1,1,1
3.3462,sweep,2,+up,-0.06657,0.32902,1.47383,-0.04025,-0.04521,0.00362,-0.00362,-0.0024,0.1929,0.0024,0.0073,-0.0073,0.0073,-0.0073,-0.3077,11.5624,2.3316,0.7546,-0.1197,-0.0562,-0.0122,1,1,1,1,1,1,1
3.3860,sweep,2,+up,-0.06657,0.34543,1.47383,-0.04063,-0.04521,0.00362,-0.00324,-0.0024,0.1783,-0.0024,-0.0220,-0.0073,-0.0073,-0.0073,-0.2803,10.9333,2.5368,0.7985,-0.1099,-0.0562,-0.0122,1,1,1,1,1,1,1
3.4257,sweep,2,+up,-0.06657,0.34543,1.47383,-0.04063,-0.04521,0.00362,-0.00324,-0.0024,0.1783,-0.0024,-0.0220,-0.0073,-0.0073,-0.0073,-0.2803,10.9333,2.5368,0.7985,-0.1099,-0.0562,-0.0122,1,1,1,1,1,1,1
3.4656,sweep,2,+up,-0.06657,0.34543,1.47383,-0.04063,-0.04521,0.00362,-0.00324,-0.0024,0.1783,-0.0024,-0.0220,-0.0073,-0.0073,-0.0073,-0.2803,10.9333,2.5368,0.7985,-0.1099,-0.0562,-0.0122,1,1,1,1,1,1,1
3.5058,sweep,2,+up,-0.06695,0.37060,1.47383,-0.04177,-0.04521,0.00362,-0.00324,-0.0024,0.2076,-0.0073,-0.0220,0.0073,-0.0073,0.0073,-0.2393,9.5385,2.9880,0.9353,-0.1050,-0.0611,-0.0073,1,1,1,1,1,1,1
3.5456,sweep,2,+up,-0.06695,0.37060,1.47383,-0.04177,-0.04521,0.00362,-0.00324,-0.0024,0.2076,-0.0073,-0.0220,0.0073,-0.0073,0.0073,-0.2393,9.5385,2.9880,0.9353,-0.1050,-0.0611,-0.0073,1,1,1,1,1,1,1
3.5858,sweep,2,+up,-0.06657,0.38586,1.47383,-0.04139,-0.04521,0.00362,-0.00324,-0.0024,0.2076,-0.0024,0.0073,-0.0073,-0.0073,-0.0073,-0.2667,10.3453,3.2068,0.9304,-0.1245,-0.0659,-0.0024,1,1,1,1,1,1,1
3.6259,sweep,2,+up,-0.06657,0.38586,1.47383,-0.04139,-0.04521,0.00362,-0.00324,-0.0024,0.2076,-0.0024,0.0073,-0.0073,-0.0073,-0.0073,-0.2667,10.3453,3.2068,0.9304,-0.1245,-0.0659,-0.0024,1,1,1,1,1,1,1
3.6656,sweep,2,+up,-0.06657,0.38586,1.47383,-0.04139,-0.04521,0.00362,-0.00324,-0.0024,0.2076,-0.0024,0.0073,-0.0073,-0.0073,-0.0073,-0.2667,10.3453,3.2068,0.9304,-0.1245,-0.0659,-0.0024,1,1,1,1,1,1,1
3.7060,sweep,2,+up,-0.06657,0.41066,1.47383,-0.04139,-0.04521,0.00362,-0.00324,-0.0024,0.1783,-0.0024,-0.0220,-0.0073,0.0220,-0.0073,-0.2803,9.3470,3.4667,0.9792,-0.1245,-0.0659,-0.0073,1,1,1,1,1,1,1
3.7457,sweep,2,+up,-0.06657,0.41066,1.47383,-0.04139,-0.04521,0.00362,-0.00324,-0.0024,0.1783,-0.0024,-0.0220,-0.0073,0.0220,-0.0073,-0.2803,9.3470,3.4667,0.9792,-0.1245,-0.0659,-0.0073,1,1,1,1,1,1,1
3.7858,sweep,2,+up,-0.06657,0.42668,1.47383,-0.04139,-0.04521,0.00362,-0.00324,-0.0024,0.2027,0.0024,-0.0073,0.0073,0.0073,-0.0073,-0.2803,9.1282,3.7265,1.0281,-0.1294,-0.0708,-0.0073,1,1,1,1,1,1,1
3.8257,sweep,2,+up,-0.06657,0.42668,1.47383,-0.04139,-0.04521,0.00362,-0.00324,-0.0024,0.2027,0.0024,-0.0073,0.0073,0.0073,-0.0073,-0.2803,9.1282,3.7265,1.0281,-0.1294,-0.0708,-0.0073,1,1,1,1,1,1,1
3.8657,sweep,2,+up,-0.06657,0.42668,1.47383,-0.04139,-0.04521,0.00362,-0.00324,-0.0024,0.2027,0.0024,-0.0073,0.0073,0.0073,-0.0073,-0.2803,9.1282,3.7265,1.0281,-0.1294,-0.0708,-0.0073,1,1,1,1,1,1,1
3.9058,sweep,2,+up,-0.06657,0.45071,1.47383,-0.04139,-0.04521,0.00362,-0.00324,-0.0024,0.1929,-0.0073,-0.0073,-0.0073,0.0073,0.0073,-0.2940,9.2513,4.0000,1.0672,-0.1392,-0.0708,-0.0073,1,1,1,1,1,1,1
3.9459,sweep,2,+up,-0.06657,0.45071,1.47383,-0.04139,-0.04521,0.00362,-0.00324,-0.0024,0.1929,-0.0073,-0.0073,-0.0073,0.0073,0.0073,-0.2940,9.2513,4.0000,1.0672,-0.1392,-0.0708,-0.0073,1,1,1,1,1,1,1
3.9860,sweep,2,+up,-0.06657,0.46750,1.47383,-0.04139,-0.04521,0.00362,-0.00324,-0.0024,0.2222,-0.0024,0.0073,-0.0073,-0.0073,-0.0220,-0.3077,8.3624,4.2325,1.1160,-0.1490,-0.0708,-0.0024,1,1,1,1,1,1,1
4.0261,sweep,2,+up,-0.06657,0.46750,1.47383,-0.04139,-0.04521,0.00362,-0.00324,-0.0024,0.2222,-0.0024,0.0073,-0.0073,-0.0073,-0.0220,-0.3077,8.3624,4.2325,1.1160,-0.1490,-0.0708,-0.0024,1,1,1,1,1,1,1
4.0657,sweep,2,+up,-0.06657,0.46750,1.47383,-0.04139,-0.04521,0.00362,-0.00324,-0.0024,0.2222,-0.0024,0.0073,-0.0073,-0.0073,-0.0220,-0.3077,8.3624,4.2325,1.1160,-0.1490,-0.0708,-0.0024,1,1,1,1,1,1,1
4.1056,sweep,2,+up,-0.06657,0.49153,1.47421,-0.04139,-0.04521,0.00362,-0.00324,-0.0024,0.1929,-0.0024,-0.0073,-0.0073,-0.0220,-0.0073,-0.3214,8.3214,4.4923,1.1600,-0.1538,-0.0806,-0.0024,1,1,1,1,1,1,1
4.1455,sweep,2,+up,-0.06657,0.49153,1.47421,-0.04139,-0.04521,0.00362,-0.00324,-0.0024,0.1929,-0.0024,-0.0073,-0.0073,-0.0220,-0.0073,-0.3214,8.3214,4.4923,1.1600,-0.1538,-0.0806,-0.0024,1,1,1,1,1,1,1
4.1857,sweep,2,+up,-0.06695,0.50755,1.47421,-0.04139,-0.04521,0.00362,-0.00324,-0.0024,0.1929,-0.0024,-0.0073,-0.0073,-0.0073,-0.0073,-0.3077,8.0479,4.6701,1.1941,-0.1490,-0.0952,-0.0073,1,1,1,1,1,1,1
4.2258,sweep,2,+up,-0.06695,0.50755,1.47421,-0.04139,-0.04521,0.00362,-0.00324,-0.0024,0.1929,-0.0024,-0.0073,-0.0073,-0.0073,-0.0073,-0.3077,8.0479,4.6701,1.1941,-0.1490,-0.0952,-0.0073,1,1,1,1,1,1,1
4.2660,sweep,2,+up,-0.06695,0.50755,1.47421,-0.04139,-0.04521,0.00362,-0.00324,-0.0024,0.1929,-0.0024,-0.0073,-0.0073,-0.0073,-0.0073,-0.3077,8.0479,4.6701,1.1941,-0.1490,-0.0952,-0.0073,1,1,1,1,1,1,1
4.3057,sweep,2,+up,-0.06657,0.53235,1.47421,-0.04139,-0.04521,0.00362,-0.00324,-0.0024,0.2320,-0.0024,-0.0073,-0.0073,-0.0073,-0.0073,-0.2803,7.2547,4.9573,1.2625,-0.1636,-0.1001,-0.0073,1,1,1,1,1,1,1
4.3459,sweep,2,+up,-0.06657,0.53235,1.47421,-0.04139,-0.04521,0.00362,-0.00324,-0.0024,0.2320,-0.0024,-0.0073,-0.0073,-0.0073,-0.0073,-0.2803,7.2547,4.9573,1.2625,-0.1636,-0.1001,-0.0073,1,1,1,1,1,1,1
4.3857,sweep,2,+up,-0.06657,0.54837,1.47421,-0.04139,-0.04521,0.00362,-0.00362,-0.0024,0.1929,0.0024,-0.0073,-0.0073,-0.0073,-0.0073,-0.2940,7.2274,5.1487,1.3016,-0.1734,-0.1099,-0.0024,1,1,1,1,1,1,1
4.4260,sweep,2,+up,-0.06657,0.54837,1.47421,-0.04139,-0.04521,0.00362,-0.00362,-0.0024,0.1929,0.0024,-0.0073,-0.0073,-0.0073,-0.0073,-0.2940,7.2274,5.1487,1.3016,-0.1734,-0.1099,-0.0024,1,1,1,1,1,1,1
4.4661,sweep,2,+up,-0.06657,0.54837,1.47421,-0.04139,-0.04521,0.00362,-0.00362,-0.0024,0.1929,0.0024,-0.0073,-0.0073,-0.0073,-0.0073,-0.2940,7.2274,5.1487,1.3016,-0.1734,-0.1099,-0.0024,1,1,1,1,1,1,1
4.5058,sweep,2,+up,-0.06695,0.57279,1.47421,-0.04139,-0.04521,0.00362,-0.00362,-0.0024,0.1929,-0.0024,-0.0220,-0.0073,-0.0073,-0.0073,-0.3077,6.7077,5.3675,1.3553,-0.1832,-0.1197,-0.0024,1,1,1,1,1,1,1
4.5459,sweep,2,+up,-0.06695,0.57279,1.47421,-0.04139,-0.04521,0.00362,-0.00362,-0.0024,0.1929,-0.0024,-0.0220,-0.0073,-0.0073,-0.0073,-0.3077,6.7077,5.3675,1.3553,-0.1832,-0.1197,-0.0024,1,1,1,1,1,1,1
4.5857,sweep,2,+up,-0.06657,0.58881,1.47421,-0.04139,-0.04521,0.00362,-0.00324,-0.0024,0.1929,0.0024,-0.0073,-0.0073,-0.0073,-0.0073,-0.3077,6.6803,5.4769,1.3944,-0.1832,-0.1245,-0.0024,1,1,1,1,1,1,1
4.6257,sweep,2,+up,-0.06657,0.58881,1.47421,-0.04139,-0.04521,0.00362,-0.00324,-0.0024,0.1929,0.0024,-0.0073,-0.0073,-0.0073,-0.0073,-0.3077,6.6803,5.4769,1.3944,-0.1832,-0.1245,-0.0024,1,1,1,1,1,1,1
4.6659,sweep,2,+up,-0.06657,0.58881,1.47421,-0.04139,-0.04521,0.00362,-0.00324,-0.0024,0.1929,0.0024,-0.0073,-0.0073,-0.0073,-0.0073,-0.3077,6.6803,5.4769,1.3944,-0.1832,-0.1245,-0.0024,1,1,1,1,1,1,1
4.7060,sweep,2,+up,-0.06657,0.61322,1.47459,-0.04139,-0.04521,0.00362,-0.00324,0.0024,0.1929,0.0024,-0.0073,-0.0073,-0.0073,-0.0073,-0.2940,6.2838,5.6137,1.4481,-0.1880,-0.1294,0.0024,1,1,1,1,1,1,1
4.7457,sweep,2,+up,-0.06657,0.61322,1.47459,-0.04139,-0.04521,0.00362,-0.00324,0.0024,0.1929,0.0024,-0.0073,-0.0073,-0.0073,-0.0073,-0.2940,6.2838,5.6137,1.4481,-0.1880,-0.1294,0.0024,1,1,1,1,1,1,1
4.7860,sweep,2,+up,-0.06695,0.62886,1.47459,-0.04139,-0.04521,0.00362,-0.00324,-0.0024,0.2076,-0.0024,-0.0073,-0.0073,0.0073,0.0073,-0.2667,5.7778,5.7094,1.4823,-0.1929,-0.1343,-0.0024,1,1,1,1,1,1,1
4.8256,sweep,2,+up,-0.06695,0.62886,1.47459,-0.04139,-0.04521,0.00362,-0.00324,-0.0024,0.2076,-0.0024,-0.0073,-0.0073,0.0073,0.0073,-0.2667,5.7778,5.7094,1.4823,-0.1929,-0.1343,-0.0024,1,1,1,1,1,1,1
4.8658,sweep,2,+up,-0.06695,0.62886,1.47459,-0.04139,-0.04521,0.00362,-0.00324,-0.0024,0.2076,-0.0024,-0.0073,-0.0073,0.0073,0.0073,-0.2667,5.7778,5.7094,1.4823,-0.1929,-0.1343,-0.0024,1,1,1,1,1,1,1
4.9061,sweep,2,+up,-0.06657,0.64984,1.47459,-0.04139,-0.04521,0.00362,-0.00324,0.0024,0.1587,-0.0073,-0.0220,-0.0073,-0.0073,-0.0073,-0.2667,4.9709,5.9282,1.5507,-0.2027,-0.1441,0.0024,1,1,1,1,1,1,1
4.9464,sweep,2,+up,-0.06657,0.64984,1.47459,-0.04139,-0.04521,0.00362,-0.00324,0.0024,0.1587,-0.0073,-0.0220,-0.0073,-0.0073,-0.0073,-0.2667,4.9709,5.9282,1.5507,-0.2027,-0.1441,0.0024,1,1,1,1,1,1,1
4.9861,sweep,2,+up,-0.06695,0.66167,1.47459,-0.04139,-0.04521,0.00362,-0.00324,-0.0024,0.1392,-0.0024,-0.0073,-0.0073,0.0073,0.0073,-0.2803,5.2444,6.1333,1.5946,-0.2173,-0.1538,-0.0024,1,1,1,1,1,1,1
5.0262,sweep,2,+up,-0.06695,0.66167,1.47459,-0.04139,-0.04521,0.00362,-0.00324,-0.0024,0.1392,-0.0024,-0.0073,-0.0073,0.0073,0.0073,-0.2803,5.2444,6.1333,1.5946,-0.2173,-0.1538,-0.0024,1,1,1,1,1,1,1
5.0659,sweep,2,+up,-0.06695,0.66167,1.47459,-0.04139,-0.04521,0.00362,-0.00324,-0.0024,0.1392,-0.0024,-0.0073,-0.0073,0.0073,0.0073,-0.2803,5.2444,6.1333,1.5946,-0.2173,-0.1538,-0.0024,1,1,1,1,1,1,1
5.1065,sweep,2,+up,-0.06695,0.67693,1.47459,-0.04139,-0.04521,0.00362,-0.00324,-0.0024,0.1197,-0.0024,-0.0073,0.0073,-0.0073,-0.0220,-0.2940,5.0256,6.3248,1.6435,-0.2222,-0.1538,-0.0073,1,1,1,1,1,1,1
5.1462,sweep,2,+up,-0.06695,0.67693,1.47459,-0.04139,-0.04521,0.00362,-0.00324,-0.0024,0.1197,-0.0024,-0.0073,0.0073,-0.0073,-0.0220,-0.2940,5.0256,6.3248,1.6435,-0.2222,-0.1538,-0.0073,1,1,1,1,1,1,1
5.1859,sweep,2,+up,-0.06695,0.68608,1.47459,-0.04139,-0.04521,0.00362,-0.00324,-0.0024,0.0952,-0.0024,0.0073,-0.0220,-0.0073,-0.0073,-0.3077,5.0256,6.4342,1.6825,-0.2271,-0.1685,-0.0073,1,1,1,1,1,1,1
5.2264,sweep,2,+up,-0.06695,0.68608,1.47459,-0.04139,-0.04521,0.00362,-0.00324,-0.0024,0.0952,-0.0024,0.0073,-0.0220,-0.0073,-0.0073,-0.3077,5.0256,6.4342,1.6825,-0.2271,-0.1685,-0.0073,1,1,1,1,1,1,1
5.2662,sweep,2,+up,-0.06695,0.68608,1.47459,-0.04139,-0.04521,0.00362,-0.00324,-0.0024,0.0952,-0.0024,0.0073,-0.0220,-0.0073,-0.0073,-0.3077,5.0256,6.4342,1.6825,-0.2271,-0.1685,-0.0073,1,1,1,1,1,1,1
5.3061,sweep,2,+up,-0.06695,0.69791,1.47459,-0.04139,-0.04521,0.00362,-0.00324,-0.0024,0.1001,-0.0024,0.0073,-0.0073,-0.0220,0.0073,-0.2803,4.6291,6.6120,1.7265,-0.2271,-0.1783,-0.0073,1,1,1,1,1,1,1
5.3458,sweep,2,+up,-0.06695,0.69791,1.47459,-0.04139,-0.04521,0.00362,-0.00324,-0.0024,0.1001,-0.0024,0.0073,-0.0073,-0.0220,0.0073,-0.2803,4.6291,6.6120,1.7265,-0.2271,-0.1783,-0.0073,1,1,1,1,1,1,1
5.3861,sweep,2,+up,-0.06695,0.70478,1.47459,-0.04139,-0.04521,0.00362,-0.00324,-0.0024,0.0806,0.0024,-0.0073,-0.0073,-0.0073,0.0073,-0.2940,4.7795,6.6940,1.7558,-0.2369,-0.1880,-0.0073,1,1,1,1,1,1,1
5.4258,sweep,2,+up,-0.06695,0.70478,1.47459,-0.04139,-0.04521,0.00362,-0.00324,-0.0024,0.0806,0.0024,-0.0073,-0.0073,-0.0073,0.0073,-0.2940,4.7795,6.6940,1.7558,-0.2369,-0.1880,-0.0073,1,1,1,1,1,1,1
5.4659,sweep,2,+up,-0.06695,0.70478,1.47459,-0.04139,-0.04521,0.00362,-0.00324,-0.0024,0.0806,0.0024,-0.0073,-0.0073,-0.0073,0.0073,-0.2940,4.7795,6.6940,1.7558,-0.2369,-0.1880,-0.0073,1,1,1,1,1,1,1
5.5056,sweep,2,+up,-0.06695,0.71393,1.47459,-0.04101,-0.04521,0.00362,-0.00362,-0.0073,0.0659,-0.0024,-0.0073,-0.0073,-0.0073,-0.0073,-0.2803,4.4103,6.8991,1.7802,-0.2515,-0.2076,-0.0024,1,1,1,1,1,1,1
5.5459,sweep,2,+up,-0.06695,0.71393,1.47459,-0.04101,-0.04521,0.00362,-0.00362,-0.0073,0.0659,-0.0024,-0.0073,-0.0073,-0.0073,-0.0073,-0.2803,4.4103,6.8991,1.7802,-0.2515,-0.2076,-0.0024,1,1,1,1,1,1,1
5.5860,sweep,2,+up,-0.06695,0.71889,1.47459,-0.04101,-0.04521,0.00362,-0.00324,-0.0024,0.0562,-0.0024,-0.0073,-0.0073,-0.0073,-0.0073,-0.2940,4.5470,7.0085,1.8046,-0.2613,-0.2027,-0.0073,1,1,1,1,1,1,1
5.6262,sweep,2,+up,-0.06695,0.71889,1.47459,-0.04101,-0.04521,0.00362,-0.00324,-0.0024,0.0562,-0.0024,-0.0073,-0.0073,-0.0073,-0.0073,-0.2940,4.5470,7.0085,1.8046,-0.2613,-0.2027,-0.0073,1,1,1,1,1,1,1
5.6659,sweep,2,+up,-0.06695,0.71889,1.47459,-0.04101,-0.04521,0.00362,-0.00324,-0.0024,0.0562,-0.0024,-0.0073,-0.0073,-0.0073,-0.0073,-0.2940,4.5470,7.0085,1.8046,-0.2613,-0.2027,-0.0073,1,1,1,1,1,1,1
5.7058,sweep,2,+up,-0.06695,0.72576,1.47459,-0.04101,-0.04521,0.00362,-0.00324,-0.0073,0.0611,-0.0024,-0.0073,-0.0073,-0.0073,-0.0073,-0.2940,4.1504,7.1726,1.8144,-0.2711,-0.2076,-0.0024,1,1,1,1,1,1,1
5.7458,sweep,2,+up,-0.06695,0.72576,1.47459,-0.04101,-0.04521,0.00362,-0.00324,-0.0073,0.0611,-0.0024,-0.0073,-0.0073,-0.0073,-0.0073,-0.2940,4.1504,7.1726,1.8144,-0.2711,-0.2076,-0.0024,1,1,1,1,1,1,1
5.7862,sweep,2,+up,-0.06695,0.72957,1.47459,-0.04101,-0.04521,0.00362,-0.00324,-0.0073,0.0366,-0.0024,0.0073,-0.0220,0.0073,-0.0073,-0.3077,4.2051,7.2684,1.8388,-0.2857,-0.2173,0.0024,1,1,1,1,1,1,1
5.8260,sweep,2,+up,-0.06695,0.72957,1.47459,-0.04101,-0.04521,0.00362,-0.00324,-0.0073,0.0366,-0.0024,0.0073,-0.0220,0.0073,-0.0073,-0.3077,4.2051,7.2684,1.8388,-0.2857,-0.2173,0.0024,1,1,1,1,1,1,1
5.8661,sweep,2,+up,-0.06695,0.72957,1.47459,-0.04101,-0.04521,0.00362,-0.00324,-0.0073,0.0366,-0.0024,0.0073,-0.0220,0.0073,-0.0073,-0.3077,4.2051,7.2684,1.8388,-0.2857,-0.2173,0.0024,1,1,1,1,1,1,1
5.9059,sweep,2,+up,-0.06695,0.73491,1.47459,-0.04101,-0.04521,0.00362,-0.00324,0.0024,0.0171,-0.0024,-0.0220,-0.0220,0.0220,0.0073,-0.3077,4.0274,7.4051,1.8535,-0.3004,-0.2125,-0.0024,1,1,1,1,1,1,1
5.9460,sweep,2,+up,-0.06695,0.73491,1.47459,-0.04101,-0.04521,0.00362,-0.00324,0.0024,0.0171,-0.0024,-0.0220,-0.0220,0.0220,0.0073,-0.3077,4.0274,7.4051,1.8535,-0.3004,-0.2125,-0.0024,1,1,1,1,1,1,1
5.9862,sweep,2,+up,-0.06695,0.73758,1.47459,-0.04101,-0.04521,0.00362,-0.00324,-0.0024,0.0317,-0.0024,-0.0073,-0.0073,-0.0220,-0.0073,-0.2940,4.5197,7.5282,1.8632,-0.3101,-0.2125,-0.0024,1,1,1,1,1,1,1
6.0257,sweep,2,+up,-0.06695,0.73758,1.47459,-0.04101,-0.04521,0.00362,-0.00324,-0.0024,0.0317,-0.0024,-0.0073,-0.0073,-0.0220,-0.0073,-0.2940,4.5197,7.5282,1.8632,-0.3101,-0.2125,-0.0024,1,1,1,1,1,1,1
6.0661,sweep,2,+up,-0.06695,0.73758,1.47459,-0.04101,-0.04521,0.00362,-0.00324,-0.0024,0.0317,-0.0024,-0.0073,-0.0073,-0.0220,-0.0073,-0.2940,4.5197,7.5282,1.8632,-0.3101,-0.2125,-0.0024,1,1,1,1,1,1,1
6.1059,sweep,2,+up,-0.06695,0.74178,1.47459,-0.04101,-0.04521,0.00362,-0.00324,-0.0024,0.0171,-0.0073,-0.0220,0.0073,-0.0220,-0.0073,-0.2940,4.1915,7.6513,1.8779,-0.3199,-0.2222,-0.0024,1,1,1,1,1,1,1
6.1457,sweep,2,+up,-0.06695,0.74178,1.47459,-0.04101,-0.04521,0.00362,-0.00324,-0.0024,0.0171,-0.0073,-0.0220,0.0073,-0.0220,-0.0073,-0.2940,4.1915,7.6513,1.8779,-0.3199,-0.2222,-0.0024,1,1,1,1,1,1,1
6.1864,sweep,2,+up,-0.06695,0.74445,1.47459,-0.04063,-0.04521,0.00362,-0.00324,-0.0024,0.0317,-0.0024,-0.0073,0.0073,0.0073,-0.0073,-0.2803,3.8496,7.7470,1.8926,-0.3248,-0.2222,-0.0073,1,1,1,1,1,1,1
6.6893,sweep,2,-down,-0.06695,0.74559,1.47459,-0.04063,-0.04521,0.00362,-0.00324,0.0024,0.0317,-0.0024,-0.0073,-0.0073,-0.0073,-0.0220,-0.2667,3.6991,7.7744,1.9023,-0.3199,-0.2271,-0.0024,1,1,1,1,1,1,1
6.7291,sweep,2,-down,-0.06695,0.74559,1.47459,-0.04063,-0.04521,0.00362,-0.00324,0.0024,0.0317,-0.0024,-0.0073,-0.0073,-0.0073,-0.0220,-0.2667,3.6991,7.7744,1.9023,-0.3199,-0.2271,-0.0024,1,1,1,1,1,1,1
6.7694,sweep,2,-down,-0.06695,0.74559,1.47459,-0.04063,-0.04521,0.00362,-0.00324,0.0024,0.0317,-0.0024,-0.0073,-0.0073,-0.0073,-0.0220,-0.2667,3.6991,7.7744,1.9023,-0.3199,-0.2271,-0.0024,1,1,1,1,1,1,1
6.8095,sweep,2,-down,-0.06695,0.74178,1.47498,-0.04101,-0.04559,0.00362,-0.00362,-0.0024,-0.2076,-0.0024,-0.0220,-0.0073,-0.0073,-0.0220,-0.2803,1.1009,8.2667,1.9658,-0.3297,-0.2320,-0.0024,1,1,1,1,1,1,1
6.8494,sweep,2,-down,-0.06695,0.74178,1.47498,-0.04101,-0.04559,0.00362,-0.00362,-0.0024,-0.2076,-0.0024,-0.0220,-0.0073,-0.0073,-0.0220,-0.2803,1.1009,8.2667,1.9658,-0.3297,-0.2320,-0.0024,1,1,1,1,1,1,1
6.8891,sweep,2,-down,-0.06695,0.72614,1.47498,-0.04101,-0.04597,0.00324,-0.00324,-0.0024,-0.1832,-0.0024,-0.0073,-0.0073,-0.0073,-0.0073,-0.2940,0.7863,8.3624,1.9805,-0.3004,-0.2125,-0.0073,1,1,1,1,1,1,1
6.9292,sweep,2,-down,-0.06695,0.72614,1.47498,-0.04101,-0.04597,0.00324,-0.00324,-0.0024,-0.1832,-0.0024,-0.0073,-0.0073,-0.0073,-0.0073,-0.2940,0.7863,8.3624,1.9805,-0.3004,-0.2125,-0.0073,1,1,1,1,1,1,1
6.9692,sweep,2,-down,-0.06695,0.72614,1.47498,-0.04101,-0.04597,0.00324,-0.00324,-0.0024,-0.1832,-0.0024,-0.0073,-0.0073,-0.0073,-0.0073,-0.2940,0.7863,8.3624,1.9805,-0.3004,-0.2125,-0.0073,1,1,1,1,1,1,1
7.0094,sweep,2,-down,-0.06695,0.70020,1.47612,-0.03948,-0.04597,0.00286,-0.00324,0.0024,-0.2125,0.0220,0.0366,-0.0073,-0.0220,-0.0073,-0.2803,3.1658,6.9949,1.8388,-0.2564,-0.1734,-0.0073,1,1,1,1,1,1,1
7.0497,sweep,2,-down,-0.06695,0.70020,1.47612,-0.03948,-0.04597,0.00286,-0.00324,0.0024,-0.2125,0.0220,0.0366,-0.0073,-0.0220,-0.0073,-0.2803,3.1658,6.9949,1.8388,-0.2564,-0.1734,-0.0073,1,1,1,1,1,1,1
7.0894,sweep,2,-down,-0.06695,0.68379,1.47688,-0.03605,-0.04597,0.00286,-0.00324,-0.0024,-0.2222,-0.0024,-0.0220,0.0073,-0.0220,-0.0073,-0.2940,3.8906,5.8325,1.4579,-0.2418,-0.1538,-0.0073,1,1,1,1,1,1,1
7.1295,sweep,2,-down,-0.06695,0.68379,1.47688,-0.03605,-0.04597,0.00286,-0.00324,-0.0024,-0.2222,-0.0024,-0.0220,0.0073,-0.0220,-0.0073,-0.2940,3.8906,5.8325,1.4579,-0.2418,-0.1538,-0.0073,1,1,1,1,1,1,1
7.1692,sweep,2,-down,-0.06695,0.68379,1.47688,-0.03605,-0.04597,0.00286,-0.00324,-0.0024,-0.2222,-0.0024,-0.0220,0.0073,-0.0220,-0.0073,-0.2940,3.8906,5.8325,1.4579,-0.2418,-0.1538,-0.0073,1,1,1,1,1,1,1
7.2093,sweep,2,-down,-0.06695,0.66129,1.47688,-0.04063,-0.04597,0.00286,-0.00324,-0.0024,-0.1929,-0.0024,-0.0220,0.0073,0.0073,-0.0220,-0.2803,2.0308,5.6547,1.7167,-0.2027,-0.1294,-0.0073,1,1,1,1,1,1,1
7.2490,sweep,2,-down,-0.06695,0.66129,1.47688,-0.04063,-0.04597,0.00286,-0.00324,-0.0024,-0.1929,-0.0024,-0.0220,0.0073,0.0073,-0.0220,-0.2803,2.0308,5.6547,1.7167,-0.2027,-0.1294,-0.0073,1,1,1,1,1,1,1
7.2893,sweep,2,-down,-0.06657,0.64488,1.47650,-0.04025,-0.04597,0.00286,-0.00324,0.0024,-0.2271,-0.0024,-0.0073,-0.0073,-0.0220,-0.0073,-0.2667,2.5094,5.4906,1.7021,-0.1734,-0.1148,-0.0073,1,1,1,1,1,1,1
7.3297,sweep,2,-down,-0.06657,0.64488,1.47650,-0.04025,-0.04597,0.00286,-0.00324,0.0024,-0.2271,-0.0024,-0.0073,-0.0073,-0.0220,-0.0073,-0.2667,2.5094,5.4906,1.7021,-0.1734,-0.1148,-0.0073,1,1,1,1,1,1,1
7.3687,sweep,2,-down,-0.06657,0.64488,1.47650,-0.04025,-0.04597,0.00286,-0.00324,0.0024,-0.2271,-0.0024,-0.0073,-0.0073,-0.0220,-0.0073,-0.2667,2.5094,5.4906,1.7021,-0.1734,-0.1148,-0.0073,1,1,1,1,1,1,1
7.4090,sweep,2,-down,-0.06657,0.61971,1.47650,-0.03872,-0.04597,0.00286,-0.00324,-0.0024,-0.1880,-0.0024,-0.0220,-0.0073,-0.0220,-0.0073,-0.3077,4.0274,5.2034,1.5311,-0.1538,-0.0952,-0.0122,1,1,1,1,1,1,1
7.4491,sweep,2,-down,-0.06657,0.61971,1.47650,-0.03872,-0.04597,0.00286,-0.00324,-0.0024,-0.1880,-0.0024,-0.0220,-0.0073,-0.0220,-0.0073,-0.3077,4.0274,5.2034,1.5311,-0.1538,-0.0952,-0.0122,1,1,1,1,1,1,1
7.4895,sweep,2,-down,-0.06657,0.60445,1.47650,-0.03948,-0.04597,0.00324,-0.00324,-0.0024,-0.2076,-0.0024,-0.0073,-0.0073,0.0073,-0.0073,-0.3350,3.1795,5.0120,1.5507,-0.1294,-0.0855,-0.0122,1,1,1,1,1,1,1
7.5289,sweep,2,-down,-0.06657,0.60445,1.47650,-0.03948,-0.04597,0.00324,-0.00324,-0.0024,-0.2076,-0.0024,-0.0073,-0.0073,0.0073,-0.0073,-0.3350,3.1795,5.0120,1.5507,-0.1294,-0.0855,-0.0122,1,1,1,1,1,1,1
7.5694,sweep,2,-down,-0.06657,0.60445,1.47650,-0.03948,-0.04597,0.00324,-0.00324,-0.0024,-0.2076,-0.0024,-0.0073,-0.0073,0.0073,-0.0073,-0.3350,3.1795,5.0120,1.5507,-0.1294,-0.0855,-0.0122,1,1,1,1,1,1,1
7.6091,sweep,2,-down,-0.06657,0.57965,1.47650,-0.03948,-0.04597,0.00324,-0.00324,0.0024,-0.2222,-0.0024,-0.0073,-0.0073,-0.0220,-0.0073,-0.3214,4.0547,4.7795,1.5116,-0.1148,-0.0806,-0.0122,1,1,1,1,1,1,1
7.6489,sweep,2,-down,-0.06657,0.57965,1.47650,-0.03948,-0.04597,0.00324,-0.00324,0.0024,-0.2222,-0.0024,-0.0073,-0.0073,-0.0220,-0.0073,-0.3214,4.0547,4.7795,1.5116,-0.1148,-0.0806,-0.0122,1,1,1,1,1,1,1
7.6892,sweep,2,-down,-0.06657,0.56325,1.47650,-0.03948,-0.04597,0.00324,-0.00362,0.0024,-0.1880,-0.0024,-0.0220,-0.0220,0.0220,-0.0220,-0.3077,4.5333,4.6017,1.4335,-0.1099,-0.0708,-0.0122,1,1,1,1,1,1,1
7.7291,sweep,2,-down,-0.06657,0.56325,1.47650,-0.03948,-0.04597,0.00324,-0.00362,0.0024,-0.1880,-0.0024,-0.0220,-0.0220,0.0220,-0.0220,-0.3077,4.5333,4.6017,1.4335,-0.1099,-0.0708,-0.0122,1,1,1,1,1,1,1
7.7691,sweep,2,-down,-0.06657,0.56325,1.47650,-0.03948,-0.04597,0.00324,-0.00362,0.0024,-0.1880,-0.0024,-0.0220,-0.0220,0.0220,-0.0220,-0.3077,4.5333,4.6017,1.4335,-0.1099,-0.0708,-0.0122,1,1,1,1,1,1,1
7.8098,sweep,2,-down,-0.06695,0.53960,1.47650,-0.03948,-0.04597,0.00324,-0.00324,-0.0024,-0.2173,-0.0024,0.0073,-0.0220,-0.0073,-0.0073,-0.3214,4.1641,4.3966,1.4139,-0.0952,-0.0611,-0.0122,1,1,1,1,1,1,1
7.8492,sweep,2,-down,-0.06695,0.53960,1.47650,-0.03948,-0.04597,0.00324,-0.00324,-0.0024,-0.2173,-0.0024,0.0073,-0.0220,-0.0073,-0.0073,-0.3214,4.1641,4.3966,1.4139,-0.0952,-0.0611,-0.0122,1,1,1,1,1,1,1
7.8889,sweep,2,-down,-0.06657,0.52319,1.47650,-0.03948,-0.04597,0.00324,-0.00324,0.0024,-0.1783,-0.0024,-0.0073,-0.0073,-0.0073,-0.0073,-0.3214,4.4239,4.2051,1.3602,-0.0855,-0.0611,-0.0171,1,1,1,1,1,1,1
7.9288,sweep,2,-down,-0.06657,0.52319,1.47650,-0.03948,-0.04597,0.00324,-0.00324,0.0024,-0.1783,-0.0024,-0.0073,-0.0073,-0.0073,-0.0073,-0.3214,4.4239,4.2051,1.3602,-0.0855,-0.0611,-0.0171,1,1,1,1,1,1,1
7.9693,sweep,2,-down,-0.06657,0.52319,1.47650,-0.03948,-0.04597,0.00324,-0.00324,0.0024,-0.1783,-0.0024,-0.0073,-0.0073,-0.0073,-0.0073,-0.3214,4.4239,4.2051,1.3602,-0.0855,-0.0611,-0.0171,1,1,1,1,1,1,1
8.0094,sweep,2,-down,-0.06657,0.49878,1.47650,-0.03948,-0.04597,0.00324,-0.00324,-0.0073,-0.2222,-0.0024,-0.0073,-0.0073,-0.0073,-0.0220,-0.3624,4.9299,3.9590,1.3211,-0.0757,-0.0611,-0.0073,1,1,1,1,1,1,1
8.0494,sweep,2,-down,-0.06657,0.49878,1.47650,-0.03948,-0.04597,0.00324,-0.00324,-0.0073,-0.2222,-0.0024,-0.0073,-0.0073,-0.0073,-0.0220,-0.3624,4.9299,3.9590,1.3211,-0.0757,-0.0611,-0.0073,1,1,1,1,1,1,1
8.0891,sweep,2,-down,-0.06657,0.48314,1.47650,-0.03986,-0.04559,0.00324,-0.00362,-0.0024,-0.1978,-0.0024,-0.0366,-0.0220,-0.0073,-0.0220,-0.3214,4.8752,3.8496,1.3065,-0.0659,-0.0562,-0.0073,1,1,1,1,1,1,1
8.1292,sweep,2,-down,-0.06657,0.48314,1.47650,-0.03986,-0.04559,0.00324,-0.00362,-0.0024,-0.1978,-0.0024,-0.0366,-0.0220,-0.0073,-0.0220,-0.3214,4.8752,3.8496,1.3065,-0.0659,-0.0562,-0.0073,1,1,1,1,1,1,1
8.1690,sweep,2,-down,-0.06657,0.48314,1.47650,-0.03986,-0.04559,0.00324,-0.00362,-0.0024,-0.1978,-0.0024,-0.0366,-0.0220,-0.0073,-0.0220,-0.3214,4.8752,3.8496,1.3065,-0.0659,-0.0562,-0.0073,1,1,1,1,1,1,1
8.2095,sweep,2,-down,-0.06657,0.45834,1.47650,-0.03948,-0.04597,0.00324,-0.00324,-0.0024,-0.1783,-0.0024,-0.0073,-0.0220,-0.0073,-0.0073,-0.3350,5.6684,3.6034,1.2088,-0.0611,-0.0562,-0.0122,1,1,1,1,1,1,1
8.2494,sweep,2,-down,-0.06657,0.45834,1.47650,-0.03948,-0.04597,0.00324,-0.00324,-0.0024,-0.1783,-0.0024,-0.0073,-0.0220,-0.0073,-0.0073,-0.3350,5.6684,3.6034,1.2088,-0.0611,-0.0562,-0.0122,1,1,1,1,1,1,1
8.2891,sweep,2,-down,-0.06657,0.44270,1.47650,-0.03986,-0.04597,0.00324,-0.00324,-0.0024,-0.2027,0.0024,-0.0220,-0.0073,-0.0073,-0.0073,-0.3214,5.1350,3.4803,1.2039,-0.0562,-0.0562,-0.0073,1,1,1,1,1,1,1
8.3294,sweep,2,-down,-0.06657,0.44270,1.47650,-0.03986,-0.04597,0.00324,-0.00324,-0.0024,-0.2027,0.0024,-0.0220,-0.0073,-0.0073,-0.0073,-0.3214,5.1350,3.4803,1.2039,-0.0562,-0.0562,-0.0073,1,1,1,1,1,1,1
8.3690,sweep,2,-down,-0.06657,0.44270,1.47650,-0.03986,-0.04597,0.00324,-0.00324,-0.0024,-0.2027,0.0024,-0.0220,-0.0073,-0.0073,-0.0073,-0.3214,5.1350,3.4803,1.2039,-0.0562,-0.0562,-0.0073,1,1,1,1,1,1,1
8.4097,sweep,2,-down,-0.06657,0.41791,1.47650,-0.03948,-0.04559,0.00324,-0.00362,-0.0073,-0.1978,-0.0024,-0.0220,-0.0220,-0.0220,-0.0220,-0.3350,6.0786,3.2205,1.1404,-0.0513,-0.0562,-0.0122,1,1,1,1,1,1,1
8.4491,sweep,2,-down,-0.06657,0.41791,1.47650,-0.03948,-0.04559,0.00324,-0.00362,-0.0073,-0.1978,-0.0024,-0.0220,-0.0220,-0.0220,-0.0220,-0.3350,6.0786,3.2205,1.1404,-0.0513,-0.0562,-0.0122,1,1,1,1,1,1,1
8.4892,sweep,2,-down,-0.06657,0.40150,1.47650,-0.03948,-0.04559,0.00324,-0.00324,0.0024,-0.2173,-0.0024,-0.0073,0.0073,0.0073,-0.0073,-0.3487,6.5709,3.0701,1.1013,-0.0513,-0.0513,-0.0122,1,1,1,1,1,1,1
8.5288,sweep,2,-down,-0.06657,0.40150,1.47650,-0.03948,-0.04559,0.00324,-0.00324,0.0024,-0.2173,-0.0024,-0.0073,0.0073,0.0073,-0.0073,-0.3487,6.5709,3.0701,1.1013,-0.0513,-0.0513,-0.0122,1,1,1,1,1,1,1
8.5695,sweep,2,-down,-0.06657,0.40150,1.47650,-0.03948,-0.04559,0.00324,-0.00324,0.0024,-0.2173,-0.0024,-0.0073,0.0073,0.0073,-0.0073,-0.3487,6.5709,3.0701,1.1013,-0.0513,-0.0513,-0.0122,1,1,1,1,1,1,1
8.6094,sweep,2,-down,-0.06657,0.37785,1.47650,-0.03948,-0.04559,0.00324,-0.00324,-0.0024,-0.1832,-0.0024,-0.0073,-0.0073,0.0073,-0.0073,-0.3350,6.2154,2.8103,1.0720,-0.0366,-0.0464,-0.0171,1,1,1,1,1,1,1
8.6494,sweep,2,-down,-0.06657,0.37785,1.47650,-0.03948,-0.04559,0.00324,-0.00324,-0.0024,-0.1832,-0.0024,-0.0073,-0.0073,0.0073,-0.0073,-0.3350,6.2154,2.8103,1.0720,-0.0366,-0.0464,-0.0171,1,1,1,1,1,1,1
8.6892,sweep,2,-down,-0.06657,0.36145,1.47650,-0.03948,-0.04559,0.00324,-0.00362,-0.0024,-0.2125,-0.0024,-0.0220,0.0073,-0.0073,-0.0220,-0.3214,6.7761,2.6735,1.0281,-0.0317,-0.0464,-0.0122,1,1,1,1,1,1,1
8.7292,sweep,2,-down,-0.06657,0.36145,1.47650,-0.03948,-0.04559,0.00324,-0.00362,-0.0024,-0.2125,-0.0024,-0.0220,0.0073,-0.0073,-0.0220,-0.3214,6.7761,2.6735,1.0281,-0.0317,-0.0464,-0.0122,1,1,1,1,1,1,1
8.7695,sweep,2,-down,-0.06657,0.36145,1.47650,-0.03948,-0.04559,0.00324,-0.00362,-0.0024,-0.2125,-0.0024,-0.0220,0.0073,-0.0073,-0.0220,-0.3214,6.7761,2.6735,1.0281,-0.0317,-0.0464,-0.0122,1,1,1,1,1,1,1
8.8092,sweep,2,-down,-0.06657,0.33703,1.47650,-0.03948,-0.04559,0.00324,-0.00324,-0.0024,-0.2173,-0.0024,-0.0073,-0.0220,-0.0073,-0.0220,-0.3077,7.0359,2.4547,0.9792,-0.0220,-0.0415,-0.0122,1,1,1,1,1,1,1
8.8488,sweep,2,-down,-0.06657,0.33703,1.47650,-0.03948,-0.04559,0.00324,-0.00324,-0.0024,-0.2173,-0.0024,-0.0073,-0.0220,-0.0073,-0.0220,-0.3077,7.0359,2.4547,0.9792,-0.0220,-0.0415,-0.0122,1,1,1,1,1,1,1
8.8889,sweep,2,-down,-0.06657,0.32101,1.47650,-0.03910,-0.04559,0.00324,-0.00324,-0.0024,-0.2125,-0.0024,0.0073,-0.0073,-0.0073,-0.0073,-0.3214,7.4051,2.2906,0.9206,-0.0171,-0.0317,-0.0122,1,1,1,1,1,1,1
8.9293,sweep,2,-down,-0.06657,0.32101,1.47650,-0.03910,-0.04559,0.00324,-0.00324,-0.0024,-0.2125,-0.0024,0.0073,-0.0073,-0.0073,-0.0073,-0.3214,7.4051,2.2906,0.9206,-0.0171,-0.0317,-0.0122,1,1,1,1,1,1,1
8.9690,sweep,2,-down,-0.06657,0.32101,1.47650,-0.03910,-0.04559,0.00324,-0.00324,-0.0024,-0.2125,-0.0024,0.0073,-0.0073,-0.0073,-0.0073,-0.3214,7.4051,2.2906,0.9206,-0.0171,-0.0317,-0.0122,1,1,1,1,1,1,1
9.0093,sweep,2,-down,-0.06657,0.29698,1.47650,-0.03948,-0.04559,0.00324,-0.00324,-0.0024,-0.2027,-0.0024,-0.0073,-0.0073,-0.0073,-0.0073,-0.3214,7.2274,2.0308,0.8718,-0.0073,-0.0317,-0.0122,1,1,1,1,1,1,1
9.0501,sweep,2,-down,-0.06657,0.29698,1.47650,-0.03948,-0.04559,0.00324,-0.00324,-0.0024,-0.2027,-0.0024,-0.0073,-0.0073,-0.0073,-0.0073,-0.3214,7.2274,2.0308,0.8718,-0.0073,-0.0317,-0.0122,1,1,1,1,1,1,1
9.0891,sweep,2,-down,-0.06657,0.28096,1.47650,-0.03948,-0.04559,0.00324,-0.00324,-0.0073,-0.1929,-0.0024,-0.0073,-0.0220,0.0073,-0.0073,-0.3487,7.3504,1.9214,0.8523,-0.0073,-0.0317,-0.0073,1,1,1,1,1,1,1
9.1293,sweep,2,-down,-0.06657,0.28096,1.47650,-0.03948,-0.04559,0.00324,-0.00324,-0.0073,-0.1929,-0.0024,-0.0073,-0.0220,0.0073,-0.0073,-0.3487,7.3504,1.9214,0.8523,-0.0073,-0.0317,-0.0073,1,1,1,1,1,1,1
9.1691,sweep,2,-down,-0.06657,0.28096,1.47650,-0.03948,-0.04559,0.00324,-0.00324,-0.0073,-0.1929,-0.0024,-0.0073,-0.0220,0.0073,-0.0073,-0.3487,7.3504,1.9214,0.8523,-0.0073,-0.0317,-0.0073,1,1,1,1,1,1,1
9.2091,sweep,2,-down,-0.06657,0.25692,1.47650,-0.03910,-0.04559,0.00324,-0.00324,-0.0024,-0.2125,-0.0073,0.0073,-0.0073,0.0073,0.0073,-0.3487,8.1983,1.6615,0.7692,-0.0024,-0.0269,-0.0122,1,1,1,1,1,1,1
9.2496,sweep,2,-down,-0.06657,0.25692,1.47650,-0.03910,-0.04559,0.00324,-0.00324,-0.0024,-0.2125,-0.0073,0.0073,-0.0073,0.0073,0.0073,-0.3487,8.1983,1.6615,0.7692,-0.0024,-0.0269,-0.0122,1,1,1,1,1,1,1
9.2896,sweep,2,-down,-0.06657,0.24243,1.47650,-0.03910,-0.04559,0.00324,-0.00362,-0.0024,-0.1685,-0.0024,-0.0073,-0.0220,-0.0073,-0.0220,-0.3350,8.3761,1.5111,0.7057,-0.0024,-0.0220,-0.0073,1,1,1,1,1,1,1
9.3292,sweep,2,-down,-0.06657,0.24243,1.47650,-0.03910,-0.04559,0.00324,-0.00362,-0.0024,-0.1685,-0.0024,-0.0073,-0.0220,-0.0073,-0.0220,-0.3350,8.3761,1.5111,0.7057,-0.0024,-0.0220,-0.0073,1,1,1,1,1,1,1
9.3689,sweep,2,-down,-0.06657,0.24243,1.47650,-0.03910,-0.04559,0.00324,-0.00362,-0.0024,-0.1685,-0.0024,-0.0073,-0.0220,-0.0073,-0.0220,-0.3350,8.3761,1.5111,0.7057,-0.0024,-0.0220,-0.0073,1,1,1,1,1,1,1
9.4090,sweep,2,-down,-0.06657,0.22450,1.47650,-0.03910,-0.04559,0.00324,-0.00324,-0.0024,-0.1490,-0.0073,0.0073,-0.0073,-0.0220,0.0073,-0.3350,7.8291,1.2786,0.6520,0.0073,-0.0220,-0.0073,1,1,1,1,1,1,1
9.4489,sweep,2,-down,-0.06657,0.22450,1.47650,-0.03910,-0.04559,0.00324,-0.00324,-0.0024,-0.1490,-0.0073,0.0073,-0.0073,-0.0220,0.0073,-0.3350,7.8291,1.2786,0.6520,0.0073,-0.0220,-0.0073,1,1,1,1,1,1,1
9.4889,sweep,2,-down,-0.06657,0.21382,1.47650,-0.03948,-0.04559,0.00324,-0.00324,-0.0073,-0.1294,-0.0024,-0.0073,-0.0073,-0.0220,-0.0073,-0.3350,7.7744,1.1556,0.6374,0.0073,-0.0269,-0.0122,1,1,1,1,1,1,1
9.5291,sweep,2,-down,-0.06657,0.21382,1.47650,-0.03948,-0.04559,0.00324,-0.00324,-0.0073,-0.1294,-0.0024,-0.0073,-0.0073,-0.0220,-0.0073,-0.3350,7.7744,1.1556,0.6374,0.0073,-0.0269,-0.0122,1,1,1,1,1,1,1
9.5689,sweep,2,-down,-0.06657,0.21382,1.47650,-0.03948,-0.04559,0.00324,-0.00324,-0.0073,-0.1294,-0.0024,-0.0073,-0.0073,-0.0220,-0.0073,-0.3350,7.7744,1.1556,0.6374,0.0073,-0.0269,-0.0122,1,1,1,1,1,1,1
9.6091,sweep,2,-down,-0.06657,0.19932,1.47650,-0.03948,-0.04559,0.00324,-0.00324,-0.0073,-0.1001,-0.0024,-0.0220,0.0073,-0.0073,-0.0073,-0.3624,8.3761,0.9368,0.5934,0.0073,-0.0171,-0.0122,1,1,1,1,1,1,1
9.6494,sweep,2,-down,-0.06657,0.19932,1.47650,-0.03948,-0.04559,0.00324,-0.00324,-0.0073,-0.1001,-0.0024,-0.0220,0.0073,-0.0073,-0.0073,-0.3624,8.3761,0.9368,0.5934,0.0073,-0.0171,-0.0122,1,1,1,1,1,1,1
9.6893,sweep,2,-down,-0.06657,0.19093,1.47650,-0.03948,-0.04559,0.00324,-0.00324,-0.0024,-0.1001,-0.0024,-0.0220,-0.0073,-0.0073,-0.0073,-0.3624,8.4855,0.8000,0.5690,0.0073,-0.0171,-0.0122,1,1,1,1,1,1,1
9.7290,sweep,2,-down,-0.06657,0.19093,1.47650,-0.03948,-0.04559,0.00324,-0.00324,-0.0024,-0.1001,-0.0024,-0.0220,-0.0073,-0.0073,-0.0073,-0.3624,8.4855,0.8000,0.5690,0.0073,-0.0171,-0.0122,1,1,1,1,1,1,1
9.7694,sweep,2,-down,-0.06657,0.19093,1.47650,-0.03948,-0.04559,0.00324,-0.00324,-0.0024,-0.1001,-0.0024,-0.0220,-0.0073,-0.0073,-0.0073,-0.3624,8.4855,0.8000,0.5690,0.0073,-0.0171,-0.0122,1,1,1,1,1,1,1
9.8090,sweep,2,-down,-0.06657,0.18025,1.47650,-0.03948,-0.04559,0.00362,-0.00362,0.0024,-0.0855,-0.0024,-0.0220,-0.0073,0.0073,-0.0073,-0.3624,8.3487,0.6222,0.5299,0.0073,-0.0171,-0.0122,1,1,1,1,1,1,1
9.8492,sweep,2,-down,-0.06657,0.18025,1.47650,-0.03948,-0.04559,0.00362,-0.00362,0.0024,-0.0855,-0.0024,-0.0220,-0.0073,0.0073,-0.0073,-0.3624,8.3487,0.6222,0.5299,0.0073,-0.0171,-0.0122,1,1,1,1,1,1,1
9.8890,sweep,2,-down,-0.06657,0.17376,1.47650,-0.03986,-0.04559,0.00324,-0.00362,-0.0024,-0.0855,-0.0024,-0.0220,-0.0073,-0.0220,-0.0073,-0.3350,8.6906,0.5402,0.5104,0.0122,-0.0122,-0.0122,1,1,1,1,1,1,1
9.9296,sweep,2,-down,-0.06657,0.17376,1.47650,-0.03986,-0.04559,0.00324,-0.00362,-0.0024,-0.0855,-0.0024,-0.0220,-0.0073,-0.0220,-0.0073,-0.3350,8.6906,0.5402,0.5104,0.0122,-0.0122,-0.0122,1,1,1,1,1,1,1
9.9693,sweep,2,-down,-0.06657,0.17376,1.47650,-0.03986,-0.04559,0.00324,-0.00362,-0.0024,-0.0855,-0.0024,-0.0220,-0.0073,-0.0220,-0.0073,-0.3350,8.6906,0.5402,0.5104,0.0122,-0.0122,-0.0122,1,1,1,1,1,1,1
10.0090,sweep,2,-down,-0.06657,0.16575,1.47650,-0.03986,-0.04559,0.00362,-0.00324,-0.0024,-0.0513,-0.0024,-0.0073,-0.0220,0.0073,-0.0073,-0.3487,8.6632,0.4171,0.4811,0.0122,-0.0073,-0.0122,1,1,1,1,1,1,1
10.0492,sweep,2,-down,-0.06657,0.16575,1.47650,-0.03986,-0.04559,0.00362,-0.00324,-0.0024,-0.0513,-0.0024,-0.0073,-0.0220,0.0073,-0.0073,-0.3487,8.6632,0.4171,0.4811,0.0122,-0.0073,-0.0122,1,1,1,1,1,1,1
10.0895,sweep,2,-down,-0.06657,0.16117,1.47650,-0.03986,-0.04559,0.00362,-0.00324,-0.0024,-0.0806,-0.0024,-0.0513,-0.0073,-0.0073,0.0073,-0.3350,8.3761,0.3350,0.4567,0.0122,-0.0073,-0.0073,1,1,1,1,1,1,1
10.1294,sweep,2,-down,-0.06657,0.16117,1.47650,-0.03986,-0.04559,0.00362,-0.00324,-0.0024,-0.0806,-0.0024,-0.0513,-0.0073,-0.0073,0.0073,-0.3350,8.3761,0.3350,0.4567,0.0122,-0.0073,-0.0073,1,1,1,1,1,1,1
10.1691,sweep,2,-down,-0.06657,0.16117,1.47650,-0.03986,-0.04559,0.00362,-0.00324,-0.0024,-0.0806,-0.0024,-0.0513,-0.0073,-0.0073,0.0073,-0.3350,8.3761,0.3350,0.4567,0.0122,-0.0073,-0.0073,1,1,1,1,1,1,1
10.2090,sweep,2,-down,-0.06657,0.15469,1.47650,-0.04025,-0.04559,0.00324,-0.00324,-0.0024,-0.0708,-0.0024,-0.0073,-0.0073,-0.0220,0.0073,-0.3214,8.7863,0.3077,0.4664,0.0122,-0.0073,-0.0024,1,1,1,1,1,1,1
10.2491,sweep,2,-down,-0.06657,0.15469,1.47650,-0.04025,-0.04559,0.00324,-0.00324,-0.0024,-0.0708,-0.0024,-0.0073,-0.0073,-0.0220,0.0073,-0.3214,8.7863,0.3077,0.4664,0.0122,-0.0073,-0.0024,1,1,1,1,1,1,1
10.2894,sweep,2,-down,-0.06657,0.15164,1.47650,-0.03986,-0.04559,0.00324,-0.00324,-0.0073,-0.0415,-0.0024,-0.0073,-0.0073,0.0073,-0.0073,-0.3214,8.2120,0.2530,0.4371,0.0122,-0.0122,-0.0024,1,1,1,1,1,1,1
10.3293,sweep,2,-down,-0.06657,0.15164,1.47650,-0.03986,-0.04559,0.00324,-0.00324,-0.0073,-0.0415,-0.0024,-0.0073,-0.0073,0.0073,-0.0073,-0.3214,8.2120,0.2530,0.4371,0.0122,-0.0122,-0.0024,1,1,1,1,1,1,1
10.3689,sweep,2,-down,-0.06657,0.15164,1.47650,-0.03986,-0.04559,0.00324,-0.00324,-0.0073,-0.0415,-0.0024,-0.0073,-0.0073,0.0073,-0.0073,-0.3214,8.2120,0.2530,0.4371,0.0122,-0.0122,-0.0024,1,1,1,1,1,1,1
10.4096,sweep,2,-down,-0.06657,0.14706,1.47650,-0.04025,-0.04559,0.00324,-0.00324,-0.0024,-0.0366,-0.0073,0.0073,-0.0073,-0.0220,0.0073,-0.3214,7.9385,0.1846,0.4420,0.0171,-0.0073,-0.0024,1,1,1,1,1,1,1
10.4492,sweep,2,-down,-0.06657,0.14706,1.47650,-0.04025,-0.04559,0.00324,-0.00324,-0.0024,-0.0366,-0.0073,0.0073,-0.0073,-0.0220,0.0073,-0.3214,7.9385,0.1846,0.4420,0.0171,-0.0073,-0.0024,1,1,1,1,1,1,1
10.4894,sweep,2,-down,-0.06657,0.14363,1.47650,-0.04025,-0.04559,0.00362,-0.00324,-0.0024,-0.0562,-0.0024,-0.0073,-0.0366,-0.0073,-0.0073,-0.3350,8.6359,0.1436,0.4078,0.0171,-0.0073,-0.0024,1,1,1,1,1,1,1
10.5294,sweep,2,-down,-0.06657,0.14363,1.47650,-0.04025,-0.04559,0.00362,-0.00324,-0.0024,-0.0562,-0.0024,-0.0073,-0.0366,-0.0073,-0.0073,-0.3350,8.6359,0.1436,0.4078,0.0171,-0.0073,-0.0024,1,1,1,1,1,1,1
10.5690,sweep,2,-down,-0.06657,0.14363,1.47650,-0.04025,-0.04559,0.00362,-0.00324,-0.0024,-0.0562,-0.0024,-0.0073,-0.0366,-0.0073,-0.0073,-0.3350,8.6359,0.1436,0.4078,0.0171,-0.0073,-0.0024,1,1,1,1,1,1,1
10.6093,sweep,2,-down,-0.06657,0.13981,1.47650,-0.04025,-0.04559,0.00362,-0.00324,-0.0073,-0.0220,-0.0024,-0.0073,-0.0073,-0.0220,-0.0073,-0.3487,8.7453,0.0889,0.4029,0.0220,-0.0073,-0.0024,1,1,1,1,1,1,1
11.1116,sweep,2,+up,-0.06657,0.13867,1.47650,-0.04025,-0.04521,0.00324,-0.00324,-0.0073,-0.0317,0.0024,0.0073,0.0073,-0.0073,-0.0073,-0.3487,8.6906,0.0615,0.3932,0.0220,-0.0073,-0.0024,1,1,1,1,1,1,1
11.1518,sweep,2,+up,-0.06657,0.13867,1.47650,-0.04025,-0.04521,0.00324,-0.00324,-0.0073,-0.0317,0.0024,0.0073,0.0073,-0.0073,-0.0073,-0.3487,8.6906,0.0615,0.3932,0.0220,-0.0073,-0.0024,1,1,1,1,1,1,1
11.1920,sweep,2,+up,-0.06657,0.13142,1.47574,-0.04025,-0.04521,0.00324,-0.00324,-0.0073,0.0855,0.0024,-0.0073,0.0073,-0.0073,-0.0073,-0.3897,15.2821,0.2393,0.3834,0.0269,-0.0073,-0.0073,1,1,1,1,1,1,1
11.2319,sweep,2,+up,-0.06657,0.13142,1.47574,-0.04025,-0.04521,0.00324,-0.00324,-0.0073,0.0855,0.0024,-0.0073,0.0073,-0.0073,-0.0073,-0.3897,15.2821,0.2393,0.3834,0.0269,-0.0073,-0.0073,1,1,1,1,1,1,1
11.2718,sweep,2,+up,-0.06657,0.13142,1.47574,-0.04025,-0.04521,0.00324,-0.00324,-0.0073,0.0855,0.0024,-0.0073,0.0073,-0.0073,-0.0073,-0.3897,15.2821,0.2393,0.3834,0.0269,-0.0073,-0.0073,1,1,1,1,1,1,1
11.3120,sweep,2,+up,-0.06657,0.15736,1.47574,-0.03986,-0.04521,0.00362,-0.00324,0.0024,0.2076,-0.0024,-0.0073,0.0073,-0.0073,-0.0073,-0.3624,12.6701,0.1299,0.3053,0.0317,-0.0024,-0.0122,1,1,1,1,1,1,1
11.3518,sweep,2,+up,-0.06657,0.15736,1.47574,-0.03986,-0.04521,0.00362,-0.00324,0.0024,0.2076,-0.0024,-0.0073,0.0073,-0.0073,-0.0073,-0.3624,12.6701,0.1299,0.3053,0.0317,-0.0024,-0.0122,1,1,1,1,1,1,1
11.3919,sweep,2,+up,-0.06657,0.17185,1.47574,-0.04025,-0.04521,0.00324,-0.00324,-0.0073,0.2466,-0.0024,-0.0220,-0.0073,-0.0220,-0.0073,-0.3897,14.5573,0.1436,0.3248,0.0269,-0.0073,-0.0122,1,1,1,1,1,1,1
11.4320,sweep,2,+up,-0.06657,0.17185,1.47574,-0.04025,-0.04521,0.00324,-0.00324,-0.0073,0.2466,-0.0024,-0.0220,-0.0073,-0.0220,-0.0073,-0.3897,14.5573,0.1436,0.3248,0.0269,-0.0073,-0.0122,1,1,1,1,1,1,1
11.4720,sweep,2,+up,-0.06657,0.17185,1.47574,-0.04025,-0.04521,0.00324,-0.00324,-0.0073,0.2466,-0.0024,-0.0220,-0.0073,-0.0220,-0.0073,-0.3897,14.5573,0.1436,0.3248,0.0269,-0.0073,-0.0122,1,1,1,1,1,1,1
11.5119,sweep,2,+up,-0.06695,0.19627,1.47498,-0.04139,-0.04521,0.00324,-0.00324,-0.0024,0.1832,-0.0513,-0.0952,0.0073,-0.0220,-0.0073,-0.3761,13.9009,0.7043,0.4225,0.0317,-0.0073,-0.0122,1,1,1,1,1,1,1
11.5521,sweep,2,+up,-0.06695,0.19627,1.47498,-0.04139,-0.04521,0.00324,-0.00324,-0.0024,0.1832,-0.0513,-0.0952,0.0073,-0.0220,-0.0073,-0.3761,13.9009,0.7043,0.4225,0.0317,-0.0073,-0.0122,1,1,1,1,1,1,1
11.5918,sweep,2,+up,-0.06695,0.21496,1.47459,-0.04444,-0.04521,0.00362,-0.00324,0.0024,0.1978,-0.0073,0.0073,-0.0073,-0.0073,-0.0073,-0.3624,10.3316,1.5521,0.7692,0.0317,-0.0122,-0.0122,1,1,1,1,1,1,1
11.6322,sweep,2,+up,-0.06695,0.21496,1.47459,-0.04444,-0.04521,0.00362,-0.00324,0.0024,0.1978,-0.0073,0.0073,-0.0073,-0.0073,-0.0073,-0.3624,10.3316,1.5521,0.7692,0.0317,-0.0122,-0.0122,1,1,1,1,1,1,1
11.6718,sweep,2,+up,-0.06695,0.21496,1.47459,-0.04444,-0.04521,0.00362,-0.00324,0.0024,0.1978,-0.0073,0.0073,-0.0073,-0.0073,-0.0073,-0.3624,10.3316,1.5521,0.7692,0.0317,-0.0122,-0.0122,1,1,1,1,1,1,1
11.7118,sweep,2,+up,-0.06657,0.23709,1.47459,-0.04101,-0.04482,0.00362,-0.00362,0.0024,0.1978,0.0024,0.0366,-0.0073,0.0073,-0.0073,-0.4171,12.7521,1.5932,0.6667,0.0220,-0.0073,-0.0122,1,1,1,1,1,1,1
11.7517,sweep,2,+up,-0.06657,0.23709,1.47459,-0.04101,-0.04482,0.00362,-0.00362,0.0024,0.1978,0.0024,0.0366,-0.0073,0.0073,-0.0073,-0.4171,12.7521,1.5932,0.6667,0.0220,-0.0073,-0.0122,1,1,1,1,1,1,1
11.7918,sweep,2,+up,-0.06657,0.25273,1.47498,-0.03986,-0.04521,0.00362,-0.00324,-0.0024,0.2320,-0.0024,-0.0659,-0.0073,0.0073,-0.0073,-0.4171,13.1350,1.2923,0.5739,0.0171,-0.0122,-0.0122,1,1,1,1,1,1,1
11.8317,sweep,2,+up,-0.06657,0.25273,1.47498,-0.03986,-0.04521,0.00362,-0.00324,-0.0024,0.2320,-0.0024,-0.0659,-0.0073,0.0073,-0.0073,-0.4171,13.1350,1.2923,0.5739,0.0171,-0.0122,-0.0122,1,1,1,1,1,1,1
11.8718,sweep,2,+up,-0.06657,0.25273,1.47498,-0.03986,-0.04521,0.00362,-0.00324,-0.0024,0.2320,-0.0024,-0.0659,-0.0073,0.0073,-0.0073,-0.4171,13.1350,1.2923,0.5739,0.0171,-0.0122,-0.0122,1,1,1,1,1,1,1
11.9120,sweep,2,+up,-0.06695,0.27905,1.47459,-0.04215,-0.04521,0.00362,-0.00324,-0.0073,0.2125,-0.0024,-0.0220,-0.0220,-0.0073,-0.0073,-0.3897,10.4273,1.9350,0.7888,0.0122,-0.0171,-0.0073,1,1,1,1,1,1,1
11.9520,sweep,2,+up,-0.06695,0.27905,1.47459,-0.04215,-0.04521,0.00362,-0.00324,-0.0073,0.2125,-0.0024,-0.0220,-0.0220,-0.0073,-0.0073,-0.3897,10.4273,1.9350,0.7888,0.0122,-0.0171,-0.0073,1,1,1,1,1,1,1
11.9924,sweep,2,+up,-0.06657,0.29469,1.47459,-0.04177,-0.04521,0.00362,-0.00324,0.0024,0.1832,-0.0024,0.0073,-0.0073,-0.0073,-0.0073,-0.4308,10.9470,2.0444,0.8132,0.0073,-0.0171,-0.0024,1,1,1,1,1,1,1
12.0320,sweep,2,+up,-0.06657,0.29469,1.47459,-0.04177,-0.04521,0.00362,-0.00324,0.0024,0.1832,-0.0024,0.0073,-0.0073,-0.0073,-0.0073,-0.4308,10.9470,2.0444,0.8132,0.0073,-0.0171,-0.0024,1,1,1,1,1,1,1
12.0720,sweep,2,+up,-0.06657,0.29469,1.47459,-0.04177,-0.04521,0.00362,-0.00324,0.0024,0.1832,-0.0024,0.0073,-0.0073,-0.0073,-0.0073,-0.4308,10.9470,2.0444,0.8132,0.0073,-0.0171,-0.0024,1,1,1,1,1,1,1
12.1117,sweep,2,+up,-0.06657,0.31834,1.47459,-0.04139,-0.04482,0.00362,-0.00324,-0.0024,0.2222,-0.0073,-0.0513,0.0073,-0.0073,-0.0073,-0.4444,11.0701,2.1265,0.8181,-0.0024,-0.0122,-0.0073,1,1,1,1,1,1,1
12.1518,sweep,2,+up,-0.06657,0.31834,1.47459,-0.04139,-0.04482,0.00362,-0.00324,-0.0024,0.2222,-0.0073,-0.0513,0.0073,-0.0073,-0.0073,-0.4444,11.0701,2.1265,0.8181,-0.0024,-0.0122,-0.0073,1,1,1,1,1,1,1
12.1917,sweep,2,+up,-0.06695,0.33513,1.47459,-0.04139,-0.04521,0.00362,-0.00324,-0.0024,0.2271,-0.0073,-0.0073,-0.0073,-0.0220,0.0073,-0.4034,10.0034,2.3590,0.8620,-0.0024,-0.0122,-0.0073,1,1,1,1,1,1,1
12.2319,sweep,2,+up,-0.06695,0.33513,1.47459,-0.04139,-0.04521,0.00362,-0.00324,-0.0024,0.2271,-0.0073,-0.0073,-0.0073,-0.0220,0.0073,-0.4034,10.0034,2.3590,0.8620,-0.0024,-0.0122,-0.0073,1,1,1,1,1,1,1
12.2720,sweep,2,+up,-0.06695,0.33513,1.47459,-0.04139,-0.04521,0.00362,-0.00324,-0.0024,0.2271,-0.0073,-0.0073,-0.0073,-0.0220,0.0073,-0.4034,10.0034,2.3590,0.8620,-0.0024,-0.0122,-0.0073,1,1,1,1,1,1,1
12.3117,sweep,2,+up,-0.06695,0.35916,1.47459,-0.04139,-0.04521,0.00362,-0.00324,-0.0073,0.1832,-0.0024,0.0073,-0.0073,-0.0073,-0.0073,-0.4171,10.2085,2.5504,0.9060,-0.0122,-0.0171,-0.0073,1,1,1,1,1,1,1
12.3519,sweep,2,+up,-0.06695,0.35916,1.47459,-0.04139,-0.04521,0.00362,-0.00324,-0.0073,0.1832,-0.0024,0.0073,-0.0073,-0.0073,-0.0073,-0.4171,10.2085,2.5504,0.9060,-0.0122,-0.0171,-0.0073,1,1,1,1,1,1,1
12.3921,sweep,2,+up,-0.06657,0.37556,1.47459,-0.04101,-0.04521,0.00362,-0.00324,-0.0073,0.2076,0.0024,-0.0073,-0.0073,-0.0073,-0.0220,-0.4171,9.6889,2.6872,0.9304,-0.0220,-0.0220,-0.0122,1,1,1,1,1,1,1
12.4321,sweep,2,+up,-0.06657,0.37556,1.47459,-0.04101,-0.04521,0.00362,-0.00324,-0.0073,0.2076,0.0024,-0.0073,-0.0073,-0.0073,-0.0220,-0.4171,9.6889,2.6872,0.9304,-0.0220,-0.0220,-0.0122,1,1,1,1,1,1,1
12.4722,sweep,2,+up,-0.06657,0.37556,1.47459,-0.04101,-0.04521,0.00362,-0.00324,-0.0073,0.2076,0.0024,-0.0073,-0.0073,-0.0073,-0.0220,-0.4171,9.6889,2.6872,0.9304,-0.0220,-0.0220,-0.0122,1,1,1,1,1,1,1
12.5116,sweep,2,+up,-0.06695,0.39960,1.47459,-0.04139,-0.04521,0.00362,-0.00362,-0.0024,0.2076,-0.0024,-0.0073,0.0073,-0.0220,-0.0073,-0.4034,9.4154,2.8650,1.0134,-0.0220,-0.0269,-0.0122,1,1,1,1,1,1,1
12.5518,sweep,2,+up,-0.06695,0.39960,1.47459,-0.04139,-0.04521,0.00362,-0.00362,-0.0024,0.2076,-0.0024,-0.0073,0.0073,-0.0220,-0.0073,-0.4034,9.4154,2.8650,1.0134,-0.0220,-0.0269,-0.0122,1,1,1,1,1,1,1
12.5917,sweep,2,+up,-0.06657,0.41562,1.47459,-0.04139,-0.04521,0.00362,-0.00324,0.0024,0.2125,-0.0024,-0.0220,-0.0073,-0.0073,-0.0073,-0.4171,9.2513,3.0427,1.0427,-0.0317,-0.0317,-0.0073,1,1,1,1,1,1,1
12.6317,sweep,2,+up,-0.06657,0.41562,1.47459,-0.04139,-0.04521,0.00362,-0.00324,0.0024,0.2125,-0.0024,-0.0220,-0.0073,-0.0073,-0.0073,-0.4171,9.2513,3.0427,1.0427,-0.0317,-0.0317,-0.0073,1,1,1,1,1,1,1
12.6716,sweep,2,+up,-0.06657,0.41562,1.47459,-0.04139,-0.04521,0.00362,-0.00324,0.0024,0.2125,-0.0024,-0.0220,-0.0073,-0.0073,-0.0073,-0.4171,9.2513,3.0427,1.0427,-0.0317,-0.0317,-0.0073,1,1,1,1,1,1,1
12.7121,sweep,2,+up,-0.06695,0.44041,1.47459,-0.04139,-0.04521,0.00362,-0.00324,-0.0024,0.2125,-0.0073,0.0073,-0.0073,-0.0073,-0.0073,-0.4171,8.4034,3.2205,1.0867,-0.0366,-0.0366,-0.0073,1,1,1,1,1,1,1
12.7519,sweep,2,+up,-0.06695,0.44041,1.47459,-0.04139,-0.04521,0.00362,-0.00324,-0.0024,0.2125,-0.0073,0.0073,-0.0073,-0.0073,-0.0073,-0.4171,8.4034,3.2205,1.0867,-0.0366,-0.0366,-0.0073,1,1,1,1,1,1,1
12.7921,sweep,2,+up,-0.06695,0.45644,1.47459,-0.04139,-0.04482,0.00362,-0.00324,-0.0024,0.1880,-0.0024,0.0073,0.0073,-0.0073,-0.0073,-0.4308,8.4444,3.3709,1.1355,-0.0366,-0.0366,-0.0024,1,1,1,1,1,1,1
12.8317,sweep,2,+up,-0.06695,0.45644,1.47459,-0.04139,-0.04482,0.00362,-0.00324,-0.0024,0.1880,-0.0024,0.0073,0.0073,-0.0073,-0.0073,-0.4308,8.4444,3.3709,1.1355,-0.0366,-0.0366,-0.0024,1,1,1,1,1,1,1
12.8719,sweep,2,+up,-0.06695,0.45644,1.47459,-0.04139,-0.04482,0.00362,-0.00324,-0.0024,0.1880,-0.0024,0.0073,0.0073,-0.0073,-0.0073,-0.4308,8.4444,3.3709,1.1355,-0.0366,-0.0366,-0.0024,1,1,1,1,1,1,1
12.9118,sweep,2,+up,-0.06695,0.48047,1.47459,-0.04139,-0.04521,0.00362,-0.00324,-0.0024,0.2173,-0.0024,-0.0220,-0.0073,0.0073,-0.0220,-0.4444,8.3624,3.5897,1.1746,-0.0464,-0.0366,-0.0073,1,1,1,1,1,1,1
12.9517,sweep,2,+up,-0.06695,0.48047,1.47459,-0.04139,-0.04521,0.00362,-0.00324,-0.0024,0.2173,-0.0024,-0.0220,-0.0073,0.0073,-0.0220,-0.4444,8.3624,3.5897,1.1746,-0.0464,-0.0366,-0.0073,1,1,1,1,1,1,1
12.9919,sweep,2,+up,-0.06695,0.49687,1.47459,-0.04139,-0.04521,0.00362,-0.00324,-0.0024,0.2076,-0.0024,0.0073,-0.0220,-0.0073,0.0073,-0.4581,7.8291,3.7675,1.2186,-0.0513,-0.0415,-0.0073,1,1,1,1,1,1,1
13.0319,sweep,2,+up,-0.06695,0.49687,1.47459,-0.04139,-0.04521,0.00362,-0.00324,-0.0024,0.2076,-0.0024,0.0073,-0.0220,-0.0073,0.0073,-0.4581,7.8291,3.7675,1.2186,-0.0513,-0.0415,-0.0073,1,1,1,1,1,1,1
13.0718,sweep,2,+up,-0.06695,0.49687,1.47459,-0.04139,-0.04521,0.00362,-0.00324,-0.0024,0.2076,-0.0024,0.0073,-0.0220,-0.0073,0.0073,-0.4581,7.8291,3.7675,1.2186,-0.0513,-0.0415,-0.0073,1,1,1,1,1,1,1
13.1121,sweep,2,+up,-0.06695,0.52129,1.47459,-0.04139,-0.04482,0.00362,-0.00324,-0.0024,0.1783,-0.0024,0.0073,-0.0073,-0.0220,-0.0220,-0.4581,7.3778,4.0684,1.2772,-0.0611,-0.0513,-0.0024,1,1,1,1,1,1,1
13.1520,sweep,2,+up,-0.06695,0.52129,1.47459,-0.04139,-0.04482,0.00362,-0.00324,-0.0024,0.1783,-0.0024,0.0073,-0.0073,-0.0220,-0.0220,-0.4581,7.3778,4.0684,1.2772,-0.0611,-0.0513,-0.0024,1,1,1,1,1,1,1
13.1919,sweep,2,+up,-0.06695,0.53731,1.47459,-0.04139,-0.04521,0.00362,-0.00362,-0.0024,0.2125,-0.0024,0.0073,-0.0073,0.0073,-0.0073,-0.4444,7.3368,4.1778,1.2869,-0.0659,-0.0513,-0.0024,1,1,1,1,1,1,1
13.2319,sweep,2,+up,-0.06695,0.53731,1.47459,-0.04139,-0.04521,0.00362,-0.00362,-0.0024,0.2125,-0.0024,0.0073,-0.0073,0.0073,-0.0073,-0.4444,7.3368,4.1778,1.2869,-0.0659,-0.0513,-0.0024,1,1,1,1,1,1,1
13.2717,sweep,2,+up,-0.06695,0.53731,1.47459,-0.04139,-0.04521,0.00362,-0.00362,-0.0024,0.2125,-0.0024,0.0073,-0.0073,0.0073,-0.0073,-0.4444,7.3368,4.1778,1.2869,-0.0659,-0.0513,-0.0024,1,1,1,1,1,1,1
13.3122,sweep,2,+up,-0.06695,0.56172,1.47459,-0.04139,-0.04521,0.00362,-0.00324,-0.0024,0.1929,-0.0024,-0.0220,-0.0220,-0.0073,-0.0073,-0.4444,6.7761,4.3966,1.3553,-0.0806,-0.0562,-0.0073,1,1,1,1,1,1,1
13.3522,sweep,2,+up,-0.06695,0.56172,1.47459,-0.04139,-0.04521,0.00362,-0.00324,-0.0024,0.1929,-0.0024,-0.0220,-0.0220,-0.0073,-0.0073,-0.4444,6.7761,4.3966,1.3553,-0.0806,-0.0562,-0.0073,1,1,1,1,1,1,1
13.3924,sweep,2,+up,-0.06695,0.57813,1.47459,-0.04177,-0.04521,0.00401,-0.00324,-0.0024,0.2320,-0.0024,-0.0073,-0.0220,-0.0220,-0.0073,-0.4581,6.3385,4.6017,1.3944,-0.0855,-0.0611,-0.0122,1,1,1,1,1,1,1
13.4322,sweep,2,+up,-0.06695,0.57813,1.47459,-0.04177,-0.04521,0.00401,-0.00324,-0.0024,0.2320,-0.0024,-0.0073,-0.0220,-0.0220,-0.0073,-0.4581,6.3385,4.6017,1.3944,-0.0855,-0.0611,-0.0122,1,1,1,1,1,1,1
13.4719,sweep,2,+up,-0.06695,0.57813,1.47459,-0.04177,-0.04521,0.00401,-0.00324,-0.0024,0.2320,-0.0024,-0.0073,-0.0220,-0.0220,-0.0073,-0.4581,6.3385,4.6017,1.3944,-0.0855,-0.0611,-0.0122,1,1,1,1,1,1,1
13.5123,sweep,2,+up,-0.06695,0.60216,1.47459,-0.04139,-0.04482,0.00362,-0.00362,-0.0073,0.1978,-0.0024,-0.0073,0.0073,-0.0220,-0.0073,-0.4444,6.1744,4.8615,1.4335,-0.1001,-0.0708,-0.0073,1,1,1,1,1,1,1
13.5524,sweep,2,+up,-0.06695,0.60216,1.47459,-0.04139,-0.04482,0.00362,-0.00362,-0.0073,0.1978,-0.0024,-0.0073,0.0073,-0.0220,-0.0073,-0.4444,6.1744,4.8615,1.4335,-0.1001,-0.0708,-0.0073,1,1,1,1,1,1,1
13.5920,sweep,2,+up,-0.06695,0.61856,1.47459,-0.04139,-0.04482,0.00401,-0.00362,-0.0024,0.1880,-0.0073,-0.0073,0.0073,-0.0073,-0.0073,-0.4718,5.7778,5.0256,1.4774,-0.1001,-0.0806,-0.0073,1,1,1,1,1,1,1
13.6325,sweep,2,+up,-0.06695,0.61856,1.47459,-0.04139,-0.04482,0.00401,-0.00362,-0.0024,0.1880,-0.0073,-0.0073,0.0073,-0.0073,-0.0073,-0.4718,5.7778,5.0256,1.4774,-0.1001,-0.0806,-0.0073,1,1,1,1,1,1,1
13.6723,sweep,2,+up,-0.06695,0.61856,1.47459,-0.04139,-0.04482,0.00401,-0.00362,-0.0024,0.1880,-0.0073,-0.0073,0.0073,-0.0073,-0.0073,-0.4718,5.7778,5.0256,1.4774,-0.1001,-0.0806,-0.0073,1,1,1,1,1,1,1
13.7123,sweep,2,+up,-0.06695,0.64069,1.47459,-0.04139,-0.04482,0.00362,-0.00324,-0.0024,0.1538,-0.0024,-0.0073,-0.0073,-0.0073,-0.0220,-0.4581,5.3538,5.2718,1.5311,-0.1197,-0.1001,-0.0122,1,1,1,1,1,1,1
13.7524,sweep,2,+up,-0.06695,0.64069,1.47459,-0.04139,-0.04482,0.00362,-0.00324,-0.0024,0.1538,-0.0024,-0.0073,-0.0073,-0.0073,-0.0220,-0.4581,5.3538,5.2718,1.5311,-0.1197,-0.1001,-0.0122,1,1,1,1,1,1,1
13.7923,sweep,2,+up,-0.06695,0.65328,1.47459,-0.04139,-0.04482,0.00362,-0.00324,-0.0024,0.1392,-0.0024,-0.0220,0.0073,-0.0220,-0.0073,-0.4718,5.1487,5.4359,1.5702,-0.1294,-0.1050,-0.0073,1,1,1,1,1,1,1
13.8317,sweep,2,+up,-0.06695,0.65328,1.47459,-0.04139,-0.04482,0.00362,-0.00324,-0.0024,0.1392,-0.0024,-0.0220,0.0073,-0.0220,-0.0073,-0.4718,5.1487,5.4359,1.5702,-0.1294,-0.1050,-0.0073,1,1,1,1,1,1,1
13.8724,sweep,2,+up,-0.06695,0.65328,1.47459,-0.04139,-0.04482,0.00362,-0.00324,-0.0024,0.1392,-0.0024,-0.0220,0.0073,-0.0220,-0.0073,-0.4718,5.1487,5.4359,1.5702,-0.1294,-0.1050,-0.0073,1,1,1,1,1,1,1
13.9119,sweep,2,+up,-0.06695,0.67006,1.47459,-0.04139,-0.04521,0.00401,-0.00324,-0.0024,0.1197,-0.0024,-0.0073,-0.0073,0.0073,-0.0073,-0.4581,5.0940,5.6547,1.6239,-0.1490,-0.1197,-0.0073,1,1,1,1,1,1,1
13.9521,sweep,2,+up,-0.06695,0.67006,1.47459,-0.04139,-0.04521,0.00401,-0.00324,-0.0024,0.1197,-0.0024,-0.0073,-0.0073,0.0073,-0.0073,-0.4581,5.0940,5.6547,1.6239,-0.1490,-0.1197,-0.0073,1,1,1,1,1,1,1
13.9922,sweep,2,+up,-0.06695,0.67998,1.47459,-0.04139,-0.04521,0.00362,-0.00324,0.0024,0.1197,-0.0024,-0.0073,-0.0073,-0.0073,-0.0073,-0.4581,4.7658,5.8051,1.6484,-0.1587,-0.1294,0.0024,1,1,1,1,1,1,1
14.0323,sweep,2,+up,-0.06695,0.67998,1.47459,-0.04139,-0.04521,0.00362,-0.00324,0.0024,0.1197,-0.0024,-0.0073,-0.0073,-0.0073,-0.0073,-0.4581,4.7658,5.8051,1.6484,-0.1587,-0.1294,0.0024,1,1,1,1,1,1,1
14.0723,sweep,2,+up,-0.06695,0.67998,1.47459,-0.04139,-0.04521,0.00362,-0.00324,0.0024,0.1197,-0.0024,-0.0073,-0.0073,-0.0073,-0.0073,-0.4581,4.7658,5.8051,1.6484,-0.1587,-0.1294,0.0024,1,1,1,1,1,1,1
14.1120,sweep,2,+up,-0.06695,0.69257,1.47459,-0.04139,-0.04521,0.00362,-0.00324,-0.0024,0.0904,-0.0024,-0.0220,-0.0073,-0.0220,-0.0073,-0.4444,4.7795,6.0376,1.6972,-0.1734,-0.1343,-0.0024,1,1,1,1,1,1,1
14.1519,sweep,2,+up,-0.06695,0.69257,1.47459,-0.04139,-0.04521,0.00362,-0.00324,-0.0024,0.0904,-0.0024,-0.0220,-0.0073,-0.0220,-0.0073,-0.4444,4.7795,6.0376,1.6972,-0.1734,-0.1343,-0.0024,1,1,1,1,1,1,1
14.1919,sweep,2,+up,-0.06695,0.69982,1.47459,-0.04139,-0.04482,0.00362,-0.00324,-0.0024,0.0855,-0.0024,-0.0073,-0.0073,-0.0073,-0.0073,-0.4171,4.4513,6.1470,1.7216,-0.1832,-0.1392,-0.0073,1,1,1,1,1,1,1
14.2323,sweep,2,+up,-0.06695,0.69982,1.47459,-0.04139,-0.04482,0.00362,-0.00324,-0.0024,0.0855,-0.0024,-0.0073,-0.0073,-0.0073,-0.0073,-0.4171,4.4513,6.1470,1.7216,-0.1832,-0.1392,-0.0073,1,1,1,1,1,1,1
14.2725,sweep,2,+up,-0.06695,0.69982,1.47459,-0.04139,-0.04482,0.00362,-0.00324,-0.0024,0.0855,-0.0024,-0.0073,-0.0073,-0.0073,-0.0073,-0.4171,4.4513,6.1470,1.7216,-0.1832,-0.1392,-0.0073,1,1,1,1,1,1,1
14.3124,sweep,2,+up,-0.06695,0.70973,1.47459,-0.04101,-0.04521,0.00362,-0.00324,-0.0024,0.0659,-0.0024,0.0073,-0.0073,-0.0073,-0.0073,-0.4171,4.4513,6.3385,1.7558,-0.1978,-0.1490,-0.0073,1,1,1,1,1,1,1
14.3524,sweep,2,+up,-0.06695,0.70973,1.47459,-0.04101,-0.04521,0.00362,-0.00324,-0.0024,0.0659,-0.0024,0.0073,-0.0073,-0.0073,-0.0073,-0.4171,4.4513,6.3385,1.7558,-0.1978,-0.1490,-0.0073,1,1,1,1,1,1,1
14.3923,sweep,2,+up,-0.06695,0.71546,1.47459,-0.04101,-0.04521,0.00362,-0.00324,-0.0073,0.0513,-0.0024,-0.0073,-0.0073,-0.0073,-0.0073,-0.4171,4.2051,6.5026,1.7802,-0.2125,-0.1636,-0.0073,1,1,1,1,1,1,1
14.4319,sweep,2,+up,-0.06695,0.71546,1.47459,-0.04101,-0.04521,0.00362,-0.00324,-0.0073,0.0513,-0.0024,-0.0073,-0.0073,-0.0073,-0.0073,-0.4171,4.2051,6.5026,1.7802,-0.2125,-0.1636,-0.0073,1,1,1,1,1,1,1
14.4726,sweep,2,+up,-0.06695,0.71546,1.47459,-0.04101,-0.04521,0.00362,-0.00324,-0.0073,0.0513,-0.0024,-0.0073,-0.0073,-0.0073,-0.0073,-0.4171,4.2051,6.5026,1.7802,-0.2125,-0.1636,-0.0073,1,1,1,1,1,1,1
14.5119,sweep,2,+up,-0.06695,0.72232,1.47459,-0.04101,-0.04521,0.00362,-0.00362,0.0024,0.0366,-0.0024,-0.0073,-0.0073,-0.0073,-0.0073,-0.4171,4.6564,6.7214,1.7998,-0.2369,-0.1783,-0.0073,1,1,1,1,1,1,1
14.5519,sweep,2,+up,-0.06695,0.72232,1.47459,-0.04101,-0.04521,0.00362,-0.00362,0.0024,0.0366,-0.0024,-0.0073,-0.0073,-0.0073,-0.0073,-0.4171,4.6564,6.7214,1.7998,-0.2369,-0.1783,-0.0073,1,1,1,1,1,1,1
14.5918,sweep,2,+up,-0.06695,0.72690,1.47459,-0.04101,-0.04521,0.00362,-0.00324,-0.0024,0.0513,-0.0024,-0.0220,-0.0073,-0.0220,0.0073,-0.4034,4.2598,6.8855,1.8242,-0.2466,-0.1783,-0.0122,1,1,1,1,1,1,1
14.6321,sweep,2,+up,-0.06695,0.72690,1.47459,-0.04101,-0.04521,0.00362,-0.00324,-0.0024,0.0513,-0.0024,-0.0220,-0.0073,-0.0220,0.0073,-0.4034,4.2598,6.8855,1.8242,-0.2466,-0.1783,-0.0122,1,1,1,1,1,1,1
14.6720,sweep,2,+up,-0.06695,0.72690,1.47459,-0.04101,-0.04521,0.00362,-0.00324,-0.0024,0.0513,-0.0024,-0.0220,-0.0073,-0.0220,0.0073,-0.4034,4.2598,6.8855,1.8242,-0.2466,-0.1783,-0.0122,1,1,1,1,1,1,1
14.7122,sweep,2,+up,-0.06695,0.73301,1.47459,-0.04101,-0.04521,0.00362,-0.00324,-0.0024,0.0562,0.0024,-0.0073,0.0073,-0.0073,-0.0073,-0.3761,3.7949,7.0769,1.8486,-0.2564,-0.1880,-0.0171,1,1,1,1,1,1,1
14.7521,sweep,2,+up,-0.06695,0.73301,1.47459,-0.04101,-0.04521,0.00362,-0.00324,-0.0024,0.0562,0.0024,-0.0073,0.0073,-0.0073,-0.0073,-0.3761,3.7949,7.0769,1.8486,-0.2564,-0.1880,-0.0171,1,1,1,1,1,1,1
14.7921,sweep,2,+up,-0.06695,0.73568,1.47459,-0.04101,-0.04521,0.00362,-0.00362,-0.0024,0.0366,-0.0024,-0.0073,-0.0073,-0.0073,-0.0073,-0.3624,4.2188,7.2000,1.8681,-0.2613,-0.1929,-0.0122,1,1,1,1,1,1,1
14.8322,sweep,2,+up,-0.06695,0.73568,1.47459,-0.04101,-0.04521,0.00362,-0.00362,-0.0024,0.0366,-0.0024,-0.0073,-0.0073,-0.0073,-0.0073,-0.3624,4.2188,7.2000,1.8681,-0.2613,-0.1929,-0.0122,1,1,1,1,1,1,1
14.8724,sweep,2,+up,-0.06695,0.73568,1.47459,-0.04101,-0.04521,0.00362,-0.00362,-0.0024,0.0366,-0.0024,-0.0073,-0.0073,-0.0073,-0.0073,-0.3624,4.2188,7.2000,1.8681,-0.2613,-0.1929,-0.0122,1,1,1,1,1,1,1
14.9123,sweep,2,+up,-0.06695,0.73987,1.47459,-0.04063,-0.04521,0.00362,-0.00324,-0.0024,0.0317,-0.0024,0.0073,-0.0073,0.0073,0.0073,-0.3487,4.2598,7.3915,1.8779,-0.2662,-0.1978,-0.0073,1,1,1,1,1,1,1
14.9523,sweep,2,+up,-0.06695,0.73987,1.47459,-0.04063,-0.04521,0.00362,-0.00324,-0.0024,0.0317,-0.0024,0.0073,-0.0073,0.0073,0.0073,-0.3487,4.2598,7.3915,1.8779,-0.2662,-0.1978,-0.0073,1,1,1,1,1,1,1
14.9922,sweep,2,+up,-0.06695,0.74254,1.47459,-0.04063,-0.04521,0.00362,-0.00362,-0.0073,0.0269,-0.0024,-0.0073,-0.0073,-0.0073,-0.0220,-0.3487,3.8085,7.4735,1.8926,-0.2662,-0.2027,-0.0073,1,1,1,1,1,1,1
15.0322,sweep,2,+up,-0.06695,0.74254,1.47459,-0.04063,-0.04521,0.00362,-0.00362,-0.0073,0.0269,-0.0024,-0.0073,-0.0073,-0.0073,-0.0220,-0.3487,3.8085,7.4735,1.8926,-0.2662,-0.2027,-0.0073,1,1,1,1,1,1,1
15.0722,sweep,2,+up,-0.06695,0.74254,1.47459,-0.04063,-0.04521,0.00362,-0.00362,-0.0073,0.0269,-0.0024,-0.0073,-0.0073,-0.0073,-0.0220,-0.3487,3.8085,7.4735,1.8926,-0.2662,-0.2027,-0.0073,1,1,1,1,1,1,1
15.1123,sweep,2,+up,-0.06695,0.74598,1.47459,-0.04063,-0.04521,0.00362,-0.00324,0.0024,0.0220,-0.0024,-0.0073,-0.0073,-0.0073,-0.0073,-0.3350,3.5761,7.6650,1.9023,-0.2759,-0.2076,-0.0073,1,1,1,1,1,1,1
15.6157,sweep,2,-down,-0.06695,0.74674,1.47459,-0.04063,-0.04521,0.00362,-0.00362,-0.0073,0.0220,-0.0024,-0.0073,-0.0073,-0.0073,-0.0220,-0.3487,3.8496,7.6786,1.9072,-0.2808,-0.2076,-0.0073,1,1,1,1,1,1,1
15.6550,sweep,2,-down,-0.06695,0.74674,1.47459,-0.04063,-0.04521,0.00362,-0.00362,-0.0073,0.0220,-0.0024,-0.0073,-0.0073,-0.0073,-0.0220,-0.3487,3.8496,7.6786,1.9072,-0.2808,-0.2076,-0.0073,1,1,1,1,1,1,1
15.6954,sweep,2,-down,-0.06695,0.75055,1.47498,-0.04063,-0.04521,0.00362,-0.00362,-0.0024,-0.2027,-0.0073,0.0073,-0.0220,-0.0073,-0.0073,-0.3350,1.2786,8.1846,1.9365,-0.3004,-0.2222,-0.0073,1,1,1,1,1,1,1
15.7352,sweep,2,-down,-0.06695,0.75055,1.47498,-0.04063,-0.04521,0.00362,-0.00362,-0.0024,-0.2027,-0.0073,0.0073,-0.0220,-0.0073,-0.0073,-0.3350,1.2786,8.1846,1.9365,-0.3004,-0.2222,-0.0073,1,1,1,1,1,1,1
15.7750,sweep,2,-down,-0.06695,0.75055,1.47498,-0.04063,-0.04521,0.00362,-0.00362,-0.0024,-0.2027,-0.0073,0.0073,-0.0220,-0.0073,-0.0073,-0.3350,1.2786,8.1846,1.9365,-0.3004,-0.2222,-0.0073,1,1,1,1,1,1,1
15.8155,sweep,2,-down,-0.06695,0.72690,1.47498,-0.04101,-0.04559,0.00324,-0.00324,-0.0024,-0.2027,-0.0024,-0.0073,-0.0220,0.0073,-0.0073,-0.3624,0.8274,8.3350,1.9707,-0.2711,-0.2027,-0.0073,1,1,1,1,1,1,1
15.8554,sweep,2,-down,-0.06695,0.72690,1.47498,-0.04101,-0.04559,0.00324,-0.00324,-0.0024,-0.2027,-0.0024,-0.0073,-0.0220,0.0073,-0.0073,-0.3624,0.8274,8.3350,1.9707,-0.2711,-0.2027,-0.0073,1,1,1,1,1,1,1
15.8948,sweep,2,-down,-0.06695,0.70973,1.47498,-0.04025,-0.04597,0.00286,-0.00324,-0.0024,-0.2222,-0.0024,-0.0073,-0.0073,-0.0220,-0.0073,-0.3350,2.0444,8.2256,1.9267,-0.2515,-0.1685,-0.0073,1,1,1,1,1,1,1
15.9351,sweep,2,-down,-0.06695,0.70973,1.47498,-0.04025,-0.04597,0.00286,-0.00324,-0.0024,-0.2222,-0.0024,-0.0073,-0.0073,-0.0220,-0.0073,-0.3350,2.0444,8.2256,1.9267,-0.2515,-0.1685,-0.0073,1,1,1,1,1,1,1
15.9754,sweep,2,-down,-0.06695,0.70973,1.47498,-0.04025,-0.04597,0.00286,-0.00324,-0.0024,-0.2222,-0.0024,-0.0073,-0.0073,-0.0220,-0.0073,-0.3350,2.0444,8.2256,1.9267,-0.2515,-0.1685,-0.0073,1,1,1,1,1,1,1
16.0152,sweep,2,-down,-0.06695,0.68456,1.47688,-0.03567,-0.04597,0.00286,-0.00324,0.0024,-0.2027,-0.0024,-0.0366,-0.0220,-0.0220,0.0073,-0.3350,3.6718,5.7778,1.4383,-0.2125,-0.1490,-0.0073,1,1,1,1,1,1,1
16.0556,sweep,2,-down,-0.06695,0.68456,1.47688,-0.03567,-0.04597,0.00286,-0.00324,0.0024,-0.2027,-0.0024,-0.0366,-0.0220,-0.0220,0.0073,-0.3350,3.6718,5.7778,1.4383,-0.2125,-0.1490,-0.0073,1,1,1,1,1,1,1
16.0954,sweep,2,-down,-0.06695,0.66968,1.47688,-0.03986,-0.04597,0.00286,-0.00362,-0.0024,-0.1929,0.0024,-0.0220,-0.0073,-0.0073,-0.0073,-0.3214,2.1812,5.6137,1.6630,-0.1978,-0.1343,-0.0024,1,1,1,1,1,1,1
16.1348,sweep,2,-down,-0.06695,0.66968,1.47688,-0.03986,-0.04597,0.00286,-0.00362,-0.0024,-0.1929,0.0024,-0.0220,-0.0073,-0.0073,-0.0073,-0.3214,2.1812,5.6137,1.6630,-0.1978,-0.1343,-0.0024,1,1,1,1,1,1,1
16.1752,sweep,2,-down,-0.06695,0.66968,1.47688,-0.03986,-0.04597,0.00286,-0.00362,-0.0024,-0.1929,0.0024,-0.0220,-0.0073,-0.0073,-0.0073,-0.3214,2.1812,5.6137,1.6630,-0.1978,-0.1343,-0.0024,1,1,1,1,1,1,1
16.2149,sweep,2,-down,-0.06695,0.64565,1.47688,-0.04025,-0.04597,0.00286,-0.00324,-0.0073,-0.1978,-0.0024,-0.0220,-0.0220,-0.0073,-0.0073,-0.3214,2.3179,5.3812,1.7021,-0.1832,-0.1148,-0.0073,1,1,1,1,1,1,1
16.2553,sweep,2,-down,-0.06695,0.64565,1.47688,-0.04025,-0.04597,0.00286,-0.00324,-0.0073,-0.1978,-0.0024,-0.0220,-0.0220,-0.0073,-0.0073,-0.3214,2.3179,5.3812,1.7021,-0.1832,-0.1148,-0.0073,1,1,1,1,1,1,1
16.2953,sweep,2,-down,-0.06695,0.62810,1.47650,-0.03872,-0.04597,0.00286,-0.00324,-0.0024,-0.1880,-0.0024,0.0220,-0.0073,-0.0220,0.0073,-0.3214,4.2735,5.2308,1.5458,-0.1685,-0.1099,-0.0073,1,1,1,1,1,1,1
16.3349,sweep,2,-down,-0.06695,0.62810,1.47650,-0.03872,-0.04597,0.00286,-0.00324,-0.0024,-0.1880,-0.0024,0.0220,-0.0073,-0.0220,0.0073,-0.3214,4.2735,5.2308,1.5458,-0.1685,-0.1099,-0.0073,1,1,1,1,1,1,1
16.3749,sweep,2,-down,-0.06695,0.62810,1.47650,-0.03872,-0.04597,0.00286,-0.00324,-0.0024,-0.1880,-0.0024,0.0220,-0.0073,-0.0220,0.0073,-0.3214,4.2735,5.2308,1.5458,-0.1685,-0.1099,-0.0073,1,1,1,1,1,1,1
16.4152,sweep,2,-down,-0.06695,0.60521,1.47650,-0.03986,-0.04597,0.00324,-0.00324,-0.0024,-0.2125,-0.0024,0.0073,-0.0073,0.0073,-0.0073,-0.3214,3.1521,4.9983,1.5507,-0.1392,-0.0904,-0.0073,1,1,1,1,1,1,1
16.4550,sweep,2,-down,-0.06695,0.60521,1.47650,-0.03986,-0.04597,0.00324,-0.00324,-0.0024,-0.2125,-0.0024,0.0073,-0.0073,0.0073,-0.0073,-0.3214,3.1521,4.9983,1.5507,-0.1392,-0.0904,-0.0073,1,1,1,1,1,1,1
16.4948,sweep,2,-down,-0.06695,0.58919,1.47650,-0.03986,-0.04597,0.00286,-0.00324,-0.0024,-0.1783,-0.0024,0.0073,-0.0073,-0.0220,-0.0073,-0.3350,3.0838,4.8205,1.5263,-0.1294,-0.0904,-0.0073,1,1,1,1,1,1,1
16.5349,sweep,2,-down,-0.06695,0.58919,1.47650,-0.03986,-0.04597,0.00286,-0.00324,-0.0024,-0.1783,-0.0024,0.0073,-0.0073,-0.0220,-0.0073,-0.3350,3.0838,4.8205,1.5263,-0.1294,-0.0904,-0.0073,1,1,1,1,1,1,1
16.5749,sweep,2,-down,-0.06695,0.58919,1.47650,-0.03986,-0.04597,0.00286,-0.00324,-0.0024,-0.1783,-0.0024,0.0073,-0.0073,-0.0220,-0.0073,-0.3350,3.0838,4.8205,1.5263,-0.1294,-0.0904,-0.0073,1,1,1,1,1,1,1
16.6149,sweep,2,-down,-0.06695,0.56363,1.47650,-0.03910,-0.04597,0.00324,-0.00324,-0.0073,-0.2125,-0.0024,-0.0073,-0.0073,-0.0073,-0.0073,-0.3487,4.7795,4.5880,1.4237,-0.1245,-0.0757,-0.0073,1,1,1,1,1,1,1
16.6549,sweep,2,-down,-0.06695,0.56363,1.47650,-0.03910,-0.04597,0.00324,-0.00324,-0.0073,-0.2125,-0.0024,-0.0073,-0.0073,-0.0073,-0.0073,-0.3487,4.7795,4.5880,1.4237,-0.1245,-0.0757,-0.0073,1,1,1,1,1,1,1
16.6949,sweep,2,-down,-0.06695,0.54074,1.47650,-0.03986,-0.04597,0.00324,-0.00324,-0.0024,-0.1978,-0.0024,-0.0073,-0.0220,-0.0073,-0.0220,-0.3487,3.9590,4.3692,1.4237,-0.1099,-0.0757,-0.0073,1,1,1,1,1,1,1
16.7352,sweep,2,-down,-0.06695,0.54074,1.47650,-0.03986,-0.04597,0.00324,-0.00324,-0.0024,-0.1978,-0.0024,-0.0073,-0.0220,-0.0073,-0.0220,-0.3487,3.9590,4.3692,1.4237,-0.1099,-0.0757,-0.0073,1,1,1,1,1,1,1
16.7749,sweep,2,-down,-0.06695,0.54074,1.47650,-0.03986,-0.04597,0.00324,-0.00324,-0.0024,-0.1978,-0.0024,-0.0073,-0.0220,-0.0073,-0.0220,-0.3487,3.9590,4.3692,1.4237,-0.1099,-0.0757,-0.0073,1,1,1,1,1,1,1
16.8155,sweep,2,-down,-0.06695,0.52396,1.47650,-0.03948,-0.04597,0.00324,-0.00324,-0.0024,-0.1783,0.0024,-0.0073,-0.0073,-0.0073,-0.0073,-0.3487,4.5744,4.1778,1.3651,-0.0904,-0.0708,-0.0073,1,1,1,1,1,1,1
16.8552,sweep,2,-down,-0.06695,0.52396,1.47650,-0.03948,-0.04597,0.00324,-0.00324,-0.0024,-0.1783,0.0024,-0.0073,-0.0073,-0.0073,-0.0073,-0.3487,4.5744,4.1778,1.3651,-0.0904,-0.0708,-0.0073,1,1,1,1,1,1,1
16.8948,sweep,2,-down,-0.06695,0.52396,1.47650,-0.03948,-0.04597,0.00324,-0.00362,-0.0024,-0.1783,0.0024,-0.0073,-0.0073,-0.0073,-0.0220,-0.3487,4.5744,4.1778,1.3651,-0.0757,-0.0611,-0.0073,1,1,1,1,1,1,1
16.9352,sweep,2,-down,-0.06695,0.49992,1.47650,-0.03948,-0.04597,0.00324,-0.00362,-0.0073,-0.2125,-0.0024,-0.0073,-0.0073,-0.0073,-0.0220,-0.3350,4.8889,3.9316,1.3211,-0.0757,-0.0611,-0.0073,1,1,1,1,1,1,1
16.9755,sweep,2,-down,-0.06695,0.49992,1.47650,-0.03948,-0.04597,0.00324,-0.00362,-0.0073,-0.2125,-0.0024,-0.0073,-0.0073,-0.0073,-0.0220,-0.3350,4.8889,3.9316,1.3211,-0.0757,-0.0611,-0.0073,1,1,1,1,1,1,1
17.0154,sweep,2,-down,-0.06695,0.48352,1.47650,-0.03948,-0.04597,0.00324,-0.00324,-0.0073,-0.2027,-0.0024,-0.0073,0.0073,0.0073,-0.0220,-0.3350,4.9846,3.7812,1.3016,-0.0708,-0.0611,-0.0073,1,1,1,1,1,1,1
17.0550,sweep,2,-down,-0.06695,0.48352,1.47650,-0.03948,-0.04597,0.00324,-0.00324,-0.0073,-0.2027,-0.0024,-0.0073,0.0073,0.0073,-0.0220,-0.3350,4.9846,3.7812,1.3016,-0.0708,-0.0611,-0.0073,1,1,1,1,1,1,1
17.0952,sweep,2,-down,-0.06695,0.48352,1.47650,-0.03948,-0.04559,0.00324,-0.00324,-0.0073,-0.2027,-0.0024,0.0073,-0.0073,-0.0073,0.0073,-0.3350,4.9846,3.7812,1.2332,-0.0513,-0.0562,-0.0073,1,1,1,1,1,1,1
17.1351,sweep,2,-down,-0.06695,0.45911,1.47650,-0.03948,-0.04559,0.00324,-0.00324,-0.0024,-0.2173,0.0024,0.0073,-0.0073,-0.0073,0.0073,-0.3487,5.9966,3.5624,1.2332,-0.0513,-0.0562,-0.0073,1,1,1,1,1,1,1
17.1752,sweep,2,-down,-0.06695,0.45911,1.47650,-0.03948,-0.04559,0.00324,-0.00324,-0.0024,-0.2173,0.0024,0.0073,-0.0073,-0.0073,0.0073,-0.3487,5.9966,3.5624,1.2332,-0.0513,-0.0562,-0.0073,1,1,1,1,1,1,1
17.2154,sweep,2,-down,-0.06657,0.44347,1.47650,-0.03948,-0.04559,0.00324,-0.00324,-0.0024,-0.1880,-0.0073,-0.0073,-0.0073,-0.0073,-0.0073,-0.3487,5.2855,3.3983,1.2088,-0.0464,-0.0513,-0.0073,1,1,1,1,1,1,1
17.2553,sweep,2,-down,-0.06657,0.44347,1.47650,-0.03948,-0.04559,0.00324,-0.00324,-0.0024,-0.1880,-0.0073,-0.0073,-0.0073,-0.0073,-0.0073,-0.3487,5.2855,3.3983,1.2088,-0.0464,-0.0513,-0.0073,1,1,1,1,1,1,1
17.2955,sweep,2,-down,-0.06657,0.44347,1.47650,-0.03948,-0.04559,0.00324,-0.00324,-0.0024,-0.1880,-0.0073,-0.0073,-0.0073,-0.0073,-0.0073,-0.3487,5.2855,3.3983,1.2088,-0.0464,-0.0513,-0.0073,1,1,1,1,1,1,1
17.3354,sweep,2,-down,-0.06695,0.41867,1.47650,-0.03948,-0.04559,0.00324,-0.00324,-0.0024,-0.1978,-0.0024,-0.0073,-0.0073,-0.0073,-0.0073,-0.3624,5.8598,3.1658,1.1648,-0.0464,-0.0513,-0.0073,1,1,1,1,1,1,1
17.3752,sweep,2,-down,-0.06695,0.41867,1.47650,-0.03948,-0.04559,0.00324,-0.00324,-0.0024,-0.1978,-0.0024,-0.0073,-0.0073,-0.0073,-0.0073,-0.3624,5.8598,3.1658,1.1648,-0.0464,-0.0513,-0.0073,1,1,1,1,1,1,1
17.4150,sweep,2,-down,-0.06695,0.40265,1.47650,-0.03910,-0.04559,0.00324,-0.00324,-0.0024,-0.2173,-0.0024,-0.0220,-0.0073,0.0073,-0.0220,-0.3624,6.6120,3.0427,1.1160,-0.0366,-0.0464,-0.0073,1,1,1,1,1,1,1
17.4549,sweep,2,-down,-0.06695,0.40265,1.47650,-0.03910,-0.04559,0.00324,-0.00324,-0.0024,-0.2173,-0.0024,-0.0220,-0.0073,0.0073,-0.0220,-0.3624,6.6120,3.0427,1.1160,-0.0366,-0.0464,-0.0073,1,1,1,1,1,1,1
17.4954,sweep,2,-down,-0.06695,0.40265,1.47650,-0.03910,-0.04559,0.00324,-0.00324,-0.0024,-0.2173,-0.0024,-0.0220,-0.0073,0.0073,-0.0220,-0.3624,6.6120,3.0427,1.1160,-0.0366,-0.0464,-0.0073,1,1,1,1,1,1,1
17.5350,sweep,2,-down,-0.06695,0.37861,1.47650,-0.03948,-0.04559,0.00324,-0.00324,-0.0024,-0.1880,-0.0024,-0.0220,0.0073,-0.0220,-0.0073,-0.3624,6.2427,2.8239,1.0769,-0.0317,-0.0415,-0.0073,1,1,1,1,1,1,1
17.5750,sweep,2,-down,-0.06695,0.37861,1.47650,-0.03948,-0.04559,0.00324,-0.00324,-0.0024,-0.1880,-0.0024,-0.0220,0.0073,-0.0220,-0.0073,-0.3624,6.2427,2.8239,1.0769,-0.0317,-0.0415,-0.0073,1,1,1,1,1,1,1
17.6151,sweep,2,-down,-0.06657,0.36221,1.47650,-0.03948,-0.04559,0.00324,-0.00324,-0.0024,-0.2222,-0.0024,-0.0220,-0.0073,-0.0073,-0.0073,-0.3624,6.7624,2.6598,1.0281,-0.0317,-0.0415,-0.0073,1,1,1,1,1,1,1
17.6558,sweep,2,-down,-0.06657,0.36221,1.47650,-0.03948,-0.04559,0.00324,-0.00324,-0.0024,-0.2222,-0.0024,-0.0220,-0.0073,-0.0073,-0.0073,-0.3624,6.7624,2.6598,1.0281,-0.0317,-0.0415,-0.0073,1,1,1,1,1,1,1
17.6949,sweep,2,-down,-0.06657,0.36221,1.47650,-0.03948,-0.04559,0.00324,-0.00324,-0.0024,-0.2222,-0.0024,-0.0220,-0.0073,-0.0073,-0.0073,-0.3624,6.7624,2.6598,1.0281,-0.0317,-0.0415,-0.0073,1,1,1,1,1,1,1
17.7354,sweep,2,-down,-0.06657,0.33818,1.47650,-0.03948,-0.04559,0.00324,-0.00324,-0.0024,-0.2027,-0.0024,-0.0220,0.0073,-0.0073,-0.0073,-0.3761,7.0085,2.3863,0.9744,-0.0269,-0.0317,-0.0073,1,1,1,1,1,1,1
17.7751,sweep,2,-down,-0.06657,0.33818,1.47650,-0.03948,-0.04559,0.00324,-0.00324,-0.0024,-0.2027,-0.0024,-0.0220,0.0073,-0.0073,-0.0073,-0.3761,7.0085,2.3863,0.9744,-0.0269,-0.0317,-0.0073,1,1,1,1,1,1,1
17.8152,sweep,2,-down,-0.06695,0.32177,1.47650,-0.03948,-0.04597,0.00324,-0.00362,-0.0073,-0.2222,-0.0024,0.0220,-0.0073,-0.0220,-0.0220,-0.3624,7.2274,2.2359,0.9402,-0.0171,-0.0366,-0.0073,1,1,1,1,1,1,1
17.8553,sweep,2,-down,-0.06695,0.32177,1.47650,-0.03948,-0.04597,0.00324,-0.00362,-0.0073,-0.2222,-0.0024,0.0220,-0.0073,-0.0220,-0.0220,-0.3624,7.2274,2.2359,0.9402,-0.0171,-0.0366,-0.0073,1,1,1,1,1,1,1
17.8953,sweep,2,-down,-0.06695,0.32177,1.47650,-0.03948,-0.04597,0.00324,-0.00362,-0.0073,-0.2222,-0.0024,0.0220,-0.0073,-0.0220,-0.0220,-0.3624,7.2274,2.2359,0.9402,-0.0171,-0.0366,-0.0073,1,1,1,1,1,1,1
17.9349,sweep,2,-down,-0.06695,0.29774,1.47650,-0.03948,-0.04559,0.00324,-0.00324,0.0024,-0.2076,-0.0024,-0.0073,-0.0073,0.0220,-0.0073,-0.3761,7.1726,2.0308,0.8864,-0.0220,-0.0317,-0.0073,1,1,1,1,1,1,1
17.9750,sweep,2,-down,-0.06695,0.29774,1.47650,-0.03948,-0.04559,0.00324,-0.00324,0.0024,-0.2076,-0.0024,-0.0073,-0.0073,0.0220,-0.0073,-0.3761,7.1726,2.0308,0.8864,-0.0220,-0.0317,-0.0073,1,1,1,1,1,1,1
18.0152,sweep,2,-down,-0.06657,0.28172,1.47650,-0.03910,-0.04559,0.00324,-0.00324,0.0024,-0.1929,-0.0024,0.0073,-0.0073,-0.0220,-0.0073,-0.3897,7.7060,1.8803,0.8278,-0.0171,-0.0269,-0.0073,1,1,1,1,1,1,1
18.0550,sweep,2,-down,-0.06657,0.28172,1.47650,-0.03910,-0.04559,0.00324,-0.00324,0.0024,-0.1929,-0.0024,0.0073,-0.0073,-0.0220,-0.0073,-0.3897,7.7060,1.8803,0.8278,-0.0171,-0.0269,-0.0073,1,1,1,1,1,1,1
18.0951,sweep,2,-down,-0.06657,0.28172,1.47650,-0.03910,-0.04559,0.00324,-0.00324,0.0024,-0.1929,-0.0024,0.0073,-0.0073,-0.0220,-0.0073,-0.3897,7.7060,1.8803,0.8278,-0.0171,-0.0269,-0.0073,1,1,1,1,1,1,1
18.1348,sweep,2,-down,-0.06657,0.25769,1.47650,-0.03948,-0.04559,0.00324,-0.00324,-0.0024,-0.2173,-0.0024,-0.0073,-0.0220,-0.0073,0.0073,-0.3761,8.0068,1.6615,0.7790,-0.0122,-0.0171,-0.0073,1,1,1,1,1,1,1
18.1752,sweep,2,-down,-0.06657,0.25769,1.47650,-0.03948,-0.04559,0.00324,-0.00324,-0.0024,-0.2173,-0.0024,-0.0073,-0.0220,-0.0073,0.0073,-0.3761,8.0068,1.6615,0.7790,-0.0122,-0.0171,-0.0073,1,1,1,1,1,1,1
18.2150,sweep,2,-down,-0.06657,0.24281,1.47650,-0.03910,-0.04559,0.00324,-0.00324,-0.0024,-0.1783,-0.0024,-0.0073,-0.0073,-0.0220,-0.0073,-0.3624,8.5128,1.4701,0.7155,-0.0073,-0.0122,-0.0073,1,1,1,1,1,1,1
18.2550,sweep,2,-down,-0.06657,0.24281,1.47650,-0.03910,-0.04559,0.00324,-0.00324,-0.0024,-0.1783,-0.0024,-0.0073,-0.0073,-0.0220,-0.0073,-0.3624,8.5128,1.4701,0.7155,-0.0073,-0.0122,-0.0073,1,1,1,1,1,1,1
18.2950,sweep,2,-down,-0.06657,0.24281,1.47650,-0.03910,-0.04559,0.00324,-0.00324,-0.0024,-0.1783,-0.0024,-0.0073,-0.0073,-0.0220,-0.0073,-0.3624,8.5128,1.4701,0.7155,-0.0073,-0.0122,-0.0073,1,1,1,1,1,1,1
18.3349,sweep,2,-down,-0.06657,0.22488,1.47650,-0.03910,-0.04559,0.00324,-0.00362,-0.0024,-0.1441,-0.0024,0.0073,-0.0220,-0.0220,-0.0220,-0.3761,7.9932,1.2103,0.6471,-0.0024,-0.0122,-0.0122,1,1,1,1,1,1,1
18.3750,sweep,2,-down,-0.06657,0.22488,1.47650,-0.03910,-0.04559,0.00324,-0.00362,-0.0024,-0.1441,-0.0024,0.0073,-0.0220,-0.0220,-0.0220,-0.3761,7.9932,1.2103,0.6471,-0.0024,-0.0122,-0.0122,1,1,1,1,1,1,1
18.4149,sweep,2,-down,-0.06657,0.21420,1.47650,-0.03948,-0.04559,0.00324,-0.00324,-0.0024,-0.1197,-0.0024,0.0073,-0.0366,-0.0073,0.0073,-0.3897,7.8701,1.0735,0.6374,0.0024,-0.0122,-0.0122,1,1,1,1,1,1,1
18.4549,sweep,2,-down,-0.06657,0.21420,1.47650,-0.03948,-0.04559,0.00324,-0.00324,-0.0024,-0.1197,-0.0024,0.0073,-0.0366,-0.0073,0.0073,-0.3897,7.8701,1.0735,0.6374,0.0024,-0.0122,-0.0122,1,1,1,1,1,1,1
18.4949,sweep,2,-down,-0.06657,0.21420,1.47650,-0.03948,-0.04559,0.00324,-0.00324,-0.0024,-0.1197,-0.0024,0.0073,-0.0366,-0.0073,0.0073,-0.3897,7.8701,1.0735,0.6374,0.0024,-0.0122,-0.0122,1,1,1,1,1,1,1
18.5349,sweep,2,-down,-0.06657,0.19970,1.47650,-0.03948,-0.04559,0.00324,-0.00324,0.0024,-0.1294,-0.0024,-0.0073,-0.0073,-0.0220,-0.0073,-0.3897,8.4991,0.8684,0.5885,0.0122,-0.0073,-0.0122,1,1,1,1,1,1,1
18.5749,sweep,2,-down,-0.06657,0.19970,1.47650,-0.03948,-0.04559,0.00324,-0.00324,0.0024,-0.1294,-0.0024,-0.0073,-0.0073,-0.0220,-0.0073,-0.3897,8.4991,0.8684,0.5885,0.0122,-0.0073,-0.0122,1,1,1,1,1,1,1
18.6150,sweep,2,-down,-0.06657,0.19131,1.47650,-0.03948,-0.04559,0.00324,-0.00362,-0.0073,-0.0904,-0.0024,-0.0073,-0.0073,0.0073,-0.0073,-0.3761,8.3077,0.7590,0.5592,0.0122,-0.0122,-0.0122,1,1,1,1,1,1,1
18.6553,sweep,2,-down,-0.06657,0.19131,1.47650,-0.03948,-0.04559,0.00324,-0.00362,-0.0073,-0.0904,-0.0024,-0.0073,-0.0073,0.0073,-0.0073,-0.3761,8.3077,0.7590,0.5592,0.0122,-0.0122,-0.0122,1,1,1,1,1,1,1
18.6950,sweep,2,-down,-0.06657,0.19131,1.47650,-0.03948,-0.04559,0.00324,-0.00362,-0.0073,-0.0904,-0.0024,-0.0073,-0.0073,0.0073,-0.0073,-0.3761,8.3077,0.7590,0.5592,0.0122,-0.0122,-0.0122,1,1,1,1,1,1,1
18.7348,sweep,2,-down,-0.06657,0.18063,1.47650,-0.03948,-0.04559,0.00362,-0.00362,-0.0024,-0.0611,-0.0073,0.0073,0.0073,0.0073,-0.0220,-0.3897,8.5265,0.5812,0.5104,0.0122,-0.0122,-0.0122,1,1,1,1,1,1,1
18.7748,sweep,2,-down,-0.06657,0.18063,1.47650,-0.03948,-0.04559,0.00362,-0.00362,-0.0024,-0.0611,-0.0073,0.0073,0.0073,0.0073,-0.0220,-0.3897,8.5265,0.5812,0.5104,0.0122,-0.0122,-0.0122,1,1,1,1,1,1,1
18.8154,sweep,2,-down,-0.06657,0.17414,1.47650,-0.03948,-0.04559,0.00324,-0.00324,-0.0073,-0.0904,-0.0073,-0.0366,0.0073,-0.0220,-0.0073,-0.4171,8.5675,0.5402,0.4957,0.0171,-0.0073,-0.0122,1,1,1,1,1,1,1
18.8551,sweep,2,-down,-0.06657,0.17414,1.47650,-0.03948,-0.04559,0.00324,-0.00324,-0.0073,-0.0904,-0.0073,-0.0366,0.0073,-0.0220,-0.0073,-0.4171,8.5675,0.5402,0.4957,0.0171,-0.0073,-0.0122,1,1,1,1,1,1,1
18.8950,sweep,2,-down,-0.06657,0.17414,1.47650,-0.03948,-0.04559,0.00324,-0.00324,-0.0073,-0.0904,-0.0073,-0.0366,0.0073,-0.0220,-0.0073,-0.4171,8.5675,0.5402,0.4957,0.0171,-0.0073,-0.0122,1,1,1,1,1,1,1
18.9351,sweep,2,-down,-0.06657,0.16575,1.47650,-0.03986,-0.04559,0.00362,-0.00324,-0.0024,-0.0562,-0.0024,-0.0220,-0.0220,0.0073,-0.0073,-0.4581,8.7453,0.4444,0.4908,0.0171,-0.0122,-0.0122,1,1,1,1,1,1,1
18.9749,sweep,2,-down,-0.06657,0.16575,1.47650,-0.03986,-0.04559,0.00362,-0.00324,-0.0024,-0.0562,-0.0024,-0.0220,-0.0220,0.0073,-0.0073,-0.4581,8.7453,0.4444,0.4908,0.0171,-0.0122,-0.0122,1,1,1,1,1,1,1
19.0152,sweep,2,-down,-0.06657,0.16117,1.47650,-0.03986,-0.04559,0.00362,-0.00324,-0.0024,-0.0806,-0.0073,-0.0220,-0.0220,-0.0073,-0.0073,-0.4718,8.4308,0.3350,0.4518,0.0122,-0.0073,-0.0122,1,1,1,1,1,1,1
19.0554,sweep,2,-down,-0.06657,0.16117,1.47650,-0.03986,-0.04559,0.00362,-0.00324,-0.0024,-0.0806,-0.0073,-0.0220,-0.0220,-0.0073,-0.0073,-0.4718,8.4308,0.3350,0.4518,0.0122,-0.0073,-0.0122,1,1,1,1,1,1,1
19.0954,sweep,2,-down,-0.06657,0.16117,1.47650,-0.03986,-0.04559,0.00362,-0.00324,-0.0024,-0.0806,-0.0073,-0.0220,-0.0220,-0.0073,-0.0073,-0.4718,8.4308,0.3350,0.4518,0.0122,-0.0073,-0.0122,1,1,1,1,1,1,1
19.1352,sweep,2,-down,-0.06657,0.15469,1.47650,-0.03986,-0.04559,0.00324,-0.00324,0.0024,-0.0855,-0.0073,-0.0073,-0.0073,-0.0073,0.0073,-0.4308,8.8274,0.2530,0.4420,0.0171,-0.0073,-0.0073,1,1,1,1,1,1,1
19.1749,sweep,2,-down,-0.06657,0.15469,1.47650,-0.03986,-0.04559,0.00324,-0.00324,0.0024,-0.0855,-0.0073,-0.0073,-0.0073,-0.0073,0.0073,-0.4308,8.8274,0.2530,0.4420,0.0171,-0.0073,-0.0073,1,1,1,1,1,1,1
19.2154,sweep,2,-down,-0.06657,0.15164,1.47650,-0.03986,-0.04559,0.00362,-0.00324,-0.0073,-0.0415,-0.0024,-0.0073,-0.0220,-0.0073,-0.0073,-0.4581,8.3624,0.2120,0.4176,0.0220,-0.0073,-0.0073,1,1,1,1,1,1,1
19.2557,sweep,2,-down,-0.06657,0.15164,1.47650,-0.03986,-0.04559,0.00362,-0.00324,-0.0073,-0.0415,-0.0024,-0.0073,-0.0220,-0.0073,-0.0073,-0.4581,8.3624,0.2120,0.4176,0.0220,-0.0073,-0.0073,1,1,1,1,1,1,1
19.2954,sweep,2,-down,-0.06657,0.15164,1.47650,-0.03986,-0.04559,0.00362,-0.00324,-0.0073,-0.0415,-0.0024,-0.0073,-0.0220,-0.0073,-0.0073,-0.4581,8.3624,0.2120,0.4176,0.0220,-0.0073,-0.0073,1,1,1,1,1,1,1
19.3355,sweep,2,-down,-0.06695,0.14706,1.47650,-0.04025,-0.04559,0.00324,-0.00324,-0.0073,-0.0415,-0.0024,-0.0073,-0.0073,-0.0073,-0.0073,-0.4581,8.1026,0.1299,0.4176,0.0171,-0.0073,-0.0073,1,1,1,1,1,1,1
19.3753,sweep,2,-down,-0.06695,0.14706,1.47650,-0.04025,-0.04559,0.00324,-0.00324,-0.0073,-0.0415,-0.0024,-0.0073,-0.0073,-0.0073,-0.0073,-0.4581,8.1026,0.1299,0.4176,0.0171,-0.0073,-0.0073,1,1,1,1,1,1,1
19.4151,sweep,2,-down,-0.06657,0.14363,1.47650,-0.03986,-0.04559,0.00324,-0.00324,-0.0024,-0.0611,-0.0024,-0.0073,-0.0073,0.0073,0.0073,-0.4581,8.5949,0.0752,0.3980,0.0220,-0.0073,-0.0122,1,1,1,1,1,1,1
19.4550,sweep,2,-down,-0.06657,0.14363,1.47650,-0.03986,-0.04559,0.00324,-0.00324,-0.0024,-0.0611,-0.0024,-0.0073,-0.0073,0.0073,0.0073,-0.4581,8.5949,0.0752,0.3980,0.0220,-0.0073,-0.0122,1,1,1,1,1,1,1
19.4952,sweep,2,-down,-0.06657,0.14363,1.47650,-0.03986,-0.04559,0.00324,-0.00324,-0.0024,-0.0611,-0.0024,-0.0073,-0.0073,0.0073,0.0073,-0.4581,8.5949,0.0752,0.3980,0.0220,-0.0073,-0.0122,1,1,1,1,1,1,1
19.5348,sweep,2,-down,-0.06695,0.13981,1.47650,-0.04025,-0.04559,0.00324,-0.00324,-0.0024,-0.0269,-0.0024,-0.0073,-0.0073,-0.0073,0.0073,-0.4581,8.8137,0.0205,0.3932,0.0220,-0.0073,-0.0073,1,1,1,1,1,1,1
20.0375,approach,2,return,-0.06657,0.13905,1.47650,-0.03986,-0.04521,0.00324,-0.00324,-0.0024,-0.0269,-0.0024,-0.0073,-0.0073,-0.0073,-0.0073,-0.4855,8.6906,-0.0068,0.3932,0.0171,-0.0073,-0.0024,1,1,1,1,1,1,1
20.0774,approach,2,return,-0.06657,0.13905,1.47650,-0.03986,-0.04521,0.00324,-0.00324,-0.0024,-0.0269,-0.0024,-0.0073,-0.0073,-0.0073,-0.0073,-0.4855,8.6906,-0.0068,0.3932,0.0171,-0.0073,-0.0024,1,1,1,1,1,1,1
20.1177,approach,2,return,-0.06695,0.12455,1.47536,-0.04063,-0.04559,0.00324,-0.00324,-0.0024,-0.1490,-0.0220,-0.0366,0.0073,0.0073,-0.0073,-0.4171,7.2137,0.4581,0.3834,0.0269,-0.0122,-0.0024,1,1,1,1,1,1,1
20.1572,approach,2,return,-0.06695,0.12455,1.47536,-0.04063,-0.04559,0.00324,-0.00324,-0.0024,-0.1490,-0.0220,-0.0366,0.0073,0.0073,-0.0073,-0.4171,7.2137,0.4581,0.3834,0.0269,-0.0122,-0.0024,1,1,1,1,1,1,1
20.1976,approach,2,return,-0.06695,0.12455,1.47536,-0.04063,-0.04559,0.00324,-0.00324,-0.0024,-0.1490,-0.0220,-0.0366,0.0073,0.0073,-0.0073,-0.4171,7.2137,0.4581,0.3834,0.0269,-0.0122,-0.0024,1,1,1,1,1,1,1
20.2374,approach,2,return,-0.06657,0.10433,1.47498,-0.03986,-0.04559,0.00324,-0.00324,-0.0024,-0.1538,0.0024,0.0220,-0.0073,-0.0073,0.0073,-0.4855,8.8274,0.9778,0.4420,0.0220,-0.0122,-0.0024,1,1,1,1,1,1,1
20.2775,approach,2,return,-0.06657,0.10433,1.47498,-0.03986,-0.04559,0.00324,-0.00324,-0.0024,-0.1538,0.0024,0.0220,-0.0073,-0.0073,0.0073,-0.4855,8.8274,0.9778,0.4420,0.0220,-0.0122,-0.0024,1,1,1,1,1,1,1
20.3177,approach,2,return,-0.06657,0.09365,1.47574,-0.03986,-0.04559,0.00324,-0.00362,-0.0024,-0.1294,-0.0024,0.0073,-0.0073,-0.0073,-0.0220,-0.5128,9.0735,0.2803,0.4274,0.0269,-0.0122,-0.0024,1,1,1,1,1,1,1
20.3579,approach,2,return,-0.06657,0.09365,1.47574,-0.03986,-0.04559,0.00324,-0.00362,-0.0024,-0.1294,-0.0024,0.0073,-0.0073,-0.0073,-0.0220,-0.5128,9.0735,0.2803,0.4274,0.0269,-0.0122,-0.0024,1,1,1,1,1,1,1
20.3978,approach,2,return,-0.06657,0.09365,1.47574,-0.03986,-0.04559,0.00324,-0.00362,-0.0024,-0.1294,-0.0024,0.0073,-0.0073,-0.0073,-0.0220,-0.5128,9.0735,0.2803,0.4274,0.0269,-0.0122,-0.0024,1,1,1,1,1,1,1
20.4383,approach,2,return,-0.06695,0.07954,1.47574,-0.03986,-0.04559,0.00324,-0.00324,-0.0024,-0.1197,-0.0024,-0.0073,-0.0073,-0.0220,-0.0073,-0.4581,8.9231,0.2256,0.3834,0.0220,-0.0073,-0.0073,1,1,1,1,1,1,1
20.4776,approach,2,return,-0.06695,0.07954,1.47574,-0.03986,-0.04559,0.00324,-0.00324,-0.0024,-0.1197,-0.0024,-0.0073,-0.0073,-0.0220,-0.0073,-0.4581,8.9231,0.2256,0.3834,0.0220,-0.0073,-0.0073,1,1,1,1,1,1,1
20.5177,approach,2,return,-0.06695,0.07115,1.47574,-0.03986,-0.04559,0.00324,-0.00324,-0.0024,-0.1001,-0.0024,0.0073,-0.0073,-0.0073,-0.0073,-0.4718,8.9915,0.2256,0.3639,0.0269,-0.0122,-0.0122,1,1,1,1,1,1,1
20.5576,approach,2,return,-0.06695,0.07115,1.47574,-0.03986,-0.04559,0.00324,-0.00324,-0.0024,-0.1001,-0.0024,0.0073,-0.0073,-0.0073,-0.0073,-0.4718,8.9915,0.2256,0.3639,0.0269,-0.0122,-0.0122,1,1,1,1,1,1,1
20.5976,approach,2,return,-0.06695,0.07115,1.47574,-0.03986,-0.04559,0.00324,-0.00324,-0.0024,-0.1001,-0.0024,0.0073,-0.0073,-0.0073,-0.0073,-0.4718,8.9915,0.2256,0.3639,0.0269,-0.0122,-0.0122,1,1,1,1,1,1,1
20.6379,approach,2,return,-0.06657,0.06046,1.47574,-0.03986,-0.04521,0.00324,-0.00324,-0.0024,-0.1001,-0.0024,-0.0073,-0.0073,-0.0073,-0.0073,-0.5538,9.0325,0.1983,0.3443,0.0220,-0.0073,-0.0073,1,1,1,1,1,1,1
20.6780,approach,2,return,-0.06657,0.06046,1.47574,-0.03986,-0.04521,0.00324,-0.00324,-0.0024,-0.1001,-0.0024,-0.0073,-0.0073,-0.0073,-0.0073,-0.5538,9.0325,0.1983,0.3443,0.0220,-0.0073,-0.0073,1,1,1,1,1,1,1
20.7176,approach,2,return,-0.06657,0.05398,1.47574,-0.03986,-0.04521,0.00324,-0.00324,-0.0024,-0.0806,-0.0024,-0.0220,0.0073,0.0073,-0.0073,-0.5402,9.2103,0.1846,0.3297,0.0220,-0.0122,-0.0073,1,1,1,1,1,1,1
20.7577,approach,2,return,-0.06657,0.05398,1.47574,-0.03986,-0.04521,0.00324,-0.00324,-0.0024,-0.0806,-0.0024,-0.0220,0.0073,0.0073,-0.0073,-0.5402,9.2103,0.1846,0.3297,0.0220,-0.0122,-0.0073,1,1,1,1,1,1,1
20.7974,approach,2,return,-0.06657,0.05398,1.47574,-0.03986,-0.04521,0.00324,-0.00324,-0.0024,-0.0806,-0.0024,-0.0220,0.0073,0.0073,-0.0073,-0.5402,9.2103,0.1846,0.3297,0.0220,-0.0122,-0.0073,1,1,1,1,1,1,1
20.8376,approach,2,return,-0.06657,0.04635,1.47574,-0.03986,-0.04559,0.00324,-0.00324,-0.0024,-0.0464,-0.0024,0.0073,-0.0073,-0.0073,-0.0073,-0.4991,8.9368,0.1573,0.3101,0.0269,-0.0122,-0.0024,1,1,1,1,1,1,1
20.8778,approach,2,return,-0.06657,0.04635,1.47574,-0.03986,-0.04559,0.00324,-0.00324,-0.0024,-0.0464,-0.0024,0.0073,-0.0073,-0.0073,-0.0073,-0.4991,8.9368,0.1573,0.3101,0.0269,-0.0122,-0.0024,1,1,1,1,1,1,1
20.9181,approach,2,return,-0.06695,0.04139,1.47574,-0.03986,-0.04521,0.00324,-0.00324,-0.0073,-0.0562,0.0024,-0.0073,0.0073,-0.0073,-0.0073,-0.5265,8.7179,0.1299,0.2955,0.0269,-0.0122,-0.0073,1,1,1,1,1,1,1
20.9577,approach,2,return,-0.06695,0.04139,1.47574,-0.03986,-0.04521,0.00324,-0.00324,-0.0073,-0.0562,0.0024,-0.0073,0.0073,-0.0073,-0.0073,-0.5265,8.7179,0.1299,0.2955,0.0269,-0.0122,-0.0073,1,1,1,1,1,1,1
20.9976,approach,2,return,-0.06695,0.04139,1.47574,-0.03986,-0.04521,0.00324,-0.00324,-0.0073,-0.0562,0.0024,-0.0073,0.0073,-0.0073,-0.0073,-0.5265,8.7179,0.1299,0.2955,0.0269,-0.0122,-0.0073,1,1,1,1,1,1,1
21.0376,approach,2,return,-0.06657,0.03529,1.47650,-0.03986,-0.04521,0.00324,-0.00324,0.0024,-0.0757,-0.0024,-0.0073,-0.0073,-0.0073,-0.0073,-0.5675,8.5949,-0.4171,0.2515,0.0269,-0.0073,-0.0073,1,1,1,1,1,1,1
21.0775,approach,2,return,-0.06657,0.03529,1.47650,-0.03986,-0.04521,0.00324,-0.00324,0.0024,-0.0757,-0.0024,-0.0073,-0.0073,-0.0073,-0.0073,-0.5675,8.5949,-0.4171,0.2515,0.0269,-0.0073,-0.0073,1,1,1,1,1,1,1
21.1178,approach,2,return,-0.06657,0.03224,1.47650,-0.03948,-0.04559,0.00324,-0.00324,-0.0024,-0.0562,-0.0024,0.0073,-0.0073,-0.0073,-0.0073,-0.5265,7.9385,-0.5675,0.2173,0.0269,-0.0122,-0.0024,1,1,1,1,1,1,1
21.1581,approach,2,return,-0.06657,0.03224,1.47650,-0.03948,-0.04559,0.00324,-0.00324,-0.0024,-0.0562,-0.0024,0.0073,-0.0073,-0.0073,-0.0073,-0.5265,7.9385,-0.5675,0.2173,0.0269,-0.0122,-0.0024,1,1,1,1,1,1,1
21.1978,approach,2,return,-0.06657,0.03224,1.47650,-0.03948,-0.04559,0.00324,-0.00324,-0.0024,-0.0562,-0.0024,0.0073,-0.0073,-0.0073,-0.0073,-0.5265,7.9385,-0.5675,0.2173,0.0269,-0.0122,-0.0024,1,1,1,1,1,1,1
21.2378,approach,2,return,-0.06657,0.02766,1.47688,-0.03910,-0.04521,0.00324,-0.00324,-0.0024,-0.0122,0.0024,-0.0073,0.0220,0.0073,-0.0073,-0.5128,7.4735,-0.8547,0.1343,0.0269,-0.0122,0.0024,1,1,1,1,1,1,1
21.2779,approach,2,return,-0.06657,0.02766,1.47688,-0.03910,-0.04521,0.00324,-0.00324,-0.0024,-0.0122,0.0024,-0.0073,0.0220,0.0073,-0.0073,-0.5128,7.4735,-0.8547,0.1343,0.0269,-0.0122,0.0024,1,1,1,1,1,1,1
21.3174,approach,2,return,-0.06657,0.02537,1.47688,-0.03910,-0.04521,0.00324,-0.00324,-0.0024,-0.0220,-0.0024,-0.0073,0.0073,-0.0366,0.0073,-0.5265,6.5436,-1.0051,0.1050,0.0269,-0.0073,0.0024,1,1,1,1,1,1,1
21.3577,approach,2,return,-0.06657,0.02537,1.47688,-0.03910,-0.04521,0.00324,-0.00324,-0.0024,-0.0220,-0.0024,-0.0073,0.0073,-0.0366,0.0073,-0.5265,6.5436,-1.0051,0.1050,0.0269,-0.0073,0.0024,1,1,1,1,1,1,1
21.3976,approach,2,return,-0.06657,0.02537,1.47688,-0.03910,-0.04521,0.00324,-0.00324,-0.0024,-0.0220,-0.0024,-0.0073,0.0073,-0.0366,0.0073,-0.5265,6.5436,-1.0051,0.1050,0.0269,-0.0073,0.0024,1,1,1,1,1,1,1
21.4375,approach,2,return,-0.06657,0.02232,1.47650,-0.03948,-0.04559,0.00324,-0.00324,-0.0024,-0.0171,-0.0024,-0.0220,-0.0073,-0.0073,-0.0073,-0.4991,5.7094,-1.1282,0.0806,0.0269,-0.0073,-0.0024,1,1,1,1,1,1,1
21.4774,approach,2,return,-0.06657,0.02232,1.47650,-0.03948,-0.04559,0.00324,-0.00324,-0.0024,-0.0171,-0.0024,-0.0220,-0.0073,-0.0073,-0.0073,-0.4991,5.7094,-1.1282,0.0806,0.0269,-0.0073,-0.0024,1,1,1,1,1,1,1
21.5174,approach,2,return,-0.06657,0.02041,1.47650,-0.03948,-0.04521,0.00324,-0.00324,-0.0024,-0.0220,-0.0024,-0.0073,-0.0073,0.0073,-0.0073,-0.4855,4.8889,-1.2103,0.0659,0.0220,-0.0073,-0.0024,1,1,1,1,1,1,1
21.5574,approach,2,return,-0.06657,0.02041,1.47650,-0.03948,-0.04521,0.00324,-0.00324,-0.0024,-0.0220,-0.0024,-0.0073,-0.0073,0.0073,-0.0073,-0.4855,4.8889,-1.2103,0.0659,0.0220,-0.0073,-0.0024,1,1,1,1,1,1,1
21.5974,approach,2,return,-0.06657,0.02041,1.47650,-0.03948,-0.04521,0.00324,-0.00324,-0.0024,-0.0220,-0.0024,-0.0073,-0.0073,0.0073,-0.0073,-0.4855,4.8889,-1.2103,0.0659,0.0220,-0.0073,-0.0024,1,1,1,1,1,1,1
21.6374,approach,2,return,-0.06657,0.01812,1.47650,-0.03948,-0.04521,0.00324,-0.00324,-0.0024,-0.0220,-0.0024,-0.0073,-0.0073,-0.0073,-0.0073,-0.5402,4.1094,-1.4291,0.0513,0.0171,-0.0073,-0.0073,1,1,1,1,1,1,1
21.6776,approach,2,return,-0.06657,0.01812,1.47650,-0.03948,-0.04521,0.00324,-0.00324,-0.0024,-0.0220,-0.0024,-0.0073,-0.0073,-0.0073,-0.0073,-0.5402,4.1094,-1.4291,0.0513,0.0171,-0.0073,-0.0073,1,1,1,1,1,1,1
21.7174,approach,2,return,-0.06657,0.01659,1.47650,-0.03948,-0.04521,0.00324,-0.00324,-0.0024,-0.0171,-0.0024,-0.0073,0.0073,0.0073,-0.0073,-0.5402,3.6444,-1.5795,0.0366,0.0220,-0.0024,-0.0073,1,1,1,1,1,1,1
21.7574,approach,2,return,-0.06657,0.01659,1.47650,-0.03948,-0.04521,0.00324,-0.00324,-0.0024,-0.0171,-0.0024,-0.0073,0.0073,0.0073,-0.0073,-0.5402,3.6444,-1.5795,0.0366,0.0220,-0.0024,-0.0073,1,1,1,1,1,1,1
21.7975,approach,2,return,-0.06657,0.01659,1.47650,-0.03948,-0.04521,0.00324,-0.00324,-0.0024,-0.0171,-0.0024,-0.0073,0.0073,0.0073,-0.0073,-0.5402,3.6444,-1.5795,0.0366,0.0220,-0.0024,-0.0073,1,1,1,1,1,1,1
21.8376,approach,2,return,-0.06657,0.01431,1.47650,-0.03986,-0.04521,0.00324,-0.00324,-0.0024,-0.0122,-0.0024,-0.0073,-0.0073,-0.0073,0.0073,-0.5402,2.9060,-1.5795,0.0269,0.0220,-0.0024,-0.0024,1,1,1,1,1,1,1
