peipl15/reBot_Arm/outputs/gravity_calib_20260621_233033.csv
t_s,phase,swept_joint,direction,q1,q2,q3,q4,q5,q6,q7,v1,v2,v3,v4,v5,v6,v7,tau1,tau2,tau3,tau4,tau5,tau6,tau7,st1,st2,st3,st4,st5,st6,st7
0.0024,approach,3,to_lo,-0.00095,0.00401,0.01774,-0.00362,0.00439,-0.17529,-0.00324,-0.0024,-0.0024,-0.0024,-0.0220,-0.0073,-0.0073,-0.0073,0.0205,-0.0342,-0.0342,-0.0024,0.0024,-0.0122,-0.0073,1,1,1,1,1,1,1
0.0423,approach,3,to_lo,-0.00095,0.00401,0.01774,-0.00362,0.00439,-0.17529,-0.00324,-0.0024,-0.0024,-0.0024,0.0220,-0.0073,-0.0220,0.0220,-0.0205,-0.0205,-0.0342,0.0024,-0.0073,-0.0122,-0.0073,1,1,1,1,1,1,1
0.0823,approach,3,to_lo,-0.00095,0.00401,0.01774,-0.00362,0.00439,-0.17529,-0.00324,-0.0024,-0.0024,-0.0024,0.0220,-0.0073,-0.0220,0.0220,-0.0205,-0.0205,-0.0342,0.0024,-0.0073,-0.0122,-0.0073,1,1,1,1,1,1,1
0.1223,approach,3,to_lo,-0.00095,0.00401,0.02422,-0.00362,0.00439,-0.17529,-0.00324,-0.0024,-0.0024,0.0904,-0.0073,-0.0073,0.0073,-0.0073,-0.0068,-0.0615,3.7812,-0.0024,-0.0122,-0.0122,-0.0122,1,1,1,1,1,1,1
0.1623,approach,3,to_lo,-0.00095,0.00401,0.02422,-0.00362,0.00439,-0.17529,-0.00324,-0.0024,-0.0024,0.0904,-0.0073,-0.0073,0.0073,-0.0073,-0.0068,-0.0615,3.7812,-0.0024,-0.0122,-0.0122,-0.0122,1,1,1,1,1,1,1
0.2025,approach,3,to_lo,-0.00095,0.00401,0.02422,-0.00362,0.00439,-0.17529,-0.00324,-0.0024,-0.0024,0.0904,-0.0073,-0.0073,0.0073,-0.0073,-0.0068,-0.0615,3.7812,-0.0024,-0.0122,-0.0122,-0.0122,1,1,1,1,1,1,1
0.2424,approach,3,to_lo,-0.00095,0.00401,0.03719,-0.00629,0.00401,-0.17491,-0.00324,0.0024,-0.0024,0.1050,-0.0806,-0.0073,-0.0073,-0.0073,-0.0068,-0.0889,5.8462,0.0904,-0.0073,-0.0122,-0.0122,1,1,1,1,1,1,1
0.2825,approach,3,to_lo,-0.00095,0.00401,0.03719,-0.00629,0.00401,-0.17491,-0.00324,0.0024,-0.0024,0.1050,-0.0806,-0.0073,-0.0073,-0.0073,-0.0068,-0.0889,5.8462,0.0904,-0.0073,-0.0122,-0.0122,1,1,1,1,1,1,1
0.3224,approach,3,to_lo,-0.00095,0.00401,0.04521,-0.00744,0.00248,-0.17491,-0.00324,-0.0024,-0.0073,0.1001,-0.0220,-0.0366,-0.0220,-0.0073,-0.0342,-0.0752,6.6256,0.2271,0.0513,-0.0122,-0.0171,1,1,1,1,1,1,1
0.3625,approach,3,to_lo,-0.00095,0.00401,0.04521,-0.00744,0.00248,-0.17491,-0.00324,-0.0024,-0.0073,0.1001,-0.0220,-0.0366,-0.0220,-0.0073,-0.0342,-0.0752,6.6256,0.2271,0.0513,-0.0122,-0.0171,1,1,1,1,1,1,1
0.4023,approach,3,to_lo,-0.00095,0.00401,0.04521,-0.00744,0.00248,-0.17491,-0.00324,-0.0024,-0.0073,0.1001,-0.0220,-0.0366,-0.0220,-0.0073,-0.0342,-0.0752,6.6256,0.2271,0.0513,-0.0122,-0.0171,1,1,1,1,1,1,1
0.4430,approach,3,to_lo,-0.00095,0.00401,0.05589,-0.00782,0.00095,-0.17491,-0.00324,-0.0024,-0.0024,0.0708,-0.0220,-0.0073,0.0073,-0.0073,-0.0068,-0.0479,7.5419,0.4469,0.2564,-0.0122,-0.0122,1,1,1,1,1,1,1
0.4826,approach,3,to_lo,-0.00095,0.00401,0.05589,-0.00782,0.00095,-0.17491,-0.00324,-0.0024,-0.0024,0.0708,-0.0220,-0.0073,0.0073,-0.0073,-0.0068,-0.0479,7.5419,0.4469,0.2564,-0.0122,-0.0122,1,1,1,1,1,1,1
0.5223,approach,3,to_lo,-0.00095,0.00401,0.06199,-0.00935,0.00095,-0.17491,-0.00324,-0.0024,-0.0024,0.0611,-0.0220,0.0073,-0.0073,-0.0220,-0.0068,-0.0615,8.3624,0.7204,0.3443,-0.0073,-0.0122,1,1,1,1,1,1,1
0.5629,approach,3,to_lo,-0.00095,0.00401,0.06199,-0.00935,0.00095,-0.17491,-0.00324,-0.0024,-0.0024,0.0611,-0.0220,0.0073,-0.0073,-0.0220,-0.0068,-0.0615,8.3624,0.7204,0.3443,-0.0073,-0.0122,1,1,1,1,1,1,1
0.6032,approach,3,to_lo,-0.00095,0.00401,0.06199,-0.00935,0.00095,-0.17491,-0.00324,-0.0024,-0.0024,0.0611,-0.0220,0.0073,-0.0073,-0.0220,-0.0068,-0.0615,8.3624,0.7204,0.3443,-0.0073,-0.0122,1,1,1,1,1,1,1
0.6422,approach,3,to_lo,-0.00095,0.00401,0.06962,-0.01125,0.00362,-0.17529,-0.00324,-0.0024,-0.0073,0.0757,-0.0220,0.0220,-0.0073,-0.0073,-0.0205,-0.0615,9.7436,1.2625,0.2613,-0.0122,-0.0122,1,1,1,1,1,1,1
0.6828,approach,3,to_lo,-0.00095,0.00401,0.06962,-0.01125,0.00362,-0.17529,-0.00324,-0.0024,-0.0073,0.0757,-0.0220,0.0220,-0.0073,-0.0073,-0.0205,-0.0615,9.7436,1.2625,0.2613,-0.0122,-0.0122,1,1,1,1,1,1,1
0.7229,approach,3,to_lo,-0.00095,0.00401,0.07420,-0.01278,0.00591,-0.17529,-0.00324,-0.0024,0.0024,0.0708,-0.0073,0.0366,-0.0220,-0.0073,0.0068,-0.1026,10.7282,1.6435,0.1001,-0.0171,-0.0122,1,1,1,1,1,1,1
0.7627,approach,3,to_lo,-0.00095,0.00401,0.07420,-0.01278,0.00591,-0.17529,-0.00324,-0.0024,0.0024,0.0708,-0.0073,0.0366,-0.0220,-0.0073,0.0068,-0.1026,10.7282,1.6435,0.1001,-0.0171,-0.0122,1,1,1,1,1,1,1
0.8026,approach,3,to_lo,-0.00095,0.00401,0.07420,-0.01278,0.00591,-0.17529,-0.00324,-0.0024,0.0024,0.0708,-0.0073,0.0366,-0.0220,-0.0073,0.0068,-0.1026,10.7282,1.6435,0.1001,-0.0171,-0.0122,1,1,1,1,1,1,1
0.8432,approach,3,to_lo,-0.00095,0.00401,0.07992,-0.01431,0.00706,-0.17491,-0.00324,-0.0073,-0.0024,0.0317,-0.0073,-0.0073,-0.0220,-0.0073,-0.0068,-0.1162,11.9726,2.2686,0.0122,-0.0122,-0.0171,1,1,1,1,1,1,1
0.8825,approach,3,to_lo,-0.00095,0.00401,0.07992,-0.01431,0.00706,-0.17491,-0.00324,-0.0073,-0.0024,0.0317,-0.0073,-0.0073,-0.0220,-0.0073,-0.0068,-0.1162,11.9726,2.2686,0.0122,-0.0122,-0.0171,1,1,1,1,1,1,1
0.9225,approach,3,to_lo,-0.00095,0.00401,0.08412,-0.01202,0.00706,-0.17491,-0.00324,-0.0024,-0.0024,0.0562,0.0659,-0.0073,-0.0073,-0.0073,-0.0068,-0.1162,11.9043,2.4689,-0.0220,-0.0122,-0.0171,1,1,1,1,1,1,1
0.9624,approach,3,to_lo,-0.00095,0.00401,0.08412,-0.01202,0.00706,-0.17491,-0.00324,-0.0024,-0.0024,0.0562,0.0659,-0.0073,-0.0073,-0.0073,-0.0068,-0.1162,11.9043,2.4689,-0.0220,-0.0122,-0.0171,1,1,1,1,1,1,1
1.0024,approach,3,to_lo,-0.00095,0.00401,0.08412,-0.01202,0.00706,-0.17491,-0.00324,-0.0024,-0.0024,0.0562,0.0659,-0.0073,-0.0073,-0.0073,-0.0068,-0.1162,11.9043,2.4689,-0.0220,-0.0122,-0.0171,1,1,1,1,1,1,1
1.0426,approach,3,to_lo,-0.00095,0.00401,0.08946,-0.00896,0.00668,-0.17491,-0.00324,-0.0024,-0.0024,0.0171,0.0366,-0.0220,-0.0073,-0.0073,0.0205,-0.1162,12.0821,2.5226,-0.0611,-0.0171,-0.0171,1,1,1,1,1,1,1
1.0826,approach,3,to_lo,-0.00095,0.00401,0.08946,-0.00896,0.00668,-0.17491,-0.00324,-0.0024,-0.0024,0.0171,0.0366,-0.0220,-0.0073,-0.0073,0.0205,-0.1162,12.0821,2.5226,-0.0611,-0.0171,-0.0171,1,1,1,1,1,1,1
1.1224,approach,3,to_lo,-0.00095,0.00401,0.09289,-0.00744,0.00668,-0.17491,-0.00324,-0.0024,-0.0024,0.0415,-0.0073,-0.0220,-0.0073,-0.0073,0.0205,-0.1162,11.6034,2.5617,-0.1001,-0.0171,-0.0171,1,1,1,1,1,1,1
1.1624,approach,3,to_lo,-0.00095,0.00401,0.09289,-0.00744,0.00668,-0.17491,-0.00324,-0.0024,-0.0024,0.0415,-0.0073,-0.0220,-0.0073,-0.0073,0.0205,-0.1162,11.6034,2.5617,-0.1001,-0.0171,-0.0171,1,1,1,1,1,1,1
1.2026,approach,3,to_lo,-0.00095,0.00401,0.09289,-0.00744,0.00668,-0.17491,-0.00324,-0.0024,-0.0024,0.0415,-0.0073,-0.0220,-0.0073,-0.0073,0.0205,-0.1162,11.6034,2.5617,-0.1001,-0.0171,-0.0171,1,1,1,1,1,1,1
1.2428,approach,3,to_lo,-0.00095,0.00401,0.09670,-0.00515,0.00629,-0.17491,-0.00324,-0.0024,-0.0024,0.0269,0.0366,-0.0073,-0.0073,-0.0220,0.0205,-0.1162,11.6308,2.4982,-0.1490,-0.0122,-0.0220,1,1,1,1,1,1,1
1.2824,approach,3,to_lo,-0.00095,0.00401,0.09670,-0.00515,0.00629,-0.17491,-0.00324,-0.0024,-0.0024,0.0269,0.0366,-0.0073,-0.0073,-0.0220,0.0205,-0.1162,11.6308,2.4982,-0.1490,-0.0122,-0.0220,1,1,1,1,1,1,1
1.3227,approach,3,to_lo,-0.00095,0.00401,0.09899,-0.00439,0.00553,-0.17491,-0.00324,-0.0024,-0.0024,0.0171,0.0073,-0.0220,-0.0220,-0.0073,0.0068,-0.1299,12.1231,2.4737,-0.1783,-0.0171,-0.0171,1,1,1,1,1,1,1
1.3626,approach,3,to_lo,-0.00095,0.00401,0.09899,-0.00439,0.00553,-0.17491,-0.00324,-0.0024,-0.0024,0.0171,0.0073,-0.0220,-0.0220,-0.0073,0.0068,-0.1299,12.1231,2.4737,-0.1783,-0.0171,-0.0171,1,1,1,1,1,1,1
1.4024,approach,3,to_lo,-0.00095,0.00401,0.09899,-0.00439,0.00553,-0.17491,-0.00324,-0.0024,-0.0024,0.0171,0.0073,-0.0220,-0.0220,-0.0073,0.0068,-0.1299,12.1231,2.4737,-0.1783,-0.0171,-0.0171,1,1,1,1,1,1,1
1.4423,approach,3,to_lo,-0.00095,0.00401,0.10128,-0.00362,0.00477,-0.17491,-0.00324,-0.0024,-0.0073,0.0317,0.0073,-0.0073,-0.0073,-0.0073,0.0205,-0.1436,11.9453,2.4396,-0.1734,-0.0220,-0.0220,1,1,1,1,1,1,1
1.9449,sweep,3,+up,-0.00095,0.00401,0.10319,-0.00324,0.00401,-0.17491,-0.00324,-0.0024,-0.0024,0.0220,-0.0073,-0.0220,-0.0073,-0.0073,0.0068,-0.1436,11.7265,2.4200,-0.1392,-0.0220,-0.0220,1,1,1,1,1,1,1
1.9849,sweep,3,+up,-0.00095,0.00401,0.10319,-0.00324,0.00401,-0.17491,-0.00324,-0.0024,-0.0024,0.0220,-0.0073,-0.0220,-0.0073,-0.0073,0.0068,-0.1436,11.7265,2.4200,-0.1392,-0.0220,-0.0220,1,1,1,1,1,1,1
2.0250,sweep,3,+up,-0.00095,0.00401,0.11692,-0.00820,0.00401,-0.17491,-0.00324,0.0024,-0.0024,0.1880,-0.1831,0.0073,-0.0073,-0.0073,-0.0068,-0.1436,13.9556,2.7521,-0.0806,-0.0220,-0.0171,1,1,1,1,1,1,1
2.0651,sweep,3,+up,-0.00095,0.00401,0.11692,-0.00820,0.00401,-0.17491,-0.00324,0.0024,-0.0024,0.1880,-0.1831,0.0073,-0.0073,-0.0073,-0.0068,-0.1436,13.9556,2.7521,-0.0806,-0.0220,-0.0171,1,1,1,1,1,1,1
2.1049,sweep,3,+up,-0.00095,0.00401,0.11692,-0.00820,0.00401,-0.17491,-0.00324,0.0024,-0.0024,0.1880,-0.1831,0.0073,-0.0073,-0.0073,-0.0068,-0.1436,13.9556,2.7521,-0.0806,-0.0220,-0.0171,1,1,1,1,1,1,1
2.1450,sweep,3,+up,-0.00095,0.00362,0.14324,-0.00210,0.00401,-0.17491,-0.00324,-0.0024,-0.0024,0.2222,0.0073,-0.0220,-0.0220,-0.0220,0.0068,-0.0752,10.6462,2.3663,-0.0757,-0.0171,-0.0171,1,1,1,1,1,1,1
2.1850,sweep,3,+up,-0.00095,0.00362,0.14324,-0.00210,0.00401,-0.17491,-0.00324,-0.0024,-0.0024,0.2222,0.0073,-0.0220,-0.0220,-0.0220,0.0068,-0.0752,10.6462,2.3663,-0.0757,-0.0171,-0.0171,1,1,1,1,1,1,1
2.2249,sweep,3,+up,-0.00095,0.00401,0.15850,-0.00286,0.00401,-0.17491,-0.00324,-0.0024,-0.0024,0.1880,-0.0366,-0.0073,-0.0073,-0.0073,-0.0205,-0.1162,11.7675,2.3565,-0.0757,-0.0122,-0.0171,1,1,1,1,1,1,1
2.2649,sweep,3,+up,-0.00095,0.00401,0.15850,-0.00286,0.00401,-0.17491,-0.00324,-0.0024,-0.0024,0.1880,-0.0366,-0.0073,-0.0073,-0.0073,-0.0205,-0.1162,11.7675,2.3565,-0.0757,-0.0122,-0.0171,1,1,1,1,1,1,1
2.3049,sweep,3,+up,-0.00095,0.00401,0.15850,-0.00286,0.00401,-0.17491,-0.00324,-0.0024,-0.0024,0.1880,-0.0366,-0.0073,-0.0073,-0.0073,-0.0205,-0.1162,11.7675,2.3565,-0.0757,-0.0122,-0.0171,1,1,1,1,1,1,1
2.3451,sweep,3,+up,-0.00095,0.00401,0.18254,-0.00286,0.00401,-0.17491,-0.00324,-0.0073,-0.0024,0.2076,0.0073,-0.0073,-0.0073,-0.0073,-0.0068,-0.1162,11.7812,2.3468,-0.0708,-0.0122,-0.0171,1,1,1,1,1,1,1
2.3852,sweep,3,+up,-0.00095,0.00401,0.18254,-0.00286,0.00401,-0.17491,-0.00324,-0.0073,-0.0024,0.2076,0.0073,-0.0073,-0.0073,-0.0073,-0.0068,-0.1162,11.7812,2.3468,-0.0708,-0.0122,-0.0171,1,1,1,1,1,1,1
2.4262,sweep,3,+up,-0.00095,0.00401,0.19894,-0.00286,0.00401,-0.17491,-0.00324,-0.0024,-0.0024,0.1929,-0.0220,-0.0220,0.0073,0.0073,-0.0068,-0.0752,11.5077,2.3077,-0.0708,-0.0171,-0.0220,1,1,1,1,1,1,1
2.4652,sweep,3,+up,-0.00095,0.00401,0.19894,-0.00286,0.00401,-0.17491,-0.00324,-0.0024,-0.0024,0.1929,-0.0220,-0.0220,0.0073,0.0073,-0.0068,-0.0752,11.5077,2.3077,-0.0708,-0.0171,-0.0220,1,1,1,1,1,1,1
2.5052,sweep,3,+up,-0.00095,0.00401,0.19894,-0.00286,0.00401,-0.17491,-0.00324,-0.0024,-0.0024,0.1929,-0.0220,-0.0220,0.0073,0.0073,-0.0068,-0.0752,11.5077,2.3077,-0.0708,-0.0171,-0.0220,1,1,1,1,1,1,1
2.5448,sweep,3,+up,-0.00095,0.00362,0.22259,-0.00324,0.00401,-0.17491,-0.00324,-0.0073,-0.0073,0.2125,-0.0220,-0.0220,-0.0220,-0.0073,-0.0205,-0.1162,11.5077,2.2930,-0.0757,-0.0171,-0.0269,1,1,1,1,1,1,1
2.5849,sweep,3,+up,-0.00095,0.00362,0.22259,-0.00324,0.00401,-0.17491,-0.00324,-0.0073,-0.0073,0.2125,-0.0220,-0.0220,-0.0220,-0.0073,-0.0205,-0.1162,11.5077,2.2930,-0.0757,-0.0171,-0.0269,1,1,1,1,1,1,1
2.6250,sweep,3,+up,-0.00095,0.00362,0.23899,-0.00286,0.00401,-0.17491,-0.00324,-0.0024,-0.0024,0.2076,0.0073,-0.0073,-0.0073,-0.0073,-0.0205,-0.0889,10.9607,2.2589,-0.0708,-0.0171,-0.0269,1,1,1,1,1,1,1
2.6649,sweep,3,+up,-0.00095,0.00362,0.23899,-0.00286,0.00401,-0.17491,-0.00324,-0.0024,-0.0024,0.2076,0.0073,-0.0073,-0.0073,-0.0073,-0.0205,-0.0889,10.9607,2.2589,-0.0708,-0.0171,-0.0269,1,1,1,1,1,1,1
2.7051,sweep,3,+up,-0.00095,0.00362,0.23899,-0.00286,0.00401,-0.17491,-0.00324,-0.0024,-0.0024,0.2076,0.0073,-0.0073,-0.0073,-0.0073,-0.0205,-0.0889,10.9607,2.2589,-0.0708,-0.0171,-0.0269,1,1,1,1,1,1,1
2.7450,sweep,3,+up,-0.00095,0.00362,0.26265,-0.00324,0.00439,-0.17491,-0.00324,-0.0073,-0.0024,0.1832,0.0073,-0.0073,-0.0073,-0.0073,-0.0342,-0.0889,11.7128,2.2589,-0.0757,-0.0220,-0.0269,1,1,1,1,1,1,1
2.7850,sweep,3,+up,-0.00095,0.00362,0.26265,-0.00324,0.00439,-0.17491,-0.00324,-0.0073,-0.0024,0.1832,0.0073,-0.0073,-0.0073,-0.0073,-0.0342,-0.0889,11.7128,2.2589,-0.0757,-0.0220,-0.0269,1,1,1,1,1,1,1
2.8249,sweep,3,+up,-0.00134,0.00362,0.27905,-0.00324,0.00401,-0.17491,-0.00324,0.0024,0.0024,0.1880,-0.0073,-0.0073,0.0073,-0.0073,-0.0205,-0.0889,11.3436,2.2198,-0.0708,-0.0220,-0.0269,1,1,1,1,1,1,1
2.8650,sweep,3,+up,-0.00134,0.00362,0.27905,-0.00324,0.00401,-0.17491,-0.00324,0.0024,0.0024,0.1880,-0.0073,-0.0073,0.0073,-0.0073,-0.0205,-0.0889,11.3436,2.2198,-0.0708,-0.0220,-0.0269,1,1,1,1,1,1,1
2.9050,sweep,3,+up,-0.00134,0.00362,0.27905,-0.00324,0.00401,-0.17491,-0.00324,0.0024,0.0024,0.1880,-0.0073,-0.0073,0.0073,-0.0073,-0.0205,-0.0889,11.3436,2.2198,-0.0708,-0.0220,-0.0269,1,1,1,1,1,1,1
2.9452,sweep,3,+up,-0.00095,0.00362,0.30308,-0.00362,0.00439,-0.17491,-0.00324,-0.0024,-0.0024,0.2027,0.0073,-0.0073,0.0220,-0.0073,0.0068,-0.0479,11.2205,2.2149,-0.0806,-0.0220,-0.0269,1,1,1,1,1,1,1
2.9847,sweep,3,+up,-0.00095,0.00362,0.30308,-0.00362,0.00439,-0.17491,-0.00324,-0.0024,-0.0024,0.2027,0.0073,-0.0073,0.0220,-0.0073,0.0068,-0.0479,11.2205,2.2149,-0.0806,-0.0220,-0.0269,1,1,1,1,1,1,1
3.0250,sweep,3,+up,-0.00095,0.00362,0.31910,-0.00324,0.00439,-0.17491,-0.00324,-0.0073,-0.0024,0.1929,-0.0073,-0.0073,-0.0073,0.0073,-0.0068,-0.0479,11.1111,2.1807,-0.0855,-0.0269,-0.0269,1,1,1,1,1,1,1
3.0649,sweep,3,+up,-0.00095,0.00362,0.31910,-0.00324,0.00439,-0.17491,-0.00324,-0.0073,-0.0024,0.1929,-0.0073,-0.0073,-0.0073,0.0073,-0.0068,-0.0479,11.1111,2.1807,-0.0855,-0.0269,-0.0269,1,1,1,1,1,1,1
3.1050,sweep,3,+up,-0.00095,0.00362,0.31910,-0.00324,0.00439,-0.17491,-0.00324,-0.0073,-0.0024,0.1929,-0.0073,-0.0073,-0.0073,0.0073,-0.0068,-0.0479,11.1111,2.1807,-0.0855,-0.0269,-0.0269,1,1,1,1,1,1,1
3.1448,sweep,3,+up,-0.00095,0.00362,0.34314,-0.00362,0.00439,-0.17491,-0.00324,-0.0073,-0.0024,0.1880,-0.0073,-0.0220,-0.0073,-0.0073,-0.0205,-0.0615,11.2342,2.1807,-0.0855,-0.0269,-0.0269,1,1,1,1,1,1,1
3.1849,sweep,3,+up,-0.00095,0.00362,0.34314,-0.00362,0.00439,-0.17491,-0.00324,-0.0073,-0.0024,0.1880,-0.0073,-0.0220,-0.0073,-0.0073,-0.0205,-0.0615,11.2342,2.1807,-0.0855,-0.0269,-0.0269,1,1,1,1,1,1,1
3.2249,sweep,3,+up,-0.00095,0.00362,0.35916,-0.00362,0.00401,-0.17491,-0.00324,-0.0024,-0.0024,0.1929,-0.0073,-0.0220,-0.0073,-0.0073,0.0068,-0.0205,10.7556,2.1709,-0.0855,-0.0220,-0.0269,1,1,1,1,1,1,1
3.2653,sweep,3,+up,-0.00095,0.00362,0.35916,-0.00362,0.00401,-0.17491,-0.00324,-0.0024,-0.0024,0.1929,-0.0073,-0.0220,-0.0073,-0.0073,0.0068,-0.0205,10.7556,2.1709,-0.0855,-0.0220,-0.0269,1,1,1,1,1,1,1
3.3050,sweep,3,+up,-0.00095,0.00362,0.35916,-0.00362,0.00401,-0.17491,-0.00324,-0.0024,-0.0024,0.1929,-0.0073,-0.0220,-0.0073,-0.0073,0.0068,-0.0205,10.7556,2.1709,-0.0855,-0.0220,-0.0269,1,1,1,1,1,1,1
3.3453,sweep,3,+up,-0.00095,0.00362,0.38319,-0.00362,0.00439,-0.17491,-0.00324,-0.0024,-0.0073,0.1978,0.0073,-0.0220,-0.0073,-0.0073,0.0068,-0.0342,10.9744,2.1661,-0.0855,-0.0269,-0.0269,1,1,1,1,1,1,1
3.3854,sweep,3,+up,-0.00095,0.00362,0.38319,-0.00362,0.00439,-0.17491,-0.00324,-0.0024,-0.0073,0.1978,0.0073,-0.0220,-0.0073,-0.0073,0.0068,-0.0342,10.9744,2.1661,-0.0855,-0.0269,-0.0269,1,1,1,1,1,1,1
3.4250,sweep,3,+up,-0.00095,0.00362,0.39960,-0.00362,0.00439,-0.17491,-0.00324,0.0024,-0.0024,0.2076,-0.0073,-0.0073,-0.0073,-0.0220,0.0068,0.0068,10.5778,2.1465,-0.0904,-0.0269,-0.0317,1,1,1,1,1,1,1
3.4649,sweep,3,+up,-0.00095,0.00362,0.39960,-0.00362,0.00439,-0.17491,-0.00324,0.0024,-0.0024,0.2076,-0.0073,-0.0073,-0.0073,-0.0220,0.0068,0.0068,10.5778,2.1465,-0.0904,-0.0269,-0.0317,1,1,1,1,1,1,1
3.5049,sweep,3,+up,-0.00095,0.00362,0.39960,-0.00362,0.00439,-0.17491,-0.00324,0.0024,-0.0024,0.2076,-0.0073,-0.0073,-0.0073,-0.0220,0.0068,0.0068,10.5778,2.1465,-0.0904,-0.0269,-0.0317,1,1,1,1,1,1,1
3.5450,sweep,3,+up,-0.00095,0.00362,0.42325,-0.00362,0.00401,-0.17491,-0.00324,-0.0024,-0.0024,0.2027,-0.0073,-0.0073,0.0073,-0.0073,0.0068,-0.0068,10.6188,2.1465,-0.0855,-0.0220,-0.0317,1,1,1,1,1,1,1
3.5851,sweep,3,+up,-0.00095,0.00362,0.42325,-0.00362,0.00401,-0.17491,-0.00324,-0.0024,-0.0024,0.2027,-0.0073,-0.0073,0.0073,-0.0073,0.0068,-0.0068,10.6188,2.1465,-0.0855,-0.0220,-0.0317,1,1,1,1,1,1,1
3.6248,sweep,3,+up,-0.00095,0.00362,0.43965,-0.00362,0.00439,-0.17491,-0.00324,0.0024,-0.0024,0.1929,0.0073,-0.0073,-0.0073,-0.0073,0.0205,0.0205,10.1949,2.1319,-0.0952,-0.0269,-0.0317,1,1,1,1,1,1,1
3.6651,sweep,3,+up,-0.00095,0.00362,0.43965,-0.00362,0.00439,-0.17491,-0.00324,0.0024,-0.0024,0.1929,0.0073,-0.0073,-0.0073,-0.0073,0.0205,0.0205,10.1949,2.1319,-0.0952,-0.0269,-0.0317,1,1,1,1,1,1,1
3.7053,sweep,3,+up,-0.00095,0.00362,0.43965,-0.00362,0.00439,-0.17491,-0.00324,0.0024,-0.0024,0.1929,0.0073,-0.0073,-0.0073,-0.0073,0.0205,0.0205,10.1949,2.1319,-0.0952,-0.0269,-0.0317,1,1,1,1,1,1,1
3.7450,sweep,3,+up,-0.00095,0.00362,0.46368,-0.00362,0.00439,-0.17491,-0.00324,-0.0024,-0.0024,0.2027,-0.0073,-0.0073,0.0073,0.0073,0.0068,0.0068,10.0718,2.1123,-0.0904,-0.0220,-0.0317,1,1,1,1,1,1,1
3.7849,sweep,3,+up,-0.00095,0.00362,0.46368,-0.00362,0.00439,-0.17491,-0.00324,-0.0024,-0.0024,0.2027,-0.0073,-0.0073,0.0073,0.0073,0.0068,0.0068,10.0718,2.1123,-0.0904,-0.0220,-0.0317,1,1,1,1,1,1,1
3.8249,sweep,3,+up,-0.00095,0.00362,0.47971,-0.00362,0.00401,-0.17491,-0.00362,-0.0024,-0.0024,0.2027,-0.0073,-0.0220,-0.0073,-0.0220,0.0068,0.0342,10.0581,2.0977,-0.0952,-0.0269,-0.0366,1,1,1,1,1,1,1
3.8648,sweep,3,+up,-0.00095,0.00362,0.47971,-0.00362,0.00401,-0.17491,-0.00362,-0.0024,-0.0024,0.2027,-0.0073,-0.0220,-0.0073,-0.0220,0.0068,0.0342,10.0581,2.0977,-0.0952,-0.0269,-0.0366,1,1,1,1,1,1,1
3.9050,sweep,3,+up,-0.00095,0.00362,0.47971,-0.00362,0.00401,-0.17491,-0.00362,-0.0024,-0.0024,0.2027,-0.0073,-0.0220,-0.0073,-0.0220,0.0068,0.0342,10.0581,2.0977,-0.0952,-0.0269,-0.0366,1,1,1,1,1,1,1
3.9451,sweep,3,+up,-0.00095,0.00362,0.50412,-0.00362,0.00439,-0.17491,-0.00362,-0.0024,0.0024,0.2173,-0.0220,0.0073,-0.0073,-0.0073,-0.0205,0.0342,9.9350,2.0830,-0.1001,-0.0269,-0.0366,1,1,1,1,1,1,1
3.9852,sweep,3,+up,-0.00095,0.00362,0.50412,-0.00362,0.00439,-0.17491,-0.00362,-0.0024,0.0024,0.2173,-0.0220,0.0073,-0.0073,-0.0073,-0.0205,0.0342,9.9350,2.0830,-0.1001,-0.0269,-0.0366,1,1,1,1,1,1,1
4.0248,sweep,3,+up,-0.00095,0.00362,0.52014,-0.00324,0.00439,-0.17491,-0.00362,-0.0024,-0.0024,0.1978,0.0073,0.0073,-0.0073,-0.0073,-0.0205,0.0342,9.7573,2.0537,-0.1001,-0.0317,-0.0366,1,1,1,1,1,1,1
4.0652,sweep,3,+up,-0.00095,0.00362,0.52014,-0.00324,0.00439,-0.17491,-0.00362,-0.0024,-0.0024,0.1978,0.0073,0.0073,-0.0073,-0.0073,-0.0205,0.0342,9.7573,2.0537,-0.1001,-0.0317,-0.0366,1,1,1,1,1,1,1
4.1049,sweep,3,+up,-0.00095,0.00362,0.52014,-0.00324,0.00439,-0.17491,-0.00362,-0.0024,-0.0024,0.1978,0.0073,0.0073,-0.0073,-0.0073,-0.0205,0.0342,9.7573,2.0537,-0.1001,-0.0317,-0.0366,1,1,1,1,1,1,1
4.1450,sweep,3,+up,-0.00095,0.00362,0.54418,-0.00362,0.00401,-0.17491,-0.00362,-0.0073,-0.0024,0.1978,-0.0220,-0.0073,-0.0073,-0.0073,-0.0205,0.0068,9.8120,2.0488,-0.1099,-0.0317,-0.0366,1,1,1,1,1,1,1
4.1847,sweep,3,+up,-0.00095,0.00362,0.54418,-0.00362,0.00401,-0.17491,-0.00362,-0.0073,-0.0024,0.1978,-0.0220,-0.0073,-0.0073,-0.0073,-0.0205,0.0068,9.8120,2.0488,-0.1099,-0.0317,-0.0366,1,1,1,1,1,1,1
4.2250,sweep,3,+up,-0.00095,0.00362,0.56020,-0.00324,0.00401,-0.17491,-0.00362,-0.0024,-0.0024,0.2027,0.0073,0.0073,-0.0073,-0.0220,-0.0205,0.0479,9.5795,2.0049,-0.1099,-0.0317,-0.0366,1,1,1,1,1,1,1
4.2653,sweep,3,+up,-0.00095,0.00362,0.56020,-0.00324,0.00401,-0.17491,-0.00362,-0.0024,-0.0024,0.2027,0.0073,0.0073,-0.0073,-0.0220,-0.0205,0.0479,9.5795,2.0049,-0.1099,-0.0317,-0.0366,1,1,1,1,1,1,1
4.3054,sweep,3,+up,-0.00095,0.00362,0.56020,-0.00324,0.00401,-0.17491,-0.00362,-0.0024,-0.0024,0.2027,0.0073,0.0073,-0.0073,-0.0220,-0.0205,0.0479,9.5795,2.0049,-0.1099,-0.0317,-0.0366,1,1,1,1,1,1,1
4.3451,sweep,3,+up,-0.00095,0.00362,0.58423,-0.00324,0.00401,-0.17491,-0.00324,-0.0024,0.0024,0.1978,-0.0073,0.0073,-0.0073,-0.0073,-0.0342,0.0342,9.4974,1.9853,-0.1099,-0.0317,-0.0366,1,1,1,1,1,1,1
4.3851,sweep,3,+up,-0.00095,0.00362,0.58423,-0.00324,0.00401,-0.17491,-0.00324,-0.0024,0.0024,0.1978,-0.0073,0.0073,-0.0073,-0.0073,-0.0342,0.0342,9.4974,1.9853,-0.1099,-0.0317,-0.0366,1,1,1,1,1,1,1
4.4254,sweep,3,+up,-0.00095,0.00362,0.60063,-0.00324,0.00439,-0.17491,-0.00324,-0.0024,-0.0024,0.1978,-0.0220,0.0073,-0.0073,-0.0073,-0.0479,0.0479,9.2376,1.9658,-0.1099,-0.0317,-0.0366,1,1,1,1,1,1,1
4.4654,sweep,3,+up,-0.00095,0.00362,0.60063,-0.00324,0.00439,-0.17491,-0.00324,-0.0024,-0.0024,0.1978,-0.0220,0.0073,-0.0073,-0.0073,-0.0479,0.0479,9.2376,1.9658,-0.1099,-0.0317,-0.0366,1,1,1,1,1,1,1
4.5055,sweep,3,+up,-0.00095,0.00362,0.60063,-0.00324,0.00439,-0.17491,-0.00324,-0.0024,-0.0024,0.1978,-0.0220,0.0073,-0.0073,-0.0073,-0.0479,0.0479,9.2376,1.9658,-0.1099,-0.0317,-0.0366,1,1,1,1,1,1,1
4.5451,sweep,3,+up,-0.00095,0.00362,0.62467,-0.00324,0.00401,-0.17491,-0.00362,0.0024,-0.0024,0.2027,-0.0073,0.0073,0.0073,-0.0073,-0.0479,0.0479,9.2650,1.9365,-0.1099,-0.0317,-0.0317,1,1,1,1,1,1,1
4.5864,sweep,3,+up,-0.00095,0.00362,0.62467,-0.00324,0.00401,-0.17491,-0.00362,0.0024,-0.0024,0.2027,-0.0073,0.0073,0.0073,-0.0073,-0.0479,0.0479,9.2650,1.9365,-0.1099,-0.0317,-0.0317,1,1,1,1,1,1,1
4.6252,sweep,3,+up,-0.00095,0.00362,0.64069,-0.00324,0.00401,-0.17491,-0.00324,-0.0024,-0.0024,0.1929,-0.0220,-0.0073,-0.0073,-0.0073,-0.0615,0.0479,9.2650,1.9170,-0.1148,-0.0317,-0.0317,1,1,1,1,1,1,1
4.6653,sweep,3,+up,-0.00095,0.00362,0.64069,-0.00324,0.00401,-0.17491,-0.00324,-0.0024,-0.0024,0.1929,-0.0220,-0.0073,-0.0073,-0.0073,-0.0615,0.0479,9.2650,1.9170,-0.1148,-0.0317,-0.0317,1,1,1,1,1,1,1
4.7048,sweep,3,+up,-0.00095,0.00362,0.64069,-0.00324,0.00401,-0.17491,-0.00324,-0.0024,-0.0024,0.1929,-0.0220,-0.0073,-0.0073,-0.0073,-0.0615,0.0479,9.2650,1.9170,-0.1148,-0.0317,-0.0317,1,1,1,1,1,1,1
4.7449,sweep,3,+up,-0.00095,0.00362,0.66472,-0.00324,0.00401,-0.17529,-0.00324,-0.0024,-0.0024,0.2027,0.0073,-0.0220,-0.0220,0.0073,-0.0479,0.0615,8.6496,1.8877,-0.1148,-0.0317,-0.0366,1,1,1,1,1,1,1
4.7847,sweep,3,+up,-0.00095,0.00362,0.66472,-0.00324,0.00401,-0.17529,-0.00324,-0.0024,-0.0024,0.2027,0.0073,-0.0220,-0.0220,0.0073,-0.0479,0.0615,8.6496,1.8877,-0.1148,-0.0317,-0.0366,1,1,1,1,1,1,1
4.8251,sweep,3,+up,-0.00095,0.00362,0.68074,-0.00324,0.00401,-0.17491,-0.00324,-0.0024,-0.0024,0.2076,-0.0220,-0.0073,-0.0073,-0.0073,-0.0615,0.0615,8.5949,1.8632,-0.1148,-0.0317,-0.0366,1,1,1,1,1,1,1
4.8653,sweep,3,+up,-0.00095,0.00362,0.68074,-0.00324,0.00401,-0.17491,-0.00324,-0.0024,-0.0024,0.2076,-0.0220,-0.0073,-0.0073,-0.0073,-0.0615,0.0615,8.5949,1.8632,-0.1148,-0.0317,-0.0366,1,1,1,1,1,1,1
4.9051,sweep,3,+up,-0.00095,0.00362,0.68074,-0.00324,0.00401,-0.17491,-0.00324,-0.0024,-0.0024,0.2076,-0.0220,-0.0073,-0.0073,-0.0073,-0.0615,0.0615,8.5949,1.8632,-0.1148,-0.0317,-0.0366,1,1,1,1,1,1,1
4.9450,sweep,3,+up,-0.00095,0.00362,0.70134,-0.00324,0.00401,-0.17491,-0.00324,-0.0024,-0.0024,0.1392,-0.0073,0.0073,-0.0073,-0.0366,-0.0615,0.0479,8.3077,1.8242,-0.1245,-0.0366,-0.0366,1,1,1,1,1,1,1
4.9851,sweep,3,+up,-0.00095,0.00362,0.70134,-0.00324,0.00401,-0.17491,-0.00324,-0.0024,-0.0024,0.1392,-0.0073,0.0073,-0.0073,-0.0366,-0.0615,0.0479,8.3077,1.8242,-0.1245,-0.0366,-0.0366,1,1,1,1,1,1,1
5.0252,sweep,3,+up,-0.00095,0.00362,0.71355,-0.00324,0.00401,-0.17491,-0.00362,-0.0024,-0.0024,0.1441,-0.0073,-0.0220,-0.0073,-0.0220,-0.0752,0.0479,8.3897,1.7949,-0.1197,-0.0317,-0.0366,1,1,1,1,1,1,1
5.0657,sweep,3,+up,-0.00095,0.00362,0.71355,-0.00324,0.00401,-0.17491,-0.00362,-0.0024,-0.0024,0.1441,-0.0073,-0.0220,-0.0073,-0.0220,-0.0752,0.0479,8.3897,1.7949,-0.1197,-0.0317,-0.0366,1,1,1,1,1,1,1
5.1053,sweep,3,+up,-0.00095,0.00362,0.71355,-0.00324,0.00401,-0.17491,-0.00362,-0.0024,-0.0024,0.1441,-0.0073,-0.0220,-0.0073,-0.0220,-0.0752,0.0479,8.3897,1.7949,-0.1197,-0.0317,-0.0366,1,1,1,1,1,1,1
5.1453,sweep,3,+up,-0.00095,0.00362,0.72919,-0.00324,0.00401,-0.17491,-0.00324,-0.0024,-0.0024,0.1197,0.0073,-0.0073,-0.0073,0.0073,-0.0752,0.0889,8.3624,1.7656,-0.1245,-0.0317,-0.0317,1,1,1,1,1,1,1
5.1849,sweep,3,+up,-0.00095,0.00362,0.72919,-0.00324,0.00401,-0.17491,-0.00324,-0.0024,-0.0024,0.1197,0.0073,-0.0073,-0.0073,0.0073,-0.0752,0.0889,8.3624,1.7656,-0.1245,-0.0317,-0.0317,1,1,1,1,1,1,1
5.2255,sweep,3,+up,-0.00095,0.00362,0.73835,-0.00324,0.00401,-0.17491,-0.00324,-0.0024,-0.0073,0.0952,-0.0073,-0.0073,-0.0073,-0.0073,-0.0889,0.0615,8.1026,1.7558,-0.1245,-0.0317,-0.0366,1,1,1,1,1,1,1
5.2653,sweep,3,+up,-0.00095,0.00362,0.73835,-0.00324,0.00401,-0.17491,-0.00324,-0.0024,-0.0073,0.0952,-0.0073,-0.0073,-0.0073,-0.0073,-0.0889,0.0615,8.1026,1.7558,-0.1245,-0.0317,-0.0366,1,1,1,1,1,1,1
5.3051,sweep,3,+up,-0.00095,0.00362,0.73835,-0.00324,0.00401,-0.17491,-0.00324,-0.0024,-0.0073,0.0952,-0.0073,-0.0073,-0.0073,-0.0073,-0.0889,0.0615,8.1026,1.7558,-0.1245,-0.0317,-0.0366,1,1,1,1,1,1,1
5.3452,sweep,3,+up,-0.00095,0.00362,0.75055,-0.00324,0.00401,-0.17491,-0.00324,-0.0024,0.0024,0.1099,-0.0073,-0.0073,0.0073,-0.0073,-0.0889,0.0615,7.8291,1.7314,-0.1245,-0.0317,-0.0366,1,1,1,1,1,1,1
5.3853,sweep,3,+up,-0.00095,0.00362,0.75055,-0.00324,0.00401,-0.17491,-0.00324,-0.0024,0.0024,0.1099,-0.0073,-0.0073,0.0073,-0.0073,-0.0889,0.0615,7.8291,1.7314,-0.1245,-0.0317,-0.0366,1,1,1,1,1,1,1
5.4253,sweep,3,+up,-0.00095,0.00362,0.75742,-0.00324,0.00401,-0.17491,-0.00362,0.0024,-0.0073,0.0659,-0.0073,-0.0073,-0.0073,-0.0073,-0.1026,0.0615,7.9795,1.6972,-0.1245,-0.0317,-0.0366,1,1,1,1,1,1,1
5.4652,sweep,3,+up,-0.00095,0.00362,0.75742,-0.00324,0.00401,-0.17491,-0.00362,0.0024,-0.0073,0.0659,-0.0073,-0.0073,-0.0073,-0.0073,-0.1026,0.0615,7.9795,1.6972,-0.1245,-0.0317,-0.0366,1,1,1,1,1,1,1
5.5050,sweep,3,+up,-0.00095,0.00362,0.75742,-0.00324,0.00401,-0.17491,-0.00362,0.0024,-0.0073,0.0659,-0.0073,-0.0073,-0.0073,-0.0073,-0.1026,0.0615,7.9795,1.6972,-0.1245,-0.0317,-0.0366,1,1,1,1,1,1,1
5.5454,sweep,3,+up,-0.00095,0.00362,0.76657,-0.00324,0.00401,-0.17491,-0.00324,0.0024,-0.0024,0.0611,-0.0073,-0.0073,-0.0073,0.0220,-0.0889,0.0889,7.8427,1.6777,-0.1294,-0.0366,-0.0366,1,1,1,1,1,1,1
5.5856,sweep,3,+up,-0.00095,0.00362,0.76657,-0.00324,0.00401,-0.17491,-0.00324,0.0024,-0.0024,0.0611,-0.0073,-0.0073,-0.0073,0.0220,-0.0889,0.0889,7.8427,1.6777,-0.1294,-0.0366,-0.0366,1,1,1,1,1,1,1
5.6250,sweep,3,+up,-0.00095,0.00362,0.77192,-0.00324,0.00401,-0.17491,-0.00324,-0.0024,-0.0024,0.0562,-0.0073,-0.0073,-0.0073,-0.0073,-0.0752,0.0889,7.7060,1.6728,-0.1294,-0.0317,-0.0317,1,1,1,1,1,1,1
5.6650,sweep,3,+up,-0.00095,0.00362,0.77192,-0.00324,0.00401,-0.17491,-0.00324,-0.0024,-0.0024,0.0562,-0.0073,-0.0073,-0.0073,-0.0073,-0.0752,0.0889,7.7060,1.6728,-0.1294,-0.0317,-0.0317,1,1,1,1,1,1,1
5.7050,sweep,3,+up,-0.00095,0.00362,0.77192,-0.00324,0.00401,-0.17491,-0.00324,-0.0024,-0.0024,0.0562,-0.0073,-0.0073,-0.0073,-0.0073,-0.0752,0.0889,7.7060,1.6728,-0.1294,-0.0317,-0.0317,1,1,1,1,1,1,1
5.7448,sweep,3,+up,-0.00095,0.00362,0.77878,-0.00324,0.00401,-0.17491,-0.00324,-0.0024,-0.0073,0.0513,-0.0073,-0.0073,-0.0073,-0.0073,-0.0615,0.0889,7.7744,1.6435,-0.1294,-0.0366,-0.0366,1,1,1,1,1,1,1
5.7849,sweep,3,+up,-0.00095,0.00362,0.77878,-0.00324,0.00401,-0.17491,-0.00324,-0.0024,-0.0073,0.0513,-0.0073,-0.0073,-0.0073,-0.0073,-0.0615,0.0889,7.7744,1.6435,-0.1294,-0.0366,-0.0366,1,1,1,1,1,1,1
5.8248,sweep,3,+up,-0.00095,0.00362,0.78298,-0.00362,0.00439,-0.17491,-0.00324,-0.0024,0.0024,0.0464,-0.0073,0.0073,-0.0073,-0.0073,-0.0615,0.0752,7.3231,1.6581,-0.1294,-0.0317,-0.0366,1,1,1,1,1,1,1
5.8652,sweep,3,+up,-0.00095,0.00362,0.78298,-0.00362,0.00439,-0.17491,-0.00324,-0.0024,0.0024,0.0464,-0.0073,0.0073,-0.0073,-0.0073,-0.0615,0.0752,7.3231,1.6581,-0.1294,-0.0317,-0.0366,1,1,1,1,1,1,1
5.9049,sweep,3,+up,-0.00095,0.00362,0.78298,-0.00362,0.00439,-0.17491,-0.00324,-0.0024,0.0024,0.0464,-0.0073,0.0073,-0.0073,-0.0073,-0.0615,0.0752,7.3231,1.6581,-0.1294,-0.0317,-0.0366,1,1,1,1,1,1,1
5.9449,sweep,3,+up,-0.00134,0.00362,0.78794,-0.00362,0.00401,-0.17529,-0.00362,-0.0024,-0.0024,0.0464,-0.0073,0.0073,-0.0220,-0.0073,-0.0615,0.0889,7.7470,1.6239,-0.1294,-0.0317,-0.0415,1,1,1,1,1,1,1
5.9849,sweep,3,+up,-0.00134,0.00362,0.78794,-0.00362,0.00401,-0.17529,-0.00362,-0.0024,-0.0024,0.0464,-0.0073,0.0073,-0.0220,-0.0073,-0.0615,0.0889,7.7470,1.6239,-0.1294,-0.0317,-0.0415,1,1,1,1,1,1,1
6.0250,sweep,3,+up,-0.00134,0.00362,0.79099,-0.00362,0.00401,-0.17491,-0.00324,-0.0024,-0.0024,0.0513,-0.0220,-0.0073,0.0073,0.0073,-0.0615,0.0889,7.5966,1.5995,-0.1294,-0.0317,-0.0366,1,1,1,1,1,1,1
6.0651,sweep,3,+up,-0.00134,0.00362,0.79099,-0.00362,0.00401,-0.17491,-0.00324,-0.0024,-0.0024,0.0513,-0.0220,-0.0073,0.0073,0.0073,-0.0615,0.0889,7.5966,1.5995,-0.1294,-0.0317,-0.0366,1,1,1,1,1,1,1
6.1050,sweep,3,+up,-0.00134,0.00362,0.79099,-0.00362,0.00401,-0.17491,-0.00324,-0.0024,-0.0024,0.0513,-0.0220,-0.0073,0.0073,0.0073,-0.0615,0.0889,7.5966,1.5995,-0.1294,-0.0317,-0.0366,1,1,1,1,1,1,1
6.1454,sweep,3,+up,-0.00095,0.00362,0.79519,-0.00362,0.00401,-0.17491,-0.00362,-0.0024,-0.0024,0.0366,-0.0073,-0.0073,0.0073,-0.0073,-0.0615,0.1026,7.6376,1.5995,-0.1343,-0.0317,-0.0366,1,1,1,1,1,1,1
6.1848,sweep,3,+up,-0.00095,0.00362,0.79519,-0.00362,0.00401,-0.17491,-0.00362,-0.0024,-0.0024,0.0366,-0.0073,-0.0073,0.0073,-0.0073,-0.0615,0.1026,7.6376,1.5995,-0.1343,-0.0317,-0.0366,1,1,1,1,1,1,1
6.2250,sweep,3,+up,-0.00095,0.00362,0.79786,-0.00362,0.00401,-0.17491,-0.00362,-0.0024,-0.0024,0.0269,-0.0073,0.0073,-0.0073,-0.0073,-0.0615,0.1026,7.2000,1.5995,-0.1392,-0.0317,-0.0366,1,1,1,1,1,1,1
6.7275,sweep,3,-down,-0.00134,0.00362,0.79900,-0.00362,0.00401,-0.17491,-0.00324,-0.0073,-0.0024,0.0317,-0.0073,0.0073,0.0073,-0.0220,-0.0752,0.1026,7.2410,1.5897,-0.1392,-0.0317,-0.0415,1,1,1,1,1,1,1
6.7675,sweep,3,-down,-0.00134,0.00362,0.79900,-0.00362,0.00401,-0.17491,-0.00324,-0.0073,-0.0024,0.0317,-0.0073,0.0073,0.0073,-0.0220,-0.0752,0.1026,7.2410,1.5897,-0.1392,-0.0317,-0.0415,1,1,1,1,1,1,1
6.8078,sweep,3,-down,-0.00134,0.00362,0.79900,-0.00362,0.00401,-0.17491,-0.00324,-0.0073,-0.0024,0.0317,-0.0073,0.0073,0.0073,-0.0220,-0.0752,0.1026,7.2410,1.5897,-0.1392,-0.0317,-0.0415,1,1,1,1,1,1,1
6.8480,sweep,3,-down,-0.00095,0.00362,0.79595,-0.00210,0.00439,-0.17491,-0.00362,0.0024,-0.0024,-0.2222,-0.0659,0.0073,-0.0073,-0.0220,-0.0752,0.1299,3.6171,1.3602,-0.1245,-0.0269,-0.0415,1,1,1,1,1,1,1
6.8878,sweep,3,-down,-0.00095,0.00362,0.79595,-0.00210,0.00439,-0.17491,-0.00362,0.0024,-0.0024,-0.2222,-0.0659,0.0073,-0.0073,-0.0220,-0.0752,0.1299,3.6171,1.3602,-0.1245,-0.0269,-0.0415,1,1,1,1,1,1,1
6.9275,sweep,3,-down,-0.00095,0.00362,0.77878,-0.00553,0.00401,-0.17491,-0.00362,-0.0024,-0.0024,-0.2222,-0.1099,-0.0073,-0.0073,-0.0220,-0.0752,0.1162,5.2444,1.6386,-0.1197,-0.0317,-0.0415,1,1,1,1,1,1,1
6.9679,sweep,3,-down,-0.00095,0.00362,0.77878,-0.00553,0.00401,-0.17491,-0.00362,-0.0024,-0.0024,-0.2222,-0.1099,-0.0073,-0.0073,-0.0220,-0.0752,0.1162,5.2444,1.6386,-0.1197,-0.0317,-0.0415,1,1,1,1,1,1,1
7.0076,sweep,3,-down,-0.00095,0.00362,0.77878,-0.00553,0.00401,-0.17491,-0.00362,-0.0024,-0.0024,-0.2222,-0.1099,-0.0073,-0.0073,-0.0220,-0.0752,0.1162,5.2444,1.6386,-0.1197,-0.0317,-0.0415,1,1,1,1,1,1,1
7.0477,sweep,3,-down,-0.00095,0.00362,0.75551,-0.00401,0.00401,-0.17491,-0.00362,-0.0024,-0.0024,-0.1929,0.0513,-0.0073,-0.0073,-0.0073,-0.0752,0.1299,4.4513,1.7265,-0.1245,-0.0317,-0.0415,1,1,1,1,1,1,1
7.0878,sweep,3,-down,-0.00095,0.00362,0.75551,-0.00401,0.00401,-0.17491,-0.00362,-0.0024,-0.0024,-0.1929,0.0513,-0.0073,-0.0073,-0.0073,-0.0752,0.1299,4.4513,1.7265,-0.1245,-0.0317,-0.0415,1,1,1,1,1,1,1
7.1277,sweep,3,-down,-0.00095,0.00362,0.73911,-0.00362,0.00401,-0.17491,-0.00362,-0.0024,-0.0024,-0.2222,-0.0220,-0.0220,-0.0220,-0.0073,-0.0615,0.1299,4.6974,1.6874,-0.1197,-0.0317,-0.0415,1,1,1,1,1,1,1
7.1680,sweep,3,-down,-0.00095,0.00362,0.73911,-0.00362,0.00401,-0.17491,-0.00362,-0.0024,-0.0024,-0.2222,-0.0220,-0.0220,-0.0220,-0.0073,-0.0615,0.1299,4.6974,1.6874,-0.1197,-0.0317,-0.0415,1,1,1,1,1,1,1
7.2077,sweep,3,-down,-0.00095,0.00362,0.73911,-0.00362,0.00401,-0.17491,-0.00362,-0.0024,-0.0024,-0.2222,-0.0220,-0.0220,-0.0220,-0.0073,-0.0615,0.1299,4.6974,1.6874,-0.1197,-0.0317,-0.0415,1,1,1,1,1,1,1
7.2480,sweep,3,-down,-0.00095,0.00362,0.71469,-0.00515,0.00401,-0.17491,-0.00362,-0.0024,-0.0024,-0.1978,-0.0073,0.0073,0.0073,-0.0073,-0.0615,0.1162,5.2581,1.8486,-0.1197,-0.0269,-0.0415,1,1,1,1,1,1,1
7.2875,sweep,3,-down,-0.00095,0.00362,0.71469,-0.00515,0.00401,-0.17491,-0.00362,-0.0024,-0.0024,-0.1978,-0.0073,0.0073,0.0073,-0.0073,-0.0615,0.1162,5.2581,1.8486,-0.1197,-0.0269,-0.0415,1,1,1,1,1,1,1
7.3275,sweep,3,-down,-0.00095,0.00362,0.69867,-0.00401,0.00401,-0.17491,-0.00362,-0.0073,0.0024,-0.2027,-0.0073,-0.0220,0.0073,-0.0220,-0.0615,0.1436,5.4359,1.8193,-0.1148,-0.0269,-0.0415,1,1,1,1,1,1,1
7.3677,sweep,3,-down,-0.00095,0.00362,0.69867,-0.00401,0.00401,-0.17491,-0.00362,-0.0073,0.0024,-0.2027,-0.0073,-0.0220,0.0073,-0.0220,-0.0615,0.1436,5.4359,1.8193,-0.1148,-0.0269,-0.0415,1,1,1,1,1,1,1
7.4076,sweep,3,-down,-0.00095,0.00362,0.69867,-0.00401,0.00401,-0.17491,-0.00362,-0.0073,0.0024,-0.2027,-0.0073,-0.0220,0.0073,-0.0220,-0.0615,0.1436,5.4359,1.8193,-0.1148,-0.0269,-0.0415,1,1,1,1,1,1,1
7.4478,sweep,3,-down,-0.00134,0.00362,0.67464,-0.00477,0.00401,-0.17491,-0.00362,-0.0024,-0.0024,-0.1929,-0.0073,-0.0073,0.0073,-0.0073,-0.0479,0.1573,5.2581,1.9121,-0.1099,-0.0269,-0.0415,1,1,1,1,1,1,1
7.4875,sweep,3,-down,-0.00134,0.00362,0.67464,-0.00477,0.00401,-0.17491,-0.00362,-0.0024,-0.0024,-0.1929,-0.0073,-0.0073,0.0073,-0.0073,-0.0479,0.1573,5.2581,1.9121,-0.1099,-0.0269,-0.0415,1,1,1,1,1,1,1
7.5274,sweep,3,-down,-0.00134,0.00362,0.65900,-0.00401,0.00401,-0.17491,-0.00362,-0.0073,-0.0024,-0.1978,-0.0073,-0.0220,-0.0073,-0.0073,-0.0615,0.1709,5.1077,1.8926,-0.1050,-0.0269,-0.0415,1,1,1,1,1,1,1
7.5676,sweep,3,-down,-0.00134,0.00362,0.65900,-0.00401,0.00401,-0.17491,-0.00362,-0.0073,-0.0024,-0.1978,-0.0073,-0.0220,-0.0073,-0.0073,-0.0615,0.1709,5.1077,1.8926,-0.1050,-0.0269,-0.0415,1,1,1,1,1,1,1
7.6079,sweep,3,-down,-0.00134,0.00362,0.65900,-0.00401,0.00401,-0.17491,-0.00362,-0.0073,-0.0024,-0.1978,-0.0073,-0.0220,-0.0073,-0.0073,-0.0615,0.1709,5.1077,1.8926,-0.1050,-0.0269,-0.0415,1,1,1,1,1,1,1
7.6474,sweep,3,-down,-0.00095,0.00362,0.63420,-0.00401,0.00401,-0.17491,-0.00324,-0.0073,-0.0024,-0.2076,0.0073,-0.0073,-0.0073,0.0073,-0.0615,0.1573,5.7094,1.9072,-0.1001,-0.0317,-0.0415,1,1,1,1,1,1,1
7.6877,sweep,3,-down,-0.00095,0.00362,0.63420,-0.00401,0.00401,-0.17491,-0.00324,-0.0073,-0.0024,-0.2076,0.0073,-0.0073,-0.0073,0.0073,-0.0615,0.1573,5.7094,1.9072,-0.1001,-0.0317,-0.0415,1,1,1,1,1,1,1
7.7274,sweep,3,-down,-0.00134,0.00362,0.61818,-0.00401,0.00401,-0.17491,-0.00362,-0.0073,-0.0024,-0.2027,-0.0220,-0.0220,-0.0220,-0.0073,-0.0479,0.1846,6.1060,1.9316,-0.1001,-0.0269,-0.0415,1,1,1,1,1,1,1
7.7675,sweep,3,-down,-0.00134,0.00362,0.61818,-0.00401,0.00401,-0.17491,-0.00362,-0.0073,-0.0024,-0.2027,-0.0220,-0.0220,-0.0220,-0.0073,-0.0479,0.1846,6.1060,1.9316,-0.1001,-0.0269,-0.0415,1,1,1,1,1,1,1
7.8077,sweep,3,-down,-0.00134,0.00362,0.61818,-0.00401,0.00401,-0.17491,-0.00362,-0.0073,-0.0024,-0.2027,-0.0220,-0.0220,-0.0220,-0.0073,-0.0479,0.1846,6.1060,1.9316,-0.1001,-0.0269,-0.0415,1,1,1,1,1,1,1
7.8483,sweep,3,-down,-0.00095,0.00362,0.59415,-0.00439,0.00401,-0.17491,-0.00362,-0.0024,-0.0024,-0.2027,0.0073,-0.0073,0.0073,-0.0073,-0.0205,0.1846,5.8735,1.9707,-0.0952,-0.0269,-0.0415,1,1,1,1,1,1,1
7.8878,sweep,3,-down,-0.00095,0.00362,0.59415,-0.00439,0.00401,-0.17491,-0.00362,-0.0024,-0.0024,-0.2027,0.0073,-0.0073,0.0073,-0.0073,-0.0205,0.1846,5.8735,1.9707,-0.0952,-0.0269,-0.0415,1,1,1,1,1,1,1
7.9275,sweep,3,-down,-0.00095,0.00401,0.57851,-0.00439,0.00401,-0.17491,-0.00362,-0.0024,-0.0024,-0.2027,-0.0073,0.0073,-0.0073,-0.0073,-0.0342,0.1846,5.6957,1.9902,-0.0952,-0.0269,-0.0415,1,1,1,1,1,1,1
7.9679,sweep,3,-down,-0.00095,0.00401,0.57851,-0.00439,0.00401,-0.17491,-0.00362,-0.0024,-0.0024,-0.2027,-0.0073,0.0073,-0.0073,-0.0073,-0.0342,0.1846,5.6957,1.9902,-0.0952,-0.0269,-0.0415,1,1,1,1,1,1,1
8.0079,sweep,3,-down,-0.00095,0.00401,0.57851,-0.00439,0.00401,-0.17491,-0.00362,-0.0024,-0.0024,-0.2027,-0.0073,0.0073,-0.0073,-0.0073,-0.0342,0.1846,5.6957,1.9902,-0.0952,-0.0269,-0.0415,1,1,1,1,1,1,1
8.0475,sweep,3,-down,-0.00095,0.00362,0.55371,-0.00401,0.00401,-0.17491,-0.00362,0.0024,0.0024,-0.2125,-0.0073,-0.0073,-0.0073,-0.0220,-0.0342,0.1709,6.4205,2.0147,-0.0904,-0.0269,-0.0464,1,1,1,1,1,1,1
8.0875,sweep,3,-down,-0.00095,0.00362,0.55371,-0.00401,0.00401,-0.17491,-0.00362,0.0024,0.0024,-0.2125,-0.0073,-0.0073,-0.0073,-0.0220,-0.0342,0.1709,6.4205,2.0147,-0.0904,-0.0269,-0.0464,1,1,1,1,1,1,1
8.1275,sweep,3,-down,-0.00095,0.00401,0.53807,-0.00439,0.00401,-0.17491,-0.00324,-0.0024,-0.0024,-0.2027,-0.0220,-0.0073,-0.0073,-0.0073,-0.0342,0.1846,6.3248,2.0293,-0.0904,-0.0317,-0.0415,1,1,1,1,1,1,1
8.1673,sweep,3,-down,-0.00095,0.00401,0.53807,-0.00439,0.00401,-0.17491,-0.00324,-0.0024,-0.0024,-0.2027,-0.0220,-0.0073,-0.0073,-0.0073,-0.0342,0.1846,6.3248,2.0293,-0.0904,-0.0317,-0.0415,1,1,1,1,1,1,1
8.2075,sweep,3,-down,-0.00095,0.00401,0.53807,-0.00439,0.00401,-0.17491,-0.00324,-0.0024,-0.0024,-0.2027,-0.0220,-0.0073,-0.0073,-0.0073,-0.0342,0.1846,6.3248,2.0293,-0.0904,-0.0317,-0.0415,1,1,1,1,1,1,1
8.2478,sweep,3,-down,-0.00095,0.00401,0.51404,-0.00439,0.00401,-0.17491,-0.00362,-0.0024,-0.0024,-0.1880,-0.0073,0.0073,-0.0220,-0.0073,-0.0479,0.1983,6.2154,2.0635,-0.0855,-0.0317,-0.0415,1,1,1,1,1,1,1
8.2873,sweep,3,-down,-0.00095,0.00401,0.51404,-0.00439,0.00401,-0.17491,-0.00362,-0.0024,-0.0024,-0.1880,-0.0073,0.0073,-0.0220,-0.0073,-0.0479,0.1983,6.2154,2.0635,-0.0855,-0.0317,-0.0415,1,1,1,1,1,1,1
8.3276,sweep,3,-down,-0.00095,0.00401,0.49802,-0.00439,0.00401,-0.17529,-0.00362,-0.0024,-0.0024,-0.2125,-0.0220,-0.0220,-0.0073,-0.0073,-0.0205,0.1709,6.2974,2.0928,-0.0855,-0.0269,-0.0464,1,1,1,1,1,1,1
8.3679,sweep,3,-down,-0.00095,0.00401,0.49802,-0.00439,0.00401,-0.17529,-0.00362,-0.0024,-0.0024,-0.2125,-0.0220,-0.0220,-0.0073,-0.0073,-0.0205,0.1709,6.2974,2.0928,-0.0855,-0.0269,-0.0464,1,1,1,1,1,1,1
8.4075,sweep,3,-down,-0.00095,0.00401,0.49802,-0.00439,0.00401,-0.17529,-0.00362,-0.0024,-0.0024,-0.2125,-0.0220,-0.0220,-0.0073,-0.0073,-0.0205,0.1709,6.2974,2.0928,-0.0855,-0.0269,-0.0464,1,1,1,1,1,1,1
8.4476,sweep,3,-down,-0.00095,0.00401,0.47360,-0.00439,0.00401,-0.17529,-0.00362,-0.0024,0.0024,-0.2076,-0.0073,-0.0073,0.0073,-0.0073,-0.0205,0.1709,6.8718,2.1123,-0.0806,-0.0269,-0.0415,1,1,1,1,1,1,1
8.4876,sweep,3,-down,-0.00095,0.00401,0.47360,-0.00439,0.00401,-0.17529,-0.00362,-0.0024,0.0024,-0.2076,-0.0073,-0.0073,0.0073,-0.0073,-0.0205,0.1709,6.8718,2.1123,-0.0806,-0.0269,-0.0415,1,1,1,1,1,1,1
8.5277,sweep,3,-down,-0.00134,0.00401,0.45758,-0.00439,0.00401,-0.17529,-0.00362,-0.0073,-0.0024,-0.2076,0.0073,-0.0073,-0.0220,-0.0073,-0.0205,0.1846,6.8171,2.1416,-0.0757,-0.0269,-0.0464,1,1,1,1,1,1,1
8.5676,sweep,3,-down,-0.00134,0.00401,0.45758,-0.00439,0.00401,-0.17529,-0.00362,-0.0073,-0.0024,-0.2076,0.0073,-0.0073,-0.0220,-0.0073,-0.0205,0.1846,6.8171,2.1416,-0.0757,-0.0269,-0.0464,1,1,1,1,1,1,1
8.6077,sweep,3,-down,-0.00134,0.00401,0.45758,-0.00439,0.00401,-0.17529,-0.00362,-0.0073,-0.0024,-0.2076,0.0073,-0.0073,-0.0220,-0.0073,-0.0205,0.1846,6.8171,2.1416,-0.0757,-0.0269,-0.0464,1,1,1,1,1,1,1
8.6476,sweep,3,-down,-0.00095,0.00401,0.43393,-0.00439,0.00401,-0.17491,-0.00362,-0.0024,-0.0024,-0.1929,-0.0220,-0.0073,-0.0073,-0.0073,-0.0068,0.1846,6.3111,2.1758,-0.0757,-0.0269,-0.0464,1,1,1,1,1,1,1
8.6877,sweep,3,-down,-0.00095,0.00401,0.43393,-0.00439,0.00401,-0.17491,-0.00362,-0.0024,-0.0024,-0.1929,-0.0220,-0.0073,-0.0073,-0.0073,-0.0068,0.1846,6.3111,2.1758,-0.0757,-0.0269,-0.0464,1,1,1,1,1,1,1
8.7275,sweep,3,-down,-0.00095,0.00401,0.41753,-0.00401,0.00401,-0.17529,-0.00362,-0.0024,-0.0024,-0.2125,-0.0073,-0.0073,-0.0073,0.0073,-0.0205,0.1846,6.8308,2.1709,-0.0757,-0.0317,-0.0464,1,1,1,1,1,1,1
8.7675,sweep,3,-down,-0.00095,0.00401,0.41753,-0.00401,0.00401,-0.17529,-0.00362,-0.0024,-0.0024,-0.2125,-0.0073,-0.0073,-0.0073,0.0073,-0.0205,0.1846,6.8308,2.1709,-0.0757,-0.0317,-0.0464,1,1,1,1,1,1,1
8.8073,sweep,3,-down,-0.00095,0.00401,0.41753,-0.00401,0.00401,-0.17529,-0.00362,-0.0024,-0.0024,-0.2125,-0.0073,-0.0073,-0.0073,0.0073,-0.0205,0.1846,6.8308,2.1709,-0.0757,-0.0317,-0.0464,1,1,1,1,1,1,1
8.8478,sweep,3,-down,-0.00095,0.00401,0.39311,-0.00439,0.00401,-0.17491,-0.00362,0.0024,0.0024,-0.2125,-0.0073,-0.0073,-0.0073,0.0073,-0.0068,0.1983,7.1590,2.1905,-0.0659,-0.0366,-0.0513,1,1,1,1,1,1,1
8.8878,sweep,3,-down,-0.00095,0.00401,0.39311,-0.00439,0.00401,-0.17491,-0.00362,0.0024,0.0024,-0.2125,-0.0073,-0.0073,-0.0073,0.0073,-0.0068,0.1983,7.1590,2.1905,-0.0659,-0.0366,-0.0513,1,1,1,1,1,1,1
8.9276,sweep,3,-down,-0.00095,0.00401,0.37747,-0.00401,0.00401,-0.17491,-0.00324,-0.0024,-0.0024,-0.1929,0.0220,-0.0220,-0.0073,0.0073,-0.0068,0.1846,6.9265,2.1954,-0.0611,-0.0317,-0.0513,1,1,1,1,1,1,1
8.9678,sweep,3,-down,-0.00095,0.00401,0.37747,-0.00401,0.00401,-0.17491,-0.00324,-0.0024,-0.0024,-0.1929,0.0220,-0.0220,-0.0073,0.0073,-0.0068,0.1846,6.9265,2.1954,-0.0611,-0.0317,-0.0513,1,1,1,1,1,1,1
9.0077,sweep,3,-down,-0.00095,0.00401,0.37747,-0.00401,0.00401,-0.17491,-0.00324,-0.0024,-0.0024,-0.1929,0.0220,-0.0220,-0.0073,0.0073,-0.0068,0.1846,6.9265,2.1954,-0.0611,-0.0317,-0.0513,1,1,1,1,1,1,1
9.0477,sweep,3,-down,-0.00095,0.00401,0.35344,-0.00401,0.00401,-0.17529,-0.00362,-0.0024,-0.0024,-0.2076,-0.0073,-0.0073,-0.0073,-0.0073,-0.0068,0.1573,6.7487,2.2198,-0.0659,-0.0269,-0.0513,1,1,1,1,1,1,1
9.0874,sweep,3,-down,-0.00095,0.00401,0.35344,-0.00401,0.00401,-0.17529,-0.00362,-0.0024,-0.0024,-0.2076,-0.0073,-0.0073,-0.0073,-0.0073,-0.0068,0.1573,6.7487,2.2198,-0.0659,-0.0269,-0.0513,1,1,1,1,1,1,1
9.1275,sweep,3,-down,-0.00095,0.00401,0.33741,-0.00439,0.00401,-0.17529,-0.00362,0.0024,0.0024,-0.2173,-0.0220,-0.0073,-0.0220,-0.0073,0.0068,0.1573,7.1180,2.2295,-0.0611,-0.0317,-0.0513,1,1,1,1,1,1,1
9.1679,sweep,3,-down,-0.00095,0.00401,0.33741,-0.00439,0.00401,-0.17529,-0.00362,0.0024,0.0024,-0.2173,-0.0220,-0.0073,-0.0220,-0.0073,0.0068,0.1573,7.1180,2.2295,-0.0611,-0.0317,-0.0513,1,1,1,1,1,1,1
9.2076,sweep,3,-down,-0.00095,0.00401,0.33741,-0.00439,0.00401,-0.17529,-0.00362,0.0024,0.0024,-0.2173,-0.0220,-0.0073,-0.0220,-0.0073,0.0068,0.1573,7.1180,2.2295,-0.0611,-0.0317,-0.0513,1,1,1,1,1,1,1
9.2478,sweep,3,-down,-0.00095,0.00401,0.31300,-0.00439,0.00401,-0.17529,-0.00362,-0.0024,-0.0024,-0.2125,-0.0073,0.0073,-0.0073,-0.0073,-0.0068,0.1573,7.4051,2.2589,-0.0562,-0.0317,-0.0562,1,1,1,1,1,1,1
9.2876,sweep,3,-down,-0.00095,0.00401,0.31300,-0.00439,0.00401,-0.17529,-0.00362,-0.0024,-0.0024,-0.2125,-0.0073,0.0073,-0.0073,-0.0073,-0.0068,0.1573,7.4051,2.2589,-0.0562,-0.0317,-0.0562,1,1,1,1,1,1,1
9.3275,sweep,3,-down,-0.00095,0.00401,0.29698,-0.00439,0.00401,-0.17529,-0.00362,-0.0024,-0.0024,-0.2027,-0.0073,0.0073,-0.0073,-0.0073,0.0068,0.1436,7.2547,2.2833,-0.0562,-0.0269,-0.0513,1,1,1,1,1,1,1
9.3681,sweep,3,-down,-0.00095,0.00401,0.29698,-0.00439,0.00401,-0.17529,-0.00362,-0.0024,-0.0024,-0.2027,-0.0073,0.0073,-0.0073,-0.0073,0.0068,0.1436,7.2547,2.2833,-0.0562,-0.0269,-0.0513,1,1,1,1,1,1,1
9.4078,sweep,3,-down,-0.00095,0.00401,0.29698,-0.00439,0.00401,-0.17529,-0.00362,-0.0024,-0.0024,-0.2027,-0.0073,0.0073,-0.0073,-0.0073,0.0068,0.1436,7.2547,2.2833,-0.0562,-0.0269,-0.0513,1,1,1,1,1,1,1
9.4478,sweep,3,-down,-0.00095,0.00401,0.27295,-0.00401,0.00401,-0.17529,-0.00362,-0.0024,0.0024,-0.2125,0.0073,-0.0073,-0.0073,-0.0220,-0.0068,0.1573,7.3094,2.2833,-0.0562,-0.0317,-0.0562,1,1,1,1,1,1,1
9.4877,sweep,3,-down,-0.00095,0.00401,0.27295,-0.00401,0.00401,-0.17529,-0.00362,-0.0024,0.0024,-0.2125,0.0073,-0.0073,-0.0073,-0.0220,-0.0068,0.1573,7.3094,2.2833,-0.0562,-0.0317,-0.0562,1,1,1,1,1,1,1
9.5276,sweep,3,-down,-0.00095,0.00401,0.25692,-0.00439,0.00401,-0.17529,-0.00362,-0.0024,0.0024,-0.1880,-0.0366,-0.0073,-0.0073,-0.0073,0.0068,0.1299,7.6650,2.3126,-0.0562,-0.0317,-0.0513,1,1,1,1,1,1,1
9.5676,sweep,3,-down,-0.00095,0.00401,0.25692,-0.00439,0.00401,-0.17529,-0.00362,-0.0024,0.0024,-0.1880,-0.0366,-0.0073,-0.0073,-0.0073,0.0068,0.1299,7.6650,2.3126,-0.0562,-0.0317,-0.0513,1,1,1,1,1,1,1
9.6077,sweep,3,-down,-0.00095,0.00401,0.25692,-0.00439,0.00401,-0.17529,-0.00362,-0.0024,0.0024,-0.1880,-0.0366,-0.0073,-0.0073,-0.0073,0.0068,0.1299,7.6650,2.3126,-0.0562,-0.0317,-0.0513,1,1,1,1,1,1,1
9.6475,sweep,3,-down,-0.00095,0.00401,0.23632,-0.00439,0.00401,-0.17529,-0.00362,-0.0073,-0.0024,-0.1538,0.0073,-0.0073,-0.0073,-0.0073,-0.0068,0.1299,7.5282,2.3516,-0.0513,-0.0317,-0.0513,1,1,1,1,1,1,1
9.6876,sweep,3,-down,-0.00095,0.00401,0.23632,-0.00439,0.00401,-0.17529,-0.00362,-0.0073,-0.0024,-0.1538,0.0073,-0.0073,-0.0073,-0.0073,-0.0068,0.1299,7.5282,2.3516,-0.0513,-0.0317,-0.0513,1,1,1,1,1,1,1
9.7281,sweep,3,-down,-0.00095,0.00401,0.22450,-0.00401,0.00401,-0.17529,-0.00362,-0.0024,-0.0024,-0.1441,-0.0366,-0.0073,-0.0073,-0.0220,0.0068,0.1026,7.6786,2.3370,-0.0513,-0.0317,-0.0562,1,1,1,1,1,1,1
9.7676,sweep,3,-down,-0.00095,0.00401,0.22450,-0.00401,0.00401,-0.17529,-0.00362,-0.0024,-0.0024,-0.1441,-0.0366,-0.0073,-0.0073,-0.0220,0.0068,0.1026,7.6786,2.3370,-0.0513,-0.0317,-0.0562,1,1,1,1,1,1,1
9.8076,sweep,3,-down,-0.00095,0.00401,0.22450,-0.00401,0.00401,-0.17529,-0.00362,-0.0024,-0.0024,-0.1441,-0.0366,-0.0073,-0.0073,-0.0220,0.0068,0.1026,7.6786,2.3370,-0.0513,-0.0317,-0.0562,1,1,1,1,1,1,1
9.8476,sweep,3,-down,-0.00095,0.00401,0.20886,-0.00401,0.00401,-0.17529,-0.00362,-0.0073,-0.0024,-0.1343,-0.0220,0.0073,-0.0073,0.0073,-0.0068,0.0889,7.3368,2.3565,-0.0464,-0.0317,-0.0513,1,1,1,1,1,1,1
9.8876,sweep,3,-down,-0.00095,0.00401,0.20886,-0.00401,0.00401,-0.17529,-0.00362,-0.0073,-0.0024,-0.1343,-0.0220,0.0073,-0.0073,0.0073,-0.0068,0.0889,7.3368,2.3565,-0.0464,-0.0317,-0.0513,1,1,1,1,1,1,1
9.9275,sweep,3,-down,-0.00095,0.00401,0.19970,-0.00401,0.00401,-0.17529,-0.00362,-0.0073,-0.0024,-0.1099,-0.0073,-0.0073,-0.0073,-0.0073,-0.0205,0.0752,7.1726,2.3468,-0.0464,-0.0269,-0.0513,1,1,1,1,1,1,1
9.9683,sweep,3,-down,-0.00095,0.00401,0.19970,-0.00401,0.00401,-0.17529,-0.00362,-0.0073,-0.0024,-0.1099,-0.0073,-0.0073,-0.0073,-0.0073,-0.0205,0.0752,7.1726,2.3468,-0.0464,-0.0269,-0.0513,1,1,1,1,1,1,1
10.0074,sweep,3,-down,-0.00095,0.00401,0.19970,-0.00401,0.00401,-0.17529,-0.00362,-0.0073,-0.0024,-0.1099,-0.0073,-0.0073,-0.0073,-0.0073,-0.0205,0.0752,7.1726,2.3468,-0.0464,-0.0269,-0.0513,1,1,1,1,1,1,1
10.0474,sweep,3,-down,-0.00095,0.00401,0.18750,-0.00401,0.00401,-0.17529,-0.00362,-0.0073,-0.0024,-0.0855,0.0073,0.0073,-0.0073,-0.0220,0.0068,0.0752,7.5145,2.3712,-0.0415,-0.0269,-0.0464,1,1,1,1,1,1,1
10.0875,sweep,3,-down,-0.00095,0.00401,0.18750,-0.00401,0.00401,-0.17529,-0.00362,-0.0073,-0.0024,-0.0855,0.0073,0.0073,-0.0073,-0.0220,0.0068,0.0752,7.5145,2.3712,-0.0415,-0.0269,-0.0464,1,1,1,1,1,1,1
10.1277,sweep,3,-down,-0.00095,0.00401,0.18025,-0.00401,0.00401,-0.17529,-0.00362,-0.0024,-0.0024,-0.0904,-0.0073,-0.0073,-0.0073,-0.0220,0.0205,0.0752,8.1436,2.3858,-0.0464,-0.0269,-0.0464,1,1,1,1,1,1,1
10.1679,sweep,3,-down,-0.00095,0.00401,0.18025,-0.00401,0.00401,-0.17529,-0.00362,-0.0024,-0.0024,-0.0904,-0.0073,-0.0073,-0.0073,-0.0220,0.0205,0.0752,8.1436,2.3858,-0.0464,-0.0269,-0.0464,1,1,1,1,1,1,1
10.2076,sweep,3,-down,-0.00095,0.00401,0.18025,-0.00401,0.00401,-0.17529,-0.00362,-0.0024,-0.0024,-0.0904,-0.0073,-0.0073,-0.0073,-0.0220,0.0205,0.0752,8.1436,2.3858,-0.0464,-0.0269,-0.0464,1,1,1,1,1,1,1
10.2477,sweep,3,-down,-0.00095,0.00401,0.17147,-0.00401,0.00401,-0.17529,-0.00362,-0.0024,-0.0024,-0.0659,-0.0073,-0.0073,-0.0073,-0.0073,-0.0068,0.0615,7.6513,2.3907,-0.0415,-0.0220,-0.0513,1,1,1,1,1,1,1
10.2874,sweep,3,-down,-0.00095,0.00401,0.17147,-0.00401,0.00401,-0.17529,-0.00362,-0.0024,-0.0024,-0.0659,-0.0073,-0.0073,-0.0073,-0.0073,-0.0068,0.0615,7.6513,2.3907,-0.0415,-0.0220,-0.0513,1,1,1,1,1,1,1
10.3274,sweep,3,-down,-0.00095,0.00401,0.16613,-0.00401,0.00401,-0.17529,-0.00362,0.0024,0.0024,-0.0806,-0.0073,-0.0073,-0.0073,-0.0073,0.0342,0.0479,7.6650,2.3761,-0.0366,-0.0220,-0.0464,1,1,1,1,1,1,1
10.3677,sweep,3,-down,-0.00095,0.00401,0.16613,-0.00401,0.00401,-0.17529,-0.00362,0.0024,0.0024,-0.0806,-0.0073,-0.0073,-0.0073,-0.0073,0.0342,0.0479,7.6650,2.3761,-0.0366,-0.0220,-0.0464,1,1,1,1,1,1,1
10.4075,sweep,3,-down,-0.00095,0.00401,0.16613,-0.00401,0.00401,-0.17529,-0.00362,0.0024,0.0024,-0.0806,-0.0073,-0.0073,-0.0073,-0.0073,0.0342,0.0479,7.6650,2.3761,-0.0366,-0.0220,-0.0464,1,1,1,1,1,1,1
10.4477,sweep,3,-down,-0.00095,0.00401,0.15927,-0.00401,0.00439,-0.17529,-0.00362,-0.0073,-0.0024,-0.0464,-0.0073,-0.0073,-0.0220,-0.0073,0.0205,0.0205,7.7197,2.3858,-0.0366,-0.0171,-0.0464,1,1,1,1,1,1,1
10.4876,sweep,3,-down,-0.00095,0.00401,0.15927,-0.00401,0.00439,-0.17529,-0.00362,-0.0073,-0.0024,-0.0464,-0.0073,-0.0073,-0.0220,-0.0073,0.0205,0.0205,7.7197,2.3858,-0.0366,-0.0171,-0.0464,1,1,1,1,1,1,1
10.5277,sweep,3,-down,-0.00134,0.00401,0.15545,-0.00401,0.00439,-0.17529,-0.00362,-0.0073,-0.0024,-0.0366,-0.0220,-0.0073,-0.0073,-0.0073,0.0068,0.0205,7.1863,2.4151,-0.0415,-0.0171,-0.0464,1,1,1,1,1,1,1
10.5680,sweep,3,-down,-0.00134,0.00401,0.15545,-0.00401,0.00439,-0.17529,-0.00362,-0.0073,-0.0024,-0.0366,-0.0220,-0.0073,-0.0073,-0.0073,0.0068,0.0205,7.1863,2.4151,-0.0415,-0.0171,-0.0464,1,1,1,1,1,1,1
10.6078,sweep,3,-down,-0.00134,0.00401,0.15545,-0.00401,0.00439,-0.17529,-0.00362,-0.0073,-0.0024,-0.0366,-0.0220,-0.0073,-0.0073,-0.0073,0.0068,0.0205,7.1863,2.4151,-0.0415,-0.0171,-0.0464,1,1,1,1,1,1,1
10.6476,sweep,3,-down,-0.00095,0.00401,0.14973,-0.00362,0.00439,-0.17529,-0.00362,-0.0073,-0.0024,-0.0464,-0.0220,0.0073,-0.0073,-0.0073,-0.0068,0.0068,7.7197,2.3663,-0.0366,-0.0171,-0.0464,1,1,1,1,1,1,1
10.6876,sweep,3,-down,-0.00095,0.00401,0.14973,-0.00362,0.00439,-0.17529,-0.00362,-0.0073,-0.0024,-0.0464,-0.0220,0.0073,-0.0073,-0.0073,-0.0068,0.0068,7.7197,2.3663,-0.0366,-0.0171,-0.0464,1,1,1,1,1,1,1
10.7274,sweep,3,-down,-0.00095,0.00401,0.14668,-0.00362,0.00439,-0.17529,-0.00362,-0.0024,-0.0024,-0.0317,-0.0073,-0.0073,-0.0220,0.0073,0.0068,0.0068,7.7470,2.3468,-0.0366,-0.0122,-0.0464,1,1,1,1,1,1,1
10.7674,sweep,3,-down,-0.00095,0.00401,0.14668,-0.00362,0.00439,-0.17529,-0.00362,-0.0024,-0.0024,-0.0317,-0.0073,-0.0073,-0.0220,0.0073,0.0068,0.0068,7.7470,2.3468,-0.0366,-0.0122,-0.0464,1,1,1,1,1,1,1
10.8075,sweep,3,-down,-0.00095,0.00401,0.14668,-0.00362,0.00439,-0.17529,-0.00362,-0.0024,-0.0024,-0.0317,-0.0073,-0.0073,-0.0220,0.0073,0.0068,0.0068,7.7470,2.3468,-0.0366,-0.0122,-0.0464,1,1,1,1,1,1,1
10.8473,sweep,3,-down,-0.00134,0.00401,0.14286,-0.00362,0.00401,-0.17529,-0.00362,-0.0073,-0.0024,-0.0220,-0.0073,-0.0220,-0.0073,-0.0073,-0.0068,-0.0068,7.4188,2.3370,-0.0366,-0.0073,-0.0513,1,1,1,1,1,1,1
10.8876,sweep,3,-down,-0.00134,0.00401,0.14286,-0.00362,0.00401,-0.17529,-0.00362,-0.0073,-0.0024,-0.0220,-0.0073,-0.0220,-0.0073,-0.0073,-0.0068,-0.0068,7.4188,2.3370,-0.0366,-0.0073,-0.0513,1,1,1,1,1,1,1
10.9273,sweep,3,-down,-0.00095,0.00401,0.14057,-0.00362,0.00401,-0.17529,-0.00362,-0.0024,-0.0024,-0.0220,-0.0220,-0.0073,-0.0073,-0.0073,0.0068,-0.0205,7.1316,2.3419,-0.0366,-0.0024,-0.0464,1,1,1,1,1,1,1
10.9677,sweep,3,-down,-0.00095,0.00401,0.14057,-0.00362,0.00401,-0.17529,-0.00362,-0.0024,-0.0024,-0.0220,-0.0220,-0.0073,-0.0073,-0.0073,0.0068,-0.0205,7.1316,2.3419,-0.0366,-0.0024,-0.0464,1,1,1,1,1,1,1
11.0075,sweep,3,-down,-0.00095,0.00401,0.14057,-0.00362,0.00401,-0.17529,-0.00362,-0.0024,-0.0024,-0.0220,-0.0220,-0.0073,-0.0073,-0.0073,0.0068,-0.0205,7.1316,2.3419,-0.0366,-0.0024,-0.0464,1,1,1,1,1,1,1
11.0474,sweep,3,-down,-0.00095,0.00401,0.13752,-0.00362,0.00401,-0.17529,-0.00362,-0.0024,-0.0024,-0.0220,-0.0073,-0.0073,-0.0073,-0.0220,0.0068,-0.0615,7.3094,2.3272,-0.0366,-0.0024,-0.0415,1,1,1,1,1,1,1
11.5500,sweep,3,+up,-0.00095,0.00401,0.13638,-0.00362,0.00439,-0.17529,-0.00362,-0.0024,-0.0024,-0.0317,-0.0073,-0.0073,-0.0073,0.0073,0.0068,-0.0479,7.1863,2.3370,-0.0317,-0.0024,-0.0464,1,1,1,1,1,1,1
11.5900,sweep,3,+up,-0.00095,0.00401,0.13638,-0.00362,0.00439,-0.17529,-0.00362,-0.0024,-0.0024,-0.0317,-0.0073,-0.0073,-0.0073,0.0073,0.0068,-0.0479,7.1863,2.3370,-0.0317,-0.0024,-0.0464,1,1,1,1,1,1,1
11.6300,sweep,3,+up,-0.00095,0.00401,0.13066,-0.00515,0.00439,-0.17529,-0.00362,-0.0024,0.0024,0.1294,-0.1392,-0.0073,-0.0073,-0.0220,0.0068,-0.1436,13.4906,2.4347,-0.0269,-0.0024,-0.0464,1,1,1,1,1,1,1
11.6702,sweep,3,+up,-0.00095,0.00401,0.13066,-0.00515,0.00439,-0.17529,-0.00362,-0.0024,0.0024,0.1294,-0.1392,-0.0073,-0.0073,-0.0220,0.0068,-0.1436,13.4906,2.4347,-0.0269,-0.0024,-0.0464,1,1,1,1,1,1,1
11.7103,sweep,3,+up,-0.00095,0.00401,0.13066,-0.00515,0.00439,-0.17529,-0.00362,-0.0024,0.0024,0.1294,-0.1392,-0.0073,-0.0073,-0.0220,0.0068,-0.1436,13.4906,2.4347,-0.0269,-0.0024,-0.0464,1,1,1,1,1,1,1
11.7498,sweep,3,+up,-0.00095,0.00401,0.15621,-0.00286,0.00439,-0.17529,-0.00362,-0.0024,-0.0024,0.2027,-0.0073,-0.0073,-0.0073,-0.0073,0.0068,-0.1299,11.4530,2.3565,-0.0269,-0.0122,-0.0464,1,1,1,1,1,1,1
11.7901,sweep,3,+up,-0.00095,0.00401,0.15621,-0.00286,0.00439,-0.17529,-0.00362,-0.0024,-0.0024,0.2027,-0.0073,-0.0073,-0.0073,-0.0073,0.0068,-0.1299,11.4530,2.3565,-0.0269,-0.0122,-0.0464,1,1,1,1,1,1,1
11.8300,sweep,3,+up,-0.00134,0.00401,0.17224,-0.00286,0.00439,-0.17529,-0.00362,-0.0073,0.0024,0.1929,-0.0220,-0.0073,-0.0073,-0.0073,0.0068,-0.1299,11.3026,2.3175,-0.0317,-0.0122,-0.0464,1,1,1,1,1,1,1
11.8703,sweep,3,+up,-0.00134,0.00401,0.17224,-0.00286,0.00439,-0.17529,-0.00362,-0.0073,0.0024,0.1929,-0.0220,-0.0073,-0.0073,-0.0073,0.0068,-0.1299,11.3026,2.3175,-0.0317,-0.0122,-0.0464,1,1,1,1,1,1,1
11.9102,sweep,3,+up,-0.00134,0.00401,0.17224,-0.00286,0.00439,-0.17529,-0.00362,-0.0073,0.0024,0.1929,-0.0220,-0.0073,-0.0073,-0.0073,0.0068,-0.1299,11.3026,2.3175,-0.0317,-0.0122,-0.0464,1,1,1,1,1,1,1
11.9499,sweep,3,+up,-0.00095,0.00401,0.19589,-0.00362,0.00439,-0.17491,-0.00324,0.0024,-0.0024,0.2027,-0.0073,-0.0220,-0.0220,-0.0073,0.0068,-0.1436,11.9316,2.3516,-0.0366,-0.0073,-0.0415,1,1,1,1,1,1,1
11.9902,sweep,3,+up,-0.00095,0.00401,0.19589,-0.00362,0.00439,-0.17491,-0.00324,0.0024,-0.0024,0.2027,-0.0073,-0.0220,-0.0220,-0.0073,0.0068,-0.1436,11.9316,2.3516,-0.0366,-0.0073,-0.0415,1,1,1,1,1,1,1
12.0299,sweep,3,+up,-0.00134,0.00401,0.21229,-0.00324,0.00439,-0.17491,-0.00362,-0.0073,-0.0073,0.2027,-0.0073,-0.0073,-0.0073,-0.0073,-0.0068,-0.1299,11.1521,2.3223,-0.0366,-0.0024,-0.0415,1,1,1,1,1,1,1
12.0703,sweep,3,+up,-0.00134,0.00401,0.21229,-0.00324,0.00439,-0.17491,-0.00362,-0.0073,-0.0073,0.2027,-0.0073,-0.0073,-0.0073,-0.0073,-0.0068,-0.1299,11.1521,2.3223,-0.0366,-0.0024,-0.0415,1,1,1,1,1,1,1
12.1102,sweep,3,+up,-0.00134,0.00401,0.21229,-0.00324,0.00439,-0.17491,-0.00362,-0.0073,-0.0073,0.2027,-0.0073,-0.0073,-0.0073,-0.0073,-0.0068,-0.1299,11.1521,2.3223,-0.0366,-0.0024,-0.0415,1,1,1,1,1,1,1
12.1503,sweep,3,+up,-0.00095,0.00401,0.23594,-0.00362,0.00439,-0.17491,-0.00362,-0.0024,-0.0073,0.1929,-0.0220,-0.0073,-0.0073,-0.0073,-0.0068,-0.1299,11.8359,2.3272,-0.0464,-0.0073,-0.0415,1,1,1,1,1,1,1
12.1898,sweep,3,+up,-0.00095,0.00401,0.23594,-0.00362,0.00439,-0.17491,-0.00362,-0.0024,-0.0073,0.1929,-0.0220,-0.0073,-0.0073,-0.0073,-0.0068,-0.1299,11.8359,2.3272,-0.0464,-0.0073,-0.0415,1,1,1,1,1,1,1
12.2300,sweep,3,+up,-0.00095,0.00401,0.25196,-0.00362,0.00439,-0.17491,-0.00362,-0.0024,-0.0024,0.1978,-0.0073,-0.0073,-0.0073,-0.0073,-0.0342,-0.1299,11.2889,2.3028,-0.0464,-0.0073,-0.0415,1,1,1,1,1,1,1
12.2699,sweep,3,+up,-0.00095,0.00401,0.25196,-0.00362,0.00439,-0.17491,-0.00362,-0.0024,-0.0024,0.1978,-0.0073,-0.0073,-0.0073,-0.0073,-0.0342,-0.1299,11.2889,2.3028,-0.0464,-0.0073,-0.0415,1,1,1,1,1,1,1
12.3101,sweep,3,+up,-0.00095,0.00401,0.25196,-0.00362,0.00439,-0.17491,-0.00362,-0.0024,-0.0024,0.1978,-0.0073,-0.0073,-0.0073,-0.0073,-0.0342,-0.1299,11.2889,2.3028,-0.0464,-0.0073,-0.0415,1,1,1,1,1,1,1
12.3501,sweep,3,+up,-0.00095,0.00401,0.27562,-0.00362,0.00439,-0.17491,-0.00362,-0.0024,-0.0024,0.1929,-0.0220,-0.0073,-0.0073,-0.0073,-0.0068,-0.1026,11.6991,2.3175,-0.0513,-0.0073,-0.0415,1,1,1,1,1,1,1
12.3901,sweep,3,+up,-0.00095,0.00401,0.27562,-0.00362,0.00439,-0.17491,-0.00362,-0.0024,-0.0024,0.1929,-0.0220,-0.0073,-0.0073,-0.0073,-0.0068,-0.1026,11.6991,2.3175,-0.0513,-0.0073,-0.0415,1,1,1,1,1,1,1
12.4302,sweep,3,+up,-0.00095,0.00401,0.29240,-0.00362,0.00439,-0.17491,-0.00362,-0.0024,-0.0024,0.1978,-0.0073,-0.0073,-0.0073,-0.0073,-0.0342,-0.1162,10.8513,2.2930,-0.0562,-0.0171,-0.0415,1,1,1,1,1,1,1
12.4703,sweep,3,+up,-0.00095,0.00401,0.29240,-0.00362,0.00439,-0.17491,-0.00362,-0.0024,-0.0024,0.1978,-0.0073,-0.0073,-0.0073,-0.0073,-0.0342,-0.1162,10.8513,2.2930,-0.0562,-0.0171,-0.0415,1,1,1,1,1,1,1
12.5100,sweep,3,+up,-0.00095,0.00401,0.29240,-0.00362,0.00439,-0.17491,-0.00362,-0.0024,-0.0024,0.1978,-0.0073,-0.0073,-0.0073,-0.0073,-0.0342,-0.1162,10.8513,2.2930,-0.0562,-0.0171,-0.0415,1,1,1,1,1,1,1
12.5498,sweep,3,+up,-0.00134,0.00401,0.31643,-0.00362,0.00439,-0.17491,-0.00362,-0.0024,-0.0024,0.2027,0.0073,-0.0220,-0.0073,-0.0220,-0.0342,-0.1299,11.0564,2.2784,-0.0611,-0.0122,-0.0415,1,1,1,1,1,1,1
12.5900,sweep,3,+up,-0.00134,0.00401,0.31643,-0.00362,0.00439,-0.17491,-0.00362,-0.0024,-0.0024,0.2027,0.0073,-0.0220,-0.0073,-0.0220,-0.0342,-0.1299,11.0564,2.2784,-0.0611,-0.0122,-0.0415,1,1,1,1,1,1,1
12.6299,sweep,3,+up,-0.00095,0.00401,0.33246,-0.00362,0.00439,-0.17491,-0.00362,-0.0024,-0.0024,0.2027,-0.0073,-0.0073,-0.0073,-0.0073,-0.0479,-0.1299,10.9333,2.2686,-0.0611,-0.0122,-0.0415,1,1,1,1,1,1,1
12.6698,sweep,3,+up,-0.00095,0.00401,0.33246,-0.00362,0.00439,-0.17491,-0.00362,-0.0024,-0.0024,0.2027,-0.0073,-0.0073,-0.0073,-0.0073,-0.0479,-0.1299,10.9333,2.2686,-0.0611,-0.0122,-0.0415,1,1,1,1,1,1,1
12.7100,sweep,3,+up,-0.00095,0.00401,0.33246,-0.00362,0.00439,-0.17491,-0.00362,-0.0024,-0.0024,0.2027,-0.0073,-0.0073,-0.0073,-0.0073,-0.0479,-0.1299,10.9333,2.2686,-0.0611,-0.0122,-0.0415,1,1,1,1,1,1,1
12.7501,sweep,3,+up,-0.00095,0.00401,0.35649,-0.00362,0.00439,-0.17491,-0.00324,-0.0024,-0.0024,0.2125,-0.0073,-0.0073,-0.0073,0.0073,-0.0479,-0.1026,10.7556,2.2540,-0.0708,-0.0171,-0.0366,1,1,1,1,1,1,1
12.7900,sweep,3,+up,-0.00095,0.00401,0.35649,-0.00362,0.00439,-0.17491,-0.00324,-0.0024,-0.0024,0.2125,-0.0073,-0.0073,-0.0073,0.0073,-0.0479,-0.1026,10.7556,2.2540,-0.0708,-0.0171,-0.0366,1,1,1,1,1,1,1
12.8306,sweep,3,+up,-0.00134,0.00362,0.37251,-0.00362,0.00439,-0.17491,-0.00362,-0.0073,-0.0024,0.1929,-0.0220,0.0073,-0.0073,-0.0073,-0.0615,-0.0889,10.8239,2.2442,-0.0708,-0.0171,-0.0415,1,1,1,1,1,1,1
12.8709,sweep,3,+up,-0.00134,0.00362,0.37251,-0.00362,0.00439,-0.17491,-0.00362,-0.0073,-0.0024,0.1929,-0.0220,0.0073,-0.0073,-0.0073,-0.0615,-0.0889,10.8239,2.2442,-0.0708,-0.0171,-0.0415,1,1,1,1,1,1,1
12.9100,sweep,3,+up,-0.00134,0.00362,0.37251,-0.00362,0.00439,-0.17491,-0.00362,-0.0073,-0.0024,0.1929,-0.0220,0.0073,-0.0073,-0.0073,-0.0615,-0.0889,10.8239,2.2442,-0.0708,-0.0171,-0.0415,1,1,1,1,1,1,1
12.9502,sweep,3,+up,-0.00134,0.00362,0.39654,-0.00362,0.00439,-0.17491,-0.00362,-0.0073,-0.0024,0.2027,-0.0073,-0.0073,-0.0073,-0.0073,-0.0615,-0.0889,10.7009,2.2247,-0.0757,-0.0122,-0.0415,1,1,1,1,1,1,1
12.9904,sweep,3,+up,-0.00134,0.00362,0.39654,-0.00362,0.00439,-0.17491,-0.00362,-0.0073,-0.0024,0.2027,-0.0073,-0.0073,-0.0073,-0.0073,-0.0615,-0.0889,10.7009,2.2247,-0.0757,-0.0122,-0.0415,1,1,1,1,1,1,1
13.0304,sweep,3,+up,-0.00095,0.00362,0.41295,-0.00324,0.00439,-0.17491,-0.00362,-0.0073,0.0024,0.2125,0.0073,-0.0073,-0.0073,-0.0073,-0.0615,-0.0889,10.4821,2.2149,-0.0806,-0.0171,-0.0415,1,1,1,1,1,1,1
13.0702,sweep,3,+up,-0.00095,0.00362,0.41295,-0.00324,0.00439,-0.17491,-0.00362,-0.0073,0.0024,0.2125,0.0073,-0.0073,-0.0073,-0.0073,-0.0615,-0.0889,10.4821,2.2149,-0.0806,-0.0171,-0.0415,1,1,1,1,1,1,1
13.1106,sweep,3,+up,-0.00095,0.00362,0.41295,-0.00324,0.00439,-0.17491,-0.00362,-0.0073,0.0024,0.2125,0.0073,-0.0073,-0.0073,-0.0073,-0.0615,-0.0889,10.4821,2.2149,-0.0806,-0.0171,-0.0415,1,1,1,1,1,1,1
13.1504,sweep,3,+up,-0.00095,0.00362,0.43698,-0.00362,0.00439,-0.17491,-0.00362,-0.0024,-0.0024,0.2027,-0.0073,0.0073,-0.0073,-0.0073,-0.0479,-0.0615,10.3316,2.1807,-0.0855,-0.0122,-0.0415,1,1,1,1,1,1,1
13.1901,sweep,3,+up,-0.00095,0.00362,0.43698,-0.00362,0.00439,-0.17491,-0.00362,-0.0024,-0.0024,0.2027,-0.0073,0.0073,-0.0073,-0.0073,-0.0479,-0.0615,10.3316,2.1807,-0.0855,-0.0122,-0.0415,1,1,1,1,1,1,1
13.2312,sweep,3,+up,-0.00095,0.00362,0.45300,-0.00362,0.00439,-0.17491,-0.00362,-0.0024,-0.0024,0.1978,0.0073,-0.0220,-0.0220,-0.0073,-0.0342,-0.0615,10.2906,2.1612,-0.0904,-0.0220,-0.0366,1,1,1,1,1,1,1
13.2700,sweep,3,+up,-0.00095,0.00362,0.45300,-0.00362,0.00439,-0.17491,-0.00362,-0.0024,-0.0024,0.1978,0.0073,-0.0220,-0.0220,-0.0073,-0.0342,-0.0615,10.2906,2.1612,-0.0904,-0.0220,-0.0366,1,1,1,1,1,1,1
13.3108,sweep,3,+up,-0.00095,0.00362,0.45300,-0.00362,0.00439,-0.17491,-0.00362,-0.0024,-0.0024,0.1978,0.0073,-0.0220,-0.0220,-0.0073,-0.0342,-0.0615,10.2906,2.1612,-0.0904,-0.0220,-0.0366,1,1,1,1,1,1,1
13.3499,sweep,3,+up,-0.00095,0.00362,0.47742,-0.00362,0.00439,-0.17491,-0.00362,-0.0073,-0.0024,0.1978,-0.0073,-0.0073,-0.0073,-0.0220,-0.0068,-0.0342,10.2222,2.1416,-0.0904,-0.0269,-0.0415,1,1,1,1,1,1,1
13.3901,sweep,3,+up,-0.00095,0.00362,0.47742,-0.00362,0.00439,-0.17491,-0.00362,-0.0073,-0.0024,0.1978,-0.0073,-0.0073,-0.0073,-0.0220,-0.0068,-0.0342,10.2222,2.1416,-0.0904,-0.0269,-0.0415,1,1,1,1,1,1,1
13.4299,sweep,3,+up,-0.00134,0.00362,0.49306,-0.00362,0.00439,-0.17491,-0.00362,-0.0024,0.0024,0.1978,0.0073,-0.0073,-0.0073,-0.0073,-0.0068,-0.0479,10.3590,2.1270,-0.0952,-0.0220,-0.0415,1,1,1,1,1,1,1
13.4697,sweep,3,+up,-0.00134,0.00362,0.49306,-0.00362,0.00439,-0.17491,-0.00362,-0.0024,0.0024,0.1978,0.0073,-0.0073,-0.0073,-0.0073,-0.0068,-0.0479,10.3590,2.1270,-0.0952,-0.0220,-0.0415,1,1,1,1,1,1,1
13.5100,sweep,3,+up,-0.00134,0.00362,0.49306,-0.00362,0.00439,-0.17491,-0.00362,-0.0024,0.0024,0.1978,0.0073,-0.0073,-0.0073,-0.0073,-0.0068,-0.0479,10.3590,2.1270,-0.0952,-0.0220,-0.0415,1,1,1,1,1,1,1
13.5498,sweep,3,+up,-0.00095,0.00362,0.51747,-0.00324,0.00439,-0.17491,-0.00362,-0.0024,-0.0024,0.2076,-0.0073,-0.0073,-0.0220,-0.0073,-0.0068,-0.0752,9.6342,2.1026,-0.0952,-0.0269,-0.0366,1,1,1,1,1,1,1
13.5898,sweep,3,+up,-0.00095,0.00362,0.51747,-0.00324,0.00439,-0.17491,-0.00362,-0.0024,-0.0024,0.2076,-0.0073,-0.0073,-0.0220,-0.0073,-0.0068,-0.0752,9.6342,2.1026,-0.0952,-0.0269,-0.0366,1,1,1,1,1,1,1
13.6298,sweep,3,+up,-0.00134,0.00362,0.53311,-0.00324,0.00439,-0.17491,-0.00362,-0.0024,-0.0024,0.2027,0.0073,-0.0073,-0.0220,-0.0073,-0.0205,-0.0479,9.8667,2.0977,-0.1001,-0.0317,-0.0366,1,1,1,1,1,1,1
13.6699,sweep,3,+up,-0.00134,0.00362,0.53311,-0.00324,0.00439,-0.17491,-0.00362,-0.0024,-0.0024,0.2027,0.0073,-0.0073,-0.0220,-0.0073,-0.0205,-0.0479,9.8667,2.0977,-0.1001,-0.0317,-0.0366,1,1,1,1,1,1,1
13.7098,sweep,3,+up,-0.00134,0.00362,0.53311,-0.00324,0.00439,-0.17491,-0.00362,-0.0024,-0.0024,0.2027,0.0073,-0.0073,-0.0220,-0.0073,-0.0205,-0.0479,9.8667,2.0977,-0.1001,-0.0317,-0.0366,1,1,1,1,1,1,1
13.7500,sweep,3,+up,-0.00095,0.00362,0.55753,-0.00324,0.00401,-0.17491,-0.00362,-0.0024,0.0024,0.1880,-0.0073,-0.0073,0.0073,-0.0073,-0.0205,-0.0205,9.6205,2.0684,-0.1099,-0.0317,-0.0366,1,1,1,1,1,1,1
13.7901,sweep,3,+up,-0.00095,0.00362,0.55753,-0.00324,0.00401,-0.17491,-0.00362,-0.0024,0.0024,0.1880,-0.0073,-0.0073,0.0073,-0.0073,-0.0205,-0.0205,9.6205,2.0684,-0.1099,-0.0317,-0.0366,1,1,1,1,1,1,1
13.8299,sweep,3,+up,-0.00095,0.00362,0.57355,-0.00324,0.00439,-0.17491,-0.00362,0.0024,-0.0024,0.1978,-0.0073,0.0073,-0.0073,-0.0073,-0.0342,-0.0205,9.7026,2.0440,-0.1099,-0.0317,-0.0366,1,1,1,1,1,1,1
13.8702,sweep,3,+up,-0.00095,0.00362,0.57355,-0.00324,0.00439,-0.17491,-0.00362,0.0024,-0.0024,0.1978,-0.0073,0.0073,-0.0073,-0.0073,-0.0342,-0.0205,9.7026,2.0440,-0.1099,-0.0317,-0.0366,1,1,1,1,1,1,1
13.9106,sweep,3,+up,-0.00095,0.00362,0.57355,-0.00324,0.00439,-0.17491,-0.00362,0.0024,-0.0024,0.1978,-0.0073,0.0073,-0.0073,-0.0073,-0.0342,-0.0205,9.7026,2.0440,-0.1099,-0.0317,-0.0366,1,1,1,1,1,1,1
13.9500,sweep,3,+up,-0.00095,0.00362,0.59796,-0.00324,0.00439,-0.17491,-0.00362,0.0024,-0.0024,0.2027,-0.0220,-0.0220,-0.0073,-0.0220,-0.0205,-0.0342,9.3060,2.0195,-0.1148,-0.0317,-0.0366,1,1,1,1,1,1,1
13.9904,sweep,3,+up,-0.00095,0.00362,0.59796,-0.00324,0.00439,-0.17491,-0.00362,0.0024,-0.0024,0.2027,-0.0220,-0.0220,-0.0073,-0.0220,-0.0205,-0.0342,9.3060,2.0195,-0.1148,-0.0317,-0.0366,1,1,1,1,1,1,1
14.0298,sweep,3,+up,-0.00095,0.00362,0.61399,-0.00324,0.00439,-0.17491,-0.00362,-0.0024,-0.0073,0.1832,0.0073,-0.0073,-0.0073,-0.0073,-0.0068,-0.0068,9.1692,1.9902,-0.1148,-0.0317,-0.0366,1,1,1,1,1,1,1
14.0701,sweep,3,+up,-0.00095,0.00362,0.61399,-0.00324,0.00439,-0.17491,-0.00362,-0.0024,-0.0073,0.1832,0.0073,-0.0073,-0.0073,-0.0073,-0.0068,-0.0068,9.1692,1.9902,-0.1148,-0.0317,-0.0366,1,1,1,1,1,1,1
14.1099,sweep,3,+up,-0.00095,0.00362,0.61399,-0.00324,0.00439,-0.17491,-0.00362,-0.0024,-0.0073,0.1832,0.0073,-0.0073,-0.0073,-0.0073,-0.0068,-0.0068,9.1692,1.9902,-0.1148,-0.0317,-0.0366,1,1,1,1,1,1,1
14.1499,sweep,3,+up,-0.00095,0.00362,0.63802,-0.00324,0.00401,-0.17491,-0.00362,-0.0024,0.0024,0.1783,-0.0073,-0.0220,-0.0073,-0.0073,-0.0205,-0.0205,9.2650,1.9707,-0.1197,-0.0317,-0.0366,1,1,1,1,1,1,1
14.1900,sweep,3,+up,-0.00095,0.00362,0.63802,-0.00324,0.00401,-0.17491,-0.00362,-0.0024,0.0024,0.1783,-0.0073,-0.0220,-0.0073,-0.0073,-0.0205,-0.0205,9.2650,1.9707,-0.1197,-0.0317,-0.0366,1,1,1,1,1,1,1
14.2306,sweep,3,+up,-0.00095,0.00362,0.65442,-0.00324,0.00439,-0.17491,-0.00362,-0.0024,-0.0024,0.2125,-0.0073,-0.0220,-0.0220,-0.0073,-0.0068,-0.0068,8.8274,1.9414,-0.1197,-0.0317,-0.0366,1,1,1,1,1,1,1
14.2705,sweep,3,+up,-0.00095,0.00362,0.65442,-0.00324,0.00439,-0.17491,-0.00362,-0.0024,-0.0024,0.2125,-0.0073,-0.0220,-0.0220,-0.0073,-0.0068,-0.0068,8.8274,1.9414,-0.1197,-0.0317,-0.0366,1,1,1,1,1,1,1
14.3098,sweep,3,+up,-0.00095,0.00362,0.65442,-0.00324,0.00439,-0.17491,-0.00362,-0.0024,-0.0024,0.2125,-0.0073,-0.0220,-0.0220,-0.0073,-0.0068,-0.0068,8.8274,1.9414,-0.1197,-0.0317,-0.0366,1,1,1,1,1,1,1
14.3500,sweep,3,+up,-0.00095,0.00362,0.67807,-0.00324,0.00439,-0.17491,-0.00362,-0.0024,0.0024,0.1929,0.0073,-0.0073,-0.0073,-0.0220,-0.0342,-0.0205,8.7316,1.9023,-0.1245,-0.0366,-0.0366,1,1,1,1,1,1,1
14.3903,sweep,3,+up,-0.00095,0.00362,0.67807,-0.00324,0.00439,-0.17491,-0.00362,-0.0024,0.0024,0.1929,0.0073,-0.0073,-0.0073,-0.0220,-0.0342,-0.0205,8.7316,1.9023,-0.1245,-0.0366,-0.0366,1,1,1,1,1,1,1
14.4300,sweep,3,+up,-0.00095,0.00362,0.69295,-0.00324,0.00439,-0.17529,-0.00324,-0.0024,-0.0024,0.1685,-0.0073,0.0073,-0.0220,-0.0073,-0.0205,0.0068,8.2803,1.8877,-0.1245,-0.0366,-0.0366,1,1,1,1,1,1,1
14.4699,sweep,3,+up,-0.00095,0.00362,0.69295,-0.00324,0.00439,-0.17529,-0.00324,-0.0024,-0.0024,0.1685,-0.0073,0.0073,-0.0220,-0.0073,-0.0205,0.0068,8.2803,1.8877,-0.1245,-0.0366,-0.0366,1,1,1,1,1,1,1
14.5098,sweep,3,+up,-0.00095,0.00362,0.69295,-0.00324,0.00439,-0.17529,-0.00324,-0.0024,-0.0024,0.1685,-0.0073,0.0073,-0.0220,-0.0073,-0.0205,0.0068,8.2803,1.8877,-0.1245,-0.0366,-0.0366,1,1,1,1,1,1,1
14.5500,sweep,3,+up,-0.00095,0.00362,0.71164,-0.00324,0.00439,-0.17529,-0.00324,0.0024,0.0024,0.1343,-0.0073,-0.0073,-0.0220,0.0073,-0.0205,0.0205,8.4171,1.8388,-0.1294,-0.0415,-0.0366,1,1,1,1,1,1,1
14.5903,sweep,3,+up,-0.00095,0.00362,0.71164,-0.00324,0.00439,-0.17529,-0.00324,0.0024,0.0024,0.1343,-0.0073,-0.0073,-0.0220,0.0073,-0.0205,0.0205,8.4171,1.8388,-0.1294,-0.0415,-0.0366,1,1,1,1,1,1,1
14.6300,sweep,3,+up,-0.00095,0.00362,0.72271,-0.00324,0.00401,-0.17491,-0.00362,-0.0024,-0.0024,0.1197,-0.0073,-0.0220,-0.0073,-0.0073,-0.0068,0.0342,8.2940,1.8144,-0.1245,-0.0415,-0.0317,1,1,1,1,1,1,1
14.6699,sweep,3,+up,-0.00095,0.00362,0.72271,-0.00324,0.00401,-0.17491,-0.00362,-0.0024,-0.0024,0.1197,-0.0073,-0.0220,-0.0073,-0.0073,-0.0068,0.0342,8.2940,1.8144,-0.1245,-0.0415,-0.0317,1,1,1,1,1,1,1
14.7098,sweep,3,+up,-0.00095,0.00362,0.72271,-0.00324,0.00401,-0.17491,-0.00362,-0.0024,-0.0024,0.1197,-0.0073,-0.0220,-0.0073,-0.0073,-0.0068,0.0342,8.2940,1.8144,-0.1245,-0.0415,-0.0317,1,1,1,1,1,1,1
14.7501,sweep,3,+up,-0.00095,0.00401,0.73682,-0.00324,0.00439,-0.17491,-0.00324,-0.0073,-0.0024,0.0952,-0.0073,0.0073,-0.0220,0.0073,-0.0205,0.0205,8.0479,1.7753,-0.1245,-0.0415,-0.0317,1,1,1,1,1,1,1
14.7899,sweep,3,+up,-0.00095,0.00401,0.73682,-0.00324,0.00439,-0.17491,-0.00324,-0.0073,-0.0024,0.0952,-0.0073,0.0073,-0.0220,0.0073,-0.0205,0.0205,8.0479,1.7753,-0.1245,-0.0415,-0.0317,1,1,1,1,1,1,1
14.8298,sweep,3,+up,-0.00095,0.00362,0.74521,-0.00324,0.00439,-0.17491,-0.00362,-0.0024,-0.0024,0.1148,-0.0073,0.0073,-0.0073,-0.0073,-0.0068,0.0205,8.3214,1.7558,-0.1294,-0.0415,-0.0317,1,1,1,1,1,1,1
14.8701,sweep,3,+up,-0.00095,0.00362,0.74521,-0.00324,0.00439,-0.17491,-0.00362,-0.0024,-0.0024,0.1148,-0.0073,0.0073,-0.0073,-0.0073,-0.0068,0.0205,8.3214,1.7558,-0.1294,-0.0415,-0.0317,1,1,1,1,1,1,1
14.9101,sweep,3,+up,-0.00095,0.00362,0.74521,-0.00324,0.00439,-0.17491,-0.00362,-0.0024,-0.0024,0.1148,-0.0073,0.0073,-0.0073,-0.0073,-0.0068,0.0205,8.3214,1.7558,-0.1294,-0.0415,-0.0317,1,1,1,1,1,1,1
14.9500,sweep,3,+up,-0.00095,0.00401,0.75628,-0.00324,0.00401,-0.17529,-0.00362,-0.0024,0.0024,0.1001,-0.0073,-0.0073,-0.0220,-0.0073,-0.0205,0.0342,7.8017,1.7216,-0.1343,-0.0415,-0.0366,1,1,1,1,1,1,1
14.9901,sweep,3,+up,-0.00095,0.00401,0.75628,-0.00324,0.00401,-0.17529,-0.00362,-0.0024,0.0024,0.1001,-0.0073,-0.0073,-0.0220,-0.0073,-0.0205,0.0342,7.8017,1.7216,-0.1343,-0.0415,-0.0366,1,1,1,1,1,1,1
15.0298,sweep,3,+up,-0.00095,0.00362,0.76238,-0.00324,0.00439,-0.17491,-0.00324,0.0024,-0.0024,0.0513,-0.0220,0.0073,-0.0073,-0.0073,-0.0342,-0.0068,8.0068,1.7021,-0.1392,-0.0464,-0.0317,1,1,1,1,1,1,1
15.0700,sweep,3,+up,-0.00095,0.00362,0.76238,-0.00324,0.00439,-0.17491,-0.00324,0.0024,-0.0024,0.0513,-0.0220,0.0073,-0.0073,-0.0073,-0.0342,-0.0068,8.0068,1.7021,-0.1392,-0.0464,-0.0317,1,1,1,1,1,1,1
15.1099,sweep,3,+up,-0.00095,0.00362,0.76238,-0.00324,0.00439,-0.17491,-0.00324,0.0024,-0.0024,0.0513,-0.0220,0.0073,-0.0073,-0.0073,-0.0342,-0.0068,8.0068,1.7021,-0.1392,-0.0464,-0.0317,1,1,1,1,1,1,1
15.1499,sweep,3,+up,-0.00095,0.00362,0.77077,-0.00324,0.00401,-0.17491,-0.00362,-0.0024,-0.0024,0.0708,0.0220,-0.0220,-0.0073,-0.0073,-0.0342,-0.0205,7.8427,1.6874,-0.1343,-0.0464,-0.0366,1,1,1,1,1,1,1
15.1899,sweep,3,+up,-0.00095,0.00362,0.77077,-0.00324,0.00401,-0.17491,-0.00362,-0.0024,-0.0024,0.0708,0.0220,-0.0220,-0.0073,-0.0073,-0.0342,-0.0205,7.8427,1.6874,-0.1343,-0.0464,-0.0366,1,1,1,1,1,1,1
15.2300,sweep,3,+up,-0.00134,0.00362,0.77573,-0.00324,0.00439,-0.17491,-0.00362,-0.0073,-0.0024,0.0464,-0.0073,-0.0073,-0.0073,-0.0073,-0.0205,-0.0205,7.9658,1.6874,-0.1343,-0.0415,-0.0317,1,1,1,1,1,1,1
15.2701,sweep,3,+up,-0.00134,0.00362,0.77573,-0.00324,0.00439,-0.17491,-0.00362,-0.0073,-0.0024,0.0464,-0.0073,-0.0073,-0.0073,-0.0073,-0.0205,-0.0205,7.9658,1.6874,-0.1343,-0.0415,-0.0317,1,1,1,1,1,1,1
15.3100,sweep,3,+up,-0.00134,0.00362,0.77573,-0.00324,0.00439,-0.17491,-0.00362,-0.0073,-0.0024,0.0464,-0.0073,-0.0073,-0.0073,-0.0073,-0.0205,-0.0205,7.9658,1.6874,-0.1343,-0.0415,-0.0317,1,1,1,1,1,1,1
15.3500,sweep,3,+up,-0.00095,0.00362,0.78222,-0.00362,0.00401,-0.17491,-0.00362,-0.0024,-0.0024,0.0562,-0.0073,-0.0220,-0.0073,-0.0073,-0.0342,-0.0342,7.5556,1.6630,-0.1392,-0.0415,-0.0317,1,1,1,1,1,1,1
15.3897,sweep,3,+up,-0.00095,0.00362,0.78222,-0.00362,0.00401,-0.17491,-0.00362,-0.0024,-0.0024,0.0562,-0.0073,-0.0220,-0.0073,-0.0073,-0.0342,-0.0342,7.5556,1.6630,-0.1392,-0.0415,-0.0317,1,1,1,1,1,1,1
15.4300,sweep,3,+up,-0.00095,0.00362,0.78565,-0.00324,0.00401,-0.17491,-0.00362,-0.0024,-0.0024,0.0415,-0.0220,-0.0220,-0.0073,-0.0220,-0.0479,-0.0615,7.7880,1.6435,-0.1392,-0.0464,-0.0269,1,1,1,1,1,1,1
15.4701,sweep,3,+up,-0.00095,0.00362,0.78565,-0.00324,0.00401,-0.17491,-0.00362,-0.0024,-0.0024,0.0415,-0.0220,-0.0220,-0.0073,-0.0220,-0.0479,-0.0615,7.7880,1.6435,-0.1392,-0.0464,-0.0269,1,1,1,1,1,1,1
15.5099,sweep,3,+up,-0.00095,0.00362,0.78565,-0.00324,0.00401,-0.17491,-0.00362,-0.0024,-0.0024,0.0415,-0.0220,-0.0220,-0.0073,-0.0220,-0.0479,-0.0615,7.7880,1.6435,-0.1392,-0.0464,-0.0269,1,1,1,1,1,1,1
15.5499,sweep,3,+up,-0.00095,0.00362,0.79061,-0.00362,0.00439,-0.17491,-0.00324,-0.0024,-0.0024,0.0220,-0.0073,-0.0073,-0.0073,-0.0073,-0.0479,-0.0479,7.7607,1.6239,-0.1392,-0.0415,-0.0269,1,1,1,1,1,1,1
15.5899,sweep,3,+up,-0.00095,0.00362,0.79061,-0.00362,0.00439,-0.17491,-0.00324,-0.0024,-0.0024,0.0220,-0.0073,-0.0073,-0.0073,-0.0073,-0.0479,-0.0479,7.7607,1.6239,-0.1392,-0.0415,-0.0269,1,1,1,1,1,1,1
15.6298,sweep,3,+up,-0.00095,0.00362,0.79328,-0.00362,0.00439,-0.17529,-0.00362,-0.0024,-0.0073,0.0366,-0.0220,-0.0073,-0.0073,-0.0073,-0.0342,-0.0615,7.7744,1.6239,-0.1441,-0.0464,-0.0269,1,1,1,1,1,1,1
15.6698,sweep,3,+up,-0.00095,0.00362,0.79328,-0.00362,0.00439,-0.17529,-0.00362,-0.0024,-0.0073,0.0366,-0.0220,-0.0073,-0.0073,-0.0073,-0.0342,-0.0615,7.7744,1.6239,-0.1441,-0.0464,-0.0269,1,1,1,1,1,1,1
15.7098,sweep,3,+up,-0.00095,0.00362,0.79328,-0.00362,0.00439,-0.17529,-0.00362,-0.0024,-0.0073,0.0366,-0.0220,-0.0073,-0.0073,-0.0073,-0.0342,-0.0615,7.7744,1.6239,-0.1441,-0.0464,-0.0269,1,1,1,1,1,1,1
15.7499,sweep,3,+up,-0.00095,0.00362,0.79747,-0.00362,0.00401,-0.17529,-0.00362,-0.0024,-0.0073,0.0415,-0.0073,-0.0073,-0.0073,-0.0073,-0.0205,-0.0479,7.3504,1.6239,-0.1343,-0.0415,-0.0220,1,1,1,1,1,1,1
15.7898,sweep,3,+up,-0.00095,0.00362,0.79747,-0.00362,0.00401,-0.17529,-0.00362,-0.0024,-0.0073,0.0415,-0.0073,-0.0073,-0.0073,-0.0073,-0.0205,-0.0479,7.3504,1.6239,-0.1343,-0.0415,-0.0220,1,1,1,1,1,1,1
15.8298,sweep,3,+up,-0.00095,0.00362,0.79938,-0.00362,0.00401,-0.17491,-0.00362,-0.0024,-0.0024,0.0317,-0.0073,-0.0073,0.0073,-0.0073,-0.0068,-0.0342,7.2137,1.6093,-0.1343,-0.0415,-0.0220,1,1,1,1,1,1,1
16.3322,sweep,3,-down,-0.00095,0.00362,0.80015,-0.00362,0.00401,-0.17491,-0.00324,-0.0024,0.0024,0.0269,-0.0073,-0.0073,-0.0073,-0.0073,-0.0205,-0.0479,7.4462,1.5995,-0.1343,-0.0464,-0.0220,1,1,1,1,1,1,1
16.3729,sweep,3,-down,-0.00095,0.00362,0.80015,-0.00362,0.00401,-0.17491,-0.00324,-0.0024,0.0024,0.0269,-0.0073,-0.0073,-0.0073,-0.0073,-0.0205,-0.0479,7.4462,1.5995,-0.1343,-0.0464,-0.0220,1,1,1,1,1,1,1
16.4130,sweep,3,-down,-0.00095,0.00362,0.80015,-0.00362,0.00401,-0.17491,-0.00324,-0.0024,0.0024,0.0269,-0.0073,-0.0073,-0.0073,-0.0073,-0.0205,-0.0479,7.4462,1.5995,-0.1343,-0.0464,-0.0220,1,1,1,1,1,1,1
16.4525,sweep,3,-down,-0.00095,0.00362,0.79709,-0.00095,0.00439,-0.17529,-0.00324,0.0024,-0.0024,-0.2173,-0.0513,0.0073,-0.0073,-0.0073,-0.0068,-0.0479,3.5487,1.2869,-0.1343,-0.0464,-0.0317,1,1,1,1,1,1,1
16.4923,sweep,3,-down,-0.00095,0.00362,0.79709,-0.00095,0.00439,-0.17529,-0.00324,0.0024,-0.0024,-0.2173,-0.0513,0.0073,-0.0073,-0.0073,-0.0068,-0.0479,3.5487,1.2869,-0.1343,-0.0464,-0.0317,1,1,1,1,1,1,1
16.5327,sweep,3,-down,-0.00095,0.00362,0.77954,-0.00629,0.00401,-0.17529,-0.00324,-0.0024,0.0024,-0.2173,-0.1392,-0.0073,-0.0073,-0.0073,0.0068,-0.0615,5.3538,1.7118,-0.1197,-0.0415,-0.0317,1,1,1,1,1,1,1
16.5724,sweep,3,-down,-0.00095,0.00362,0.77954,-0.00629,0.00401,-0.17529,-0.00324,-0.0024,0.0024,-0.2173,-0.1392,-0.0073,-0.0073,-0.0073,0.0068,-0.0615,5.3538,1.7118,-0.1197,-0.0415,-0.0317,1,1,1,1,1,1,1
16.6126,sweep,3,-down,-0.00095,0.00362,0.77954,-0.00629,0.00401,-0.17529,-0.00324,-0.0024,0.0024,-0.2173,-0.1392,-0.0073,-0.0073,-0.0073,0.0068,-0.0615,5.3538,1.7118,-0.1197,-0.0415,-0.0317,1,1,1,1,1,1,1
16.6524,sweep,3,-down,-0.00095,0.00362,0.75628,-0.00401,0.00439,-0.17529,-0.00324,-0.0024,0.0024,-0.1880,0.0952,-0.0073,-0.0073,-0.0073,-0.0068,-0.0615,4.3009,1.7265,-0.1245,-0.0415,-0.0269,1,1,1,1,1,1,1
16.6923,sweep,3,-down,-0.00095,0.00362,0.75628,-0.00401,0.00439,-0.17529,-0.00324,-0.0024,0.0024,-0.1880,0.0952,-0.0073,-0.0073,-0.0073,-0.0068,-0.0615,4.3009,1.7265,-0.1245,-0.0415,-0.0269,1,1,1,1,1,1,1
16.7323,sweep,3,-down,-0.00095,0.00362,0.74025,-0.00324,0.00401,-0.17529,-0.00362,-0.0024,0.0024,-0.2076,-0.0366,-0.0073,-0.0073,-0.0220,-0.0068,-0.0479,4.6974,1.6435,-0.1197,-0.0415,-0.0317,1,1,1,1,1,1,1
16.7723,sweep,3,-down,-0.00095,0.00362,0.74025,-0.00324,0.00401,-0.17529,-0.00362,-0.0024,0.0024,-0.2076,-0.0366,-0.0073,-0.0073,-0.0220,-0.0068,-0.0479,4.6974,1.6435,-0.1197,-0.0415,-0.0317,1,1,1,1,1,1,1
16.8128,sweep,3,-down,-0.00095,0.00362,0.74025,-0.00324,0.00401,-0.17529,-0.00362,-0.0024,0.0024,-0.2076,-0.0366,-0.0073,-0.0073,-0.0220,-0.0068,-0.0479,4.6974,1.6435,-0.1197,-0.0415,-0.0317,1,1,1,1,1,1,1
16.8528,sweep,3,-down,-0.00095,0.00362,0.72385,-0.00553,0.00439,-0.17491,-0.00362,-0.0024,-0.0024,-0.2125,0.0073,0.0073,0.0073,-0.0220,0.0068,-0.0479,5.3812,1.8779,-0.1197,-0.0415,-0.0317,1,1,1,1,1,1,1
16.8925,sweep,3,-down,-0.00095,0.00362,0.72385,-0.00553,0.00439,-0.17491,-0.00362,-0.0024,-0.0024,-0.2125,0.0073,0.0073,0.0073,-0.0220,0.0068,-0.0479,5.3812,1.8779,-0.1197,-0.0415,-0.0317,1,1,1,1,1,1,1
16.9324,sweep,3,-down,-0.00095,0.00362,0.69982,-0.00362,0.00401,-0.17491,-0.00362,-0.0024,0.0024,-0.2173,-0.0073,-0.0073,-0.0073,-0.0073,-0.0068,-0.0479,5.4222,1.7949,-0.1148,-0.0415,-0.0269,1,1,1,1,1,1,1
16.9724,sweep,3,-down,-0.00095,0.00362,0.69982,-0.00362,0.00401,-0.17491,-0.00362,-0.0024,0.0024,-0.2173,-0.0073,-0.0073,-0.0073,-0.0073,-0.0068,-0.0479,5.4222,1.7949,-0.1148,-0.0415,-0.0269,1,1,1,1,1,1,1
17.0123,sweep,3,-down,-0.00095,0.00362,0.69982,-0.00362,0.00401,-0.17491,-0.00362,-0.0024,0.0024,-0.2173,-0.0073,-0.0073,-0.0073,-0.0073,-0.0068,-0.0479,5.4222,1.7949,-0.1148,-0.0415,-0.0269,1,1,1,1,1,1,1
17.0525,sweep,3,-down,-0.00095,0.00362,0.67578,-0.00477,0.00401,-0.17491,-0.00324,-0.0024,0.0024,-0.1929,-0.0073,-0.0073,0.0073,-0.0073,-0.0205,-0.0479,5.3265,1.9023,-0.1148,-0.0415,-0.0317,1,1,1,1,1,1,1
17.0923,sweep,3,-down,-0.00095,0.00362,0.67578,-0.00477,0.00401,-0.17491,-0.00324,-0.0024,0.0024,-0.1929,-0.0073,-0.0073,0.0073,-0.0073,-0.0205,-0.0479,5.3265,1.9023,-0.1148,-0.0415,-0.0317,1,1,1,1,1,1,1
17.1324,sweep,3,-down,-0.00095,0.00362,0.65976,-0.00401,0.00401,-0.17529,-0.00324,-0.0024,-0.0073,-0.2027,-0.0073,-0.0073,-0.0073,0.0073,-0.0068,-0.0342,5.1624,1.8730,-0.1099,-0.0415,-0.0317,1,1,1,1,1,1,1
17.1722,sweep,3,-down,-0.00095,0.00362,0.65976,-0.00401,0.00401,-0.17529,-0.00324,-0.0024,-0.0073,-0.2027,-0.0073,-0.0073,-0.0073,0.0073,-0.0068,-0.0342,5.1624,1.8730,-0.1099,-0.0415,-0.0317,1,1,1,1,1,1,1
17.2124,sweep,3,-down,-0.00095,0.00362,0.65976,-0.00401,0.00401,-0.17529,-0.00324,-0.0024,-0.0073,-0.2027,-0.0073,-0.0073,-0.0073,0.0073,-0.0068,-0.0342,5.1624,1.8730,-0.1099,-0.0415,-0.0317,1,1,1,1,1,1,1
17.2524,sweep,3,-down,-0.00095,0.00362,0.63535,-0.00401,0.00401,-0.17491,-0.00362,-0.0024,-0.0024,-0.1978,-0.0073,-0.0073,0.0073,-0.0073,-0.0205,-0.0342,5.6684,1.8730,-0.1050,-0.0415,-0.0269,1,1,1,1,1,1,1
17.2926,sweep,3,-down,-0.00095,0.00362,0.63535,-0.00401,0.00401,-0.17491,-0.00362,-0.0024,-0.0024,-0.1978,-0.0073,-0.0073,0.0073,-0.0073,-0.0205,-0.0342,5.6684,1.8730,-0.1050,-0.0415,-0.0269,1,1,1,1,1,1,1
17.3324,sweep,3,-down,-0.00095,0.00362,0.61894,-0.00401,0.00401,-0.17529,-0.00362,-0.0073,-0.0073,-0.2125,0.0073,-0.0073,-0.0073,-0.0220,-0.0342,-0.0479,6.1470,1.9170,-0.1050,-0.0415,-0.0269,1,1,1,1,1,1,1
17.3724,sweep,3,-down,-0.00095,0.00362,0.61894,-0.00401,0.00401,-0.17529,-0.00362,-0.0073,-0.0073,-0.2125,0.0073,-0.0073,-0.0073,-0.0220,-0.0342,-0.0479,6.1470,1.9170,-0.1050,-0.0415,-0.0269,1,1,1,1,1,1,1
17.4124,sweep,3,-down,-0.00095,0.00362,0.61894,-0.00401,0.00401,-0.17529,-0.00362,-0.0073,-0.0073,-0.2125,0.0073,-0.0073,-0.0073,-0.0220,-0.0342,-0.0479,6.1470,1.9170,-0.1050,-0.0415,-0.0269,1,1,1,1,1,1,1
17.4524,sweep,3,-down,-0.00095,0.00362,0.59529,-0.00439,0.00401,-0.17529,-0.00362,-0.0024,-0.0073,-0.2125,-0.0220,-0.0073,-0.0220,-0.0220,-0.0342,-0.0342,5.9966,1.9609,-0.1001,-0.0366,-0.0269,1,1,1,1,1,1,1
17.4923,sweep,3,-down,-0.00095,0.00362,0.59529,-0.00439,0.00401,-0.17529,-0.00362,-0.0024,-0.0073,-0.2125,-0.0220,-0.0073,-0.0220,-0.0220,-0.0342,-0.0342,5.9966,1.9609,-0.1001,-0.0366,-0.0269,1,1,1,1,1,1,1
17.5323,sweep,3,-down,-0.00095,0.00362,0.57965,-0.00439,0.00401,-0.17529,-0.00362,0.0024,-0.0024,-0.2027,-0.0073,-0.0073,-0.0073,-0.0220,-0.0068,-0.0342,5.6547,1.9707,-0.0952,-0.0415,-0.0269,1,1,1,1,1,1,1
17.5725,sweep,3,-down,-0.00095,0.00362,0.57965,-0.00439,0.00401,-0.17529,-0.00362,0.0024,-0.0024,-0.2027,-0.0073,-0.0073,-0.0073,-0.0220,-0.0068,-0.0342,5.6547,1.9707,-0.0952,-0.0415,-0.0269,1,1,1,1,1,1,1
17.6123,sweep,3,-down,-0.00095,0.00362,0.57965,-0.00439,0.00401,-0.17529,-0.00362,0.0024,-0.0024,-0.2027,-0.0073,-0.0073,-0.0073,-0.0220,-0.0068,-0.0342,5.6547,1.9707,-0.0952,-0.0415,-0.0269,1,1,1,1,1,1,1
17.6524,sweep,3,-down,-0.00095,0.00362,0.55486,-0.00439,0.00401,-0.17491,-0.00362,-0.0024,-0.0024,-0.2125,0.0220,-0.0073,-0.0073,0.0073,-0.0068,-0.0479,6.3521,1.9951,-0.0904,-0.0415,-0.0269,1,1,1,1,1,1,1
17.6926,sweep,3,-down,-0.00095,0.00362,0.55486,-0.00439,0.00401,-0.17491,-0.00362,-0.0024,-0.0024,-0.2125,0.0220,-0.0073,-0.0073,0.0073,-0.0068,-0.0479,6.3521,1.9951,-0.0904,-0.0415,-0.0269,1,1,1,1,1,1,1
17.7325,sweep,3,-down,-0.00095,0.00362,0.53883,-0.00439,0.00401,-0.17529,-0.00324,-0.0024,-0.0024,-0.2027,-0.0073,-0.0073,-0.0073,0.0073,0.0068,-0.0615,6.3521,2.0244,-0.0904,-0.0464,-0.0269,1,1,1,1,1,1,1
17.7724,sweep,3,-down,-0.00095,0.00362,0.53883,-0.00439,0.00401,-0.17529,-0.00324,-0.0024,-0.0024,-0.2027,-0.0073,-0.0073,-0.0073,0.0073,0.0068,-0.0615,6.3521,2.0244,-0.0904,-0.0464,-0.0269,1,1,1,1,1,1,1
17.8125,sweep,3,-down,-0.00095,0.00362,0.53883,-0.00439,0.00401,-0.17529,-0.00324,-0.0024,-0.0024,-0.2027,-0.0073,-0.0073,-0.0073,0.0073,0.0068,-0.0615,6.3521,2.0244,-0.0904,-0.0464,-0.0269,1,1,1,1,1,1,1
17.8525,sweep,3,-down,-0.00095,0.00362,0.51518,-0.00439,0.00401,-0.17529,-0.00362,0.0024,-0.0024,-0.2027,-0.0073,-0.0220,-0.0073,-0.0073,0.0068,-0.0615,6.2974,2.0537,-0.0855,-0.0464,-0.0269,1,1,1,1,1,1,1
17.8923,sweep,3,-down,-0.00095,0.00362,0.51518,-0.00439,0.00401,-0.17529,-0.00362,0.0024,-0.0024,-0.2027,-0.0073,-0.0220,-0.0073,-0.0073,0.0068,-0.0615,6.2974,2.0537,-0.0855,-0.0464,-0.0269,1,1,1,1,1,1,1
17.9323,sweep,3,-down,-0.00095,0.00362,0.49916,-0.00439,0.00401,-0.17529,-0.00362,-0.0024,-0.0073,-0.2125,-0.0220,0.0073,-0.0073,-0.0220,-0.0068,-0.0342,6.2427,2.0830,-0.0806,-0.0464,-0.0269,1,1,1,1,1,1,1
17.9725,sweep,3,-down,-0.00095,0.00362,0.49916,-0.00439,0.00401,-0.17529,-0.00362,-0.0024,-0.0073,-0.2125,-0.0220,0.0073,-0.0073,-0.0220,-0.0068,-0.0342,6.2427,2.0830,-0.0806,-0.0464,-0.0269,1,1,1,1,1,1,1
18.0124,sweep,3,-down,-0.00095,0.00362,0.49916,-0.00439,0.00401,-0.17529,-0.00362,-0.0024,-0.0073,-0.2125,-0.0220,0.0073,-0.0073,-0.0220,-0.0068,-0.0342,6.2427,2.0830,-0.0806,-0.0464,-0.0269,1,1,1,1,1,1,1
18.0527,sweep,3,-down,-0.00095,0.00362,0.47475,-0.00439,0.00401,-0.17529,-0.00362,-0.0073,-0.0024,-0.2076,-0.0073,-0.0220,-0.0073,-0.0220,0.0068,-0.0342,6.8718,2.1123,-0.0757,-0.0464,-0.0269,1,1,1,1,1,1,1
18.0927,sweep,3,-down,-0.00095,0.00362,0.47475,-0.00439,0.00401,-0.17529,-0.00362,-0.0073,-0.0024,-0.2076,-0.0073,-0.0220,-0.0073,-0.0220,0.0068,-0.0342,6.8718,2.1123,-0.0757,-0.0464,-0.0269,1,1,1,1,1,1,1
18.1323,sweep,3,-down,-0.00095,0.00362,0.45872,-0.00439,0.00401,-0.17529,-0.00324,-0.0073,-0.0073,-0.2125,-0.0073,-0.0073,-0.0073,0.0073,0.0068,-0.0479,6.8171,2.1416,-0.0757,-0.0464,-0.0269,1,1,1,1,1,1,1
18.1725,sweep,3,-down,-0.00095,0.00362,0.45872,-0.00439,0.00401,-0.17529,-0.00324,-0.0073,-0.0073,-0.2125,-0.0073,-0.0073,-0.0073,0.0073,0.0068,-0.0479,6.8171,2.1416,-0.0757,-0.0464,-0.0269,1,1,1,1,1,1,1
18.2123,sweep,3,-down,-0.00095,0.00362,0.45872,-0.00439,0.00401,-0.17529,-0.00324,-0.0073,-0.0073,-0.2125,-0.0073,-0.0073,-0.0073,0.0073,0.0068,-0.0479,6.8171,2.1416,-0.0757,-0.0464,-0.0269,1,1,1,1,1,1,1
18.2523,sweep,3,-down,-0.00095,0.00401,0.43507,-0.00439,0.00401,-0.17529,-0.00362,-0.0024,-0.0073,-0.1929,-0.0220,-0.0073,-0.0073,-0.0073,-0.0068,-0.0479,6.2974,2.1709,-0.0708,-0.0464,-0.0269,1,1,1,1,1,1,1
18.2924,sweep,3,-down,-0.00095,0.00401,0.43507,-0.00439,0.00401,-0.17529,-0.00362,-0.0024,-0.0073,-0.1929,-0.0220,-0.0073,-0.0073,-0.0073,-0.0068,-0.0479,6.2974,2.1709,-0.0708,-0.0464,-0.0269,1,1,1,1,1,1,1
18.3323,sweep,3,-down,-0.00095,0.00401,0.41867,-0.00401,0.00401,-0.17529,-0.00362,-0.0024,-0.0073,-0.2076,-0.0073,0.0073,-0.0073,-0.0073,-0.0205,-0.0342,6.7761,2.1709,-0.0708,-0.0464,-0.0269,1,1,1,1,1,1,1
18.3723,sweep,3,-down,-0.00095,0.00401,0.41867,-0.00401,0.00401,-0.17529,-0.00362,-0.0024,-0.0073,-0.2076,-0.0073,0.0073,-0.0073,-0.0073,-0.0205,-0.0342,6.7761,2.1709,-0.0708,-0.0464,-0.0269,1,1,1,1,1,1,1
18.4124,sweep,3,-down,-0.00095,0.00401,0.41867,-0.00401,0.00401,-0.17529,-0.00362,-0.0024,-0.0073,-0.2076,-0.0073,0.0073,-0.0073,-0.0073,-0.0205,-0.0342,6.7761,2.1709,-0.0708,-0.0464,-0.0269,1,1,1,1,1,1,1
18.4523,sweep,3,-down,-0.00095,0.00401,0.39425,-0.00439,0.00401,-0.17529,-0.00362,0.0024,-0.0024,-0.2027,-0.0073,-0.0220,-0.0220,-0.0073,-0.0068,-0.0615,7.1316,2.2002,-0.0708,-0.0464,-0.0220,1,1,1,1,1,1,1
18.4924,sweep,3,-down,-0.00095,0.00401,0.39425,-0.00439,0.00401,-0.17529,-0.00362,0.0024,-0.0024,-0.2027,-0.0073,-0.0220,-0.0220,-0.0073,-0.0068,-0.0615,7.1316,2.2002,-0.0708,-0.0464,-0.0220,1,1,1,1,1,1,1
18.5323,sweep,3,-down,-0.00095,0.00401,0.37861,-0.00439,0.00401,-0.17529,-0.00362,-0.0024,-0.0024,-0.2173,-0.0073,-0.0073,-0.0073,0.0073,0.0205,-0.0479,6.9675,2.2051,-0.0659,-0.0415,-0.0220,1,1,1,1,1,1,1
18.5725,sweep,3,-down,-0.00095,0.00401,0.37861,-0.00439,0.00401,-0.17529,-0.00362,-0.0024,-0.0024,-0.2173,-0.0073,-0.0073,-0.0073,0.0073,0.0205,-0.0479,6.9675,2.2051,-0.0659,-0.0415,-0.0220,1,1,1,1,1,1,1
18.6124,sweep,3,-down,-0.00095,0.00401,0.37861,-0.00439,0.00401,-0.17529,-0.00362,-0.0024,-0.0024,-0.2173,-0.0073,-0.0073,-0.0073,0.0073,0.0205,-0.0479,6.9675,2.2051,-0.0659,-0.0415,-0.0220,1,1,1,1,1,1,1
18.6524,sweep,3,-down,-0.00095,0.00401,0.35458,-0.00401,0.00401,-0.17529,-0.00324,0.0024,-0.0024,-0.1978,-0.0220,-0.0073,-0.0073,-0.0073,0.0205,-0.0615,6.7214,2.2247,-0.0611,-0.0415,-0.0220,1,1,1,1,1,1,1
18.6924,sweep,3,-down,-0.00095,0.00401,0.35458,-0.00401,0.00401,-0.17529,-0.00324,0.0024,-0.0024,-0.1978,-0.0220,-0.0073,-0.0073,-0.0073,0.0205,-0.0615,6.7214,2.2247,-0.0611,-0.0415,-0.0220,1,1,1,1,1,1,1
18.7324,sweep,3,-down,-0.00095,0.00401,0.33856,-0.00401,0.00401,-0.17529,-0.00362,-0.0024,-0.0073,-0.1978,0.0073,-0.0073,-0.0073,-0.0073,-0.0068,-0.0615,7.0359,2.2295,-0.0611,-0.0366,-0.0171,1,1,1,1,1,1,1
18.7724,sweep,3,-down,-0.00095,0.00401,0.33856,-0.00401,0.00401,-0.17529,-0.00362,-0.0024,-0.0073,-0.1978,0.0073,-0.0073,-0.0073,-0.0073,-0.0068,-0.0615,7.0359,2.2295,-0.0611,-0.0366,-0.0171,1,1,1,1,1,1,1
18.8124,sweep,3,-down,-0.00095,0.00401,0.33856,-0.00401,0.00401,-0.17529,-0.00362,-0.0024,-0.0073,-0.1978,0.0073,-0.0073,-0.0073,-0.0073,-0.0068,-0.0615,7.0359,2.2295,-0.0611,-0.0366,-0.0171,1,1,1,1,1,1,1
18.8525,sweep,3,-down,-0.00095,0.00401,0.31415,-0.00439,0.00401,-0.17529,-0.00362,-0.0024,-0.0024,-0.2027,-0.0220,-0.0073,0.0073,-0.0073,-0.0068,-0.0479,7.3368,2.2589,-0.0611,-0.0415,-0.0171,1,1,1,1,1,1,1
18.8924,sweep,3,-down,-0.00095,0.00401,0.31415,-0.00439,0.00401,-0.17529,-0.00362,-0.0024,-0.0024,-0.2027,-0.0220,-0.0073,0.0073,-0.0073,-0.0068,-0.0479,7.3368,2.2589,-0.0611,-0.0415,-0.0171,1,1,1,1,1,1,1
18.9324,sweep,3,-down,-0.00095,0.00401,0.29812,-0.00439,0.00401,-0.17529,-0.00324,-0.0024,0.0024,-0.1929,-0.0220,-0.0073,-0.0073,0.0073,-0.0205,-0.0205,7.2000,2.2833,-0.0611,-0.0366,-0.0171,1,1,1,1,1,1,1
18.9723,sweep,3,-down,-0.00095,0.00401,0.29812,-0.00439,0.00401,-0.17529,-0.00324,-0.0024,0.0024,-0.1929,-0.0220,-0.0073,-0.0073,0.0073,-0.0205,-0.0205,7.2000,2.2833,-0.0611,-0.0366,-0.0171,1,1,1,1,1,1,1
19.0124,sweep,3,-down,-0.00095,0.00401,0.29812,-0.00439,0.00401,-0.17529,-0.00324,-0.0024,0.0024,-0.1929,-0.0220,-0.0073,-0.0073,0.0073,-0.0205,-0.0205,7.2000,2.2833,-0.0611,-0.0366,-0.0171,1,1,1,1,1,1,1
19.0523,sweep,3,-down,-0.00095,0.00401,0.27409,-0.00401,0.00401,-0.17529,-0.00324,-0.0024,-0.0024,-0.2125,-0.0073,0.0073,-0.0073,-0.0073,-0.0205,-0.0479,7.1863,2.2784,-0.0611,-0.0317,-0.0171,1,1,1,1,1,1,1
19.0923,sweep,3,-down,-0.00095,0.00401,0.27409,-0.00401,0.00401,-0.17529,-0.00324,-0.0024,-0.0024,-0.2125,-0.0073,0.0073,-0.0073,-0.0073,-0.0205,-0.0479,7.1863,2.2784,-0.0611,-0.0317,-0.0171,1,1,1,1,1,1,1
19.1323,sweep,3,-down,-0.00095,0.00401,0.25807,-0.00401,0.00401,-0.17529,-0.00362,-0.0073,-0.0024,-0.1880,-0.0073,-0.0073,-0.0073,-0.0220,-0.0068,-0.0479,7.7060,2.3028,-0.0611,-0.0317,-0.0220,1,1,1,1,1,1,1
19.1724,sweep,3,-down,-0.00095,0.00401,0.25807,-0.00401,0.00401,-0.17529,-0.00362,-0.0073,-0.0024,-0.1880,-0.0073,-0.0073,-0.0073,-0.0220,-0.0068,-0.0479,7.7060,2.3028,-0.0611,-0.0317,-0.0220,1,1,1,1,1,1,1
19.2124,sweep,3,-down,-0.00095,0.00401,0.25807,-0.00401,0.00401,-0.17529,-0.00362,-0.0073,-0.0024,-0.1880,-0.0073,-0.0073,-0.0073,-0.0220,-0.0068,-0.0479,7.7060,2.3028,-0.0611,-0.0317,-0.0220,1,1,1,1,1,1,1
19.2523,sweep,3,-down,-0.00134,0.00401,0.23747,-0.00439,0.00401,-0.17529,-0.00324,-0.0024,-0.0024,-0.1490,-0.0073,0.0073,0.0073,0.0073,-0.0068,-0.0205,7.6239,2.3419,-0.0562,-0.0317,-0.0220,1,1,1,1,1,1,1
19.2924,sweep,3,-down,-0.00134,0.00401,0.23747,-0.00439,0.00401,-0.17529,-0.00324,-0.0024,-0.0024,-0.1490,-0.0073,0.0073,0.0073,0.0073,-0.0068,-0.0205,7.6239,2.3419,-0.0562,-0.0317,-0.0220,1,1,1,1,1,1,1
19.3325,sweep,3,-down,-0.00095,0.00401,0.22526,-0.00401,0.00401,-0.17529,-0.00362,-0.0024,-0.0024,-0.1392,-0.0366,-0.0073,-0.0073,-0.0073,0.0068,-0.0479,7.6376,2.3321,-0.0562,-0.0317,-0.0220,1,1,1,1,1,1,1
19.3725,sweep,3,-down,-0.00095,0.00401,0.22526,-0.00401,0.00401,-0.17529,-0.00362,-0.0024,-0.0024,-0.1392,-0.0366,-0.0073,-0.0073,-0.0073,0.0068,-0.0479,7.6376,2.3321,-0.0562,-0.0317,-0.0220,1,1,1,1,1,1,1
19.4123,sweep,3,-down,-0.00095,0.00401,0.22526,-0.00401,0.00401,-0.17529,-0.00362,-0.0024,-0.0024,-0.1392,-0.0366,-0.0073,-0.0073,-0.0073,0.0068,-0.0479,7.6376,2.3321,-0.0562,-0.0317,-0.0220,1,1,1,1,1,1,1
19.4524,sweep,3,-down,-0.00095,0.00401,0.20962,-0.00401,0.00401,-0.17529,-0.00362,-0.0073,-0.0073,-0.1148,-0.0073,0.0073,-0.0073,-0.0073,0.0205,-0.0615,7.3368,2.3419,-0.0513,-0.0317,-0.0171,1,1,1,1,1,1,1
19.4924,sweep,3,-down,-0.00095,0.00401,0.20962,-0.00401,0.00401,-0.17529,-0.00362,-0.0073,-0.0073,-0.1148,-0.0073,0.0073,-0.0073,-0.0073,0.0205,-0.0615,7.3368,2.3419,-0.0513,-0.0317,-0.0171,1,1,1,1,1,1,1
19.5325,sweep,3,-down,-0.00095,0.00401,0.20047,-0.00401,0.00401,-0.17529,-0.00362,-0.0024,-0.0024,-0.1148,0.0073,-0.0073,-0.0073,0.0073,0.0068,-0.0342,7.2684,2.3468,-0.0464,-0.0317,-0.0171,1,1,1,1,1,1,1
19.5723,sweep,3,-down,-0.00095,0.00401,0.20047,-0.00401,0.00401,-0.17529,-0.00362,-0.0024,-0.0024,-0.1148,0.0073,-0.0073,-0.0073,0.0073,0.0068,-0.0342,7.2684,2.3468,-0.0464,-0.0317,-0.0171,1,1,1,1,1,1,1
19.6121,sweep,3,-down,-0.00095,0.00401,0.20047,-0.00401,0.00401,-0.17529,-0.00362,-0.0024,-0.0024,-0.1148,0.0073,-0.0073,-0.0073,0.0073,0.0068,-0.0342,7.2684,2.3468,-0.0464,-0.0317,-0.0171,1,1,1,1,1,1,1
19.6523,sweep,3,-down,-0.00095,0.00401,0.18826,-0.00401,0.00401,-0.17529,-0.00324,0.0024,-0.0024,-0.0904,-0.0073,-0.0220,-0.0073,0.0073,0.0068,-0.0479,7.4598,2.3712,-0.0464,-0.0269,-0.0122,1,1,1,1,1,1,1
19.6924,sweep,3,-down,-0.00095,0.00401,0.18826,-0.00401,0.00401,-0.17529,-0.00324,0.0024,-0.0024,-0.0904,-0.0073,-0.0220,-0.0073,0.0073,0.0068,-0.0479,7.4598,2.3712,-0.0464,-0.0269,-0.0122,1,1,1,1,1,1,1
19.7323,sweep,3,-down,-0.00095,0.00401,0.18063,-0.00401,0.00401,-0.17529,-0.00324,-0.0024,-0.0073,-0.1099,-0.0220,-0.0073,-0.0073,-0.0073,-0.0068,-0.0752,8.0479,2.3761,-0.0464,-0.0220,-0.0122,1,1,1,1,1,1,1
19.7724,sweep,3,-down,-0.00095,0.00401,0.18063,-0.00401,0.00401,-0.17529,-0.00324,-0.0024,-0.0073,-0.1099,-0.0220,-0.0073,-0.0073,-0.0073,-0.0068,-0.0752,8.0479,2.3761,-0.0464,-0.0220,-0.0122,1,1,1,1,1,1,1
19.8121,sweep,3,-down,-0.00095,0.00401,0.18063,-0.00401,0.00401,-0.17529,-0.00324,-0.0024,-0.0073,-0.1099,-0.0220,-0.0073,-0.0073,-0.0073,-0.0068,-0.0752,8.0479,2.3761,-0.0464,-0.0220,-0.0122,1,1,1,1,1,1,1
19.8523,sweep,3,-down,-0.00095,0.00401,0.17185,-0.00401,0.00401,-0.17529,-0.00324,-0.0024,-0.0024,-0.0659,-0.0073,-0.0073,-0.0073,-0.0073,-0.0205,-0.0615,7.7197,2.3907,-0.0415,-0.0171,-0.0171,1,1,1,1,1,1,1
19.8923,sweep,3,-down,-0.00095,0.00401,0.17185,-0.00401,0.00401,-0.17529,-0.00324,-0.0024,-0.0024,-0.0659,-0.0073,-0.0073,-0.0073,-0.0073,-0.0205,-0.0615,7.7197,2.3907,-0.0415,-0.0171,-0.0171,1,1,1,1,1,1,1
19.9325,sweep,3,-down,-0.00095,0.00401,0.16651,-0.00401,0.00401,-0.17529,-0.00362,-0.0073,0.0024,-0.0611,-0.0220,-0.0220,-0.0073,0.0073,0.0068,-0.0615,7.5829,2.3712,-0.0415,-0.0122,-0.0171,1,1,1,1,1,1,1
19.9722,sweep,3,-down,-0.00095,0.00401,0.16651,-0.00401,0.00401,-0.17529,-0.00362,-0.0073,0.0024,-0.0611,-0.0220,-0.0220,-0.0073,0.0073,0.0068,-0.0615,7.5829,2.3712,-0.0415,-0.0122,-0.0171,1,1,1,1,1,1,1
20.0123,sweep,3,-down,-0.00095,0.00401,0.16651,-0.00401,0.00401,-0.17529,-0.00362,-0.0073,0.0024,-0.0611,-0.0220,-0.0220,-0.0073,0.0073,0.0068,-0.0615,7.5829,2.3712,-0.0415,-0.0122,-0.0171,1,1,1,1,1,1,1
20.0523,sweep,3,-down,-0.00095,0.00401,0.15965,-0.00401,0.00401,-0.17529,-0.00362,-0.0024,-0.0024,-0.0415,0.0073,-0.0073,-0.0073,-0.0220,0.0068,-0.0889,7.7470,2.3858,-0.0415,-0.0024,-0.0122,1,1,1,1,1,1,1
20.0924,sweep,3,-down,-0.00095,0.00401,0.15965,-0.00401,0.00401,-0.17529,-0.00362,-0.0024,-0.0024,-0.0415,0.0073,-0.0073,-0.0073,-0.0220,0.0068,-0.0889,7.7470,2.3858,-0.0415,-0.0024,-0.0122,1,1,1,1,1,1,1
20.1324,sweep,3,-down,-0.00095,0.00401,0.15392,-0.00401,0.00439,-0.17529,-0.00324,0.0024,-0.0024,-0.0317,-0.0366,0.0073,-0.0073,-0.0073,0.0068,-0.0889,7.2274,2.3858,-0.0415,-0.0024,-0.0122,1,1,1,1,1,1,1
20.1725,sweep,3,-down,-0.00095,0.00401,0.15392,-0.00401,0.00439,-0.17529,-0.00324,0.0024,-0.0024,-0.0317,-0.0366,0.0073,-0.0073,-0.0073,0.0068,-0.0889,7.2274,2.3858,-0.0415,-0.0024,-0.0122,1,1,1,1,1,1,1
20.2123,sweep,3,-down,-0.00095,0.00401,0.15392,-0.00401,0.00439,-0.17529,-0.00324,0.0024,-0.0024,-0.0317,-0.0366,0.0073,-0.0073,-0.0073,0.0068,-0.0889,7.2274,2.3858,-0.0415,-0.0024,-0.0122,1,1,1,1,1,1,1
20.2524,sweep,3,-down,-0.00095,0.00401,0.15011,-0.00362,0.00401,-0.17529,-0.00324,-0.0073,-0.0024,-0.0366,-0.0073,0.0073,-0.0073,-0.0073,0.0068,-0.1026,7.7197,2.3468,-0.0415,0.0073,-0.0122,1,1,1,1,1,1,1
20.2923,sweep,3,-down,-0.00095,0.00401,0.15011,-0.00362,0.00401,-0.17529,-0.00324,-0.0073,-0.0024,-0.0366,-0.0073,0.0073,-0.0073,-0.0073,0.0068,-0.1026,7.7197,2.3468,-0.0415,0.0073,-0.0122,1,1,1,1,1,1,1
20.3323,sweep,3,-down,-0.00134,0.00401,0.14515,-0.00362,0.00401,-0.17529,-0.00362,-0.0073,-0.0024,-0.0464,-0.0073,-0.0073,-0.0073,-0.0220,0.0068,-0.1026,7.8838,2.3516,-0.0415,0.0073,-0.0122,1,1,1,1,1,1,1
20.3724,sweep,3,-down,-0.00134,0.00401,0.14515,-0.00362,0.00401,-0.17529,-0.00362,-0.0073,-0.0024,-0.0464,-0.0073,-0.0073,-0.0073,-0.0220,0.0068,-0.1026,7.8838,2.3516,-0.0415,0.0073,-0.0122,1,1,1,1,1,1,1
20.4124,sweep,3,-down,-0.00134,0.00401,0.14515,-0.00362,0.00401,-0.17529,-0.00362,-0.0073,-0.0024,-0.0464,-0.0073,-0.0073,-0.0073,-0.0220,0.0068,-0.1026,7.8838,2.3516,-0.0415,0.0073,-0.0122,1,1,1,1,1,1,1
20.4524,sweep,3,-down,-0.00095,0.00401,0.14286,-0.00362,0.00401,-0.17529,-0.00324,-0.0073,-0.0024,-0.0220,-0.0073,-0.0220,-0.0073,0.0073,-0.0068,-0.0752,7.5419,2.3419,-0.0415,0.0073,-0.0073,1,1,1,1,1,1,1
20.4926,sweep,3,-down,-0.00095,0.00401,0.14286,-0.00362,0.00401,-0.17529,-0.00324,-0.0073,-0.0024,-0.0220,-0.0073,-0.0220,-0.0073,0.0073,-0.0068,-0.0752,7.5419,2.3419,-0.0415,0.0073,-0.0073,1,1,1,1,1,1,1
20.5322,sweep,3,-down,-0.00095,0.00401,0.13981,-0.00362,0.00401,-0.17529,-0.00362,-0.0073,0.0024,-0.0269,0.0073,-0.0073,-0.0073,-0.0073,-0.0068,-0.0889,7.2547,2.3321,-0.0415,0.0073,-0.0122,1,1,1,1,1,1,1
21.0345,approach,3,return,-0.00095,0.00401,0.13943,-0.00362,0.00401,-0.17529,-0.00324,-0.0024,-0.0073,-0.0269,-0.0073,0.0073,-0.0073,-0.0073,-0.0068,-0.0889,7.2547,2.3321,-0.0415,0.0073,-0.0122,1,1,1,1,1,1,1
21.0746,approach,3,return,-0.00095,0.00401,0.13943,-0.00362,0.00401,-0.17529,-0.00324,-0.0024,-0.0073,-0.0269,-0.0073,0.0073,-0.0073,-0.0073,-0.0068,-0.0889,7.2547,2.3321,-0.0415,0.0073,-0.0122,1,1,1,1,1,1,1
21.1148,approach,3,return,-0.00095,0.00401,0.13943,-0.00362,0.00401,-0.17529,-0.00324,-0.0024,-0.0073,-0.0269,-0.0073,0.0073,-0.0073,-0.0073,-0.0068,-0.0889,7.2547,2.3321,-0.0415,0.0073,-0.0122,1,1,1,1,1,1,1
21.1547,approach,3,return,-0.00095,0.00401,0.11883,-0.00286,0.00439,-0.17529,-0.00324,-0.0024,-0.0024,-0.1734,-0.0513,-0.0073,-0.0073,-0.0073,0.0068,-0.1026,7.4462,2.1856,-0.0415,0.0122,-0.0171,1,1,1,1,1,1,1
21.1948,approach,3,return,-0.00095,0.00401,0.11883,-0.00286,0.00439,-0.17529,-0.00324,-0.0024,-0.0024,-0.1734,-0.0513,-0.0073,-0.0073,-0.0073,0.0068,-0.1026,7.4462,2.1856,-0.0415,0.0122,-0.0171,1,1,1,1,1,1,1
21.2346,approach,3,return,-0.00095,0.00401,0.10777,-0.00477,0.00439,-0.17529,-0.00324,-0.0024,-0.0024,-0.1197,-0.0220,-0.0073,-0.0073,0.0073,-0.0068,-0.1436,8.0342,2.3321,-0.0366,0.0122,-0.0171,1,1,1,1,1,1,1
21.2746,approach,3,return,-0.00095,0.00401,0.10777,-0.00477,0.00439,-0.17529,-0.00324,-0.0024,-0.0024,-0.1197,-0.0220,-0.0073,-0.0073,0.0073,-0.0068,-0.1436,8.0342,2.3321,-0.0366,0.0122,-0.0171,1,1,1,1,1,1,1
21.3148,approach,3,return,-0.00095,0.00401,0.10777,-0.00477,0.00439,-0.17529,-0.00324,-0.0024,-0.0024,-0.1197,-0.0220,-0.0073,-0.0073,0.0073,-0.0068,-0.1436,8.0342,2.3321,-0.0366,0.0122,-0.0171,1,1,1,1,1,1,1
21.3546,approach,3,return,-0.00095,0.00401,0.09442,-0.00439,0.00401,-0.17529,-0.00324,-0.0073,-0.0024,-0.1099,-0.0073,-0.0073,-0.0073,-0.0073,-0.0068,-0.1026,7.9521,2.3468,-0.0366,0.0073,-0.0122,1,1,1,1,1,1,1
21.3945,approach,3,return,-0.00095,0.00401,0.09442,-0.00439,0.00401,-0.17529,-0.00324,-0.0073,-0.0024,-0.1099,-0.0073,-0.0073,-0.0073,-0.0073,-0.0068,-0.1026,7.9521,2.3468,-0.0366,0.0073,-0.0122,1,1,1,1,1,1,1
21.4347,approach,3,return,-0.00095,0.00401,0.08679,-0.00401,0.00401,-0.17529,-0.00324,0.0024,-0.0024,-0.0904,0.0073,-0.0220,0.0073,-0.0073,0.0068,-0.1026,7.7607,2.3761,-0.0366,0.0122,-0.0122,1,1,1,1,1,1,1
21.4747,approach,3,return,-0.00095,0.00401,0.08679,-0.00401,0.00401,-0.17529,-0.00324,0.0024,-0.0024,-0.0904,0.0073,-0.0220,0.0073,-0.0073,0.0068,-0.1026,7.7607,2.3761,-0.0366,0.0122,-0.0122,1,1,1,1,1,1,1
21.5147,approach,3,return,-0.00095,0.00401,0.08679,-0.00401,0.00401,-0.17529,-0.00324,0.0024,-0.0024,-0.0904,0.0073,-0.0220,0.0073,-0.0073,0.0068,-0.1026,7.7607,2.3761,-0.0366,0.0122,-0.0122,1,1,1,1,1,1,1
21.5548,approach,3,return,-0.00095,0.00401,0.07687,-0.00362,0.00401,-0.17529,-0.00324,-0.0024,0.0024,-0.0562,0.0513,-0.0073,-0.0073,-0.0073,-0.0068,-0.0615,7.0906,2.3419,-0.0269,0.0122,-0.0122,1,1,1,1,1,1,1
21.5948,approach,3,return,-0.00095,0.00401,0.07687,-0.00362,0.00401,-0.17529,-0.00324,-0.0024,0.0024,-0.0562,0.0513,-0.0073,-0.0073,-0.0073,-0.0068,-0.0615,7.0906,2.3419,-0.0269,0.0122,-0.0122,1,1,1,1,1,1,1
21.6346,approach,3,return,-0.00095,0.00401,0.07191,0.00248,0.00286,-0.17529,-0.00324,-0.0024,-0.0024,-0.0513,0.0952,-0.0073,-0.0073,-0.0073,-0.0068,-0.0479,5.6137,1.7607,0.0122,0.0122,-0.0122,1,1,1,1,1,1,1
21.6748,approach,3,return,-0.00095,0.00401,0.07191,0.00248,0.00286,-0.17529,-0.00324,-0.0024,-0.0024,-0.0513,0.0952,-0.0073,-0.0073,-0.0073,-0.0068,-0.0479,5.6137,1.7607,0.0122,0.0122,-0.0122,1,1,1,1,1,1,1
21.7147,approach,3,return,-0.00095,0.00401,0.07191,0.00248,0.00286,-0.17529,-0.00324,-0.0024,-0.0024,-0.0513,0.0952,-0.0073,-0.0073,-0.0073,-0.0068,-0.0479,5.6137,1.7607,0.0122,0.0122,-0.0122,1,1,1,1,1,1,1
21.7548,approach,3,return,-0.00095,0.00401,0.06504,0.00591,0.00057,-0.17529,-0.00362,-0.0024,-0.0024,-0.0659,0.0220,-0.0220,-0.0220,-0.0073,-0.0205,-0.1026,3.2752,1.0574,0.1636,0.0073,-0.0122,1,1,1,1,1,1,1
21.7948,approach,3,return,-0.00095,0.00401,0.06504,0.00591,0.00057,-0.17529,-0.00362,-0.0024,-0.0024,-0.0659,0.0220,-0.0220,-0.0220,-0.0073,-0.0205,-0.1026,3.2752,1.0574,0.1636,0.0073,-0.0122,1,1,1,1,1,1,1
21.8345,approach,3,return,-0.00095,0.00401,0.06123,0.00706,0.00057,-0.17529,-0.00324,-0.0024,-0.0024,-0.0708,0.0073,-0.0073,0.0073,-0.0073,-0.0615,-0.1026,1.9761,0.6325,0.2808,0.0073,-0.0122,1,1,1,1,1,1,1
