peipl15/reBot_Arm/outputs/gravity_calib_20260621_230416.csv
t_s,phase,swept_joint,direction,q1,q2,q3,q4,q5,q6,q7,v1,v2,v3,v4,v5,v6,v7,tau1,tau2,tau3,tau4,tau5,tau6,tau7,st1,st2,st3,st4,st5,st6,st7
0.0026,approach,2,to_lo,-0.00591,0.00744,0.01698,1.58255,0.08640,0.01125,-0.00324,-0.0024,-0.0024,-0.0024,0.0073,-0.0220,-0.0073,-0.0073,0.0068,-0.1026,-0.0205,-0.0122,-0.0122,-0.0024,-0.0073,1,1,1,1,1,1,1
0.0427,approach,2,to_lo,-0.00591,0.00629,0.01698,1.59171,0.07954,0.01125,-0.00324,-0.0024,-0.0024,-0.0073,-0.0073,-0.0073,-0.0073,-0.0073,-0.0205,0.6222,0.0068,0.1636,-0.1050,-0.0122,-0.0073,1,1,1,1,1,1,1
0.0828,approach,2,to_lo,-0.00591,0.00629,0.01698,1.59171,0.07954,0.01125,-0.00324,-0.0024,-0.0024,-0.0073,-0.0073,-0.0073,-0.0073,-0.0073,-0.0205,0.6222,0.0068,0.1636,-0.1050,-0.0122,-0.0073,1,1,1,1,1,1,1
0.1227,approach,2,to_lo,-0.00591,0.01545,0.01698,1.58942,0.07992,0.01125,-0.00324,-0.0024,0.1148,0.0024,-0.0806,0.0073,0.0073,0.0073,-0.0479,3.4256,-0.0068,-0.0659,-0.0317,-0.0122,-0.0073,1,1,1,1,1,1,1
0.1624,approach,2,to_lo,-0.00591,0.01545,0.01698,1.58942,0.07992,0.01125,-0.00324,-0.0024,0.1148,0.0024,-0.0806,0.0073,0.0073,0.0073,-0.0479,3.4256,-0.0068,-0.0659,-0.0317,-0.0122,-0.0073,1,1,1,1,1,1,1
0.2025,approach,2,to_lo,-0.00591,0.01545,0.01698,1.58942,0.07992,0.01125,-0.00324,-0.0024,0.1148,0.0024,-0.0806,0.0073,0.0073,0.0073,-0.0479,3.4256,-0.0068,-0.0659,-0.0317,-0.0122,-0.0073,1,1,1,1,1,1,1
0.2425,approach,2,to_lo,-0.00591,0.02804,0.01698,1.58255,0.08221,0.01125,-0.00324,-0.0024,0.1343,-0.0024,-0.0513,0.0073,-0.0073,-0.0073,-0.0479,7.8564,-0.0205,-0.2076,-0.0024,-0.0122,-0.0073,1,1,1,1,1,1,1
0.2824,approach,2,to_lo,-0.00591,0.02804,0.01698,1.58255,0.08221,0.01125,-0.00324,-0.0024,0.1343,-0.0024,-0.0513,0.0073,-0.0073,-0.0073,-0.0479,7.8564,-0.0205,-0.2076,-0.0024,-0.0122,-0.0073,1,1,1,1,1,1,1
0.3223,approach,2,to_lo,-0.00591,0.03719,0.01698,1.58064,0.08450,0.01125,-0.00324,-0.0024,0.1294,-0.0024,-0.0220,0.0220,0.0073,-0.0073,-0.0479,8.2120,-0.0342,-0.4176,-0.0220,-0.0171,-0.0073,1,1,1,1,1,1,1
0.3624,approach,2,to_lo,-0.00591,0.03719,0.01698,1.58064,0.08450,0.01125,-0.00324,-0.0024,0.1294,-0.0024,-0.0220,0.0220,0.0073,-0.0073,-0.0479,8.2120,-0.0342,-0.4176,-0.0220,-0.0171,-0.0073,1,1,1,1,1,1,1
0.4025,approach,2,to_lo,-0.00591,0.03719,0.01698,1.58064,0.08450,0.01125,-0.00324,-0.0024,0.1294,-0.0024,-0.0220,0.0220,0.0073,-0.0073,-0.0479,8.2120,-0.0342,-0.4176,-0.0220,-0.0171,-0.0073,1,1,1,1,1,1,1
0.4427,approach,2,to_lo,-0.00591,0.05093,0.01698,1.57340,0.08602,0.01125,-0.00324,-0.0024,0.0757,0.0024,-0.0806,-0.0073,-0.0073,-0.0073,-0.0479,6.0923,-0.0342,-0.2222,-0.0464,-0.0220,-0.0073,1,1,1,1,1,1,1
0.4831,approach,2,to_lo,-0.00591,0.05093,0.01698,1.57340,0.08602,0.01125,-0.00324,-0.0024,0.0757,0.0024,-0.0806,-0.0073,-0.0073,-0.0073,-0.0479,6.0923,-0.0342,-0.2222,-0.0464,-0.0220,-0.0073,1,1,1,1,1,1,1
0.5225,approach,2,to_lo,-0.00591,0.05856,0.01698,1.57225,0.08602,0.01125,-0.00324,-0.0024,0.0806,-0.0024,-0.0073,-0.0220,0.0073,-0.0073,-0.0479,5.4085,-0.0479,-0.2125,-0.0464,-0.0220,-0.0122,1,1,1,1,1,1,1
0.5623,approach,2,to_lo,-0.00591,0.05856,0.01698,1.57225,0.08602,0.01125,-0.00324,-0.0024,0.0806,-0.0024,-0.0073,-0.0220,0.0073,-0.0073,-0.0479,5.4085,-0.0479,-0.2125,-0.0464,-0.0220,-0.0122,1,1,1,1,1,1,1
0.6027,approach,2,to_lo,-0.00591,0.05856,0.01698,1.57225,0.08602,0.01125,-0.00324,-0.0024,0.0806,-0.0024,-0.0073,-0.0220,0.0073,-0.0073,-0.0479,5.4085,-0.0479,-0.2125,-0.0464,-0.0220,-0.0122,1,1,1,1,1,1,1
0.6425,approach,2,to_lo,-0.00591,0.06771,0.01698,1.57225,0.08602,0.01125,-0.00324,-0.0024,0.0562,-0.0024,-0.0073,-0.0073,-0.0073,-0.0073,-0.0479,5.7915,-0.0479,-0.2759,-0.0415,-0.0269,-0.0073,1,1,1,1,1,1,1
0.6827,approach,2,to_lo,-0.00591,0.06771,0.01698,1.57225,0.08602,0.01125,-0.00324,-0.0024,0.0562,-0.0024,-0.0073,-0.0073,-0.0073,-0.0073,-0.0479,5.7915,-0.0479,-0.2759,-0.0415,-0.0269,-0.0073,1,1,1,1,1,1,1
0.7225,approach,2,to_lo,-0.00591,0.07305,0.01698,1.57187,0.08602,0.01125,-0.00324,-0.0024,0.0659,-0.0024,-0.0220,0.0073,-0.0073,0.0073,-0.0615,5.3675,-0.0615,-0.2955,-0.0366,-0.0269,-0.0073,1,1,1,1,1,1,1
0.7625,approach,2,to_lo,-0.00591,0.07305,0.01698,1.57187,0.08602,0.01125,-0.00324,-0.0024,0.0659,-0.0024,-0.0220,0.0073,-0.0073,0.0073,-0.0615,5.3675,-0.0615,-0.2955,-0.0366,-0.0269,-0.0073,1,1,1,1,1,1,1
0.8025,approach,2,to_lo,-0.00591,0.07305,0.01698,1.57187,0.08602,0.01125,-0.00324,-0.0024,0.0659,-0.0024,-0.0220,0.0073,-0.0073,0.0073,-0.0615,5.3675,-0.0615,-0.2955,-0.0366,-0.0269,-0.0073,1,1,1,1,1,1,1
0.8425,approach,2,to_lo,-0.00591,0.08030,0.01698,1.57149,0.08602,0.01125,-0.00324,-0.0024,0.0708,-0.0024,-0.0073,0.0073,-0.0220,-0.0073,-0.0479,5.5179,-0.0752,-0.3150,-0.0366,-0.0220,-0.0073,1,1,1,1,1,1,1
0.8827,approach,2,to_lo,-0.00591,0.08030,0.01698,1.57149,0.08602,0.01125,-0.00324,-0.0024,0.0708,-0.0024,-0.0073,0.0073,-0.0220,-0.0073,-0.0479,5.5179,-0.0752,-0.3150,-0.0366,-0.0220,-0.0073,1,1,1,1,1,1,1
0.9225,approach,2,to_lo,-0.00591,0.08412,0.01698,1.57073,0.08602,0.01125,-0.00324,-0.0073,0.0611,-0.0024,-0.0366,-0.0073,0.0073,-0.0073,-0.0615,5.8051,-0.0889,-0.2759,-0.0366,-0.0269,-0.0073,1,1,1,1,1,1,1
0.9624,approach,2,to_lo,-0.00591,0.08412,0.01698,1.57073,0.08602,0.01125,-0.00324,-0.0073,0.0611,-0.0024,-0.0366,-0.0073,0.0073,-0.0073,-0.0615,5.8051,-0.0889,-0.2759,-0.0366,-0.0269,-0.0073,1,1,1,1,1,1,1
1.0026,approach,2,to_lo,-0.00591,0.08412,0.01698,1.57073,0.08602,0.01125,-0.00324,-0.0073,0.0611,-0.0024,-0.0366,-0.0073,0.0073,-0.0073,-0.0615,5.8051,-0.0889,-0.2759,-0.0366,-0.0269,-0.0073,1,1,1,1,1,1,1
1.0427,approach,2,to_lo,-0.00591,0.08946,0.01698,1.56920,0.08602,0.01125,-0.00324,-0.0024,0.0415,0.0024,-0.0366,-0.0073,-0.0073,-0.0073,-0.0752,5.6684,-0.1026,-0.1636,-0.0317,-0.0269,-0.0122,1,1,1,1,1,1,1
1.0828,approach,2,to_lo,-0.00591,0.08946,0.01698,1.56920,0.08602,0.01125,-0.00324,-0.0024,0.0415,0.0024,-0.0366,-0.0073,-0.0073,-0.0073,-0.0752,5.6684,-0.1026,-0.1636,-0.0317,-0.0269,-0.0122,1,1,1,1,1,1,1
1.1227,approach,2,to_lo,-0.00591,0.09289,0.01698,1.56920,0.08602,0.01125,-0.00324,-0.0024,0.0513,-0.0024,-0.0220,-0.0073,-0.0073,0.0073,-0.0752,5.2444,-0.1162,-0.1294,-0.0269,-0.0317,-0.0122,1,1,1,1,1,1,1
1.1626,approach,2,to_lo,-0.00591,0.09289,0.01698,1.56920,0.08602,0.01125,-0.00324,-0.0024,0.0513,-0.0024,-0.0220,-0.0073,-0.0073,0.0073,-0.0752,5.2444,-0.1162,-0.1294,-0.0269,-0.0317,-0.0122,1,1,1,1,1,1,1
1.2028,approach,2,to_lo,-0.00591,0.09289,0.01698,1.56920,0.08602,0.01125,-0.00324,-0.0024,0.0513,-0.0024,-0.0220,-0.0073,-0.0073,0.0073,-0.0752,5.2444,-0.1162,-0.1294,-0.0269,-0.0317,-0.0122,1,1,1,1,1,1,1
1.2426,approach,2,to_lo,-0.00591,0.09670,0.01698,1.56920,0.08602,0.01125,-0.00324,-0.0024,0.0269,-0.0024,-0.0073,-0.0073,-0.0073,-0.0073,-0.0889,5.9145,-0.1162,-0.0952,-0.0269,-0.0317,-0.0122,1,1,1,1,1,1,1
1.2827,approach,2,to_lo,-0.00591,0.09670,0.01698,1.56920,0.08602,0.01125,-0.00324,-0.0024,0.0269,-0.0024,-0.0073,-0.0073,-0.0073,-0.0073,-0.0889,5.9145,-0.1162,-0.0952,-0.0269,-0.0317,-0.0122,1,1,1,1,1,1,1
1.3231,approach,2,to_lo,-0.00591,0.09937,0.01698,1.56958,0.08602,0.01125,-0.00324,0.0024,0.0269,-0.0024,-0.0073,-0.0073,-0.0073,-0.0073,-0.0889,5.3538,-0.1162,-0.0806,-0.0269,-0.0317,-0.0122,1,1,1,1,1,1,1
1.3624,approach,2,to_lo,-0.00591,0.09937,0.01698,1.56958,0.08602,0.01125,-0.00324,0.0024,0.0269,-0.0024,-0.0073,-0.0073,-0.0073,-0.0073,-0.0889,5.3538,-0.1162,-0.0806,-0.0269,-0.0317,-0.0122,1,1,1,1,1,1,1
1.4025,approach,2,to_lo,-0.00591,0.09937,0.01698,1.56958,0.08602,0.01125,-0.00324,0.0024,0.0269,-0.0024,-0.0073,-0.0073,-0.0073,-0.0073,-0.0889,5.3538,-0.1162,-0.0806,-0.0269,-0.0317,-0.0122,1,1,1,1,1,1,1
1.4430,approach,2,to_lo,-0.00591,0.10205,0.01698,1.56996,0.08602,0.01125,-0.00324,0.0024,0.0366,-0.0024,-0.0073,-0.0220,-0.0220,0.0073,-0.0889,5.7915,-0.1162,-0.0757,-0.0269,-0.0366,-0.0122,1,1,1,1,1,1,1
1.9455,sweep,2,+up,-0.00591,0.10319,0.01698,1.56996,0.08602,0.01125,-0.00324,-0.0024,0.0122,-0.0024,-0.0073,-0.0073,0.0073,-0.0073,-0.1026,5.7368,-0.1299,-0.0708,-0.0269,-0.0366,-0.0171,1,1,1,1,1,1,1
1.9855,sweep,2,+up,-0.00591,0.10319,0.01698,1.56996,0.08602,0.01125,-0.00324,-0.0024,0.0122,-0.0024,-0.0073,-0.0073,0.0073,-0.0073,-0.1026,5.7368,-0.1299,-0.0708,-0.0269,-0.0366,-0.0171,1,1,1,1,1,1,1
2.0256,sweep,2,+up,-0.00591,0.11730,0.01698,1.57301,0.08640,0.01087,-0.00324,-0.0024,0.1832,-0.0073,0.1392,-0.0073,-0.0073,-0.0073,-0.1436,6.7897,-0.1709,-0.2564,-0.0366,-0.0366,-0.0122,1,1,1,1,1,1,1
2.0658,sweep,2,+up,-0.00591,0.11730,0.01698,1.57301,0.08640,0.01087,-0.00324,-0.0024,0.1832,-0.0073,0.1392,-0.0073,-0.0073,-0.0073,-0.1436,6.7897,-0.1709,-0.2564,-0.0366,-0.0366,-0.0122,1,1,1,1,1,1,1
2.1057,sweep,2,+up,-0.00591,0.11730,0.01698,1.57301,0.08640,0.01087,-0.00324,-0.0024,0.1832,-0.0073,0.1392,-0.0073,-0.0073,-0.0073,-0.1436,6.7897,-0.1709,-0.2564,-0.0366,-0.0366,-0.0122,1,1,1,1,1,1,1
2.1457,sweep,2,+up,-0.00591,0.14286,0.01698,1.57111,0.08640,0.01087,-0.00324,-0.0024,0.1832,-0.0024,-0.0659,-0.0220,-0.0073,-0.0073,-0.1573,4.9573,-0.1709,-0.1734,-0.0366,-0.0366,-0.0122,1,1,1,1,1,1,1
2.1857,sweep,2,+up,-0.00591,0.14286,0.01698,1.57111,0.08640,0.01087,-0.00324,-0.0024,0.1832,-0.0024,-0.0659,-0.0220,-0.0073,-0.0073,-0.1573,4.9573,-0.1709,-0.1734,-0.0366,-0.0366,-0.0122,1,1,1,1,1,1,1
2.2255,sweep,2,+up,-0.00591,0.15889,0.01698,1.56882,0.08640,0.01087,-0.00324,-0.0024,0.2173,-0.0024,-0.0073,-0.0073,-0.0073,-0.0073,-0.1573,4.9709,-0.1846,-0.0415,-0.0317,-0.0366,-0.0171,1,1,1,1,1,1,1
2.2655,sweep,2,+up,-0.00591,0.15889,0.01698,1.56882,0.08640,0.01087,-0.00324,-0.0024,0.2173,-0.0024,-0.0073,-0.0073,-0.0073,-0.0073,-0.1573,4.9709,-0.1846,-0.0415,-0.0317,-0.0366,-0.0171,1,1,1,1,1,1,1
2.3057,sweep,2,+up,-0.00591,0.15889,0.01698,1.56882,0.08640,0.01087,-0.00324,-0.0024,0.2173,-0.0024,-0.0073,-0.0073,-0.0073,-0.0073,-0.1573,4.9709,-0.1846,-0.0415,-0.0317,-0.0366,-0.0171,1,1,1,1,1,1,1
2.3458,sweep,2,+up,-0.00591,0.18254,0.01698,1.56882,0.08640,0.01087,-0.00324,0.0024,0.1685,-0.0024,-0.0073,-0.0220,-0.0073,-0.0073,-0.1573,5.3538,-0.1983,0.0024,-0.0366,-0.0366,-0.0171,1,1,1,1,1,1,1
2.3857,sweep,2,+up,-0.00591,0.18254,0.01698,1.56882,0.08640,0.01087,-0.00324,0.0024,0.1685,-0.0024,-0.0073,-0.0220,-0.0073,-0.0073,-0.1573,5.3538,-0.1983,0.0024,-0.0366,-0.0366,-0.0171,1,1,1,1,1,1,1
2.4258,sweep,2,+up,-0.00591,0.19894,0.01698,1.56844,0.08640,0.01125,-0.00324,-0.0024,0.2076,-0.0024,-0.0073,-0.0073,-0.0073,-0.0073,-0.1709,4.8205,-0.1983,0.0366,-0.0415,-0.0366,-0.0171,1,1,1,1,1,1,1
2.4660,sweep,2,+up,-0.00591,0.19894,0.01698,1.56844,0.08640,0.01125,-0.00324,-0.0024,0.2076,-0.0024,-0.0073,-0.0073,-0.0073,-0.0073,-0.1709,4.8205,-0.1983,0.0366,-0.0415,-0.0366,-0.0171,1,1,1,1,1,1,1
2.5057,sweep,2,+up,-0.00591,0.19894,0.01698,1.56844,0.08640,0.01125,-0.00324,-0.0024,0.2076,-0.0024,-0.0073,-0.0073,-0.0073,-0.0073,-0.1709,4.8205,-0.1983,0.0366,-0.0415,-0.0366,-0.0171,1,1,1,1,1,1,1
2.5457,sweep,2,+up,-0.00591,0.22335,0.01698,1.56653,0.08602,0.01087,-0.00324,-0.0024,0.2125,-0.0024,-0.0659,-0.0366,-0.0220,-0.0073,-0.1709,4.5744,-0.2120,0.2125,-0.0366,-0.0415,-0.0171,1,1,1,1,1,1,1
2.5860,sweep,2,+up,-0.00591,0.22335,0.01698,1.56653,0.08602,0.01087,-0.00324,-0.0024,0.2125,-0.0024,-0.0659,-0.0366,-0.0220,-0.0073,-0.1709,4.5744,-0.2120,0.2125,-0.0366,-0.0415,-0.0171,1,1,1,1,1,1,1
2.6257,sweep,2,+up,-0.00591,0.23976,0.01698,1.56577,0.08640,0.01087,-0.00324,-0.0073,0.2027,-0.0024,0.0073,-0.0073,-0.0366,-0.0073,-0.1709,4.1778,-0.2256,0.4322,-0.0366,-0.0415,-0.0171,1,1,1,1,1,1,1
2.6660,sweep,2,+up,-0.00591,0.23976,0.01698,1.56577,0.08640,0.01087,-0.00324,-0.0073,0.2027,-0.0024,0.0073,-0.0073,-0.0366,-0.0073,-0.1709,4.1778,-0.2256,0.4322,-0.0366,-0.0415,-0.0171,1,1,1,1,1,1,1
2.7056,sweep,2,+up,-0.00591,0.23976,0.01698,1.56577,0.08640,0.01087,-0.00324,-0.0073,0.2027,-0.0024,0.0073,-0.0073,-0.0366,-0.0073,-0.1709,4.1778,-0.2256,0.4322,-0.0366,-0.0415,-0.0171,1,1,1,1,1,1,1
2.7457,sweep,2,+up,-0.00591,0.26341,0.01698,1.56806,0.08640,0.01087,-0.00324,0.0024,0.2125,-0.0024,-0.0073,-0.0073,-0.0073,-0.0073,-0.1983,4.3145,-0.2120,0.4176,-0.0415,-0.0415,-0.0171,1,1,1,1,1,1,1
2.7859,sweep,2,+up,-0.00591,0.26341,0.01698,1.56806,0.08640,0.01087,-0.00324,0.0024,0.2125,-0.0024,-0.0073,-0.0073,-0.0073,-0.0073,-0.1983,4.3145,-0.2120,0.4176,-0.0415,-0.0415,-0.0171,1,1,1,1,1,1,1
2.8257,sweep,2,+up,-0.00591,0.27943,0.01698,1.56844,0.08640,0.01087,-0.00362,-0.0024,0.1783,-0.0024,-0.0073,-0.0220,0.0073,-0.0073,-0.2120,4.4103,-0.2256,0.4469,-0.0415,-0.0415,-0.0220,1,1,1,1,1,1,1
2.8663,sweep,2,+up,-0.00591,0.27943,0.01698,1.56844,0.08640,0.01087,-0.00362,-0.0024,0.1783,-0.0024,-0.0073,-0.0220,0.0073,-0.0073,-0.2120,4.4103,-0.2256,0.4469,-0.0415,-0.0415,-0.0220,1,1,1,1,1,1,1
2.9059,sweep,2,+up,-0.00591,0.27943,0.01698,1.56844,0.08640,0.01087,-0.00362,-0.0024,0.1783,-0.0024,-0.0073,-0.0220,0.0073,-0.0073,-0.2120,4.4103,-0.2256,0.4469,-0.0415,-0.0415,-0.0220,1,1,1,1,1,1,1
2.9455,sweep,2,+up,-0.00591,0.30385,0.01698,1.56882,0.08640,0.01125,-0.00324,-0.0024,0.2173,0.0024,-0.0220,-0.0073,-0.0073,-0.0073,-0.2120,3.8496,-0.2393,0.5348,-0.0415,-0.0415,-0.0171,1,1,1,1,1,1,1
2.9855,sweep,2,+up,-0.00591,0.30385,0.01698,1.56882,0.08640,0.01125,-0.00324,-0.0024,0.2173,0.0024,-0.0220,-0.0073,-0.0073,-0.0073,-0.2120,3.8496,-0.2393,0.5348,-0.0415,-0.0415,-0.0171,1,1,1,1,1,1,1
3.0257,sweep,2,+up,-0.00591,0.31949,0.01698,1.56882,0.08640,0.01125,-0.00324,-0.0024,0.1783,-0.0024,0.0073,-0.0073,0.0073,-0.0073,-0.2120,4.0137,-0.2530,0.5836,-0.0415,-0.0415,-0.0171,1,1,1,1,1,1,1
3.0655,sweep,2,+up,-0.00591,0.31949,0.01698,1.56882,0.08640,0.01125,-0.00324,-0.0024,0.1783,-0.0024,0.0073,-0.0073,0.0073,-0.0073,-0.2120,4.0137,-0.2530,0.5836,-0.0415,-0.0415,-0.0171,1,1,1,1,1,1,1
3.1055,sweep,2,+up,-0.00591,0.31949,0.01698,1.56882,0.08640,0.01125,-0.00324,-0.0024,0.1783,-0.0024,0.0073,-0.0073,0.0073,-0.0073,-0.2120,4.0137,-0.2530,0.5836,-0.0415,-0.0415,-0.0171,1,1,1,1,1,1,1
3.1460,sweep,2,+up,-0.00591,0.34390,0.01698,1.56920,0.08640,0.01087,-0.00324,-0.0024,0.1929,-0.0024,-0.0073,0.0073,-0.0220,-0.0073,-0.2393,3.6855,-0.2393,0.6374,-0.0415,-0.0366,-0.0171,1,1,1,1,1,1,1
3.1861,sweep,2,+up,-0.00591,0.34390,0.01698,1.56920,0.08640,0.01087,-0.00324,-0.0024,0.1929,-0.0024,-0.0073,0.0073,-0.0220,-0.0073,-0.2393,3.6855,-0.2393,0.6374,-0.0415,-0.0366,-0.0171,1,1,1,1,1,1,1
3.2256,sweep,2,+up,-0.00591,0.35992,0.01698,1.56920,0.08640,0.01125,-0.00324,-0.0024,0.1978,0.0024,-0.0220,-0.0073,-0.0220,-0.0073,-0.2393,3.6991,-0.2393,0.6813,-0.0464,-0.0415,-0.0220,1,1,1,1,1,1,1
3.2653,sweep,2,+up,-0.00591,0.35992,0.01698,1.56920,0.08640,0.01125,-0.00324,-0.0024,0.1978,0.0024,-0.0220,-0.0073,-0.0220,-0.0073,-0.2393,3.6991,-0.2393,0.6813,-0.0464,-0.0415,-0.0220,1,1,1,1,1,1,1
3.3059,sweep,2,+up,-0.00591,0.35992,0.01698,1.56920,0.08640,0.01125,-0.00324,-0.0024,0.1978,0.0024,-0.0220,-0.0073,-0.0220,-0.0073,-0.2393,3.6991,-0.2393,0.6813,-0.0464,-0.0415,-0.0220,1,1,1,1,1,1,1
3.3455,sweep,2,+up,-0.00591,0.38396,0.01698,1.56920,0.08640,0.01087,-0.00324,0.0024,0.1880,-0.0024,0.0073,-0.0073,-0.0073,0.0073,-0.2393,3.4530,-0.2530,0.7497,-0.0464,-0.0415,-0.0220,1,1,1,1,1,1,1
3.3857,sweep,2,+up,-0.00591,0.38396,0.01698,1.56920,0.08640,0.01087,-0.00324,0.0024,0.1880,-0.0024,0.0073,-0.0073,-0.0073,0.0073,-0.2393,3.4530,-0.2530,0.7497,-0.0464,-0.0415,-0.0220,1,1,1,1,1,1,1
3.4261,sweep,2,+up,-0.00591,0.39998,0.01698,1.56958,0.08640,0.01125,-0.00324,-0.0024,0.1978,-0.0024,-0.0073,-0.0073,0.0073,-0.0073,-0.2530,3.5487,-0.2667,0.7692,-0.0464,-0.0366,-0.0269,1,1,1,1,1,1,1
3.4661,sweep,2,+up,-0.00591,0.39998,0.01698,1.56958,0.08640,0.01125,-0.00324,-0.0024,0.1978,-0.0024,-0.0073,-0.0073,0.0073,-0.0073,-0.2530,3.5487,-0.2667,0.7692,-0.0464,-0.0366,-0.0269,1,1,1,1,1,1,1
3.5058,sweep,2,+up,-0.00591,0.39998,0.01698,1.56958,0.08640,0.01125,-0.00324,-0.0024,0.1978,-0.0024,-0.0073,-0.0073,0.0073,-0.0073,-0.2530,3.5487,-0.2667,0.7692,-0.0464,-0.0366,-0.0269,1,1,1,1,1,1,1
3.5454,sweep,2,+up,-0.00591,0.42401,0.01698,1.56958,0.08640,0.01125,-0.00362,-0.0073,0.1685,-0.0024,-0.0220,-0.0220,-0.0220,-0.0073,-0.2530,3.5487,-0.2667,0.8034,-0.0513,-0.0415,-0.0220,1,1,1,1,1,1,1
3.5858,sweep,2,+up,-0.00591,0.42401,0.01698,1.56958,0.08640,0.01125,-0.00362,-0.0073,0.1685,-0.0024,-0.0220,-0.0220,-0.0220,-0.0073,-0.2530,3.5487,-0.2667,0.8034,-0.0513,-0.0415,-0.0220,1,1,1,1,1,1,1
3.6255,sweep,2,+up,-0.00591,0.44041,0.01698,1.56958,0.08640,0.01087,-0.00324,-0.0073,0.2320,-0.0024,-0.0073,-0.0073,-0.0073,-0.0073,-0.2393,3.1248,-0.2803,0.8425,-0.0513,-0.0415,-0.0269,1,1,1,1,1,1,1
3.6661,sweep,2,+up,-0.00591,0.44041,0.01698,1.56958,0.08640,0.01087,-0.00324,-0.0073,0.2320,-0.0024,-0.0073,-0.0073,-0.0073,-0.0073,-0.2393,3.1248,-0.2803,0.8425,-0.0513,-0.0415,-0.0269,1,1,1,1,1,1,1
3.7061,sweep,2,+up,-0.00591,0.44041,0.01698,1.56958,0.08640,0.01087,-0.00324,-0.0073,0.2320,-0.0024,-0.0073,-0.0073,-0.0073,-0.0073,-0.2393,3.1248,-0.2803,0.8425,-0.0513,-0.0415,-0.0269,1,1,1,1,1,1,1
3.7457,sweep,2,+up,-0.00591,0.46445,0.01698,1.56958,0.08640,0.01125,-0.00324,-0.0024,0.2076,-0.0024,-0.0073,-0.0073,-0.0073,-0.0073,-0.2530,3.1521,-0.3077,0.9060,-0.0513,-0.0415,-0.0220,1,1,1,1,1,1,1
3.7858,sweep,2,+up,-0.00591,0.46445,0.01698,1.56958,0.08640,0.01125,-0.00324,-0.0024,0.2076,-0.0024,-0.0073,-0.0073,-0.0073,-0.0073,-0.2530,3.1521,-0.3077,0.9060,-0.0513,-0.0415,-0.0220,1,1,1,1,1,1,1
3.8258,sweep,2,+up,-0.00591,0.48047,0.01698,1.56958,0.08640,0.01125,-0.00324,-0.0024,0.2173,-0.0024,0.0073,-0.0073,-0.0073,-0.0073,-0.2530,2.9470,-0.3077,0.9353,-0.0562,-0.0415,-0.0269,1,1,1,1,1,1,1
3.8658,sweep,2,+up,-0.00591,0.48047,0.01698,1.56958,0.08640,0.01125,-0.00324,-0.0024,0.2173,-0.0024,0.0073,-0.0073,-0.0073,-0.0073,-0.2530,2.9470,-0.3077,0.9353,-0.0562,-0.0415,-0.0269,1,1,1,1,1,1,1
3.9056,sweep,2,+up,-0.00591,0.48047,0.01698,1.56958,0.08640,0.01125,-0.00324,-0.0024,0.2173,-0.0024,0.0073,-0.0073,-0.0073,-0.0073,-0.2530,2.9470,-0.3077,0.9353,-0.0562,-0.0415,-0.0269,1,1,1,1,1,1,1
3.9455,sweep,2,+up,-0.00591,0.50450,0.01698,1.56958,0.08640,0.01125,-0.00362,-0.0024,0.1929,-0.0024,0.0073,0.0073,-0.0073,-0.0073,-0.2667,2.9197,-0.3077,0.9890,-0.0513,-0.0415,-0.0269,1,1,1,1,1,1,1
3.9855,sweep,2,+up,-0.00591,0.50450,0.01698,1.56958,0.08640,0.01125,-0.00362,-0.0024,0.1929,-0.0024,0.0073,0.0073,-0.0073,-0.0073,-0.2667,2.9197,-0.3077,0.9890,-0.0513,-0.0415,-0.0269,1,1,1,1,1,1,1
4.0254,sweep,2,+up,-0.00591,0.52090,0.01698,1.56958,0.08640,0.01125,-0.00324,-0.0073,0.2027,-0.0073,-0.0073,-0.0073,-0.0073,-0.0073,-0.2803,2.4547,-0.3350,1.0330,-0.0464,-0.0415,-0.0269,1,1,1,1,1,1,1
4.0656,sweep,2,+up,-0.00591,0.52090,0.01698,1.56958,0.08640,0.01125,-0.00324,-0.0073,0.2027,-0.0073,-0.0073,-0.0073,-0.0073,-0.0073,-0.2803,2.4547,-0.3350,1.0330,-0.0464,-0.0415,-0.0269,1,1,1,1,1,1,1
4.1059,sweep,2,+up,-0.00591,0.52090,0.01698,1.56958,0.08640,0.01125,-0.00324,-0.0073,0.2027,-0.0073,-0.0073,-0.0073,-0.0073,-0.0073,-0.2803,2.4547,-0.3350,1.0330,-0.0464,-0.0415,-0.0269,1,1,1,1,1,1,1
4.1455,sweep,2,+up,-0.00591,0.54494,0.01698,1.56958,0.08640,0.01125,-0.00324,-0.0024,0.2173,-0.0024,-0.0220,-0.0073,-0.0220,0.0220,-0.2803,2.3727,-0.3214,1.0476,-0.0513,-0.0415,-0.0317,1,1,1,1,1,1,1
4.1853,sweep,2,+up,-0.00591,0.54494,0.01698,1.56958,0.08640,0.01125,-0.00324,-0.0024,0.2173,-0.0024,-0.0220,-0.0073,-0.0220,0.0220,-0.2803,2.3727,-0.3214,1.0476,-0.0513,-0.0415,-0.0317,1,1,1,1,1,1,1
4.2257,sweep,2,+up,-0.00591,0.56096,0.01698,1.56958,0.08640,0.01125,-0.00362,0.0024,0.1929,-0.0024,-0.0073,0.0073,0.0073,-0.0073,-0.2803,2.3316,-0.3350,1.1306,-0.0562,-0.0415,-0.0269,1,1,1,1,1,1,1
4.2655,sweep,2,+up,-0.00591,0.56096,0.01698,1.56958,0.08640,0.01125,-0.00362,0.0024,0.1929,-0.0024,-0.0073,0.0073,0.0073,-0.0073,-0.2803,2.3316,-0.3350,1.1306,-0.0562,-0.0415,-0.0269,1,1,1,1,1,1,1
4.3055,sweep,2,+up,-0.00591,0.56096,0.01698,1.56958,0.08640,0.01125,-0.00362,0.0024,0.1929,-0.0024,-0.0073,0.0073,0.0073,-0.0073,-0.2803,2.3316,-0.3350,1.1306,-0.0562,-0.0415,-0.0269,1,1,1,1,1,1,1
4.3456,sweep,2,+up,-0.00591,0.58537,0.01698,1.56958,0.08640,0.01125,-0.00362,-0.0024,0.2125,-0.0024,-0.0073,-0.0073,-0.0073,-0.0073,-0.2667,1.9897,-0.3487,1.1941,-0.0562,-0.0464,-0.0269,1,1,1,1,1,1,1
4.3856,sweep,2,+up,-0.00591,0.58537,0.01698,1.56958,0.08640,0.01125,-0.00362,-0.0024,0.2125,-0.0024,-0.0073,-0.0073,-0.0073,-0.0073,-0.2667,1.9897,-0.3487,1.1941,-0.0562,-0.0464,-0.0269,1,1,1,1,1,1,1
4.4255,sweep,2,+up,-0.00591,0.60102,0.01698,1.56958,0.08640,0.01087,-0.00324,-0.0024,0.1832,-0.0024,-0.0073,-0.0073,-0.0073,-0.0073,-0.2530,2.0991,-0.3624,1.2381,-0.0513,-0.0464,-0.0317,1,1,1,1,1,1,1
4.4655,sweep,2,+up,-0.00591,0.60102,0.01698,1.56958,0.08640,0.01087,-0.00324,-0.0024,0.1832,-0.0024,-0.0073,-0.0073,-0.0073,-0.0073,-0.2530,2.0991,-0.3624,1.2381,-0.0513,-0.0464,-0.0317,1,1,1,1,1,1,1
4.5056,sweep,2,+up,-0.00591,0.60102,0.01698,1.56958,0.08640,0.01087,-0.00324,-0.0024,0.1832,-0.0024,-0.0073,-0.0073,-0.0073,-0.0073,-0.2530,2.0991,-0.3624,1.2381,-0.0513,-0.0464,-0.0317,1,1,1,1,1,1,1
4.5458,sweep,2,+up,-0.00629,0.62543,0.01698,1.56958,0.08640,0.01087,-0.00362,-0.0073,0.1929,0.0024,-0.0073,0.0073,-0.0073,-0.0073,-0.2803,1.9077,-0.3487,1.2723,-0.0513,-0.0513,-0.0269,1,1,1,1,1,1,1
4.5858,sweep,2,+up,-0.00629,0.62543,0.01698,1.56958,0.08640,0.01087,-0.00362,-0.0073,0.1929,0.0024,-0.0073,0.0073,-0.0073,-0.0073,-0.2803,1.9077,-0.3487,1.2723,-0.0513,-0.0513,-0.0269,1,1,1,1,1,1,1
4.6258,sweep,2,+up,-0.00629,0.64145,0.01698,1.56958,0.08640,0.01125,-0.00324,-0.0073,0.1929,0.0024,-0.0220,0.0073,0.0073,0.0073,-0.2530,1.9897,-0.3761,1.3065,-0.0513,-0.0513,-0.0317,1,1,1,1,1,1,1
4.6657,sweep,2,+up,-0.00629,0.64145,0.01698,1.56958,0.08640,0.01125,-0.00324,-0.0073,0.1929,0.0024,-0.0220,0.0073,0.0073,0.0073,-0.2530,1.9897,-0.3761,1.3065,-0.0513,-0.0513,-0.0317,1,1,1,1,1,1,1
4.7055,sweep,2,+up,-0.00629,0.64145,0.01698,1.56958,0.08640,0.01125,-0.00324,-0.0073,0.1929,0.0024,-0.0220,0.0073,0.0073,0.0073,-0.2530,1.9897,-0.3761,1.3065,-0.0513,-0.0513,-0.0317,1,1,1,1,1,1,1
4.7457,sweep,2,+up,-0.00591,0.66548,0.01698,1.56958,0.08640,0.01125,-0.00362,0.0024,0.1783,0.0024,-0.0073,-0.0220,-0.0073,-0.0073,-0.2530,1.5795,-0.3761,1.3602,-0.0513,-0.0513,-0.0269,1,1,1,1,1,1,1
4.7859,sweep,2,+up,-0.00591,0.66548,0.01698,1.56958,0.08640,0.01125,-0.00362,0.0024,0.1783,0.0024,-0.0073,-0.0220,-0.0073,-0.0073,-0.2530,1.5795,-0.3761,1.3602,-0.0513,-0.0513,-0.0269,1,1,1,1,1,1,1
4.8261,sweep,2,+up,-0.00591,0.68036,0.01698,1.56958,0.08640,0.01125,-0.00362,-0.0024,0.1734,-0.0024,-0.0073,-0.0073,0.0073,-0.0073,-0.2667,1.5111,-0.3897,1.3944,-0.0513,-0.0513,-0.0269,1,1,1,1,1,1,1
4.8655,sweep,2,+up,-0.00591,0.68036,0.01698,1.56958,0.08640,0.01125,-0.00362,-0.0024,0.1734,-0.0024,-0.0073,-0.0073,0.0073,-0.0073,-0.2667,1.5111,-0.3897,1.3944,-0.0513,-0.0513,-0.0269,1,1,1,1,1,1,1
4.9056,sweep,2,+up,-0.00591,0.68036,0.01698,1.56958,0.08640,0.01125,-0.00362,-0.0024,0.1734,-0.0024,-0.0073,-0.0073,0.0073,-0.0073,-0.2667,1.5111,-0.3897,1.3944,-0.0513,-0.0513,-0.0269,1,1,1,1,1,1,1
4.9453,sweep,2,+up,-0.00591,0.69944,0.01698,1.56958,0.08640,0.01125,-0.00362,-0.0024,0.1441,0.0024,-0.0073,-0.0073,-0.0073,-0.0220,-0.2667,1.3880,-0.4034,1.4481,-0.0513,-0.0513,-0.0317,1,1,1,1,1,1,1
4.9858,sweep,2,+up,-0.00591,0.69944,0.01698,1.56958,0.08640,0.01125,-0.00362,-0.0024,0.1441,0.0024,-0.0073,-0.0073,-0.0073,-0.0220,-0.2667,1.3880,-0.4034,1.4481,-0.0513,-0.0513,-0.0317,1,1,1,1,1,1,1
5.0257,sweep,2,+up,-0.00629,0.71088,0.01698,1.56958,0.08640,0.01125,-0.00362,-0.0024,0.1343,-0.0024,-0.0220,-0.0073,-0.0073,-0.0220,-0.2803,1.1692,-0.3897,1.4823,-0.0562,-0.0513,-0.0269,1,1,1,1,1,1,1
5.0658,sweep,2,+up,-0.00629,0.71088,0.01698,1.56958,0.08640,0.01125,-0.00362,-0.0024,0.1343,-0.0024,-0.0220,-0.0073,-0.0073,-0.0220,-0.2803,1.1692,-0.3897,1.4823,-0.0562,-0.0513,-0.0269,1,1,1,1,1,1,1
5.1063,sweep,2,+up,-0.00629,0.71088,0.01698,1.56958,0.08640,0.01125,-0.00362,-0.0024,0.1343,-0.0024,-0.0220,-0.0073,-0.0073,-0.0220,-0.2803,1.1692,-0.3897,1.4823,-0.0562,-0.0513,-0.0269,1,1,1,1,1,1,1
5.1459,sweep,2,+up,-0.00629,0.72538,0.01698,1.56958,0.08640,0.01125,-0.00362,-0.0073,0.1050,-0.0073,-0.0073,-0.0073,-0.0073,-0.0073,-0.2667,1.2786,-0.4034,1.5165,-0.0562,-0.0513,-0.0317,1,1,1,1,1,1,1
5.1856,sweep,2,+up,-0.00629,0.72538,0.01698,1.56958,0.08640,0.01125,-0.00362,-0.0073,0.1050,-0.0073,-0.0073,-0.0073,-0.0073,-0.0073,-0.2667,1.2786,-0.4034,1.5165,-0.0562,-0.0513,-0.0317,1,1,1,1,1,1,1
5.2256,sweep,2,+up,-0.00629,0.73377,0.01698,1.56996,0.08640,0.01125,-0.00324,0.0024,0.0952,-0.0024,0.0220,0.0073,-0.0073,0.0073,-0.2803,0.9368,-0.4034,1.5263,-0.0513,-0.0562,-0.0317,1,1,1,1,1,1,1
5.2657,sweep,2,+up,-0.00629,0.73377,0.01698,1.56996,0.08640,0.01125,-0.00324,0.0024,0.0952,-0.0024,0.0220,0.0073,-0.0073,0.0073,-0.2803,0.9368,-0.4034,1.5263,-0.0513,-0.0562,-0.0317,1,1,1,1,1,1,1
5.3059,sweep,2,+up,-0.00629,0.73377,0.01698,1.56996,0.08640,0.01125,-0.00324,0.0024,0.0952,-0.0024,0.0220,0.0073,-0.0073,0.0073,-0.2803,0.9368,-0.4034,1.5263,-0.0513,-0.0562,-0.0317,1,1,1,1,1,1,1
5.3460,sweep,2,+up,-0.00629,0.74483,0.01698,1.56996,0.08640,0.01125,-0.00362,-0.0024,0.0708,0.0024,-0.0073,-0.0073,-0.0073,-0.0073,-0.2667,0.9368,-0.4034,1.5702,-0.0562,-0.0562,-0.0317,1,1,1,1,1,1,1
5.3859,sweep,2,+up,-0.00629,0.74483,0.01698,1.56996,0.08640,0.01125,-0.00362,-0.0024,0.0708,0.0024,-0.0073,-0.0073,-0.0073,-0.0073,-0.2667,0.9368,-0.4034,1.5702,-0.0562,-0.0562,-0.0317,1,1,1,1,1,1,1
5.4258,sweep,2,+up,-0.00629,0.75132,0.01698,1.56996,0.08640,0.01125,-0.00362,-0.0024,0.0708,-0.0024,-0.0073,-0.0220,0.0073,0.0073,-0.2667,1.1282,-0.3897,1.5751,-0.0562,-0.0562,-0.0317,1,1,1,1,1,1,1
5.4661,sweep,2,+up,-0.00629,0.75132,0.01698,1.56996,0.08640,0.01125,-0.00362,-0.0024,0.0708,-0.0024,-0.0073,-0.0220,0.0073,0.0073,-0.2667,1.1282,-0.3897,1.5751,-0.0562,-0.0562,-0.0317,1,1,1,1,1,1,1
5.5061,sweep,2,+up,-0.00629,0.75132,0.01698,1.56996,0.08640,0.01125,-0.00362,-0.0024,0.0708,-0.0024,-0.0073,-0.0220,0.0073,0.0073,-0.2667,1.1282,-0.3897,1.5751,-0.0562,-0.0562,-0.0317,1,1,1,1,1,1,1
5.5463,sweep,2,+up,-0.00629,0.75971,0.01698,1.57034,0.08640,0.01125,-0.00362,-0.0024,0.0659,-0.0024,-0.0220,-0.0073,0.0073,-0.0073,-0.2667,0.8137,-0.3761,1.5702,-0.0562,-0.0611,-0.0317,1,1,1,1,1,1,1
5.5857,sweep,2,+up,-0.00629,0.75971,0.01698,1.57034,0.08640,0.01125,-0.00362,-0.0024,0.0659,-0.0024,-0.0220,-0.0073,0.0073,-0.0073,-0.2667,0.8137,-0.3761,1.5702,-0.0562,-0.0611,-0.0317,1,1,1,1,1,1,1
5.6259,sweep,2,+up,-0.00629,0.76467,0.01698,1.57034,0.08640,0.01125,-0.00362,-0.0024,0.0562,-0.0024,0.0073,-0.0073,-0.0073,0.0073,-0.2803,0.9231,-0.4034,1.5995,-0.0659,-0.0611,-0.0317,1,1,1,1,1,1,1
5.6660,sweep,2,+up,-0.00629,0.76467,0.01698,1.57034,0.08640,0.01125,-0.00362,-0.0024,0.0562,-0.0024,0.0073,-0.0073,-0.0073,0.0073,-0.2803,0.9231,-0.4034,1.5995,-0.0659,-0.0611,-0.0317,1,1,1,1,1,1,1
5.7056,sweep,2,+up,-0.00629,0.76467,0.01698,1.57034,0.08640,0.01125,-0.00362,-0.0024,0.0562,-0.0024,0.0073,-0.0073,-0.0073,0.0073,-0.2803,0.9231,-0.4034,1.5995,-0.0659,-0.0611,-0.0317,1,1,1,1,1,1,1
5.7455,sweep,2,+up,-0.00629,0.77115,0.01698,1.57034,0.08602,0.01125,-0.00362,-0.0024,0.0464,-0.0024,-0.0073,-0.0073,-0.0073,-0.0073,-0.2803,0.8957,-0.4171,1.5995,-0.0708,-0.0611,-0.0269,1,1,1,1,1,1,1
5.7857,sweep,2,+up,-0.00629,0.77115,0.01698,1.57034,0.08602,0.01125,-0.00362,-0.0024,0.0464,-0.0024,-0.0073,-0.0073,-0.0073,-0.0073,-0.2803,0.8957,-0.4171,1.5995,-0.0708,-0.0611,-0.0269,1,1,1,1,1,1,1
5.8258,sweep,2,+up,-0.00629,0.77459,0.01698,1.57034,0.08602,0.01125,-0.00362,-0.0073,0.0317,-0.0024,-0.0073,-0.0220,-0.0073,-0.0073,-0.2940,1.0051,-0.4308,1.6044,-0.0708,-0.0611,-0.0269,1,1,1,1,1,1,1
5.8661,sweep,2,+up,-0.00629,0.77459,0.01698,1.57034,0.08602,0.01125,-0.00362,-0.0073,0.0317,-0.0024,-0.0073,-0.0220,-0.0073,-0.0073,-0.2940,1.0051,-0.4308,1.6044,-0.0708,-0.0611,-0.0269,1,1,1,1,1,1,1
5.9057,sweep,2,+up,-0.00629,0.77459,0.01698,1.57034,0.08602,0.01125,-0.00362,-0.0073,0.0317,-0.0024,-0.0073,-0.0220,-0.0073,-0.0073,-0.2940,1.0051,-0.4308,1.6044,-0.0708,-0.0611,-0.0269,1,1,1,1,1,1,1
5.9456,sweep,2,+up,-0.00629,0.77993,0.01698,1.57034,0.08640,0.01125,-0.00362,-0.0024,0.0464,-0.0024,0.0073,-0.0073,-0.0220,-0.0073,-0.2803,0.4034,-0.4034,1.6093,-0.0757,-0.0611,-0.0317,1,1,1,1,1,1,1
5.9857,sweep,2,+up,-0.00629,0.77993,0.01698,1.57034,0.08640,0.01125,-0.00362,-0.0024,0.0464,-0.0024,0.0073,-0.0073,-0.0220,-0.0073,-0.2803,0.4034,-0.4034,1.6093,-0.0757,-0.0611,-0.0317,1,1,1,1,1,1,1
6.0264,sweep,2,+up,-0.00629,0.78260,0.01698,1.57034,0.08640,0.01125,-0.00362,-0.0073,0.0317,-0.0024,-0.0220,-0.0073,-0.0073,-0.0073,-0.2667,0.6496,-0.4034,1.6239,-0.0757,-0.0659,-0.0317,1,1,1,1,1,1,1
6.0664,sweep,2,+up,-0.00629,0.78260,0.01698,1.57034,0.08640,0.01125,-0.00362,-0.0073,0.0317,-0.0024,-0.0220,-0.0073,-0.0073,-0.0073,-0.2667,0.6496,-0.4034,1.6239,-0.0757,-0.0659,-0.0317,1,1,1,1,1,1,1
6.1060,sweep,2,+up,-0.00629,0.78260,0.01698,1.57034,0.08640,0.01125,-0.00362,-0.0073,0.0317,-0.0024,-0.0220,-0.0073,-0.0073,-0.0073,-0.2667,0.6496,-0.4034,1.6239,-0.0757,-0.0659,-0.0317,1,1,1,1,1,1,1
6.1460,sweep,2,+up,-0.00629,0.78679,0.01659,1.57034,0.08602,0.01087,-0.00362,-0.0024,0.0562,-0.0073,-0.0220,-0.0220,-0.0073,-0.0073,-0.2803,0.3077,-0.4308,1.6288,-0.0806,-0.0659,-0.0317,1,1,1,1,1,1,1
6.1859,sweep,2,+up,-0.00629,0.78679,0.01659,1.57034,0.08602,0.01087,-0.00362,-0.0024,0.0562,-0.0073,-0.0220,-0.0220,-0.0073,-0.0073,-0.2803,0.3077,-0.4308,1.6288,-0.0806,-0.0659,-0.0317,1,1,1,1,1,1,1
6.2256,sweep,2,+up,-0.00629,0.78870,0.01698,1.57073,0.08602,0.01087,-0.00324,-0.0024,0.0171,-0.0024,-0.0073,-0.0073,-0.0073,0.0073,-0.2940,0.6496,-0.4171,1.6337,-0.0806,-0.0708,-0.0317,1,1,1,1,1,1,1
6.7283,sweep,2,-down,-0.00629,0.78946,0.01698,1.57073,0.08602,0.01087,-0.00324,0.0024,0.0073,-0.0024,0.0073,-0.0073,-0.0073,-0.0073,-0.2803,0.7863,-0.4444,1.6288,-0.0806,-0.0708,-0.0269,1,1,1,1,1,1,1
6.7684,sweep,2,-down,-0.00629,0.78946,0.01698,1.57073,0.08602,0.01087,-0.00324,0.0024,0.0073,-0.0024,0.0073,-0.0073,-0.0073,-0.0073,-0.2803,0.7863,-0.4444,1.6288,-0.0806,-0.0708,-0.0269,1,1,1,1,1,1,1
6.8087,sweep,2,-down,-0.00629,0.78946,0.01698,1.57073,0.08602,0.01087,-0.00324,0.0024,0.0073,-0.0024,0.0073,-0.0073,-0.0073,-0.0073,-0.2803,0.7863,-0.4444,1.6288,-0.0806,-0.0708,-0.0269,1,1,1,1,1,1,1
6.8490,sweep,2,-down,-0.00629,0.78565,0.01659,1.57034,0.08640,0.01125,-0.00362,-0.0073,-0.1783,-0.0024,-0.0073,0.0073,0.0073,-0.0073,-0.2667,-0.7453,-0.4308,1.6190,-0.0757,-0.0659,-0.0269,1,1,1,1,1,1,1
6.8886,sweep,2,-down,-0.00629,0.78565,0.01659,1.57034,0.08640,0.01125,-0.00362,-0.0073,-0.1783,-0.0024,-0.0073,0.0073,0.0073,-0.0073,-0.2667,-0.7453,-0.4308,1.6190,-0.0757,-0.0659,-0.0269,1,1,1,1,1,1,1
6.9285,sweep,2,-down,-0.00629,0.76925,0.01698,1.57034,0.08640,0.01087,-0.00362,-0.0024,-0.2173,0.0024,0.0073,-0.0073,-0.0073,0.0073,-0.2530,-0.3624,-0.4444,1.6288,-0.0757,-0.0708,-0.0269,1,1,1,1,1,1,1
6.9683,sweep,2,-down,-0.00629,0.76925,0.01698,1.57034,0.08640,0.01087,-0.00362,-0.0024,-0.2173,0.0024,0.0073,-0.0073,-0.0073,0.0073,-0.2530,-0.3624,-0.4444,1.6288,-0.0757,-0.0708,-0.0269,1,1,1,1,1,1,1
7.0082,sweep,2,-down,-0.00629,0.76925,0.01698,1.57034,0.08640,0.01087,-0.00362,-0.0024,-0.2173,0.0024,0.0073,-0.0073,-0.0073,0.0073,-0.2530,-0.3624,-0.4444,1.6288,-0.0757,-0.0708,-0.0269,1,1,1,1,1,1,1
7.0485,sweep,2,-down,-0.00629,0.74407,0.01659,1.57301,0.08640,0.01125,-0.00324,-0.0024,-0.1880,-0.0024,-0.0073,0.0073,0.0073,-0.0073,-0.2393,0.1436,-0.4444,1.3944,-0.0757,-0.0659,-0.0269,1,1,1,1,1,1,1
7.0881,sweep,2,-down,-0.00629,0.74407,0.01659,1.57301,0.08640,0.01125,-0.00324,-0.0024,-0.1880,-0.0024,-0.0073,0.0073,0.0073,-0.0073,-0.2393,0.1436,-0.4444,1.3944,-0.0757,-0.0659,-0.0269,1,1,1,1,1,1,1
7.1283,sweep,2,-down,-0.00629,0.72881,0.01659,1.57225,0.08602,0.01125,-0.00362,-0.0024,-0.2173,-0.0024,-0.0366,-0.0220,-0.0073,-0.0073,-0.2530,-0.0752,-0.4581,1.3797,-0.0806,-0.0659,-0.0269,1,1,1,1,1,1,1
7.1682,sweep,2,-down,-0.00629,0.72881,0.01659,1.57225,0.08602,0.01125,-0.00362,-0.0024,-0.2173,-0.0024,-0.0366,-0.0220,-0.0073,-0.0073,-0.2530,-0.0752,-0.4581,1.3797,-0.0806,-0.0659,-0.0269,1,1,1,1,1,1,1
7.2087,sweep,2,-down,-0.00629,0.72881,0.01659,1.57225,0.08602,0.01125,-0.00362,-0.0024,-0.2173,-0.0024,-0.0366,-0.0220,-0.0073,-0.0073,-0.2530,-0.0752,-0.4581,1.3797,-0.0806,-0.0659,-0.0269,1,1,1,1,1,1,1
7.2489,sweep,2,-down,-0.00629,0.70363,0.01659,1.57263,0.08602,0.01087,-0.00362,-0.0024,-0.2076,-0.0024,0.0220,-0.0073,-0.0073,-0.0220,-0.2667,0.4855,-0.4855,1.2869,-0.0757,-0.0659,-0.0269,1,1,1,1,1,1,1
7.2883,sweep,2,-down,-0.00629,0.70363,0.01659,1.57263,0.08602,0.01087,-0.00362,-0.0024,-0.2076,-0.0024,0.0220,-0.0073,-0.0073,-0.0220,-0.2667,0.4855,-0.4855,1.2869,-0.0757,-0.0659,-0.0269,1,1,1,1,1,1,1
7.3281,sweep,2,-down,-0.00629,0.68799,0.01659,1.57225,0.08602,0.01087,-0.00362,-0.0024,-0.1929,-0.0024,-0.0073,-0.0073,-0.0220,-0.0073,-0.2667,0.3897,-0.4855,1.2430,-0.0806,-0.0611,-0.0269,1,1,1,1,1,1,1
7.3682,sweep,2,-down,-0.00629,0.68799,0.01659,1.57225,0.08602,0.01087,-0.00362,-0.0024,-0.1929,-0.0024,-0.0073,-0.0073,-0.0220,-0.0073,-0.2667,0.3897,-0.4855,1.2430,-0.0806,-0.0611,-0.0269,1,1,1,1,1,1,1
7.4080,sweep,2,-down,-0.00629,0.68799,0.01659,1.57225,0.08602,0.01087,-0.00362,-0.0024,-0.1929,-0.0024,-0.0073,-0.0073,-0.0220,-0.0073,-0.2667,0.3897,-0.4855,1.2430,-0.0806,-0.0611,-0.0269,1,1,1,1,1,1,1
7.4484,sweep,2,-down,-0.00629,0.66358,0.01659,1.57187,0.08602,0.01087,-0.00362,-0.0024,-0.2173,-0.0024,-0.0073,0.0073,0.0073,-0.0073,-0.2667,0.5949,-0.4718,1.1795,-0.0806,-0.0659,-0.0269,1,1,1,1,1,1,1
7.4885,sweep,2,-down,-0.00629,0.66358,0.01659,1.57187,0.08602,0.01087,-0.00362,-0.0024,-0.2173,-0.0024,-0.0073,0.0073,0.0073,-0.0073,-0.2667,0.5949,-0.4718,1.1795,-0.0806,-0.0659,-0.0269,1,1,1,1,1,1,1
7.5284,sweep,2,-down,-0.00629,0.64755,0.01659,1.57187,0.08602,0.01087,-0.00362,-0.0073,-0.1783,-0.0073,-0.0220,-0.0073,-0.0073,-0.0073,-0.2530,0.5538,-0.4991,1.1355,-0.0757,-0.0659,-0.0269,1,1,1,1,1,1,1
7.5683,sweep,2,-down,-0.00629,0.64755,0.01659,1.57187,0.08602,0.01087,-0.00362,-0.0073,-0.1783,-0.0073,-0.0220,-0.0073,-0.0073,-0.0073,-0.2530,0.5538,-0.4991,1.1355,-0.0757,-0.0659,-0.0269,1,1,1,1,1,1,1
7.6085,sweep,2,-down,-0.00629,0.64755,0.01659,1.57187,0.08602,0.01087,-0.00362,-0.0073,-0.1783,-0.0073,-0.0220,-0.0073,-0.0073,-0.0073,-0.2530,0.5538,-0.4991,1.1355,-0.0757,-0.0659,-0.0269,1,1,1,1,1,1,1
7.6486,sweep,2,-down,-0.00629,0.62352,0.01659,1.57187,0.08602,0.01087,-0.00362,-0.0024,-0.2076,-0.0024,-0.0220,-0.0073,0.0073,-0.0220,-0.2667,0.9778,-0.4718,1.0574,-0.0757,-0.0659,-0.0220,1,1,1,1,1,1,1
7.6883,sweep,2,-down,-0.00629,0.62352,0.01659,1.57187,0.08602,0.01087,-0.00362,-0.0024,-0.2076,-0.0024,-0.0220,-0.0073,0.0073,-0.0220,-0.2667,0.9778,-0.4718,1.0574,-0.0757,-0.0659,-0.0220,1,1,1,1,1,1,1
7.7285,sweep,2,-down,-0.00629,0.60750,0.01659,1.57187,0.08602,0.01087,-0.00362,-0.0024,-0.1929,-0.0024,-0.0073,-0.0220,-0.0073,-0.0073,-0.2530,0.7590,-0.4718,1.0183,-0.0757,-0.0659,-0.0269,1,1,1,1,1,1,1
7.7683,sweep,2,-down,-0.00629,0.60750,0.01659,1.57187,0.08602,0.01087,-0.00362,-0.0024,-0.1929,-0.0024,-0.0073,-0.0220,-0.0073,-0.0073,-0.2530,0.7590,-0.4718,1.0183,-0.0757,-0.0659,-0.0269,1,1,1,1,1,1,1
7.8084,sweep,2,-down,-0.00629,0.60750,0.01659,1.57187,0.08602,0.01087,-0.00362,-0.0024,-0.1929,-0.0024,-0.0073,-0.0220,-0.0073,-0.0073,-0.2530,0.7590,-0.4718,1.0183,-0.0757,-0.0659,-0.0269,1,1,1,1,1,1,1
7.8485,sweep,2,-down,-0.00629,0.58309,0.01659,1.57187,0.08602,0.01087,-0.00362,-0.0024,-0.2125,-0.0024,-0.0073,-0.0073,-0.0220,-0.0073,-0.2667,1.1556,-0.4718,0.9548,-0.0708,-0.0659,-0.0269,1,1,1,1,1,1,1
7.8883,sweep,2,-down,-0.00629,0.58309,0.01659,1.57187,0.08602,0.01087,-0.00362,-0.0024,-0.2125,-0.0024,-0.0073,-0.0073,-0.0220,-0.0073,-0.2667,1.1556,-0.4718,0.9548,-0.0708,-0.0659,-0.0269,1,1,1,1,1,1,1
7.9284,sweep,2,-down,-0.00629,0.56744,0.01659,1.57187,0.08602,0.01087,-0.00362,-0.0073,-0.1929,-0.0024,0.0073,0.0073,0.0220,-0.0073,-0.2667,0.9915,-0.4581,0.9255,-0.0708,-0.0611,-0.0220,1,1,1,1,1,1,1
7.9682,sweep,2,-down,-0.00629,0.56744,0.01659,1.57187,0.08602,0.01087,-0.00362,-0.0073,-0.1929,-0.0024,0.0073,0.0073,0.0220,-0.0073,-0.2667,0.9915,-0.4581,0.9255,-0.0708,-0.0611,-0.0220,1,1,1,1,1,1,1
8.0084,sweep,2,-down,-0.00629,0.56744,0.01659,1.57187,0.08602,0.01087,-0.00362,-0.0073,-0.1929,-0.0024,0.0073,0.0073,0.0220,-0.0073,-0.2667,0.9915,-0.4581,0.9255,-0.0708,-0.0611,-0.0220,1,1,1,1,1,1,1
8.0485,sweep,2,-down,-0.00629,0.54303,0.01659,1.57187,0.08602,0.01087,-0.00362,-0.0024,-0.1783,-0.0024,-0.0220,0.0073,-0.0073,-0.0073,-0.2667,1.2513,-0.4855,0.8669,-0.0757,-0.0611,-0.0269,1,1,1,1,1,1,1
8.0885,sweep,2,-down,-0.00629,0.54303,0.01659,1.57187,0.08602,0.01087,-0.00362,-0.0024,-0.1783,-0.0024,-0.0220,0.0073,-0.0073,-0.0073,-0.2667,1.2513,-0.4855,0.8669,-0.0757,-0.0611,-0.0269,1,1,1,1,1,1,1
8.1287,sweep,2,-down,-0.00629,0.52701,0.01659,1.57187,0.08602,0.01087,-0.00362,-0.0024,-0.2076,-0.0024,-0.0073,0.0073,-0.0073,0.0073,-0.2667,1.2376,-0.4718,0.8278,-0.0708,-0.0611,-0.0220,1,1,1,1,1,1,1
8.1682,sweep,2,-down,-0.00629,0.52701,0.01659,1.57187,0.08602,0.01087,-0.00362,-0.0024,-0.2076,-0.0024,-0.0073,0.0073,-0.0073,0.0073,-0.2667,1.2376,-0.4718,0.8278,-0.0708,-0.0611,-0.0220,1,1,1,1,1,1,1
8.2085,sweep,2,-down,-0.00629,0.52701,0.01659,1.57187,0.08602,0.01087,-0.00362,-0.0024,-0.2076,-0.0024,-0.0073,0.0073,-0.0073,0.0073,-0.2667,1.2376,-0.4718,0.8278,-0.0708,-0.0611,-0.0220,1,1,1,1,1,1,1
8.2483,sweep,2,-down,-0.00629,0.50298,0.01659,1.57187,0.08640,0.01087,-0.00362,-0.0073,-0.1929,0.0024,0.0073,-0.0073,0.0073,-0.0220,-0.2667,1.4427,-0.4581,0.7595,-0.0757,-0.0562,-0.0269,1,1,1,1,1,1,1
8.2885,sweep,2,-down,-0.00629,0.50298,0.01659,1.57187,0.08640,0.01087,-0.00362,-0.0073,-0.1929,0.0024,0.0073,-0.0073,0.0073,-0.0220,-0.2667,1.4427,-0.4581,0.7595,-0.0757,-0.0562,-0.0269,1,1,1,1,1,1,1
8.3283,sweep,2,-down,-0.00629,0.48695,0.01659,1.57187,0.08602,0.01087,-0.00362,-0.0024,-0.2125,0.0024,-0.0073,-0.0073,-0.0073,-0.0073,-0.2667,1.5932,-0.4444,0.7204,-0.0757,-0.0562,-0.0269,1,1,1,1,1,1,1
8.3685,sweep,2,-down,-0.00629,0.48695,0.01659,1.57187,0.08602,0.01087,-0.00362,-0.0024,-0.2125,0.0024,-0.0073,-0.0073,-0.0073,-0.0073,-0.2667,1.5932,-0.4444,0.7204,-0.0757,-0.0562,-0.0269,1,1,1,1,1,1,1
8.4085,sweep,2,-down,-0.00629,0.48695,0.01659,1.57187,0.08602,0.01087,-0.00362,-0.0024,-0.2125,0.0024,-0.0073,-0.0073,-0.0073,-0.0073,-0.2667,1.5932,-0.4444,0.7204,-0.0757,-0.0562,-0.0269,1,1,1,1,1,1,1
8.4484,sweep,2,-down,-0.00629,0.46292,0.01659,1.57187,0.08640,0.01087,-0.00362,-0.0024,-0.1929,-0.0024,0.0073,-0.0073,-0.0073,-0.0073,-0.2667,1.6889,-0.4718,0.6569,-0.0659,-0.0562,-0.0220,1,1,1,1,1,1,1
8.4885,sweep,2,-down,-0.00629,0.46292,0.01659,1.57187,0.08640,0.01087,-0.00362,-0.0024,-0.1929,-0.0024,0.0073,-0.0073,-0.0073,-0.0073,-0.2667,1.6889,-0.4718,0.6569,-0.0659,-0.0562,-0.0220,1,1,1,1,1,1,1
8.5281,sweep,2,-down,-0.00629,0.44652,0.01659,1.57187,0.08640,0.01087,-0.00362,-0.0024,-0.2125,-0.0024,-0.0073,0.0073,-0.0073,-0.0073,-0.2530,1.8530,-0.4718,0.6178,-0.0611,-0.0513,-0.0220,1,1,1,1,1,1,1
8.5683,sweep,2,-down,-0.00629,0.44652,0.01659,1.57187,0.08640,0.01087,-0.00362,-0.0024,-0.2125,-0.0024,-0.0073,0.0073,-0.0073,-0.0073,-0.2530,1.8530,-0.4718,0.6178,-0.0611,-0.0513,-0.0220,1,1,1,1,1,1,1
8.6082,sweep,2,-down,-0.00629,0.44652,0.01659,1.57187,0.08640,0.01087,-0.00362,-0.0024,-0.2125,-0.0024,-0.0073,0.0073,-0.0073,-0.0073,-0.2530,1.8530,-0.4718,0.6178,-0.0611,-0.0513,-0.0220,1,1,1,1,1,1,1
8.6482,sweep,2,-down,-0.00629,0.42287,0.01659,1.57187,0.08602,0.01087,-0.00362,-0.0024,-0.2076,-0.0024,0.0073,-0.0220,-0.0073,-0.0073,-0.2530,1.8256,-0.4581,0.5592,-0.0659,-0.0513,-0.0220,1,1,1,1,1,1,1
8.6880,sweep,2,-down,-0.00629,0.42287,0.01659,1.57187,0.08602,0.01087,-0.00362,-0.0024,-0.2076,-0.0024,0.0073,-0.0220,-0.0073,-0.0073,-0.2530,1.8256,-0.4581,0.5592,-0.0659,-0.0513,-0.0220,1,1,1,1,1,1,1
8.7282,sweep,2,-down,-0.00629,0.40646,0.01659,1.57187,0.08602,0.01087,-0.00362,-0.0024,-0.1978,-0.0024,-0.0073,0.0073,-0.0073,-0.0073,-0.2256,2.2085,-0.4444,0.5104,-0.0611,-0.0513,-0.0220,1,1,1,1,1,1,1
8.7681,sweep,2,-down,-0.00629,0.40646,0.01659,1.57187,0.08602,0.01087,-0.00362,-0.0024,-0.1978,-0.0024,-0.0073,0.0073,-0.0073,-0.0073,-0.2256,2.2085,-0.4444,0.5104,-0.0611,-0.0513,-0.0220,1,1,1,1,1,1,1
8.8081,sweep,2,-down,-0.00629,0.40646,0.01659,1.57187,0.08602,0.01087,-0.00362,-0.0024,-0.1978,-0.0024,-0.0073,0.0073,-0.0073,-0.0073,-0.2256,2.2085,-0.4444,0.5104,-0.0611,-0.0513,-0.0220,1,1,1,1,1,1,1
8.8485,sweep,2,-down,-0.00629,0.38243,0.01659,1.57187,0.08640,0.01087,-0.00324,-0.0024,-0.2222,-0.0073,0.0073,-0.0073,-0.0366,-0.0073,-0.2120,2.3316,-0.4444,0.4615,-0.0611,-0.0513,-0.0171,1,1,1,1,1,1,1
8.8886,sweep,2,-down,-0.00629,0.38243,0.01659,1.57187,0.08640,0.01087,-0.00324,-0.0024,-0.2222,-0.0073,0.0073,-0.0073,-0.0366,-0.0073,-0.2120,2.3316,-0.4444,0.4615,-0.0611,-0.0513,-0.0171,1,1,1,1,1,1,1
8.9281,sweep,2,-down,-0.00629,0.36641,0.01659,1.57149,0.08640,0.01087,-0.00362,-0.0024,-0.1734,-0.0073,-0.0073,0.0073,-0.0073,-0.0220,-0.2256,2.2222,-0.4718,0.4225,-0.0562,-0.0513,-0.0171,1,1,1,1,1,1,1
8.9682,sweep,2,-down,-0.00629,0.36641,0.01659,1.57149,0.08640,0.01087,-0.00362,-0.0024,-0.1734,-0.0073,-0.0073,0.0073,-0.0073,-0.0220,-0.2256,2.2222,-0.4718,0.4225,-0.0562,-0.0513,-0.0171,1,1,1,1,1,1,1
9.0081,sweep,2,-down,-0.00629,0.36641,0.01659,1.57149,0.08640,0.01087,-0.00362,-0.0024,-0.1734,-0.0073,-0.0073,0.0073,-0.0073,-0.0220,-0.2256,2.2222,-0.4718,0.4225,-0.0562,-0.0513,-0.0171,1,1,1,1,1,1,1
9.0481,sweep,2,-down,-0.00629,0.34237,0.01659,1.57187,0.08602,0.01087,-0.00324,-0.0024,-0.2173,-0.0024,-0.0073,-0.0220,0.0073,-0.0073,-0.2120,2.5368,-0.4444,0.3687,-0.0562,-0.0513,-0.0122,1,1,1,1,1,1,1
9.0882,sweep,2,-down,-0.00629,0.34237,0.01659,1.57187,0.08602,0.01087,-0.00324,-0.0024,-0.2173,-0.0024,-0.0073,-0.0220,0.0073,-0.0073,-0.2120,2.5368,-0.4444,0.3687,-0.0562,-0.0513,-0.0122,1,1,1,1,1,1,1
9.1281,sweep,2,-down,-0.00629,0.32635,0.01659,1.57149,0.08602,0.01087,-0.00362,-0.0073,-0.1880,-0.0073,-0.0073,-0.0073,0.0073,-0.0073,-0.2120,2.3727,-0.4718,0.3443,-0.0611,-0.0513,-0.0171,1,1,1,1,1,1,1
9.1682,sweep,2,-down,-0.00629,0.32635,0.01659,1.57149,0.08602,0.01087,-0.00362,-0.0073,-0.1880,-0.0073,-0.0073,-0.0073,0.0073,-0.0073,-0.2120,2.3727,-0.4718,0.3443,-0.0611,-0.0513,-0.0171,1,1,1,1,1,1,1
9.2081,sweep,2,-down,-0.00629,0.32635,0.01659,1.57149,0.08602,0.01087,-0.00362,-0.0073,-0.1880,-0.0073,-0.0073,-0.0073,0.0073,-0.0073,-0.2120,2.3727,-0.4718,0.3443,-0.0611,-0.0513,-0.0171,1,1,1,1,1,1,1
9.2486,sweep,2,-down,-0.00629,0.30194,0.01659,1.57149,0.08602,0.01087,-0.00362,-0.0073,-0.2125,-0.0024,-0.0073,-0.0073,-0.0073,0.0073,-0.2120,2.8103,-0.4855,0.2906,-0.0611,-0.0513,-0.0171,1,1,1,1,1,1,1
9.2885,sweep,2,-down,-0.00629,0.30194,0.01659,1.57149,0.08602,0.01087,-0.00362,-0.0073,-0.2125,-0.0024,-0.0073,-0.0073,-0.0073,0.0073,-0.2120,2.8103,-0.4855,0.2906,-0.0611,-0.0513,-0.0171,1,1,1,1,1,1,1
9.3282,sweep,2,-down,-0.00629,0.28630,0.01659,1.57149,0.08640,0.01087,-0.00362,-0.0024,-0.1880,-0.0024,-0.0073,-0.0073,-0.0220,-0.0073,-0.2120,2.4000,-0.4581,0.2662,-0.0562,-0.0464,-0.0171,1,1,1,1,1,1,1
9.3683,sweep,2,-down,-0.00629,0.28630,0.01659,1.57149,0.08640,0.01087,-0.00362,-0.0024,-0.1880,-0.0024,-0.0073,-0.0073,-0.0220,-0.0073,-0.2120,2.4000,-0.4581,0.2662,-0.0562,-0.0464,-0.0171,1,1,1,1,1,1,1
9.4083,sweep,2,-down,-0.00629,0.28630,0.01659,1.57149,0.08640,0.01087,-0.00362,-0.0024,-0.1880,-0.0024,-0.0073,-0.0073,-0.0220,-0.0073,-0.2120,2.4000,-0.4581,0.2662,-0.0562,-0.0464,-0.0171,1,1,1,1,1,1,1
9.4484,sweep,2,-down,-0.00629,0.26226,0.01659,1.57149,0.08602,0.01087,-0.00362,-0.0024,-0.1685,0.0024,-0.0073,-0.0073,-0.0073,-0.0220,-0.2256,2.7692,-0.4581,0.2125,-0.0611,-0.0464,-0.0220,1,1,1,1,1,1,1
9.4885,sweep,2,-down,-0.00629,0.26226,0.01659,1.57149,0.08602,0.01087,-0.00362,-0.0024,-0.1685,0.0024,-0.0073,-0.0073,-0.0073,-0.0220,-0.2256,2.7692,-0.4581,0.2125,-0.0611,-0.0464,-0.0220,1,1,1,1,1,1,1
9.5283,sweep,2,-down,-0.00629,0.24739,0.01659,1.57149,0.08602,0.01087,-0.00362,-0.0024,-0.1685,-0.0073,-0.0073,-0.0073,-0.0073,0.0073,-0.2120,2.8239,-0.4718,0.1783,-0.0611,-0.0464,-0.0171,1,1,1,1,1,1,1
9.5685,sweep,2,-down,-0.00629,0.24739,0.01659,1.57149,0.08602,0.01087,-0.00362,-0.0024,-0.1685,-0.0073,-0.0073,-0.0073,-0.0073,0.0073,-0.2120,2.8239,-0.4718,0.1783,-0.0611,-0.0464,-0.0171,1,1,1,1,1,1,1
9.6083,sweep,2,-down,-0.00629,0.24739,0.01659,1.57149,0.08602,0.01087,-0.00362,-0.0024,-0.1685,-0.0073,-0.0073,-0.0073,-0.0073,0.0073,-0.2120,2.8239,-0.4718,0.1783,-0.0611,-0.0464,-0.0171,1,1,1,1,1,1,1
9.6483,sweep,2,-down,-0.00629,0.22831,0.01659,1.57187,0.08602,0.01087,-0.00324,-0.0073,-0.1490,-0.0073,0.0073,-0.0073,-0.0220,-0.0073,-0.2256,2.7556,-0.4581,0.1294,-0.0611,-0.0513,-0.0220,1,1,1,1,1,1,1
9.6881,sweep,2,-down,-0.00629,0.22831,0.01659,1.57187,0.08602,0.01087,-0.00324,-0.0073,-0.1490,-0.0073,0.0073,-0.0073,-0.0220,-0.0073,-0.2256,2.7556,-0.4581,0.1294,-0.0611,-0.0513,-0.0220,1,1,1,1,1,1,1
9.7284,sweep,2,-down,-0.00629,0.21687,0.01659,1.57187,0.08602,0.01087,-0.00324,-0.0073,-0.1392,0.0024,0.0073,-0.0220,-0.0073,-0.0073,-0.2393,2.9744,-0.4308,0.1001,-0.0611,-0.0464,-0.0220,1,1,1,1,1,1,1
9.7685,sweep,2,-down,-0.00629,0.21687,0.01659,1.57187,0.08602,0.01087,-0.00324,-0.0073,-0.1392,0.0024,0.0073,-0.0220,-0.0073,-0.0073,-0.2393,2.9744,-0.4308,0.1001,-0.0611,-0.0464,-0.0220,1,1,1,1,1,1,1
9.8084,sweep,2,-down,-0.00629,0.21687,0.01659,1.57187,0.08602,0.01087,-0.00324,-0.0073,-0.1392,0.0024,0.0073,-0.0220,-0.0073,-0.0073,-0.2393,2.9744,-0.4308,0.1001,-0.0611,-0.0464,-0.0220,1,1,1,1,1,1,1
9.8485,sweep,2,-down,-0.00629,0.20237,0.01659,1.57187,0.08602,0.01087,-0.00362,-0.0073,-0.1197,-0.0024,-0.0073,-0.0073,-0.0220,0.0073,-0.2256,2.9744,-0.4171,0.0611,-0.0611,-0.0415,-0.0220,1,1,1,1,1,1,1
9.8886,sweep,2,-down,-0.00629,0.20237,0.01659,1.57187,0.08602,0.01087,-0.00362,-0.0073,-0.1197,-0.0024,-0.0073,-0.0073,-0.0220,0.0073,-0.2256,2.9744,-0.4171,0.0611,-0.0611,-0.0415,-0.0220,1,1,1,1,1,1,1
9.9282,sweep,2,-down,-0.00629,0.19398,0.01659,1.57187,0.08640,0.01087,-0.00324,0.0024,-0.1099,-0.0024,-0.0073,-0.0073,0.0073,-0.0073,-0.2256,3.0017,-0.4171,0.0464,-0.0611,-0.0415,-0.0171,1,1,1,1,1,1,1
9.9682,sweep,2,-down,-0.00629,0.19398,0.01659,1.57187,0.08640,0.01087,-0.00324,0.0024,-0.1099,-0.0024,-0.0073,-0.0073,0.0073,-0.0073,-0.2256,3.0017,-0.4171,0.0464,-0.0611,-0.0415,-0.0171,1,1,1,1,1,1,1
10.0083,sweep,2,-down,-0.00629,0.19398,0.01659,1.57187,0.08640,0.01087,-0.00324,0.0024,-0.1099,-0.0024,-0.0073,-0.0073,0.0073,-0.0073,-0.2256,3.0017,-0.4171,0.0464,-0.0611,-0.0415,-0.0171,1,1,1,1,1,1,1
10.0482,sweep,2,-down,-0.00629,0.19017,0.01659,1.57073,0.08602,0.01087,-0.00362,-0.0024,-0.0757,0.0073,0.0073,-0.0073,-0.0073,0.0073,-0.2256,2.8239,-0.4034,0.0757,-0.0611,-0.0415,-0.0171,1,1,1,1,1,1,1
10.0885,sweep,2,-down,-0.00629,0.19017,0.01659,1.57073,0.08602,0.01087,-0.00362,-0.0024,-0.0757,0.0073,0.0073,-0.0073,-0.0073,0.0073,-0.2256,2.8239,-0.4034,0.0757,-0.0611,-0.0415,-0.0171,1,1,1,1,1,1,1
10.1282,sweep,2,-down,-0.00629,0.17605,0.01659,1.57073,0.08602,0.01087,-0.00324,-0.0024,-0.0904,-0.0073,-0.0073,-0.0073,-0.0073,-0.0073,-0.2256,3.0427,-0.4171,0.0757,-0.0611,-0.0366,-0.0171,1,1,1,1,1,1,1
10.1685,sweep,2,-down,-0.00629,0.17605,0.01659,1.57073,0.08602,0.01087,-0.00324,-0.0024,-0.0904,-0.0073,-0.0073,-0.0073,-0.0073,-0.0073,-0.2256,3.0427,-0.4171,0.0757,-0.0611,-0.0366,-0.0171,1,1,1,1,1,1,1
10.2083,sweep,2,-down,-0.00629,0.17605,0.01659,1.57073,0.08602,0.01087,-0.00324,-0.0024,-0.0904,-0.0073,-0.0073,-0.0073,-0.0073,-0.0073,-0.2256,3.0427,-0.4171,0.0757,-0.0611,-0.0366,-0.0171,1,1,1,1,1,1,1
10.2483,sweep,2,-down,-0.00629,0.16766,0.01659,1.57111,0.08602,0.01087,-0.00362,-0.0024,-0.0757,-0.0024,-0.0220,-0.0220,-0.0220,-0.0073,-0.2120,3.2615,-0.4308,0.0513,-0.0562,-0.0366,-0.0171,1,1,1,1,1,1,1
10.2884,sweep,2,-down,-0.00629,0.16766,0.01659,1.57111,0.08602,0.01087,-0.00362,-0.0024,-0.0757,-0.0024,-0.0220,-0.0220,-0.0220,-0.0073,-0.2120,3.2615,-0.4308,0.0513,-0.0562,-0.0366,-0.0171,1,1,1,1,1,1,1
10.3284,sweep,2,-down,-0.00629,0.16270,0.01659,1.57149,0.08602,0.01087,-0.00362,-0.0024,-0.0659,-0.0024,-0.0073,-0.0073,-0.0073,-0.0073,-0.2256,2.9470,-0.4034,0.0269,-0.0562,-0.0366,-0.0171,1,1,1,1,1,1,1
10.3684,sweep,2,-down,-0.00629,0.16270,0.01659,1.57149,0.08602,0.01087,-0.00362,-0.0024,-0.0659,-0.0024,-0.0073,-0.0073,-0.0073,-0.0073,-0.2256,2.9470,-0.4034,0.0269,-0.0562,-0.0366,-0.0171,1,1,1,1,1,1,1
10.4084,sweep,2,-down,-0.00629,0.16270,0.01659,1.57149,0.08602,0.01087,-0.00362,-0.0024,-0.0659,-0.0024,-0.0073,-0.0073,-0.0073,-0.0073,-0.2256,2.9470,-0.4034,0.0269,-0.0562,-0.0366,-0.0171,1,1,1,1,1,1,1
10.4482,sweep,2,-down,-0.00629,0.15621,0.01659,1.57149,0.08602,0.01087,-0.00324,-0.0073,-0.0464,-0.0024,-0.0220,-0.0073,-0.0073,-0.0073,-0.2256,3.0291,-0.4034,0.0024,-0.0562,-0.0317,-0.0122,1,1,1,1,1,1,1
10.4883,sweep,2,-down,-0.00629,0.15621,0.01659,1.57149,0.08602,0.01087,-0.00324,-0.0073,-0.0464,-0.0024,-0.0220,-0.0073,-0.0073,-0.0073,-0.2256,3.0291,-0.4034,0.0024,-0.0562,-0.0317,-0.0122,1,1,1,1,1,1,1
10.5282,sweep,2,-down,-0.00629,0.15240,0.01659,1.57149,0.08602,0.01087,-0.00362,-0.0073,-0.0513,-0.0024,-0.0073,-0.0073,-0.0073,-0.0220,-0.2256,3.1248,-0.4034,-0.0073,-0.0562,-0.0366,-0.0171,1,1,1,1,1,1,1
10.5684,sweep,2,-down,-0.00629,0.15240,0.01659,1.57149,0.08602,0.01087,-0.00362,-0.0073,-0.0513,-0.0024,-0.0073,-0.0073,-0.0073,-0.0220,-0.2256,3.1248,-0.4034,-0.0073,-0.0562,-0.0366,-0.0171,1,1,1,1,1,1,1
10.6085,sweep,2,-down,-0.00629,0.15240,0.01659,1.57149,0.08602,0.01087,-0.00362,-0.0073,-0.0513,-0.0024,-0.0073,-0.0073,-0.0073,-0.0220,-0.2256,3.1248,-0.4034,-0.0073,-0.0562,-0.0366,-0.0171,1,1,1,1,1,1,1
10.6485,sweep,2,-down,-0.00629,0.14744,0.01659,1.57111,0.08602,0.01087,-0.00324,-0.0073,-0.0415,-0.0024,-0.0073,-0.0073,-0.0073,0.0073,-0.2256,3.0974,-0.4308,-0.0073,-0.0513,-0.0317,-0.0073,1,1,1,1,1,1,1
10.6884,sweep,2,-down,-0.00629,0.14744,0.01659,1.57111,0.08602,0.01087,-0.00324,-0.0073,-0.0415,-0.0024,-0.0073,-0.0073,-0.0073,0.0073,-0.2256,3.0974,-0.4308,-0.0073,-0.0513,-0.0317,-0.0073,1,1,1,1,1,1,1
10.7283,sweep,2,-down,-0.00629,0.14477,0.01659,1.57149,0.08602,0.01087,-0.00324,-0.0024,-0.0366,-0.0073,0.0220,-0.0220,-0.0073,-0.0073,-0.2256,2.8103,-0.4308,-0.0220,-0.0562,-0.0366,-0.0122,1,1,1,1,1,1,1
10.7682,sweep,2,-down,-0.00629,0.14477,0.01659,1.57149,0.08602,0.01087,-0.00324,-0.0024,-0.0366,-0.0073,0.0220,-0.0220,-0.0073,-0.0073,-0.2256,2.8103,-0.4308,-0.0220,-0.0562,-0.0366,-0.0122,1,1,1,1,1,1,1
10.8086,sweep,2,-down,-0.00629,0.14477,0.01659,1.57149,0.08602,0.01087,-0.00324,-0.0024,-0.0366,-0.0073,0.0220,-0.0220,-0.0073,-0.0073,-0.2256,2.8103,-0.4308,-0.0220,-0.0562,-0.0366,-0.0122,1,1,1,1,1,1,1
10.8482,sweep,2,-down,-0.00629,0.14095,0.01659,1.57149,0.08602,0.01087,-0.00324,0.0024,-0.0366,-0.0024,-0.0073,-0.0073,-0.0073,0.0073,-0.2256,3.1932,-0.4308,-0.0366,-0.0513,-0.0317,-0.0122,1,1,1,1,1,1,1
10.8885,sweep,2,-down,-0.00629,0.14095,0.01659,1.57149,0.08602,0.01087,-0.00324,0.0024,-0.0366,-0.0024,-0.0073,-0.0073,-0.0073,0.0073,-0.2256,3.1932,-0.4308,-0.0366,-0.0513,-0.0317,-0.0122,1,1,1,1,1,1,1
10.9283,sweep,2,-down,-0.00629,0.13867,0.01659,1.57111,0.08602,0.01087,-0.00324,0.0024,-0.0269,-0.0024,-0.0073,-0.0073,-0.0073,-0.0073,-0.2256,2.9880,-0.4171,-0.0415,-0.0513,-0.0269,-0.0122,1,1,1,1,1,1,1
11.4306,sweep,2,+up,-0.00629,0.13790,0.01659,1.57111,0.08640,0.01087,-0.00324,-0.0024,-0.0171,-0.0073,-0.0073,-0.0073,-0.0220,-0.0220,-0.2393,2.8103,-0.4171,-0.0464,-0.0562,-0.0317,-0.0073,1,1,1,1,1,1,1
11.4709,sweep,2,+up,-0.00629,0.13790,0.01659,1.57111,0.08640,0.01087,-0.00324,-0.0024,-0.0171,-0.0073,-0.0073,-0.0073,-0.0220,-0.0220,-0.2393,2.8103,-0.4171,-0.0464,-0.0562,-0.0317,-0.0073,1,1,1,1,1,1,1
11.5108,sweep,2,+up,-0.00629,0.13790,0.01659,1.57111,0.08640,0.01087,-0.00324,-0.0024,-0.0171,-0.0073,-0.0073,-0.0073,-0.0220,-0.0220,-0.2393,2.8103,-0.4171,-0.0464,-0.0562,-0.0317,-0.0073,1,1,1,1,1,1,1
11.5509,sweep,2,+up,-0.00629,0.14248,0.01659,1.57073,0.08602,0.01087,-0.00324,-0.0024,0.2125,-0.0024,-0.0220,-0.0073,-0.0220,-0.0073,-0.2667,4.7932,-0.4171,-0.0952,-0.0562,-0.0220,-0.0073,1,1,1,1,1,1,1
11.5912,sweep,2,+up,-0.00629,0.14248,0.01659,1.57073,0.08602,0.01087,-0.00324,-0.0024,0.2125,-0.0024,-0.0220,-0.0073,-0.0220,-0.0073,-0.2667,4.7932,-0.4171,-0.0952,-0.0562,-0.0220,-0.0073,1,1,1,1,1,1,1
11.6313,sweep,2,+up,-0.00629,0.15774,0.01659,1.57111,0.08602,0.01087,-0.00362,-0.0024,0.2222,-0.0024,0.0073,-0.0073,-0.0220,-0.0073,-0.2667,5.4359,-0.4171,-0.1099,-0.0611,-0.0220,-0.0073,1,1,1,1,1,1,1
11.6710,sweep,2,+up,-0.00629,0.15774,0.01659,1.57111,0.08602,0.01087,-0.00362,-0.0024,0.2222,-0.0024,0.0073,-0.0073,-0.0220,-0.0073,-0.2667,5.4359,-0.4171,-0.1099,-0.0611,-0.0220,-0.0073,1,1,1,1,1,1,1
11.7111,sweep,2,+up,-0.00629,0.15774,0.01659,1.57111,0.08602,0.01087,-0.00362,-0.0024,0.2222,-0.0024,0.0073,-0.0073,-0.0220,-0.0073,-0.2667,5.4359,-0.4171,-0.1099,-0.0611,-0.0220,-0.0073,1,1,1,1,1,1,1
11.7514,sweep,2,+up,-0.00629,0.18215,0.01659,1.56996,0.08602,0.01087,-0.00324,-0.0024,0.1636,-0.0024,-0.0366,-0.0073,-0.0220,-0.0073,-0.2940,5.2991,-0.4308,-0.0659,-0.0659,-0.0269,-0.0122,1,1,1,1,1,1,1
11.7909,sweep,2,+up,-0.00629,0.18215,0.01659,1.56996,0.08602,0.01087,-0.00324,-0.0024,0.1636,-0.0024,-0.0366,-0.0073,-0.0220,-0.0073,-0.2940,5.2991,-0.4308,-0.0659,-0.0659,-0.0269,-0.0122,1,1,1,1,1,1,1
11.8308,sweep,2,+up,-0.00629,0.19818,0.01659,1.56844,0.08602,0.01087,-0.00324,0.0024,0.2076,-0.0024,-0.0073,-0.0073,-0.0220,-0.0073,-0.3077,4.9299,-0.4444,0.0171,-0.0708,-0.0220,-0.0122,1,1,1,1,1,1,1
11.8708,sweep,2,+up,-0.00629,0.19818,0.01659,1.56844,0.08602,0.01087,-0.00324,0.0024,0.2076,-0.0024,-0.0073,-0.0073,-0.0220,-0.0073,-0.3077,4.9299,-0.4444,0.0171,-0.0708,-0.0220,-0.0122,1,1,1,1,1,1,1
11.9108,sweep,2,+up,-0.00629,0.19818,0.01659,1.56844,0.08602,0.01087,-0.00324,0.0024,0.2076,-0.0024,-0.0073,-0.0073,-0.0220,-0.0073,-0.3077,4.9299,-0.4444,0.0171,-0.0708,-0.0220,-0.0122,1,1,1,1,1,1,1
11.9507,sweep,2,+up,-0.00629,0.22221,0.01659,1.56729,0.08602,0.01125,-0.00324,-0.0024,0.1880,-0.0024,-0.0220,-0.0220,-0.0073,-0.0073,-0.3077,4.8752,-0.4444,0.1392,-0.0659,-0.0220,-0.0122,1,1,1,1,1,1,1
11.9908,sweep,2,+up,-0.00629,0.22221,0.01659,1.56729,0.08602,0.01125,-0.00324,-0.0024,0.1880,-0.0024,-0.0220,-0.0220,-0.0073,-0.0073,-0.3077,4.8752,-0.4444,0.1392,-0.0659,-0.0220,-0.0122,1,1,1,1,1,1,1
12.0308,sweep,2,+up,-0.00629,0.23861,0.01659,1.56653,0.08640,0.01087,-0.00324,-0.0073,0.2027,-0.0024,-0.0073,-0.0073,0.0073,-0.0073,-0.2940,4.3282,-0.4444,0.3150,-0.0659,-0.0220,-0.0122,1,1,1,1,1,1,1
12.0709,sweep,2,+up,-0.00629,0.23861,0.01659,1.56653,0.08640,0.01087,-0.00324,-0.0073,0.2027,-0.0024,-0.0073,-0.0073,0.0073,-0.0073,-0.2940,4.3282,-0.4444,0.3150,-0.0659,-0.0220,-0.0122,1,1,1,1,1,1,1
12.1109,sweep,2,+up,-0.00629,0.23861,0.01659,1.56653,0.08640,0.01087,-0.00324,-0.0073,0.2027,-0.0024,-0.0073,-0.0073,0.0073,-0.0073,-0.2940,4.3282,-0.4444,0.3150,-0.0659,-0.0220,-0.0122,1,1,1,1,1,1,1
12.1511,sweep,2,+up,-0.00629,0.26265,0.01659,1.56729,0.08602,0.01125,-0.00324,-0.0073,0.2027,-0.0024,0.0073,-0.0073,-0.0073,-0.0220,-0.2940,4.3282,-0.4444,0.4225,-0.0611,-0.0220,-0.0073,1,1,1,1,1,1,1
12.1909,sweep,2,+up,-0.00629,0.26265,0.01659,1.56729,0.08602,0.01125,-0.00324,-0.0073,0.2027,-0.0024,0.0073,-0.0073,-0.0073,-0.0220,-0.2940,4.3282,-0.4444,0.4225,-0.0611,-0.0220,-0.0073,1,1,1,1,1,1,1
12.2310,sweep,2,+up,-0.00629,0.27867,0.01659,1.56806,0.08640,0.01087,-0.00362,-0.0073,0.1880,-0.0024,0.0073,0.0073,-0.0073,-0.0220,-0.2940,4.2188,-0.4444,0.4713,-0.0611,-0.0171,-0.0073,1,1,1,1,1,1,1
12.2710,sweep,2,+up,-0.00629,0.27867,0.01659,1.56806,0.08640,0.01087,-0.00362,-0.0073,0.1880,-0.0024,0.0073,0.0073,-0.0073,-0.0220,-0.2940,4.2188,-0.4444,0.4713,-0.0611,-0.0171,-0.0073,1,1,1,1,1,1,1
12.3112,sweep,2,+up,-0.00629,0.27867,0.01659,1.56806,0.08640,0.01087,-0.00362,-0.0073,0.1880,-0.0024,0.0073,0.0073,-0.0073,-0.0220,-0.2940,4.2188,-0.4444,0.4713,-0.0611,-0.0171,-0.0073,1,1,1,1,1,1,1
12.3512,sweep,2,+up,-0.00629,0.30308,0.01659,1.56844,0.08640,0.01087,-0.00324,-0.0024,0.2320,-0.0024,-0.0073,0.0073,-0.0073,0.0073,-0.2803,3.8496,-0.4171,0.5739,-0.0562,-0.0220,-0.0122,1,1,1,1,1,1,1
12.3913,sweep,2,+up,-0.00629,0.30308,0.01659,1.56844,0.08640,0.01087,-0.00324,-0.0024,0.2320,-0.0024,-0.0073,0.0073,-0.0073,0.0073,-0.2803,3.8496,-0.4171,0.5739,-0.0562,-0.0220,-0.0122,1,1,1,1,1,1,1
12.4312,sweep,2,+up,-0.00629,0.31910,0.01659,1.56882,0.08602,0.01125,-0.00324,-0.0024,0.1783,-0.0024,0.0220,-0.0073,-0.0220,-0.0073,-0.2940,4.0000,-0.4171,0.6032,-0.0611,-0.0220,-0.0122,1,1,1,1,1,1,1
12.4711,sweep,2,+up,-0.00629,0.31910,0.01659,1.56882,0.08602,0.01125,-0.00324,-0.0024,0.1783,-0.0024,0.0220,-0.0073,-0.0220,-0.0073,-0.2940,4.0000,-0.4171,0.6032,-0.0611,-0.0220,-0.0122,1,1,1,1,1,1,1
12.5112,sweep,2,+up,-0.00629,0.31910,0.01659,1.56882,0.08602,0.01125,-0.00324,-0.0024,0.1783,-0.0024,0.0220,-0.0073,-0.0220,-0.0073,-0.2940,4.0000,-0.4171,0.6032,-0.0611,-0.0220,-0.0122,1,1,1,1,1,1,1
12.5510,sweep,2,+up,-0.00629,0.34314,0.01659,1.56920,0.08640,0.01125,-0.00362,-0.0024,0.2027,-0.0024,-0.0073,-0.0073,-0.0220,0.0073,-0.2940,3.6581,-0.4034,0.6618,-0.0659,-0.0171,-0.0073,1,1,1,1,1,1,1
12.5911,sweep,2,+up,-0.00629,0.34314,0.01659,1.56920,0.08640,0.01125,-0.00362,-0.0024,0.2027,-0.0024,-0.0073,-0.0073,-0.0220,0.0073,-0.2940,3.6581,-0.4034,0.6618,-0.0659,-0.0171,-0.0073,1,1,1,1,1,1,1
12.6308,sweep,2,+up,-0.00629,0.35916,0.01659,1.56920,0.08602,0.01125,-0.00362,-0.0024,0.1832,-0.0024,-0.0220,-0.0073,-0.0073,-0.0220,-0.3077,3.8359,-0.4308,0.7009,-0.0708,-0.0171,-0.0073,1,1,1,1,1,1,1
12.6707,sweep,2,+up,-0.00629,0.35916,0.01659,1.56920,0.08602,0.01125,-0.00362,-0.0024,0.1832,-0.0024,-0.0220,-0.0073,-0.0073,-0.0220,-0.3077,3.8359,-0.4308,0.7009,-0.0708,-0.0171,-0.0073,1,1,1,1,1,1,1
12.7109,sweep,2,+up,-0.00629,0.35916,0.01659,1.56920,0.08602,0.01125,-0.00362,-0.0024,0.1832,-0.0024,-0.0220,-0.0073,-0.0073,-0.0220,-0.3077,3.8359,-0.4308,0.7009,-0.0708,-0.0171,-0.0073,1,1,1,1,1,1,1
12.7507,sweep,2,+up,-0.00629,0.38357,0.01659,1.56920,0.08640,0.01125,-0.00362,-0.0024,0.2027,-0.0024,-0.0073,-0.0073,0.0073,-0.0073,-0.2940,3.3573,-0.4444,0.7741,-0.0708,-0.0220,-0.0073,1,1,1,1,1,1,1
12.7910,sweep,2,+up,-0.00629,0.38357,0.01659,1.56920,0.08640,0.01125,-0.00362,-0.0024,0.2027,-0.0024,-0.0073,-0.0073,0.0073,-0.0073,-0.2940,3.3573,-0.4444,0.7741,-0.0708,-0.0220,-0.0073,1,1,1,1,1,1,1
12.8309,sweep,2,+up,-0.00629,0.39921,0.01659,1.56920,0.08640,0.01125,-0.00324,-0.0024,0.1978,-0.0024,0.0073,-0.0073,-0.0220,-0.0073,-0.2940,3.4803,-0.4581,0.8132,-0.0708,-0.0220,-0.0024,1,1,1,1,1,1,1
12.8707,sweep,2,+up,-0.00629,0.39921,0.01659,1.56920,0.08640,0.01125,-0.00324,-0.0024,0.1978,-0.0024,0.0073,-0.0073,-0.0220,-0.0073,-0.2940,3.4803,-0.4581,0.8132,-0.0708,-0.0220,-0.0024,1,1,1,1,1,1,1
12.9109,sweep,2,+up,-0.00629,0.39921,0.01659,1.56920,0.08640,0.01125,-0.00324,-0.0024,0.1978,-0.0024,0.0073,-0.0073,-0.0220,-0.0073,-0.2940,3.4803,-0.4581,0.8132,-0.0708,-0.0220,-0.0024,1,1,1,1,1,1,1
12.9508,sweep,2,+up,-0.00629,0.42363,0.01659,1.56920,0.08640,0.01125,-0.00324,-0.0024,0.1880,0.0024,-0.0073,-0.0073,-0.0073,-0.0073,-0.2803,3.2615,-0.4581,0.8718,-0.0708,-0.0220,-0.0024,1,1,1,1,1,1,1
12.9909,sweep,2,+up,-0.00629,0.42363,0.01659,1.56920,0.08640,0.01125,-0.00324,-0.0024,0.1880,0.0024,-0.0073,-0.0073,-0.0073,-0.0073,-0.2803,3.2615,-0.4581,0.8718,-0.0708,-0.0220,-0.0024,1,1,1,1,1,1,1
13.0307,sweep,2,+up,-0.00629,0.43965,0.01659,1.56958,0.08602,0.01125,-0.00324,-0.0073,0.1929,-0.0024,-0.0220,-0.0073,-0.0073,0.0073,-0.2940,3.2889,-0.4444,0.8767,-0.0708,-0.0269,-0.0073,1,1,1,1,1,1,1
13.0711,sweep,2,+up,-0.00629,0.43965,0.01659,1.56958,0.08602,0.01125,-0.00324,-0.0073,0.1929,-0.0024,-0.0220,-0.0073,-0.0073,0.0073,-0.2940,3.2889,-0.4444,0.8767,-0.0708,-0.0269,-0.0073,1,1,1,1,1,1,1
13.1112,sweep,2,+up,-0.00629,0.43965,0.01659,1.56958,0.08602,0.01125,-0.00324,-0.0073,0.1929,-0.0024,-0.0220,-0.0073,-0.0073,0.0073,-0.2940,3.2889,-0.4444,0.8767,-0.0708,-0.0269,-0.0073,1,1,1,1,1,1,1
13.1514,sweep,2,+up,-0.00629,0.46368,0.01659,1.56958,0.08640,0.01125,-0.00324,-0.0024,0.1880,-0.0024,0.0073,-0.0073,-0.0220,-0.0073,-0.2803,3.1521,-0.4308,0.9206,-0.0611,-0.0269,-0.0024,1,1,1,1,1,1,1
13.1914,sweep,2,+up,-0.00629,0.46368,0.01659,1.56958,0.08640,0.01125,-0.00324,-0.0024,0.1880,-0.0024,0.0073,-0.0073,-0.0220,-0.0073,-0.2803,3.1521,-0.4308,0.9206,-0.0611,-0.0269,-0.0024,1,1,1,1,1,1,1
13.2311,sweep,2,+up,-0.00629,0.48009,0.01659,1.56958,0.08640,0.01125,-0.00324,0.0024,0.2271,-0.0024,-0.0073,-0.0073,-0.0073,0.0073,-0.2940,2.8513,-0.4171,0.9597,-0.0611,-0.0269,-0.0024,1,1,1,1,1,1,1
13.2708,sweep,2,+up,-0.00629,0.48009,0.01659,1.56958,0.08640,0.01125,-0.00324,0.0024,0.2271,-0.0024,-0.0073,-0.0073,-0.0073,0.0073,-0.2940,2.8513,-0.4171,0.9597,-0.0611,-0.0269,-0.0024,1,1,1,1,1,1,1
13.3108,sweep,2,+up,-0.00629,0.48009,0.01659,1.56958,0.08640,0.01125,-0.00324,0.0024,0.2271,-0.0024,-0.0073,-0.0073,-0.0073,0.0073,-0.2940,2.8513,-0.4171,0.9597,-0.0611,-0.0269,-0.0024,1,1,1,1,1,1,1
13.3506,sweep,2,+up,-0.00629,0.50412,0.01659,1.56958,0.08602,0.01125,-0.00362,-0.0024,0.1929,-0.0024,-0.0073,-0.0073,-0.0073,-0.0220,-0.2940,2.8103,-0.4308,0.9988,-0.0513,-0.0269,-0.0073,1,1,1,1,1,1,1
13.3914,sweep,2,+up,-0.00629,0.50412,0.01659,1.56958,0.08602,0.01125,-0.00362,-0.0024,0.1929,-0.0024,-0.0073,-0.0073,-0.0073,-0.0220,-0.2940,2.8103,-0.4308,0.9988,-0.0513,-0.0269,-0.0073,1,1,1,1,1,1,1
13.4313,sweep,2,+up,-0.00629,0.52052,0.01659,1.56958,0.08640,0.01125,-0.00324,-0.0024,0.2027,-0.0024,-0.0220,-0.0073,-0.0073,-0.0220,-0.2940,2.3863,-0.4581,1.0427,-0.0562,-0.0269,-0.0073,1,1,1,1,1,1,1
13.4709,sweep,2,+up,-0.00629,0.52052,0.01659,1.56958,0.08640,0.01125,-0.00324,-0.0024,0.2027,-0.0024,-0.0220,-0.0073,-0.0073,-0.0220,-0.2940,2.3863,-0.4581,1.0427,-0.0562,-0.0269,-0.0073,1,1,1,1,1,1,1
13.5111,sweep,2,+up,-0.00629,0.52052,0.01659,1.56958,0.08640,0.01125,-0.00324,-0.0024,0.2027,-0.0024,-0.0220,-0.0073,-0.0073,-0.0220,-0.2940,2.3863,-0.4581,1.0427,-0.0562,-0.0269,-0.0073,1,1,1,1,1,1,1
13.5509,sweep,2,+up,-0.00629,0.54418,0.01659,1.56958,0.08640,0.01125,-0.00324,-0.0024,0.1978,-0.0024,-0.0073,-0.0073,0.0073,-0.0073,-0.2940,2.4137,-0.4444,1.1111,-0.0562,-0.0317,-0.0122,1,1,1,1,1,1,1
13.5908,sweep,2,+up,-0.00629,0.54418,0.01659,1.56958,0.08640,0.01125,-0.00324,-0.0024,0.1978,-0.0024,-0.0073,-0.0073,0.0073,-0.0073,-0.2940,2.4137,-0.4444,1.1111,-0.0562,-0.0317,-0.0122,1,1,1,1,1,1,1
13.6309,sweep,2,+up,-0.00629,0.56020,0.01659,1.56958,0.08640,0.01087,-0.00324,-0.0073,0.1929,0.0024,0.0073,0.0073,-0.0220,-0.0073,-0.3077,2.2632,-0.4718,1.1453,-0.0611,-0.0269,-0.0122,1,1,1,1,1,1,1
13.6710,sweep,2,+up,-0.00629,0.56020,0.01659,1.56958,0.08640,0.01087,-0.00324,-0.0073,0.1929,0.0024,0.0073,0.0073,-0.0220,-0.0073,-0.3077,2.2632,-0.4718,1.1453,-0.0611,-0.0269,-0.0122,1,1,1,1,1,1,1
13.7108,sweep,2,+up,-0.00629,0.56020,0.01659,1.56958,0.08640,0.01087,-0.00324,-0.0073,0.1929,0.0024,0.0073,0.0073,-0.0220,-0.0073,-0.3077,2.2632,-0.4718,1.1453,-0.0611,-0.0269,-0.0122,1,1,1,1,1,1,1
13.7506,sweep,2,+up,-0.00629,0.58461,0.01659,1.56958,0.08640,0.01125,-0.00324,-0.0024,0.2271,-0.0024,-0.0073,-0.0220,-0.0073,-0.0073,-0.2940,1.9077,-0.4718,1.1990,-0.0611,-0.0269,-0.0122,1,1,1,1,1,1,1
13.7908,sweep,2,+up,-0.00629,0.58461,0.01659,1.56958,0.08640,0.01125,-0.00324,-0.0024,0.2271,-0.0024,-0.0073,-0.0220,-0.0073,-0.0073,-0.2940,1.9077,-0.4718,1.1990,-0.0611,-0.0269,-0.0122,1,1,1,1,1,1,1
13.8311,sweep,2,+up,-0.00629,0.60063,0.01659,1.56958,0.08640,0.01125,-0.00362,0.0024,0.1783,-0.0024,-0.0073,0.0073,-0.0220,-0.0073,-0.2940,1.9350,-0.4718,1.2381,-0.0611,-0.0317,-0.0122,1,1,1,1,1,1,1
13.8710,sweep,2,+up,-0.00629,0.60063,0.01659,1.56958,0.08640,0.01125,-0.00362,0.0024,0.1783,-0.0024,-0.0073,0.0073,-0.0220,-0.0073,-0.2940,1.9350,-0.4718,1.2381,-0.0611,-0.0317,-0.0122,1,1,1,1,1,1,1
13.9111,sweep,2,+up,-0.00629,0.60063,0.01659,1.56958,0.08640,0.01125,-0.00362,0.0024,0.1783,-0.0024,-0.0073,0.0073,-0.0220,-0.0073,-0.2940,1.9350,-0.4718,1.2381,-0.0611,-0.0317,-0.0122,1,1,1,1,1,1,1
13.9511,sweep,2,+up,-0.00629,0.62467,0.01659,1.56958,0.08640,0.01125,-0.00362,0.0024,0.2076,-0.0024,-0.0073,-0.0073,-0.0073,-0.0073,-0.2940,1.7026,-0.4581,1.2967,-0.0611,-0.0317,-0.0122,1,1,1,1,1,1,1
13.9908,sweep,2,+up,-0.00629,0.62467,0.01659,1.56958,0.08640,0.01125,-0.00362,0.0024,0.2076,-0.0024,-0.0073,-0.0073,-0.0073,-0.0073,-0.2940,1.7026,-0.4581,1.2967,-0.0611,-0.0317,-0.0122,1,1,1,1,1,1,1
14.0312,sweep,2,+up,-0.00629,0.64031,0.01659,1.56958,0.08640,0.01125,-0.00324,-0.0024,0.1734,0.0024,-0.0220,-0.0220,0.0073,-0.0073,-0.2940,1.9350,-0.4308,1.3407,-0.0611,-0.0269,-0.0073,1,1,1,1,1,1,1
14.0710,sweep,2,+up,-0.00629,0.64031,0.01659,1.56958,0.08640,0.01125,-0.00324,-0.0024,0.1734,0.0024,-0.0220,-0.0220,0.0073,-0.0073,-0.2940,1.9350,-0.4308,1.3407,-0.0611,-0.0269,-0.0073,1,1,1,1,1,1,1
14.1111,sweep,2,+up,-0.00629,0.64031,0.01659,1.56958,0.08640,0.01125,-0.00324,-0.0024,0.1734,0.0024,-0.0220,-0.0220,0.0073,-0.0073,-0.2940,1.9350,-0.4308,1.3407,-0.0611,-0.0269,-0.0073,1,1,1,1,1,1,1
14.1508,sweep,2,+up,-0.00629,0.66472,0.01659,1.56958,0.08640,0.01125,-0.00362,-0.0024,0.1929,0.0024,0.0073,-0.0073,-0.0220,-0.0073,-0.2940,1.4154,-0.4444,1.3944,-0.0562,-0.0317,-0.0073,1,1,1,1,1,1,1
14.1912,sweep,2,+up,-0.00629,0.66472,0.01659,1.56958,0.08640,0.01125,-0.00362,-0.0024,0.1929,0.0024,0.0073,-0.0073,-0.0220,-0.0073,-0.2940,1.4154,-0.4444,1.3944,-0.0562,-0.0317,-0.0073,1,1,1,1,1,1,1
14.2309,sweep,2,+up,-0.00629,0.67960,0.01659,1.56958,0.08640,0.01125,-0.00324,-0.0024,0.1538,-0.0024,-0.0220,-0.0073,-0.0073,-0.0073,-0.2940,1.4427,-0.4171,1.4432,-0.0562,-0.0317,-0.0073,1,1,1,1,1,1,1
14.2709,sweep,2,+up,-0.00629,0.67960,0.01659,1.56958,0.08640,0.01125,-0.00324,-0.0024,0.1538,-0.0024,-0.0220,-0.0073,-0.0073,-0.0073,-0.2940,1.4427,-0.4171,1.4432,-0.0562,-0.0317,-0.0073,1,1,1,1,1,1,1
14.3111,sweep,2,+up,-0.00629,0.67960,0.01659,1.56958,0.08640,0.01125,-0.00324,-0.0024,0.1538,-0.0024,-0.0220,-0.0073,-0.0073,-0.0073,-0.2940,1.4427,-0.4171,1.4432,-0.0562,-0.0317,-0.0073,1,1,1,1,1,1,1
14.3512,sweep,2,+up,-0.00629,0.69867,0.01659,1.56958,0.08640,0.01125,-0.00362,-0.0073,0.1343,-0.0024,-0.0073,0.0073,-0.0073,-0.0220,-0.3077,1.3880,-0.4308,1.4872,-0.0562,-0.0317,-0.0073,1,1,1,1,1,1,1
14.3912,sweep,2,+up,-0.00629,0.69867,0.01659,1.56958,0.08640,0.01125,-0.00362,-0.0073,0.1343,-0.0024,-0.0073,0.0073,-0.0073,-0.0220,-0.3077,1.3880,-0.4308,1.4872,-0.0562,-0.0317,-0.0073,1,1,1,1,1,1,1
14.4313,sweep,2,+up,-0.00629,0.71012,0.01659,1.56958,0.08640,0.01125,-0.00362,-0.0024,0.1294,-0.0073,-0.0073,-0.0073,-0.0220,-0.0073,-0.2940,1.1009,-0.4444,1.5116,-0.0562,-0.0317,-0.0073,1,1,1,1,1,1,1
14.4710,sweep,2,+up,-0.00629,0.71012,0.01659,1.56958,0.08640,0.01125,-0.00362,-0.0024,0.1294,-0.0073,-0.0073,-0.0073,-0.0220,-0.0073,-0.2940,1.1009,-0.4444,1.5116,-0.0562,-0.0317,-0.0073,1,1,1,1,1,1,1
14.5107,sweep,2,+up,-0.00629,0.71012,0.01659,1.56958,0.08640,0.01125,-0.00362,-0.0024,0.1294,-0.0073,-0.0073,-0.0073,-0.0220,-0.0073,-0.2940,1.1009,-0.4444,1.5116,-0.0562,-0.0317,-0.0073,1,1,1,1,1,1,1
14.5515,sweep,2,+up,-0.00629,0.72461,0.01659,1.56958,0.08640,0.01125,-0.00362,-0.0024,0.1001,0.0024,0.0073,-0.0220,-0.0073,-0.0220,-0.3077,1.1966,-0.4308,1.5507,-0.0513,-0.0366,-0.0122,1,1,1,1,1,1,1
14.5908,sweep,2,+up,-0.00629,0.72461,0.01659,1.56958,0.08640,0.01125,-0.00362,-0.0024,0.1001,0.0024,0.0073,-0.0220,-0.0073,-0.0220,-0.3077,1.1966,-0.4308,1.5507,-0.0513,-0.0366,-0.0122,1,1,1,1,1,1,1
14.6311,sweep,2,+up,-0.00629,0.73339,0.01659,1.56958,0.08640,0.01125,-0.00324,-0.0024,0.1001,-0.0024,-0.0073,-0.0220,-0.0073,-0.0073,-0.3077,0.8000,-0.4171,1.5800,-0.0464,-0.0366,-0.0122,1,1,1,1,1,1,1
14.6710,sweep,2,+up,-0.00629,0.73339,0.01659,1.56958,0.08640,0.01125,-0.00324,-0.0024,0.1001,-0.0024,-0.0073,-0.0220,-0.0073,-0.0073,-0.3077,0.8000,-0.4171,1.5800,-0.0464,-0.0366,-0.0122,1,1,1,1,1,1,1
14.7108,sweep,2,+up,-0.00629,0.73339,0.01659,1.56958,0.08640,0.01125,-0.00324,-0.0024,0.1001,-0.0024,-0.0073,-0.0220,-0.0073,-0.0073,-0.3077,0.8000,-0.4171,1.5800,-0.0464,-0.0366,-0.0122,1,1,1,1,1,1,1
14.7509,sweep,2,+up,-0.00629,0.74445,0.01659,1.56996,0.08602,0.01125,-0.00324,-0.0024,0.0806,-0.0024,0.0220,-0.0220,-0.0073,-0.0073,-0.2803,0.9504,-0.4034,1.6044,-0.0513,-0.0366,-0.0122,1,1,1,1,1,1,1
14.7909,sweep,2,+up,-0.00629,0.74445,0.01659,1.56996,0.08602,0.01125,-0.00324,-0.0024,0.0806,-0.0024,0.0220,-0.0220,-0.0073,-0.0073,-0.2803,0.9504,-0.4034,1.6044,-0.0513,-0.0366,-0.0122,1,1,1,1,1,1,1
14.8310,sweep,2,+up,-0.00629,0.75093,0.01659,1.57073,0.08640,0.01125,-0.00324,0.0024,0.0757,-0.0024,-0.0220,0.0073,-0.0220,-0.0073,-0.2940,0.9641,-0.4171,1.5653,-0.0562,-0.0366,-0.0122,1,1,1,1,1,1,1
14.8709,sweep,2,+up,-0.00629,0.75093,0.01659,1.57073,0.08640,0.01125,-0.00324,0.0024,0.0757,-0.0024,-0.0220,0.0073,-0.0220,-0.0073,-0.2940,0.9641,-0.4171,1.5653,-0.0562,-0.0366,-0.0122,1,1,1,1,1,1,1
14.9109,sweep,2,+up,-0.00629,0.75093,0.01659,1.57073,0.08640,0.01125,-0.00324,0.0024,0.0757,-0.0024,-0.0220,0.0073,-0.0220,-0.0073,-0.2940,0.9641,-0.4171,1.5653,-0.0562,-0.0366,-0.0122,1,1,1,1,1,1,1
14.9509,sweep,2,+up,-0.00629,0.75971,0.01659,1.57111,0.08602,0.01125,-0.00362,-0.0024,0.0513,-0.0024,-0.0073,-0.0073,-0.0073,-0.0073,-0.2940,0.7590,-0.4034,1.5263,-0.0513,-0.0366,-0.0122,1,1,1,1,1,1,1
14.9911,sweep,2,+up,-0.00629,0.75971,0.01659,1.57111,0.08602,0.01125,-0.00362,-0.0024,0.0513,-0.0024,-0.0073,-0.0073,-0.0073,-0.0073,-0.2940,0.7590,-0.4034,1.5263,-0.0513,-0.0366,-0.0122,1,1,1,1,1,1,1
15.0312,sweep,2,+up,-0.00629,0.76429,0.01659,1.57111,0.08640,0.01125,-0.00324,-0.0024,0.0562,-0.0024,-0.0073,-0.0073,0.0073,-0.0073,-0.2803,1.0325,-0.4034,1.5018,-0.0562,-0.0366,-0.0073,1,1,1,1,1,1,1
15.0710,sweep,2,+up,-0.00629,0.76429,0.01659,1.57111,0.08640,0.01125,-0.00324,-0.0024,0.0562,-0.0024,-0.0073,-0.0073,0.0073,-0.0073,-0.2803,1.0325,-0.4034,1.5018,-0.0562,-0.0366,-0.0073,1,1,1,1,1,1,1
15.1108,sweep,2,+up,-0.00629,0.76429,0.01659,1.57111,0.08640,0.01125,-0.00324,-0.0024,0.0562,-0.0024,-0.0073,-0.0073,0.0073,-0.0073,-0.2803,1.0325,-0.4034,1.5018,-0.0562,-0.0366,-0.0073,1,1,1,1,1,1,1
15.1511,sweep,2,+up,-0.00629,0.77077,0.01659,1.57111,0.08640,0.01125,-0.00324,0.0024,0.0317,-0.0024,-0.0073,-0.0073,-0.0073,-0.0220,-0.2940,0.9368,-0.3897,1.4823,-0.0611,-0.0366,-0.0122,1,1,1,1,1,1,1
15.1909,sweep,2,+up,-0.00629,0.77077,0.01659,1.57111,0.08640,0.01125,-0.00324,0.0024,0.0317,-0.0024,-0.0073,-0.0073,-0.0073,-0.0220,-0.2940,0.9368,-0.3897,1.4823,-0.0611,-0.0366,-0.0122,1,1,1,1,1,1,1
15.2309,sweep,2,+up,-0.00629,0.77459,0.01659,1.57111,0.08640,0.01125,-0.00324,-0.0024,0.0171,-0.0024,-0.0220,-0.0220,-0.0073,-0.0073,-0.2940,0.9915,-0.3761,1.4676,-0.0659,-0.0415,-0.0122,1,1,1,1,1,1,1
15.2709,sweep,2,+up,-0.00629,0.77459,0.01659,1.57111,0.08640,0.01125,-0.00324,-0.0024,0.0171,-0.0024,-0.0220,-0.0220,-0.0073,-0.0073,-0.2940,0.9915,-0.3761,1.4676,-0.0659,-0.0415,-0.0122,1,1,1,1,1,1,1
15.3110,sweep,2,+up,-0.00629,0.77459,0.01659,1.57111,0.08640,0.01125,-0.00324,-0.0024,0.0171,-0.0024,-0.0220,-0.0220,-0.0073,-0.0073,-0.2940,0.9915,-0.3761,1.4676,-0.0659,-0.0415,-0.0122,1,1,1,1,1,1,1
15.3510,sweep,2,+up,-0.00629,0.77993,0.01659,1.57111,0.08602,0.01125,-0.00324,-0.0024,0.0513,-0.0073,-0.0073,-0.0073,-0.0073,0.0073,-0.2803,0.6222,-0.4171,1.4579,-0.0611,-0.0366,-0.0122,1,1,1,1,1,1,1
15.3914,sweep,2,+up,-0.00629,0.77993,0.01659,1.57111,0.08602,0.01125,-0.00324,-0.0024,0.0513,-0.0073,-0.0073,-0.0073,-0.0073,0.0073,-0.2803,0.6222,-0.4171,1.4579,-0.0611,-0.0366,-0.0122,1,1,1,1,1,1,1
15.4309,sweep,2,+up,-0.00629,0.78260,0.01659,1.57073,0.08640,0.01125,-0.00324,-0.0073,0.0317,-0.0073,-0.0073,-0.0073,-0.0220,-0.0073,-0.2803,0.7726,-0.4308,1.4628,-0.0659,-0.0415,-0.0122,1,1,1,1,1,1,1
15.4709,sweep,2,+up,-0.00629,0.78260,0.01659,1.57073,0.08640,0.01125,-0.00324,-0.0073,0.0317,-0.0073,-0.0073,-0.0073,-0.0220,-0.0073,-0.2803,0.7726,-0.4308,1.4628,-0.0659,-0.0415,-0.0122,1,1,1,1,1,1,1
15.5110,sweep,2,+up,-0.00629,0.78260,0.01659,1.57073,0.08640,0.01125,-0.00324,-0.0073,0.0317,-0.0073,-0.0073,-0.0073,-0.0220,-0.0073,-0.2803,0.7726,-0.4308,1.4628,-0.0659,-0.0415,-0.0122,1,1,1,1,1,1,1
15.5514,sweep,2,+up,-0.00629,0.78641,0.01659,1.57034,0.08602,0.01125,-0.00324,-0.0024,0.0513,-0.0073,-0.0073,-0.0073,-0.0073,-0.0073,-0.2530,0.5538,-0.4034,1.4628,-0.0659,-0.0415,-0.0122,1,1,1,1,1,1,1
15.5910,sweep,2,+up,-0.00629,0.78641,0.01659,1.57034,0.08602,0.01125,-0.00324,-0.0024,0.0513,-0.0073,-0.0073,-0.0073,-0.0073,-0.0073,-0.2530,0.5538,-0.4034,1.4628,-0.0659,-0.0415,-0.0122,1,1,1,1,1,1,1
15.6312,sweep,2,+up,-0.00629,0.78870,0.01659,1.57034,0.08602,0.01125,-0.00362,-0.0073,0.0317,-0.0024,-0.0073,-0.0073,-0.0220,-0.0073,-0.2803,0.5949,-0.3897,1.5018,-0.0708,-0.0415,-0.0122,1,1,1,1,1,1,1
16.1342,sweep,2,-down,-0.00629,0.78946,0.01659,1.56996,0.08640,0.01125,-0.00324,-0.0024,0.0073,-0.0024,-0.0073,0.0073,-0.0073,-0.0073,-0.2803,0.7179,-0.3897,1.5067,-0.0708,-0.0464,-0.0171,1,1,1,1,1,1,1
16.1740,sweep,2,-down,-0.00629,0.78946,0.01659,1.56996,0.08640,0.01125,-0.00324,-0.0024,0.0073,-0.0024,-0.0073,0.0073,-0.0073,-0.0073,-0.2803,0.7179,-0.3897,1.5067,-0.0708,-0.0464,-0.0171,1,1,1,1,1,1,1
16.2138,sweep,2,-down,-0.00629,0.78946,0.01659,1.56996,0.08640,0.01125,-0.00324,-0.0024,0.0073,-0.0024,-0.0073,0.0073,-0.0073,-0.0073,-0.2803,0.7179,-0.3897,1.5067,-0.0708,-0.0464,-0.0171,1,1,1,1,1,1,1
16.2539,sweep,2,-down,-0.00629,0.78565,0.01659,1.56996,0.08602,0.01125,-0.00324,-0.0024,-0.1783,-0.0024,-0.0220,-0.0073,-0.0220,-0.0073,-0.2530,-0.7590,-0.3897,1.6142,-0.0611,-0.0513,-0.0073,1,1,1,1,1,1,1
16.2940,sweep,2,-down,-0.00629,0.78565,0.01659,1.56996,0.08602,0.01125,-0.00324,-0.0024,-0.1783,-0.0024,-0.0220,-0.0073,-0.0220,-0.0073,-0.2530,-0.7590,-0.3897,1.6142,-0.0611,-0.0513,-0.0073,1,1,1,1,1,1,1
16.3340,sweep,2,-down,-0.00629,0.76925,0.01659,1.56996,0.08640,0.01125,-0.00324,-0.0024,-0.2222,-0.0024,0.0073,0.0073,-0.0220,-0.0073,-0.2530,-0.4034,-0.3897,1.6386,-0.0611,-0.0562,-0.0122,1,1,1,1,1,1,1
16.3739,sweep,2,-down,-0.00629,0.76925,0.01659,1.56996,0.08640,0.01125,-0.00324,-0.0024,-0.2222,-0.0024,0.0073,0.0073,-0.0220,-0.0073,-0.2530,-0.4034,-0.3897,1.6386,-0.0611,-0.0562,-0.0122,1,1,1,1,1,1,1
16.4141,sweep,2,-down,-0.00629,0.76925,0.01659,1.56996,0.08640,0.01125,-0.00324,-0.0024,-0.2222,-0.0024,0.0073,0.0073,-0.0220,-0.0073,-0.2530,-0.4034,-0.3897,1.6386,-0.0611,-0.0562,-0.0122,1,1,1,1,1,1,1
16.4541,sweep,2,-down,-0.00629,0.74407,0.01659,1.57340,0.08602,0.01125,-0.00324,-0.0024,-0.2027,-0.0024,0.0073,-0.0073,-0.0073,-0.0073,-0.2530,0.2120,-0.3761,1.3602,-0.0611,-0.0562,-0.0073,1,1,1,1,1,1,1
16.4937,sweep,2,-down,-0.00629,0.74407,0.01659,1.57340,0.08602,0.01125,-0.00324,-0.0024,-0.2027,-0.0024,0.0073,-0.0073,-0.0073,-0.0073,-0.2530,0.2120,-0.3761,1.3602,-0.0611,-0.0562,-0.0073,1,1,1,1,1,1,1
16.5337,sweep,2,-down,-0.00629,0.72881,0.01659,1.57225,0.08602,0.01125,-0.00324,-0.0024,-0.2173,-0.0024,-0.0220,0.0073,-0.0073,-0.0073,-0.2530,-0.0342,-0.3761,1.3602,-0.0659,-0.0562,-0.0024,1,1,1,1,1,1,1
16.5738,sweep,2,-down,-0.00629,0.72881,0.01659,1.57225,0.08602,0.01125,-0.00324,-0.0024,-0.2173,-0.0024,-0.0220,0.0073,-0.0073,-0.0073,-0.2530,-0.0342,-0.3761,1.3602,-0.0659,-0.0562,-0.0024,1,1,1,1,1,1,1
16.6140,sweep,2,-down,-0.00629,0.72881,0.01659,1.57225,0.08602,0.01125,-0.00324,-0.0024,-0.2173,-0.0024,-0.0220,0.0073,-0.0073,-0.0073,-0.2530,-0.0342,-0.3761,1.3602,-0.0659,-0.0562,-0.0024,1,1,1,1,1,1,1
16.6541,sweep,2,-down,-0.00629,0.70363,0.01659,1.57225,0.08602,0.01125,-0.00362,-0.0024,-0.2076,-0.0024,0.0073,-0.0073,0.0073,-0.0073,-0.2667,0.4444,-0.3624,1.2869,-0.0708,-0.0562,-0.0024,1,1,1,1,1,1,1
16.6939,sweep,2,-down,-0.00629,0.70363,0.01659,1.57225,0.08602,0.01125,-0.00362,-0.0024,-0.2076,-0.0024,0.0073,-0.0073,0.0073,-0.0073,-0.2667,0.4444,-0.3624,1.2869,-0.0708,-0.0562,-0.0024,1,1,1,1,1,1,1
16.7339,sweep,2,-down,-0.00629,0.68761,0.01659,1.57187,0.08602,0.01087,-0.00362,0.0024,-0.1929,-0.0024,-0.0220,-0.0073,-0.0073,-0.0073,-0.2530,0.4308,-0.3624,1.2381,-0.0611,-0.0562,-0.0024,1,1,1,1,1,1,1
16.7738,sweep,2,-down,-0.00629,0.68761,0.01659,1.57187,0.08602,0.01087,-0.00362,0.0024,-0.1929,-0.0024,-0.0220,-0.0073,-0.0073,-0.0073,-0.2530,0.4308,-0.3624,1.2381,-0.0611,-0.0562,-0.0024,1,1,1,1,1,1,1
16.8139,sweep,2,-down,-0.00629,0.68761,0.01659,1.57187,0.08602,0.01087,-0.00362,0.0024,-0.1929,-0.0024,-0.0220,-0.0073,-0.0073,-0.0073,-0.2530,0.4308,-0.3624,1.2381,-0.0611,-0.0562,-0.0024,1,1,1,1,1,1,1
16.8537,sweep,2,-down,-0.00629,0.66358,0.01659,1.57187,0.08602,0.01087,-0.00324,0.0024,-0.2271,-0.0073,-0.0220,-0.0073,-0.0220,-0.0220,-0.2530,0.6085,-0.3487,1.1697,-0.0659,-0.0513,-0.0024,1,1,1,1,1,1,1
16.8938,sweep,2,-down,-0.00629,0.66358,0.01659,1.57187,0.08602,0.01087,-0.00324,0.0024,-0.2271,-0.0073,-0.0220,-0.0073,-0.0220,-0.0220,-0.2530,0.6085,-0.3487,1.1697,-0.0659,-0.0513,-0.0024,1,1,1,1,1,1,1
16.9336,sweep,2,-down,-0.00629,0.64755,0.01659,1.57225,0.08602,0.01087,-0.00324,-0.0024,-0.1783,0.0024,-0.0073,0.0073,-0.0073,-0.0073,-0.2530,0.6222,-0.3624,1.1160,-0.0708,-0.0562,-0.0073,1,1,1,1,1,1,1
16.9736,sweep,2,-down,-0.00629,0.64755,0.01659,1.57225,0.08602,0.01087,-0.00324,-0.0024,-0.1783,0.0024,-0.0073,0.0073,-0.0073,-0.0073,-0.2530,0.6222,-0.3624,1.1160,-0.0708,-0.0562,-0.0073,1,1,1,1,1,1,1
17.0140,sweep,2,-down,-0.00629,0.64755,0.01659,1.57225,0.08602,0.01087,-0.00324,-0.0024,-0.1783,0.0024,-0.0073,0.0073,-0.0073,-0.0073,-0.2530,0.6222,-0.3624,1.1160,-0.0708,-0.0562,-0.0073,1,1,1,1,1,1,1
17.0540,sweep,2,-down,-0.00629,0.62314,0.01659,1.57187,0.08602,0.01087,-0.00362,0.0024,-0.2125,-0.0024,-0.0073,-0.0073,-0.0073,-0.0073,-0.2393,0.9778,-0.3487,1.0525,-0.0708,-0.0562,-0.0073,1,1,1,1,1,1,1
17.0938,sweep,2,-down,-0.00629,0.62314,0.01659,1.57187,0.08602,0.01087,-0.00362,0.0024,-0.2125,-0.0024,-0.0073,-0.0073,-0.0073,-0.0073,-0.2393,0.9778,-0.3487,1.0525,-0.0708,-0.0562,-0.0073,1,1,1,1,1,1,1
17.1339,sweep,2,-down,-0.00629,0.60750,0.01659,1.57187,0.08602,0.01087,-0.00362,-0.0024,-0.1929,0.0024,-0.0073,-0.0073,-0.0220,-0.0220,-0.2393,0.7453,-0.3487,1.0085,-0.0659,-0.0513,-0.0073,1,1,1,1,1,1,1
17.1738,sweep,2,-down,-0.00629,0.60750,0.01659,1.57187,0.08602,0.01087,-0.00362,-0.0024,-0.1929,0.0024,-0.0073,-0.0073,-0.0220,-0.0220,-0.2393,0.7453,-0.3487,1.0085,-0.0659,-0.0513,-0.0073,1,1,1,1,1,1,1
17.2140,sweep,2,-down,-0.00629,0.60750,0.01659,1.57187,0.08602,0.01087,-0.00362,-0.0024,-0.1929,0.0024,-0.0073,-0.0073,-0.0220,-0.0220,-0.2393,0.7453,-0.3487,1.0085,-0.0659,-0.0513,-0.0073,1,1,1,1,1,1,1
17.2537,sweep,2,-down,-0.00629,0.58309,0.01659,1.57187,0.08602,0.01087,-0.00324,-0.0024,-0.2076,-0.0024,-0.0073,0.0073,-0.0220,-0.0073,-0.2256,1.1829,-0.3624,0.9499,-0.0611,-0.0562,-0.0024,1,1,1,1,1,1,1
17.2942,sweep,2,-down,-0.00629,0.58309,0.01659,1.57187,0.08602,0.01087,-0.00324,-0.0024,-0.2076,-0.0024,-0.0073,0.0073,-0.0220,-0.0073,-0.2256,1.1829,-0.3624,0.9499,-0.0611,-0.0562,-0.0024,1,1,1,1,1,1,1
17.3340,sweep,2,-down,-0.00629,0.56706,0.01659,1.57187,0.08602,0.01125,-0.00324,0.0024,-0.1978,-0.0024,-0.0073,-0.0073,-0.0220,0.0073,-0.2256,0.9915,-0.3487,0.9011,-0.0611,-0.0562,-0.0024,1,1,1,1,1,1,1
17.3737,sweep,2,-down,-0.00629,0.56706,0.01659,1.57187,0.08602,0.01125,-0.00324,0.0024,-0.1978,-0.0024,-0.0073,-0.0073,-0.0220,0.0073,-0.2256,0.9915,-0.3487,0.9011,-0.0611,-0.0562,-0.0024,1,1,1,1,1,1,1
17.4138,sweep,2,-down,-0.00629,0.56706,0.01659,1.57187,0.08602,0.01125,-0.00324,0.0024,-0.1978,-0.0024,-0.0073,-0.0073,-0.0220,0.0073,-0.2256,0.9915,-0.3487,0.9011,-0.0611,-0.0562,-0.0024,1,1,1,1,1,1,1
17.4538,sweep,2,-down,-0.00629,0.54303,0.01659,1.57187,0.08640,0.01087,-0.00324,-0.0024,-0.1783,-0.0073,-0.0073,-0.0073,-0.0073,0.0073,-0.2393,1.2786,-0.3761,0.8376,-0.0562,-0.0562,-0.0024,1,1,1,1,1,1,1
17.4939,sweep,2,-down,-0.00629,0.54303,0.01659,1.57187,0.08640,0.01087,-0.00324,-0.0024,-0.1783,-0.0073,-0.0073,-0.0073,-0.0073,0.0073,-0.2393,1.2786,-0.3761,0.8376,-0.0562,-0.0562,-0.0024,1,1,1,1,1,1,1
17.5337,sweep,2,-down,-0.00629,0.52701,0.01659,1.57187,0.08602,0.01087,-0.00324,-0.0024,-0.2125,-0.0024,0.0073,-0.0073,0.0073,0.0073,-0.2393,1.2513,-0.3624,0.7937,-0.0562,-0.0562,-0.0024,1,1,1,1,1,1,1
17.5739,sweep,2,-down,-0.00629,0.52701,0.01659,1.57187,0.08602,0.01087,-0.00324,-0.0024,-0.2125,-0.0024,0.0073,-0.0073,0.0073,0.0073,-0.2393,1.2513,-0.3624,0.7937,-0.0562,-0.0562,-0.0024,1,1,1,1,1,1,1
17.6141,sweep,2,-down,-0.00629,0.52701,0.01659,1.57187,0.08602,0.01087,-0.00324,-0.0024,-0.2125,-0.0024,0.0073,-0.0073,0.0073,0.0073,-0.2393,1.2513,-0.3624,0.7937,-0.0562,-0.0562,-0.0024,1,1,1,1,1,1,1
17.6543,sweep,2,-down,-0.00629,0.50298,0.01659,1.57187,0.08640,0.01087,-0.00324,-0.0024,-0.2027,-0.0024,-0.0220,0.0073,-0.0073,0.0073,-0.2393,1.4974,-0.3624,0.7350,-0.0562,-0.0562,-0.0024,1,1,1,1,1,1,1
17.6941,sweep,2,-down,-0.00629,0.50298,0.01659,1.57187,0.08640,0.01087,-0.00324,-0.0024,-0.2027,-0.0024,-0.0220,0.0073,-0.0073,0.0073,-0.2393,1.4974,-0.3624,0.7350,-0.0562,-0.0562,-0.0024,1,1,1,1,1,1,1
17.7338,sweep,2,-down,-0.00629,0.48657,0.01659,1.57187,0.08640,0.01087,-0.00324,-0.0024,-0.2125,-0.0024,-0.0073,-0.0220,-0.0073,-0.0073,-0.2256,1.6752,-0.3761,0.6911,-0.0562,-0.0562,-0.0024,1,1,1,1,1,1,1
17.7739,sweep,2,-down,-0.00629,0.48657,0.01659,1.57187,0.08640,0.01087,-0.00324,-0.0024,-0.2125,-0.0024,-0.0073,-0.0220,-0.0073,-0.0073,-0.2256,1.6752,-0.3761,0.6911,-0.0562,-0.0562,-0.0024,1,1,1,1,1,1,1
17.8140,sweep,2,-down,-0.00629,0.48657,0.01659,1.57187,0.08640,0.01087,-0.00324,-0.0024,-0.2125,-0.0024,-0.0073,-0.0220,-0.0073,-0.0073,-0.2256,1.6752,-0.3761,0.6911,-0.0562,-0.0562,-0.0024,1,1,1,1,1,1,1
17.8542,sweep,2,-down,-0.00629,0.46254,0.01659,1.57187,0.08640,0.01087,-0.00324,-0.0073,-0.1929,-0.0024,0.0073,-0.0073,-0.0073,-0.0073,-0.2530,1.6752,-0.3624,0.6374,-0.0513,-0.0562,-0.0073,1,1,1,1,1,1,1
17.8938,sweep,2,-down,-0.00629,0.46254,0.01659,1.57187,0.08640,0.01087,-0.00324,-0.0073,-0.1929,-0.0024,0.0073,-0.0073,-0.0073,-0.0073,-0.2530,1.6752,-0.3624,0.6374,-0.0513,-0.0562,-0.0073,1,1,1,1,1,1,1
17.9339,sweep,2,-down,-0.00629,0.44652,0.01659,1.57187,0.08640,0.01087,-0.00362,-0.0024,-0.2222,-0.0073,-0.0073,-0.0073,-0.0073,-0.0073,-0.2393,1.9350,-0.3624,0.5885,-0.0464,-0.0562,-0.0122,1,1,1,1,1,1,1
17.9738,sweep,2,-down,-0.00629,0.44652,0.01659,1.57187,0.08640,0.01087,-0.00362,-0.0024,-0.2222,-0.0073,-0.0073,-0.0073,-0.0073,-0.0073,-0.2393,1.9350,-0.3624,0.5885,-0.0464,-0.0562,-0.0122,1,1,1,1,1,1,1
18.0139,sweep,2,-down,-0.00629,0.44652,0.01659,1.57187,0.08640,0.01087,-0.00362,-0.0024,-0.2222,-0.0073,-0.0073,-0.0073,-0.0073,-0.0073,-0.2393,1.9350,-0.3624,0.5885,-0.0464,-0.0562,-0.0122,1,1,1,1,1,1,1
18.0539,sweep,2,-down,-0.00629,0.42248,0.01659,1.57187,0.08640,0.01087,-0.00324,-0.0073,-0.2173,-0.0073,-0.0073,0.0073,-0.0073,-0.0073,-0.2530,1.9350,-0.3897,0.5250,-0.0464,-0.0513,-0.0122,1,1,1,1,1,1,1
18.0938,sweep,2,-down,-0.00629,0.42248,0.01659,1.57187,0.08640,0.01087,-0.00324,-0.0073,-0.2173,-0.0073,-0.0073,0.0073,-0.0073,-0.0073,-0.2530,1.9350,-0.3897,0.5250,-0.0464,-0.0513,-0.0122,1,1,1,1,1,1,1
18.1343,sweep,2,-down,-0.00629,0.40646,0.01659,1.57187,0.08640,0.01087,-0.00324,-0.0073,-0.1929,-0.0024,-0.0073,0.0073,-0.0073,-0.0073,-0.2530,2.1949,-0.3761,0.4860,-0.0415,-0.0513,-0.0073,1,1,1,1,1,1,1
18.1743,sweep,2,-down,-0.00629,0.40646,0.01659,1.57187,0.08640,0.01087,-0.00324,-0.0073,-0.1929,-0.0024,-0.0073,0.0073,-0.0073,-0.0073,-0.2530,2.1949,-0.3761,0.4860,-0.0415,-0.0513,-0.0073,1,1,1,1,1,1,1
18.2145,sweep,2,-down,-0.00629,0.40646,0.01659,1.57187,0.08640,0.01087,-0.00324,-0.0073,-0.1929,-0.0024,-0.0073,0.0073,-0.0073,-0.0073,-0.2530,2.1949,-0.3761,0.4860,-0.0415,-0.0513,-0.0073,1,1,1,1,1,1,1
18.2545,sweep,2,-down,-0.00629,0.38205,0.01659,1.57187,0.08602,0.01087,-0.00362,0.0024,-0.2173,-0.0024,-0.0073,-0.0073,-0.0220,-0.0073,-0.2530,2.3863,-0.3897,0.4322,-0.0513,-0.0513,-0.0073,1,1,1,1,1,1,1
18.2942,sweep,2,-down,-0.00629,0.38205,0.01659,1.57187,0.08602,0.01087,-0.00362,0.0024,-0.2173,-0.0024,-0.0073,-0.0073,-0.0220,-0.0073,-0.2530,2.3863,-0.3897,0.4322,-0.0513,-0.0513,-0.0073,1,1,1,1,1,1,1
18.3343,sweep,2,-down,-0.00629,0.36603,0.01659,1.57187,0.08640,0.01087,-0.00324,-0.0024,-0.1880,-0.0024,0.0073,-0.0073,-0.0073,-0.0220,-0.2667,2.2632,-0.3897,0.3883,-0.0513,-0.0464,-0.0073,1,1,1,1,1,1,1
18.3740,sweep,2,-down,-0.00629,0.36603,0.01659,1.57187,0.08640,0.01087,-0.00324,-0.0024,-0.1880,-0.0024,0.0073,-0.0073,-0.0073,-0.0220,-0.2667,2.2632,-0.3897,0.3883,-0.0513,-0.0464,-0.0073,1,1,1,1,1,1,1
18.4141,sweep,2,-down,-0.00629,0.36603,0.01659,1.57187,0.08640,0.01087,-0.00324,-0.0024,-0.1880,-0.0024,0.0073,-0.0073,-0.0073,-0.0220,-0.2667,2.2632,-0.3897,0.3883,-0.0513,-0.0464,-0.0073,1,1,1,1,1,1,1
18.4544,sweep,2,-down,-0.00629,0.34199,0.01659,1.57187,0.08602,0.01087,-0.00362,0.0024,-0.2222,-0.0024,-0.0073,-0.0073,-0.0073,0.0073,-0.2667,2.5504,-0.3897,0.3297,-0.0513,-0.0464,-0.0122,1,1,1,1,1,1,1
18.4944,sweep,2,-down,-0.00629,0.34199,0.01659,1.57187,0.08602,0.01087,-0.00362,0.0024,-0.2222,-0.0024,-0.0073,-0.0073,-0.0073,0.0073,-0.2667,2.5504,-0.3897,0.3297,-0.0513,-0.0464,-0.0122,1,1,1,1,1,1,1
18.5341,sweep,2,-down,-0.00629,0.32597,0.01659,1.57149,0.08640,0.01087,-0.00324,-0.0024,-0.1929,-0.0024,-0.0073,-0.0073,-0.0220,0.0073,-0.2530,2.3316,-0.3897,0.3199,-0.0513,-0.0464,-0.0122,1,1,1,1,1,1,1
18.5738,sweep,2,-down,-0.00629,0.32597,0.01659,1.57149,0.08640,0.01087,-0.00324,-0.0024,-0.1929,-0.0024,-0.0073,-0.0073,-0.0220,0.0073,-0.2530,2.3316,-0.3897,0.3199,-0.0513,-0.0464,-0.0122,1,1,1,1,1,1,1
18.6139,sweep,2,-down,-0.00629,0.32597,0.01659,1.57149,0.08640,0.01087,-0.00324,-0.0024,-0.1929,-0.0024,-0.0073,-0.0073,-0.0220,0.0073,-0.2530,2.3316,-0.3897,0.3199,-0.0513,-0.0464,-0.0122,1,1,1,1,1,1,1
18.6542,sweep,2,-down,-0.00629,0.30194,0.01659,1.57149,0.08602,0.01087,-0.00324,-0.0073,-0.2173,-0.0024,-0.0073,-0.0073,-0.0220,-0.0073,-0.2530,2.8239,-0.3897,0.2808,-0.0562,-0.0464,-0.0171,1,1,1,1,1,1,1
18.6938,sweep,2,-down,-0.00629,0.30194,0.01659,1.57149,0.08602,0.01087,-0.00324,-0.0073,-0.2173,-0.0024,-0.0073,-0.0073,-0.0220,-0.0073,-0.2530,2.8239,-0.3897,0.2808,-0.0562,-0.0464,-0.0171,1,1,1,1,1,1,1
18.7339,sweep,2,-down,-0.00629,0.28592,0.01659,1.57187,0.08602,0.01087,-0.00324,-0.0024,-0.1929,-0.0024,-0.0073,-0.0220,-0.0073,0.0073,-0.2667,2.6051,-0.4034,0.2369,-0.0611,-0.0464,-0.0171,1,1,1,1,1,1,1
18.7741,sweep,2,-down,-0.00629,0.28592,0.01659,1.57187,0.08602,0.01087,-0.00324,-0.0024,-0.1929,-0.0024,-0.0073,-0.0220,-0.0073,0.0073,-0.2667,2.6051,-0.4034,0.2369,-0.0611,-0.0464,-0.0171,1,1,1,1,1,1,1
18.8145,sweep,2,-down,-0.00629,0.28592,0.01659,1.57187,0.08602,0.01087,-0.00324,-0.0024,-0.1929,-0.0024,-0.0073,-0.0220,-0.0073,0.0073,-0.2667,2.6051,-0.4034,0.2369,-0.0611,-0.0464,-0.0171,1,1,1,1,1,1,1
18.8544,sweep,2,-down,-0.00629,0.26188,0.01659,1.57187,0.08602,0.01087,-0.00362,-0.0024,-0.1734,-0.0024,0.0073,-0.0073,-0.0073,-0.0073,-0.2803,2.7829,-0.4034,0.1587,-0.0611,-0.0415,-0.0220,1,1,1,1,1,1,1
18.8941,sweep,2,-down,-0.00629,0.26188,0.01659,1.57187,0.08602,0.01087,-0.00362,-0.0024,-0.1734,-0.0024,0.0073,-0.0073,-0.0073,-0.0073,-0.2803,2.7829,-0.4034,0.1587,-0.0611,-0.0415,-0.0220,1,1,1,1,1,1,1
18.9338,sweep,2,-down,-0.00629,0.24701,0.01659,1.57225,0.08602,0.01087,-0.00324,-0.0024,-0.1685,-0.0024,0.0073,-0.0220,-0.0220,-0.0073,-0.2530,2.9744,-0.4034,0.1197,-0.0562,-0.0415,-0.0220,1,1,1,1,1,1,1
18.9737,sweep,2,-down,-0.00629,0.24701,0.01659,1.57225,0.08602,0.01087,-0.00324,-0.0024,-0.1685,-0.0024,0.0073,-0.0220,-0.0220,-0.0073,-0.2530,2.9744,-0.4034,0.1197,-0.0562,-0.0415,-0.0220,1,1,1,1,1,1,1
19.0140,sweep,2,-down,-0.00629,0.24701,0.01659,1.57225,0.08602,0.01087,-0.00324,-0.0024,-0.1685,-0.0024,0.0073,-0.0220,-0.0220,-0.0073,-0.2530,2.9744,-0.4034,0.1197,-0.0562,-0.0415,-0.0220,1,1,1,1,1,1,1
19.0538,sweep,2,-down,-0.00629,0.22793,0.01659,1.57187,0.08602,0.01087,-0.00324,-0.0024,-0.1490,-0.0024,0.0073,-0.0073,-0.0220,-0.0073,-0.2530,2.7966,-0.4308,0.0806,-0.0562,-0.0415,-0.0220,1,1,1,1,1,1,1
19.0939,sweep,2,-down,-0.00629,0.22793,0.01659,1.57187,0.08602,0.01087,-0.00324,-0.0024,-0.1490,-0.0024,0.0073,-0.0073,-0.0220,-0.0073,-0.2530,2.7966,-0.4308,0.0806,-0.0562,-0.0415,-0.0220,1,1,1,1,1,1,1
19.1339,sweep,2,-down,-0.00629,0.22259,0.01659,1.57187,0.08602,0.01087,-0.00362,-0.0024,-0.1245,0.0024,-0.0073,-0.0073,0.0073,-0.0220,-0.2530,2.7692,-0.4171,0.0562,-0.0562,-0.0366,-0.0220,1,1,1,1,1,1,1
19.1741,sweep,2,-down,-0.00629,0.22259,0.01659,1.57187,0.08602,0.01087,-0.00362,-0.0024,-0.1245,0.0024,-0.0073,-0.0073,0.0073,-0.0220,-0.2530,2.7692,-0.4171,0.0562,-0.0562,-0.0366,-0.0220,1,1,1,1,1,1,1
19.2139,sweep,2,-down,-0.00629,0.22259,0.01659,1.57187,0.08602,0.01087,-0.00362,-0.0024,-0.1245,0.0024,-0.0073,-0.0073,0.0073,-0.0220,-0.2530,2.7692,-0.4171,0.0562,-0.0562,-0.0366,-0.0220,1,1,1,1,1,1,1
19.2540,sweep,2,-down,-0.00629,0.20237,0.01659,1.57187,0.08640,0.01087,-0.00324,-0.0024,-0.1148,-0.0024,0.0073,-0.0220,0.0073,-0.0073,-0.2393,3.0154,-0.4171,0.0317,-0.0562,-0.0366,-0.0220,1,1,1,1,1,1,1
19.2939,sweep,2,-down,-0.00629,0.20237,0.01659,1.57187,0.08640,0.01087,-0.00324,-0.0024,-0.1148,-0.0024,0.0073,-0.0220,0.0073,-0.0073,-0.2393,3.0154,-0.4171,0.0317,-0.0562,-0.0366,-0.0220,1,1,1,1,1,1,1
19.3339,sweep,2,-down,-0.00629,0.19360,0.01659,1.57225,0.08640,0.01087,-0.00324,-0.0024,-0.1148,-0.0024,0.0073,-0.0073,-0.0073,-0.0073,-0.2393,3.0701,-0.4171,0.0171,-0.0562,-0.0366,-0.0220,1,1,1,1,1,1,1
19.3738,sweep,2,-down,-0.00629,0.19360,0.01659,1.57225,0.08640,0.01087,-0.00324,-0.0024,-0.1148,-0.0024,0.0073,-0.0073,-0.0073,-0.0073,-0.2393,3.0701,-0.4171,0.0171,-0.0562,-0.0366,-0.0220,1,1,1,1,1,1,1
19.4139,sweep,2,-down,-0.00629,0.19360,0.01659,1.57225,0.08640,0.01087,-0.00324,-0.0024,-0.1148,-0.0024,0.0073,-0.0073,-0.0073,-0.0073,-0.2393,3.0701,-0.4171,0.0171,-0.0562,-0.0366,-0.0220,1,1,1,1,1,1,1
19.4538,sweep,2,-down,-0.00629,0.18254,0.01659,1.57187,0.08602,0.01087,-0.00362,-0.0024,-0.1001,-0.0024,-0.0073,-0.0073,-0.0073,-0.0220,-0.2393,3.1385,-0.4308,-0.0122,-0.0513,-0.0317,-0.0171,1,1,1,1,1,1,1
19.4939,sweep,2,-down,-0.00629,0.18254,0.01659,1.57187,0.08602,0.01087,-0.00362,-0.0024,-0.1001,-0.0024,-0.0073,-0.0073,-0.0073,-0.0220,-0.2393,3.1385,-0.4308,-0.0122,-0.0513,-0.0317,-0.0171,1,1,1,1,1,1,1
19.5338,sweep,2,-down,-0.00629,0.17605,0.01659,1.57187,0.08602,0.01087,-0.00362,0.0024,-0.0904,-0.0024,-0.0073,-0.0073,-0.0073,-0.0073,-0.2393,3.1248,-0.4171,-0.0317,-0.0562,-0.0366,-0.0220,1,1,1,1,1,1,1
19.5739,sweep,2,-down,-0.00629,0.17605,0.01659,1.57187,0.08602,0.01087,-0.00362,0.0024,-0.0904,-0.0024,-0.0073,-0.0073,-0.0073,-0.0073,-0.2393,3.1248,-0.4171,-0.0317,-0.0562,-0.0366,-0.0220,1,1,1,1,1,1,1
19.6138,sweep,2,-down,-0.00629,0.17605,0.01659,1.57187,0.08602,0.01087,-0.00362,0.0024,-0.0904,-0.0024,-0.0073,-0.0073,-0.0073,-0.0073,-0.2393,3.1248,-0.4171,-0.0317,-0.0562,-0.0366,-0.0220,1,1,1,1,1,1,1
19.6538,sweep,2,-down,-0.00629,0.16766,0.01659,1.57187,0.08602,0.01087,-0.00324,-0.0024,-0.0757,-0.0024,-0.0073,-0.0220,-0.0220,-0.0073,-0.2393,3.2889,-0.4171,-0.0464,-0.0513,-0.0366,-0.0171,1,1,1,1,1,1,1
19.6938,sweep,2,-down,-0.00629,0.16766,0.01659,1.57187,0.08602,0.01087,-0.00324,-0.0024,-0.0757,-0.0024,-0.0073,-0.0220,-0.0220,-0.0073,-0.2393,3.2889,-0.4171,-0.0464,-0.0513,-0.0366,-0.0171,1,1,1,1,1,1,1
19.7339,sweep,2,-down,-0.00629,0.16270,0.01659,1.57187,0.08602,0.01087,-0.00362,-0.0024,-0.0659,-0.0024,-0.0073,-0.0073,0.0073,-0.0220,-0.2393,2.9880,-0.4034,-0.0562,-0.0513,-0.0366,-0.0220,1,1,1,1,1,1,1
19.7737,sweep,2,-down,-0.00629,0.16270,0.01659,1.57187,0.08602,0.01087,-0.00362,-0.0024,-0.0659,-0.0024,-0.0073,-0.0073,0.0073,-0.0220,-0.2393,2.9880,-0.4034,-0.0562,-0.0513,-0.0366,-0.0220,1,1,1,1,1,1,1
19.8143,sweep,2,-down,-0.00629,0.16270,0.01659,1.57187,0.08602,0.01087,-0.00362,-0.0024,-0.0659,-0.0024,-0.0073,-0.0073,0.0073,-0.0220,-0.2393,2.9880,-0.4034,-0.0562,-0.0513,-0.0366,-0.0220,1,1,1,1,1,1,1
19.8539,sweep,2,-down,-0.00629,0.16041,0.01659,1.57149,0.08640,0.01087,-0.00362,-0.0024,-0.0513,-0.0024,-0.0073,0.0073,0.0073,-0.0073,-0.2530,3.3299,-0.4171,-0.0806,-0.0562,-0.0366,-0.0171,1,1,1,1,1,1,1
19.8938,sweep,2,-down,-0.00629,0.16041,0.01659,1.57149,0.08640,0.01087,-0.00362,-0.0024,-0.0513,-0.0024,-0.0073,0.0073,0.0073,-0.0073,-0.2530,3.3299,-0.4171,-0.0806,-0.0562,-0.0366,-0.0171,1,1,1,1,1,1,1
19.9338,sweep,2,-down,-0.00629,0.15240,0.01659,1.57149,0.08602,0.01087,-0.00362,0.0024,-0.0513,-0.0024,-0.0220,-0.0073,-0.0220,-0.0073,-0.2393,3.1658,-0.4308,-0.1050,-0.0562,-0.0366,-0.0171,1,1,1,1,1,1,1
19.9738,sweep,2,-down,-0.00629,0.15240,0.01659,1.57149,0.08602,0.01087,-0.00362,0.0024,-0.0513,-0.0024,-0.0220,-0.0073,-0.0220,-0.0073,-0.2393,3.1658,-0.4308,-0.1050,-0.0562,-0.0366,-0.0171,1,1,1,1,1,1,1
20.0137,sweep,2,-down,-0.00629,0.15240,0.01659,1.57149,0.08602,0.01087,-0.00362,0.0024,-0.0513,-0.0024,-0.0220,-0.0073,-0.0220,-0.0073,-0.2393,3.1658,-0.4308,-0.1050,-0.0562,-0.0366,-0.0171,1,1,1,1,1,1,1
20.0537,sweep,2,-down,-0.00629,0.14744,0.01659,1.57111,0.08640,0.01087,-0.00324,0.0024,-0.0317,-0.0024,-0.0220,-0.0220,-0.0073,-0.0073,-0.2256,3.0974,-0.3761,-0.1099,-0.0562,-0.0366,-0.0171,1,1,1,1,1,1,1
20.0939,sweep,2,-down,-0.00629,0.14744,0.01659,1.57111,0.08640,0.01087,-0.00324,0.0024,-0.0317,-0.0024,-0.0220,-0.0220,-0.0073,-0.0073,-0.2256,3.0974,-0.3761,-0.1099,-0.0562,-0.0366,-0.0171,1,1,1,1,1,1,1
20.1339,sweep,2,-down,-0.00629,0.14477,0.01659,1.57111,0.08602,0.01087,-0.00324,-0.0024,-0.0366,-0.0024,-0.0220,-0.0073,-0.0220,0.0073,-0.2393,2.8513,-0.3897,-0.1245,-0.0562,-0.0366,-0.0122,1,1,1,1,1,1,1
20.1739,sweep,2,-down,-0.00629,0.14477,0.01659,1.57111,0.08602,0.01087,-0.00324,-0.0024,-0.0366,-0.0024,-0.0220,-0.0073,-0.0220,0.0073,-0.2393,2.8513,-0.3897,-0.1245,-0.0562,-0.0366,-0.0122,1,1,1,1,1,1,1
20.2138,sweep,2,-down,-0.00629,0.14477,0.01659,1.57111,0.08602,0.01087,-0.00324,-0.0024,-0.0366,-0.0024,-0.0220,-0.0073,-0.0220,0.0073,-0.2393,2.8513,-0.3897,-0.1245,-0.0562,-0.0366,-0.0122,1,1,1,1,1,1,1
20.2537,sweep,2,-down,-0.00629,0.14057,0.01659,1.57073,0.08602,0.01087,-0.00324,-0.0073,-0.0317,-0.0024,0.0073,-0.0073,-0.0073,-0.0073,-0.2530,3.1932,-0.3761,-0.1148,-0.0513,-0.0366,-0.0122,1,1,1,1,1,1,1
20.2941,sweep,2,-down,-0.00629,0.14057,0.01659,1.57073,0.08602,0.01087,-0.00324,-0.0073,-0.0317,-0.0024,0.0073,-0.0073,-0.0073,-0.0073,-0.2530,3.1932,-0.3761,-0.1148,-0.0513,-0.0366,-0.0122,1,1,1,1,1,1,1
20.3342,sweep,2,-down,-0.00629,0.13867,0.01659,1.57073,0.08602,0.01087,-0.00324,-0.0024,-0.0171,-0.0024,-0.0073,-0.0220,-0.0073,-0.0073,-0.2256,3.0154,-0.3624,-0.1197,-0.0513,-0.0317,-0.0073,1,1,1,1,1,1,1
20.8366,approach,2,return,-0.00629,0.13790,0.01659,1.57073,0.08640,0.01087,-0.00324,-0.0073,-0.0171,-0.0024,0.0073,-0.0220,-0.0073,0.0073,-0.2393,2.8103,-0.3487,-0.1197,-0.0513,-0.0317,-0.0073,1,1,1,1,1,1,1
20.8768,approach,2,return,-0.00629,0.13790,0.01659,1.57073,0.08640,0.01087,-0.00324,-0.0073,-0.0171,-0.0024,0.0073,-0.0220,-0.0073,0.0073,-0.2393,2.8103,-0.3487,-0.1197,-0.0513,-0.0317,-0.0073,1,1,1,1,1,1,1
20.9167,approach,2,return,-0.00629,0.13790,0.01659,1.57073,0.08640,0.01087,-0.00324,-0.0073,-0.0171,-0.0024,0.0073,-0.0220,-0.0073,0.0073,-0.2393,2.8103,-0.3487,-0.1197,-0.0513,-0.0317,-0.0073,1,1,1,1,1,1,1
20.9566,approach,2,return,-0.00629,0.11730,0.01659,1.56806,0.08640,0.01087,-0.00362,-0.0024,-0.1490,-0.0024,0.0513,-0.0073,-0.0073,-0.0073,-0.2393,2.9060,-0.3897,0.1978,-0.0415,-0.0269,-0.0024,1,1,1,1,1,1,1
20.9967,approach,2,return,-0.00629,0.11730,0.01659,1.56806,0.08640,0.01087,-0.00362,-0.0024,-0.1490,-0.0024,0.0513,-0.0073,-0.0073,-0.0073,-0.2393,2.9060,-0.3897,0.1978,-0.0415,-0.0269,-0.0024,1,1,1,1,1,1,1
21.0367,approach,2,return,-0.00629,0.10548,0.01659,1.57225,0.08640,0.01087,-0.00324,-0.0024,-0.1245,-0.0024,0.0220,-0.0073,-0.0073,-0.0073,-0.2256,3.3709,-0.3624,0.0171,-0.0464,-0.0269,-0.0073,1,1,1,1,1,1,1
21.0769,approach,2,return,-0.00629,0.10548,0.01659,1.57225,0.08640,0.01087,-0.00324,-0.0024,-0.1245,-0.0024,0.0220,-0.0073,-0.0073,-0.0073,-0.2256,3.3709,-0.3624,0.0171,-0.0464,-0.0269,-0.0073,1,1,1,1,1,1,1
21.1172,approach,2,return,-0.00629,0.10548,0.01659,1.57225,0.08640,0.01087,-0.00324,-0.0024,-0.1245,-0.0024,0.0220,-0.0073,-0.0073,-0.0073,-0.2256,3.3709,-0.3624,0.0171,-0.0464,-0.0269,-0.0073,1,1,1,1,1,1,1
21.1573,approach,2,return,-0.00629,0.09098,0.01659,1.57187,0.08640,0.01125,-0.00324,-0.0024,-0.1197,-0.0024,-0.0073,0.0073,-0.0220,-0.0073,-0.2256,3.2615,-0.3624,-0.0122,-0.0415,-0.0269,-0.0024,1,1,1,1,1,1,1
21.1977,approach,2,return,-0.00629,0.09098,0.01659,1.57187,0.08640,0.01125,-0.00324,-0.0024,-0.1197,-0.0024,-0.0073,0.0073,-0.0220,-0.0073,-0.2256,3.2615,-0.3624,-0.0122,-0.0415,-0.0269,-0.0024,1,1,1,1,1,1,1
21.2370,approach,2,return,-0.00629,0.08221,0.01659,1.57225,0.08640,0.01087,-0.00324,-0.0024,-0.1099,0.0024,-0.0220,-0.0073,-0.0073,0.0073,-0.2120,3.2479,-0.3624,-0.0317,-0.0415,-0.0269,-0.0073,1,1,1,1,1,1,1
21.2771,approach,2,return,-0.00629,0.08221,0.01659,1.57225,0.08640,0.01087,-0.00324,-0.0024,-0.1099,0.0024,-0.0220,-0.0073,-0.0073,0.0073,-0.2120,3.2479,-0.3624,-0.0317,-0.0415,-0.0269,-0.0073,1,1,1,1,1,1,1
21.3173,approach,2,return,-0.00629,0.08221,0.01659,1.57225,0.08640,0.01087,-0.00324,-0.0024,-0.1099,0.0024,-0.0220,-0.0073,-0.0073,0.0073,-0.2120,3.2479,-0.3624,-0.0317,-0.0415,-0.0269,-0.0073,1,1,1,1,1,1,1
21.3571,approach,2,return,-0.00629,0.07115,0.01659,1.57225,0.08640,0.01087,-0.00362,-0.0024,-0.0952,-0.0073,-0.0073,-0.0073,0.0073,-0.0073,-0.2256,2.9333,-0.3761,-0.0562,-0.0415,-0.0220,-0.0073,1,1,1,1,1,1,1
21.3967,approach,2,return,-0.00629,0.07115,0.01659,1.57225,0.08640,0.01087,-0.00362,-0.0024,-0.0952,-0.0073,-0.0073,-0.0073,0.0073,-0.0073,-0.2256,2.9333,-0.3761,-0.0562,-0.0415,-0.0220,-0.0073,1,1,1,1,1,1,1
21.4374,approach,2,return,-0.00629,0.06466,0.01659,1.57187,0.08602,0.01087,-0.00324,-0.0024,-0.0757,-0.0073,-0.0073,-0.0220,-0.0073,-0.0073,-0.2256,3.0427,-0.3761,-0.0757,-0.0464,-0.0171,-0.0073,1,1,1,1,1,1,1
21.4773,approach,2,return,-0.00629,0.06466,0.01659,1.57187,0.08602,0.01087,-0.00324,-0.0024,-0.0757,-0.0073,-0.0073,-0.0220,-0.0073,-0.0073,-0.2256,3.0427,-0.3761,-0.0757,-0.0464,-0.0171,-0.0073,1,1,1,1,1,1,1
21.5173,approach,2,return,-0.00629,0.06466,0.01659,1.57187,0.08602,0.01087,-0.00324,-0.0024,-0.0757,-0.0073,-0.0073,-0.0220,-0.0073,-0.0073,-0.2256,3.0427,-0.3761,-0.0757,-0.0464,-0.0171,-0.0073,1,1,1,1,1,1,1
21.5572,approach,2,return,-0.00629,0.05589,0.01659,1.57225,0.08602,0.01087,-0.00362,-0.0073,-0.0904,-0.0024,-0.0073,-0.0073,-0.0073,-0.0073,-0.2256,2.9744,-0.3897,-0.1197,-0.0464,-0.0220,-0.0073,1,1,1,1,1,1,1
21.5970,approach,2,return,-0.00629,0.05589,0.01659,1.57225,0.08602,0.01087,-0.00362,-0.0073,-0.0904,-0.0024,-0.0073,-0.0073,-0.0073,-0.0073,-0.2256,2.9744,-0.3897,-0.1197,-0.0464,-0.0220,-0.0073,1,1,1,1,1,1,1
21.6375,approach,2,return,-0.00629,0.05093,0.01659,1.57454,0.08602,0.01125,-0.00324,-0.0024,-0.0659,-0.0024,-0.0220,-0.0073,-0.0073,-0.0073,-0.2120,3.0974,-0.3897,-0.3736,-0.0464,-0.0220,-0.0122,1,1,1,1,1,1,1
21.6770,approach,2,return,-0.00629,0.05093,0.01659,1.57454,0.08602,0.01125,-0.00324,-0.0024,-0.0659,-0.0024,-0.0220,-0.0073,-0.0073,-0.0073,-0.2120,3.0974,-0.3897,-0.3736,-0.0464,-0.0220,-0.0122,1,1,1,1,1,1,1
21.7171,approach,2,return,-0.00629,0.05093,0.01659,1.57454,0.08602,0.01125,-0.00324,-0.0024,-0.0659,-0.0024,-0.0220,-0.0073,-0.0073,-0.0073,-0.2120,3.0974,-0.3897,-0.3736,-0.0464,-0.0220,-0.0122,1,1,1,1,1,1,1
21.7568,approach,2,return,-0.00629,0.04444,0.01659,1.57149,0.08640,0.01087,-0.00324,-0.0024,-0.0513,-0.0073,0.0073,-0.0073,-0.0220,-0.0073,-0.2256,2.7282,-0.3761,-0.2515,-0.0464,-0.0220,-0.0122,1,1,1,1,1,1,1
21.7972,approach,2,return,-0.00629,0.04444,0.01659,1.57149,0.08640,0.01087,-0.00324,-0.0024,-0.0513,-0.0073,0.0073,-0.0073,-0.0220,-0.0073,-0.2256,2.7282,-0.3761,-0.2515,-0.0464,-0.0220,-0.0122,1,1,1,1,1,1,1
21.8367,approach,2,return,-0.00629,0.04063,0.01659,1.57187,0.08602,0.01125,-0.00324,-0.0024,-0.0269,0.0024,-0.0073,-0.0073,-0.0073,-0.0073,-0.2256,2.7692,-0.3761,-0.3199,-0.0464,-0.0171,-0.0122,1,1,1,1,1,1,1
21.8772,approach,2,return,-0.00629,0.04063,0.01659,1.57187,0.08602,0.01125,-0.00324,-0.0024,-0.0269,0.0024,-0.0073,-0.0073,-0.0073,-0.0073,-0.2256,2.7692,-0.3761,-0.3199,-0.0464,-0.0171,-0.0122,1,1,1,1,1,1,1
21.9172,approach,2,return,-0.00629,0.04063,0.01659,1.57187,0.08602,0.01125,-0.00324,-0.0024,-0.0269,0.0024,-0.0073,-0.0073,-0.0073,-0.0073,-0.2256,2.7692,-0.3761,-0.3199,-0.0464,-0.0171,-0.0122,1,1,1,1,1,1,1
21.9567,approach,2,return,-0.00629,0.03567,0.01659,1.57149,0.08602,0.01125,-0.00362,-0.0024,-0.0464,-0.0024,0.0073,-0.0073,-0.0073,-0.0220,-0.2256,2.4547,-0.3487,-0.3297,-0.0415,-0.0171,-0.0073,1,1,1,1,1,1,1
