peipl15/reBot_Arm/outputs/gravity_calib_20260621_232941.csv
t_s,phase,swept_joint,direction,q1,q2,q3,q4,q5,q6,q7,v1,v2,v3,v4,v5,v6,v7,tau1,tau2,tau3,tau4,tau5,tau6,tau7,st1,st2,st3,st4,st5,st6,st7
0.0026,approach,2,to_lo,-0.00095,-0.03033,0.01850,1.58980,0.06046,0.02575,-0.00324,0.0024,-0.0024,-0.0024,-0.0073,-0.0220,-0.0073,-0.0073,0.0205,0.0342,-0.0479,0.0171,-0.0024,-0.0073,-0.0073,1,1,1,1,1,1,1
0.0423,approach,2,to_lo,-0.00095,-0.03033,0.01850,1.58980,0.06046,0.02575,-0.00324,0.0024,-0.0024,-0.0024,-0.0073,-0.0220,-0.0073,-0.0073,0.0205,0.0342,-0.0479,0.0171,-0.0024,-0.0073,-0.0073,1,1,1,1,1,1,1
0.0823,approach,2,to_lo,-0.00095,-0.02537,0.01888,1.58942,0.06046,0.02575,-0.00324,-0.0073,0.1734,-0.0024,-0.0220,-0.0220,-0.0073,0.0073,0.0068,2.1128,0.0615,-0.0855,-0.0269,-0.0024,-0.0073,1,1,1,1,1,1,1
0.1225,approach,2,to_lo,-0.00095,-0.02537,0.01888,1.58942,0.06046,0.02575,-0.00324,-0.0073,0.1734,-0.0024,-0.0220,-0.0220,-0.0073,0.0073,0.0068,2.1128,0.0615,-0.0855,-0.0269,-0.0024,-0.0073,1,1,1,1,1,1,1
0.1622,approach,2,to_lo,-0.00095,-0.02537,0.01888,1.58942,0.06046,0.02575,-0.00324,-0.0073,0.1734,-0.0024,-0.0220,-0.0220,-0.0073,0.0073,0.0068,2.1128,0.0615,-0.0855,-0.0269,-0.0024,-0.0073,1,1,1,1,1,1,1
0.2024,approach,2,to_lo,-0.00095,-0.00629,0.01850,1.58255,0.06046,0.02575,-0.00324,-0.0024,0.1929,-0.0024,-0.0513,-0.0073,0.0073,-0.0073,0.0068,6.0650,0.0205,-0.2808,-0.0317,-0.0024,-0.0024,1,1,1,1,1,1,1
0.2423,approach,2,to_lo,-0.00095,-0.00629,0.01850,1.58255,0.06046,0.02575,-0.00324,-0.0024,0.1929,-0.0024,-0.0513,-0.0073,0.0073,-0.0073,0.0068,6.0650,0.0205,-0.2808,-0.0317,-0.0024,-0.0024,1,1,1,1,1,1,1
0.2823,approach,2,to_lo,-0.00095,0.00668,0.01850,1.57988,0.06085,0.02575,-0.00362,-0.0024,0.1490,-0.0024,-0.0073,0.0073,-0.0073,-0.0073,-0.0205,5.8188,-0.0068,-0.3932,-0.0464,-0.0024,-0.0024,1,1,1,1,1,1,1
0.3222,approach,2,to_lo,-0.00095,0.00668,0.01850,1.57988,0.06085,0.02575,-0.00362,-0.0024,0.1490,-0.0024,-0.0073,0.0073,-0.0073,-0.0073,-0.0205,5.8188,-0.0068,-0.3932,-0.0464,-0.0024,-0.0024,1,1,1,1,1,1,1
0.3625,approach,2,to_lo,-0.00095,0.00668,0.01850,1.57988,0.06085,0.02575,-0.00362,-0.0024,0.1490,-0.0024,-0.0073,0.0073,-0.0073,-0.0073,-0.0205,5.8188,-0.0068,-0.3932,-0.0464,-0.0024,-0.0024,1,1,1,1,1,1,1
0.4025,approach,2,to_lo,-0.00095,0.02384,0.01850,1.57568,0.06046,0.02575,-0.00362,-0.0073,0.1245,-0.0024,-0.0513,-0.0073,-0.0073,-0.0073,-0.0205,5.9829,-0.0205,-0.4762,-0.0415,-0.0024,-0.0073,1,1,1,1,1,1,1
0.4426,approach,2,to_lo,-0.00095,0.02384,0.01850,1.57568,0.06046,0.02575,-0.00362,-0.0073,0.1245,-0.0024,-0.0513,-0.0073,-0.0073,-0.0073,-0.0205,5.9829,-0.0205,-0.4762,-0.0415,-0.0024,-0.0073,1,1,1,1,1,1,1
0.4842,approach,2,to_lo,-0.00095,0.03376,0.01850,1.57225,0.06046,0.02575,-0.00324,-0.0024,0.1245,-0.0024,-0.0659,0.0073,-0.0073,0.0073,-0.0342,5.9282,-0.0615,-0.3443,-0.0464,-0.0122,-0.0073,1,1,1,1,1,1,1
0.5248,approach,2,to_lo,-0.00095,0.03376,0.01850,1.57225,0.06046,0.02575,-0.00324,-0.0024,0.1245,-0.0024,-0.0659,0.0073,-0.0073,0.0073,-0.0342,5.9282,-0.0615,-0.3443,-0.0464,-0.0122,-0.0073,1,1,1,1,1,1,1
0.5634,approach,2,to_lo,-0.00095,0.03376,0.01850,1.57225,0.06046,0.02575,-0.00324,-0.0024,0.1245,-0.0024,-0.0659,0.0073,-0.0073,0.0073,-0.0342,5.9282,-0.0615,-0.3443,-0.0464,-0.0122,-0.0073,1,1,1,1,1,1,1
0.6025,approach,2,to_lo,-0.00095,0.04711,0.01850,1.57073,0.06046,0.02575,-0.00324,-0.0024,0.1099,-0.0073,-0.0366,-0.0073,0.0073,-0.0073,-0.0205,5.5453,-0.0889,-0.2906,-0.0513,-0.0122,-0.0024,1,1,1,1,1,1,1
0.6429,approach,2,to_lo,-0.00095,0.04711,0.01850,1.57073,0.06046,0.02575,-0.00324,-0.0024,0.1099,-0.0073,-0.0366,-0.0073,0.0073,-0.0073,-0.0205,5.5453,-0.0889,-0.2906,-0.0513,-0.0122,-0.0024,1,1,1,1,1,1,1
0.6827,approach,2,to_lo,-0.00095,0.05436,0.01850,1.57034,0.06046,0.02575,-0.00324,-0.0073,0.1050,-0.0024,0.0220,-0.0073,-0.0073,-0.0073,-0.0342,5.5316,-0.1026,-0.2466,-0.0513,-0.0122,-0.0073,1,1,1,1,1,1,1
0.7228,approach,2,to_lo,-0.00095,0.05436,0.01850,1.57034,0.06046,0.02575,-0.00324,-0.0073,0.1050,-0.0024,0.0220,-0.0073,-0.0073,-0.0073,-0.0342,5.5316,-0.1026,-0.2466,-0.0513,-0.0122,-0.0073,1,1,1,1,1,1,1
0.7625,approach,2,to_lo,-0.00095,0.05436,0.01850,1.57034,0.06046,0.02575,-0.00324,-0.0073,0.1050,-0.0024,0.0220,-0.0073,-0.0073,-0.0073,-0.0342,5.5316,-0.1026,-0.2466,-0.0513,-0.0122,-0.0073,1,1,1,1,1,1,1
0.8030,approach,2,to_lo,-0.00095,0.06390,0.01850,1.57034,0.06046,0.02575,-0.00324,-0.0024,0.0708,-0.0024,-0.0220,-0.0073,0.0073,-0.0073,-0.0479,5.9556,-0.1162,-0.2369,-0.0611,-0.0171,-0.0073,1,1,1,1,1,1,1
0.8425,approach,2,to_lo,-0.00095,0.06390,0.01850,1.57034,0.06046,0.02575,-0.00324,-0.0024,0.0708,-0.0024,-0.0220,-0.0073,0.0073,-0.0073,-0.0479,5.9556,-0.1162,-0.2369,-0.0611,-0.0171,-0.0073,1,1,1,1,1,1,1
0.8826,approach,2,to_lo,-0.00095,0.06962,0.01850,1.57034,0.06046,0.02575,-0.00324,-0.0024,0.0611,-0.0024,-0.0073,0.0073,0.0073,-0.0220,-0.0342,5.9419,-0.1436,-0.2320,-0.0708,-0.0122,-0.0073,1,1,1,1,1,1,1
0.9224,approach,2,to_lo,-0.00095,0.06962,0.01850,1.57034,0.06046,0.02575,-0.00324,-0.0024,0.0611,-0.0024,-0.0073,0.0073,0.0073,-0.0220,-0.0342,5.9419,-0.1436,-0.2320,-0.0708,-0.0122,-0.0073,1,1,1,1,1,1,1
0.9629,approach,2,to_lo,-0.00095,0.06962,0.01850,1.57034,0.06046,0.02575,-0.00324,-0.0024,0.0611,-0.0024,-0.0073,0.0073,0.0073,-0.0220,-0.0342,5.9419,-0.1436,-0.2320,-0.0708,-0.0122,-0.0073,1,1,1,1,1,1,1
1.0024,approach,2,to_lo,-0.00095,0.07763,0.01850,1.56996,0.06046,0.02575,-0.00324,-0.0024,0.0708,-0.0024,-0.0073,0.0073,-0.0073,-0.0073,-0.0615,5.5727,-0.1573,-0.2125,-0.0659,-0.0171,-0.0073,1,1,1,1,1,1,1
1.0423,approach,2,to_lo,-0.00095,0.07763,0.01850,1.56996,0.06046,0.02575,-0.00324,-0.0024,0.0708,-0.0024,-0.0073,0.0073,-0.0073,-0.0073,-0.0615,5.5727,-0.1573,-0.2125,-0.0659,-0.0171,-0.0073,1,1,1,1,1,1,1
1.0824,approach,2,to_lo,-0.00095,0.08183,0.01850,1.56996,0.06046,0.02575,-0.00324,0.0024,0.0708,-0.0073,-0.0073,-0.0073,0.0073,-0.0073,-0.0752,5.7094,-0.1846,-0.1978,-0.0708,-0.0220,-0.0073,1,1,1,1,1,1,1
1.1226,approach,2,to_lo,-0.00095,0.08183,0.01850,1.56996,0.06046,0.02575,-0.00324,0.0024,0.0708,-0.0073,-0.0073,-0.0073,0.0073,-0.0073,-0.0752,5.7094,-0.1846,-0.1978,-0.0708,-0.0220,-0.0073,1,1,1,1,1,1,1
1.1623,approach,2,to_lo,-0.00095,0.08183,0.01850,1.56996,0.06046,0.02575,-0.00324,0.0024,0.0708,-0.0073,-0.0073,-0.0073,0.0073,-0.0073,-0.0752,5.7094,-0.1846,-0.1978,-0.0708,-0.0220,-0.0073,1,1,1,1,1,1,1
1.2024,approach,2,to_lo,-0.00095,0.08755,0.01850,1.56996,0.06046,0.02537,-0.00324,-0.0073,0.0464,-0.0073,-0.0220,-0.0073,-0.0220,0.0073,-0.0889,5.6137,-0.1983,-0.1832,-0.0708,-0.0220,-0.0073,1,1,1,1,1,1,1
1.2424,approach,2,to_lo,-0.00095,0.08755,0.01850,1.56996,0.06046,0.02537,-0.00324,-0.0073,0.0464,-0.0073,-0.0220,-0.0073,-0.0220,0.0073,-0.0889,5.6137,-0.1983,-0.1832,-0.0708,-0.0220,-0.0073,1,1,1,1,1,1,1
1.2824,approach,2,to_lo,-0.00095,0.09098,0.01850,1.56996,0.06046,0.02575,-0.00324,-0.0024,0.0562,-0.0024,-0.0073,0.0073,-0.0073,-0.0073,-0.0615,5.3538,-0.2120,-0.1538,-0.0708,-0.0171,-0.0073,1,1,1,1,1,1,1
1.3225,approach,2,to_lo,-0.00095,0.09098,0.01850,1.56996,0.06046,0.02575,-0.00324,-0.0024,0.0562,-0.0024,-0.0073,0.0073,-0.0073,-0.0073,-0.0615,5.3538,-0.2120,-0.1538,-0.0708,-0.0171,-0.0073,1,1,1,1,1,1,1
1.3624,approach,2,to_lo,-0.00095,0.09098,0.01850,1.56996,0.06046,0.02575,-0.00324,-0.0024,0.0562,-0.0024,-0.0073,0.0073,-0.0073,-0.0073,-0.0615,5.3538,-0.2120,-0.1538,-0.0708,-0.0171,-0.0073,1,1,1,1,1,1,1
1.4025,approach,2,to_lo,-0.00095,0.09518,0.01850,1.56996,0.06046,0.02575,-0.00324,0.0024,0.0415,-0.0024,0.0220,-0.0073,-0.0073,-0.0073,-0.0752,5.5316,-0.2530,-0.1441,-0.0757,-0.0171,-0.0073,1,1,1,1,1,1,1
1.4424,approach,2,to_lo,-0.00095,0.09518,0.01850,1.56996,0.06046,0.02575,-0.00324,0.0024,0.0415,-0.0024,0.0220,-0.0073,-0.0073,-0.0073,-0.0752,5.5316,-0.2530,-0.1441,-0.0757,-0.0171,-0.0073,1,1,1,1,1,1,1
1.4824,approach,2,to_lo,-0.00095,0.09785,0.01850,1.57034,0.06046,0.02575,-0.00324,-0.0073,0.0220,-0.0024,-0.0073,-0.0073,-0.0073,0.0073,-0.0889,5.5863,-0.2803,-0.1441,-0.0757,-0.0171,-0.0073,1,1,1,1,1,1,1
1.5226,approach,2,to_lo,-0.00095,0.09785,0.01850,1.57034,0.06046,0.02575,-0.00324,-0.0073,0.0220,-0.0024,-0.0073,-0.0073,-0.0073,0.0073,-0.0889,5.5863,-0.2803,-0.1441,-0.0757,-0.0171,-0.0073,1,1,1,1,1,1,1
1.5623,approach,2,to_lo,-0.00095,0.09785,0.01850,1.57034,0.06046,0.02575,-0.00324,-0.0073,0.0220,-0.0024,-0.0073,-0.0073,-0.0073,0.0073,-0.0889,5.5863,-0.2803,-0.1441,-0.0757,-0.0171,-0.0073,1,1,1,1,1,1,1
1.6023,approach,2,to_lo,-0.00095,0.10090,0.01850,1.56996,0.06046,0.02537,-0.00324,-0.0024,0.0269,0.0024,-0.0073,0.0073,-0.0220,-0.0073,-0.0889,5.7641,-0.2803,-0.1099,-0.0855,-0.0220,-0.0024,1,1,1,1,1,1,1
2.1050,sweep,2,+up,-0.00095,0.10205,0.01850,1.57034,0.06046,0.02575,-0.00324,-0.0024,0.0269,-0.0024,-0.0073,-0.0073,-0.0073,-0.0073,-0.0889,5.8735,-0.3214,-0.1148,-0.0855,-0.0171,-0.0073,1,1,1,1,1,1,1
2.1452,sweep,2,+up,-0.00095,0.10205,0.01850,1.57034,0.06046,0.02575,-0.00324,-0.0024,0.0269,-0.0024,-0.0073,-0.0073,-0.0073,-0.0073,-0.0889,5.8735,-0.3214,-0.1148,-0.0855,-0.0171,-0.0073,1,1,1,1,1,1,1
2.1849,sweep,2,+up,-0.00095,0.11730,0.01850,1.57187,0.06046,0.02575,-0.00324,0.0024,0.1832,-0.0024,0.0659,-0.0073,-0.0073,-0.0073,-0.0889,6.5983,-0.4171,-0.1832,-0.1001,-0.0122,-0.0073,1,1,1,1,1,1,1
2.2251,sweep,2,+up,-0.00095,0.11730,0.01850,1.57187,0.06046,0.02575,-0.00324,0.0024,0.1832,-0.0024,0.0659,-0.0073,-0.0073,-0.0073,-0.0889,6.5983,-0.4171,-0.1832,-0.1001,-0.0122,-0.0073,1,1,1,1,1,1,1
2.2649,sweep,2,+up,-0.00095,0.11730,0.01850,1.57187,0.06046,0.02575,-0.00324,0.0024,0.1832,-0.0024,0.0659,-0.0073,-0.0073,-0.0073,-0.0889,6.5983,-0.4171,-0.1832,-0.1001,-0.0122,-0.0073,1,1,1,1,1,1,1
2.3050,sweep,2,+up,-0.00095,0.14248,0.01850,1.56958,0.06046,0.02575,-0.00324,-0.0024,0.1929,-0.0024,-0.0513,-0.0073,0.0073,-0.0073,-0.1026,4.8479,-0.4581,-0.0806,-0.1050,-0.0122,-0.0073,1,1,1,1,1,1,1
2.3454,sweep,2,+up,-0.00095,0.14248,0.01850,1.56958,0.06046,0.02575,-0.00324,-0.0024,0.1929,-0.0024,-0.0513,-0.0073,0.0073,-0.0073,-0.1026,4.8479,-0.4581,-0.0806,-0.1050,-0.0122,-0.0073,1,1,1,1,1,1,1
2.3850,sweep,2,+up,-0.00095,0.15850,0.01850,1.56767,0.06046,0.02575,-0.00324,-0.0024,0.2222,-0.0024,-0.0220,0.0073,0.0073,-0.0073,-0.0889,4.9162,-0.4855,0.0122,-0.0855,-0.0122,0.0024,1,1,1,1,1,1,1
2.4249,sweep,2,+up,-0.00095,0.15850,0.01850,1.56767,0.06046,0.02575,-0.00324,-0.0024,0.2222,-0.0024,-0.0220,0.0073,0.0073,-0.0073,-0.0889,4.9162,-0.4855,0.0122,-0.0855,-0.0122,0.0024,1,1,1,1,1,1,1
2.4650,sweep,2,+up,-0.00095,0.15850,0.01850,1.56767,0.06046,0.02575,-0.00324,-0.0024,0.2222,-0.0024,-0.0220,0.0073,0.0073,-0.0073,-0.0889,4.9162,-0.4855,0.0122,-0.0855,-0.0122,0.0024,1,1,1,1,1,1,1
2.5049,sweep,2,+up,-0.00095,0.18215,0.01850,1.56615,0.06008,0.02575,-0.00324,-0.0024,0.1636,-0.0073,-0.0220,-0.0073,-0.0220,-0.0073,-0.1162,5.0530,-0.4855,0.1880,-0.0904,-0.0122,-0.0024,1,1,1,1,1,1,1
2.5449,sweep,2,+up,-0.00095,0.18215,0.01850,1.56615,0.06008,0.02575,-0.00324,-0.0024,0.1636,-0.0073,-0.0220,-0.0073,-0.0220,-0.0073,-0.1162,5.0530,-0.4855,0.1880,-0.0904,-0.0122,-0.0024,1,1,1,1,1,1,1
2.5852,sweep,2,+up,-0.00095,0.19856,0.01850,1.56577,0.06046,0.02537,-0.00324,-0.0024,0.2125,-0.0024,0.0073,-0.0073,-0.0220,-0.0073,-0.1162,4.5197,-0.4718,0.3443,-0.0952,-0.0122,-0.0024,1,1,1,1,1,1,1
2.6249,sweep,2,+up,-0.00095,0.19856,0.01850,1.56577,0.06046,0.02537,-0.00324,-0.0024,0.2125,-0.0024,0.0073,-0.0073,-0.0220,-0.0073,-0.1162,4.5197,-0.4718,0.3443,-0.0952,-0.0122,-0.0024,1,1,1,1,1,1,1
2.6647,sweep,2,+up,-0.00095,0.19856,0.01850,1.56577,0.06046,0.02537,-0.00324,-0.0024,0.2125,-0.0024,0.0073,-0.0073,-0.0220,-0.0073,-0.1162,4.5197,-0.4718,0.3443,-0.0952,-0.0122,-0.0024,1,1,1,1,1,1,1
2.7049,sweep,2,+up,-0.00095,0.22259,0.01850,1.56691,0.06008,0.02575,-0.00324,-0.0073,0.2076,0.0024,0.0366,0.0073,-0.0220,0.0073,-0.1162,4.4103,-0.4718,0.3199,-0.0855,-0.0171,-0.0073,1,1,1,1,1,1,1
2.7449,sweep,2,+up,-0.00095,0.22259,0.01850,1.56691,0.06008,0.02575,-0.00324,-0.0073,0.2076,0.0024,0.0366,0.0073,-0.0220,0.0073,-0.1162,4.4103,-0.4718,0.3199,-0.0855,-0.0171,-0.0073,1,1,1,1,1,1,1
2.7851,sweep,2,+up,-0.00095,0.23899,0.01850,1.56806,0.06008,0.02575,-0.00324,-0.0024,0.2027,-0.0024,0.0073,-0.0073,-0.0220,-0.0073,-0.1299,4.2735,-0.4855,0.4127,-0.0904,-0.0171,-0.0073,1,1,1,1,1,1,1
2.8250,sweep,2,+up,-0.00095,0.23899,0.01850,1.56806,0.06008,0.02575,-0.00324,-0.0024,0.2027,-0.0024,0.0073,-0.0073,-0.0220,-0.0073,-0.1299,4.2735,-0.4855,0.4127,-0.0904,-0.0171,-0.0073,1,1,1,1,1,1,1
2.8647,sweep,2,+up,-0.00095,0.23899,0.01850,1.56806,0.06008,0.02575,-0.00324,-0.0024,0.2027,-0.0024,0.0073,-0.0073,-0.0220,-0.0073,-0.1299,4.2735,-0.4855,0.4127,-0.0904,-0.0171,-0.0073,1,1,1,1,1,1,1
2.9051,sweep,2,+up,-0.00095,0.26265,0.01850,1.56882,0.06046,0.02575,-0.00362,-0.0073,0.2027,-0.0024,-0.0073,0.0073,0.0073,-0.0220,-0.1299,4.2735,-0.4991,0.4713,-0.0952,-0.0220,-0.0073,1,1,1,1,1,1,1
2.9450,sweep,2,+up,-0.00095,0.26265,0.01850,1.56882,0.06046,0.02575,-0.00362,-0.0073,0.2027,-0.0024,-0.0073,0.0073,0.0073,-0.0220,-0.1299,4.2735,-0.4991,0.4713,-0.0952,-0.0220,-0.0073,1,1,1,1,1,1,1
2.9849,sweep,2,+up,-0.00095,0.27905,0.01850,1.56882,0.06046,0.02575,-0.00324,-0.0073,0.1978,0.0024,-0.0073,-0.0073,0.0073,0.0073,-0.1436,4.2188,-0.4855,0.5104,-0.1001,-0.0171,-0.0073,1,1,1,1,1,1,1
3.0249,sweep,2,+up,-0.00095,0.27905,0.01850,1.56882,0.06046,0.02575,-0.00324,-0.0073,0.1978,0.0024,-0.0073,-0.0073,0.0073,0.0073,-0.1436,4.2188,-0.4855,0.5104,-0.1001,-0.0171,-0.0073,1,1,1,1,1,1,1
3.0651,sweep,2,+up,-0.00095,0.27905,0.01850,1.56882,0.06046,0.02575,-0.00324,-0.0073,0.1978,0.0024,-0.0073,-0.0073,0.0073,0.0073,-0.1436,4.2188,-0.4855,0.5104,-0.1001,-0.0171,-0.0073,1,1,1,1,1,1,1
3.1049,sweep,2,+up,-0.00095,0.30308,0.01850,1.56920,0.06046,0.02575,-0.00362,-0.0024,0.2320,-0.0024,-0.0073,-0.0073,-0.0073,-0.0073,-0.1162,3.7402,-0.5128,0.5543,-0.1050,-0.0220,-0.0122,1,1,1,1,1,1,1
3.1448,sweep,2,+up,-0.00095,0.30308,0.01850,1.56920,0.06046,0.02575,-0.00362,-0.0024,0.2320,-0.0024,-0.0073,-0.0073,-0.0073,-0.0073,-0.1162,3.7402,-0.5128,0.5543,-0.1050,-0.0220,-0.0122,1,1,1,1,1,1,1
3.1849,sweep,2,+up,-0.00095,0.31910,0.01850,1.56920,0.06008,0.02575,-0.00324,-0.0024,0.1832,-0.0024,-0.0073,-0.0073,0.0073,-0.0073,-0.1436,3.8632,-0.5128,0.5983,-0.1001,-0.0171,-0.0122,1,1,1,1,1,1,1
3.2248,sweep,2,+up,-0.00095,0.31910,0.01850,1.56920,0.06008,0.02575,-0.00324,-0.0024,0.1832,-0.0024,-0.0073,-0.0073,0.0073,-0.0073,-0.1436,3.8632,-0.5128,0.5983,-0.1001,-0.0171,-0.0122,1,1,1,1,1,1,1
3.2649,sweep,2,+up,-0.00095,0.31910,0.01850,1.56920,0.06008,0.02575,-0.00324,-0.0024,0.1832,-0.0024,-0.0073,-0.0073,0.0073,-0.0073,-0.1436,3.8632,-0.5128,0.5983,-0.1001,-0.0171,-0.0122,1,1,1,1,1,1,1
3.3047,sweep,2,+up,-0.00095,0.34352,0.01850,1.56958,0.06046,0.02575,-0.00362,-0.0024,0.2076,-0.0024,-0.0220,-0.0073,-0.0220,-0.0220,-0.1436,3.5761,-0.5128,0.6569,-0.1001,-0.0220,-0.0073,1,1,1,1,1,1,1
3.3454,sweep,2,+up,-0.00095,0.34352,0.01850,1.56958,0.06046,0.02575,-0.00362,-0.0024,0.2076,-0.0024,-0.0220,-0.0073,-0.0220,-0.0220,-0.1436,3.5761,-0.5128,0.6569,-0.1001,-0.0220,-0.0073,1,1,1,1,1,1,1
3.3848,sweep,2,+up,-0.00095,0.35916,0.01850,1.56958,0.06008,0.02575,-0.00324,-0.0024,0.1783,0.0024,-0.0073,-0.0073,0.0073,-0.0073,-0.1299,3.7949,-0.4718,0.6862,-0.0952,-0.0220,-0.0073,1,1,1,1,1,1,1
3.4250,sweep,2,+up,-0.00095,0.35916,0.01850,1.56958,0.06008,0.02575,-0.00324,-0.0024,0.1783,0.0024,-0.0073,-0.0073,0.0073,-0.0073,-0.1299,3.7949,-0.4718,0.6862,-0.0952,-0.0220,-0.0073,1,1,1,1,1,1,1
3.4649,sweep,2,+up,-0.00095,0.35916,0.01850,1.56958,0.06008,0.02575,-0.00324,-0.0024,0.1783,0.0024,-0.0073,-0.0073,0.0073,-0.0073,-0.1299,3.7949,-0.4718,0.6862,-0.0952,-0.0220,-0.0073,1,1,1,1,1,1,1
3.5049,sweep,2,+up,-0.00095,0.38357,0.01850,1.56958,0.06008,0.02537,-0.00324,-0.0024,0.1978,-0.0024,0.0073,-0.0220,-0.0073,-0.0073,-0.1573,3.4120,-0.4581,0.7350,-0.1001,-0.0269,-0.0073,1,1,1,1,1,1,1
3.5450,sweep,2,+up,-0.00095,0.38357,0.01850,1.56958,0.06008,0.02537,-0.00324,-0.0024,0.1978,-0.0024,0.0073,-0.0220,-0.0073,-0.0073,-0.1573,3.4120,-0.4581,0.7350,-0.1001,-0.0269,-0.0073,1,1,1,1,1,1,1
3.5849,sweep,2,+up,-0.00095,0.39921,0.01812,1.56996,0.06008,0.02575,-0.00324,-0.0073,0.1978,-0.0024,0.0073,-0.0073,0.0220,-0.0073,-0.1573,3.5624,-0.4171,0.7643,-0.1050,-0.0317,-0.0122,1,1,1,1,1,1,1
3.6251,sweep,2,+up,-0.00095,0.39921,0.01812,1.56996,0.06008,0.02575,-0.00324,-0.0073,0.1978,-0.0024,0.0073,-0.0073,0.0220,-0.0073,-0.1573,3.5624,-0.4171,0.7643,-0.1050,-0.0317,-0.0122,1,1,1,1,1,1,1
3.6649,sweep,2,+up,-0.00095,0.39921,0.01812,1.56996,0.06008,0.02575,-0.00324,-0.0073,0.1978,-0.0024,0.0073,-0.0073,0.0220,-0.0073,-0.1573,3.5624,-0.4171,0.7643,-0.1050,-0.0317,-0.0122,1,1,1,1,1,1,1
3.7049,sweep,2,+up,-0.00095,0.42363,0.01812,1.56996,0.06046,0.02575,-0.00362,0.0024,0.1832,-0.0024,-0.0220,-0.0073,-0.0073,-0.0073,-0.1709,3.3983,-0.4034,0.7937,-0.1099,-0.0269,-0.0122,1,1,1,1,1,1,1
3.7453,sweep,2,+up,-0.00095,0.42363,0.01812,1.56996,0.06046,0.02575,-0.00362,0.0024,0.1832,-0.0024,-0.0220,-0.0073,-0.0073,-0.0073,-0.1709,3.3983,-0.4034,0.7937,-0.1099,-0.0269,-0.0122,1,1,1,1,1,1,1
3.7850,sweep,2,+up,-0.00095,0.43965,0.01812,1.56996,0.06008,0.02575,-0.00362,-0.0073,0.2027,-0.0024,-0.0220,-0.0073,-0.0073,-0.0073,-0.1709,3.3299,-0.4034,0.8230,-0.1099,-0.0269,-0.0122,1,1,1,1,1,1,1
3.8250,sweep,2,+up,-0.00095,0.43965,0.01812,1.56996,0.06008,0.02575,-0.00362,-0.0073,0.2027,-0.0024,-0.0220,-0.0073,-0.0073,-0.0073,-0.1709,3.3299,-0.4034,0.8230,-0.1099,-0.0269,-0.0122,1,1,1,1,1,1,1
3.8651,sweep,2,+up,-0.00095,0.43965,0.01812,1.56996,0.06008,0.02575,-0.00362,-0.0073,0.2027,-0.0024,-0.0220,-0.0073,-0.0073,-0.0073,-0.1709,3.3299,-0.4034,0.8230,-0.1099,-0.0269,-0.0122,1,1,1,1,1,1,1
3.9051,sweep,2,+up,-0.00095,0.46368,0.01812,1.56996,0.06008,0.02575,-0.00324,-0.0024,0.1832,-0.0024,-0.0073,-0.0220,-0.0073,-0.0073,-0.1709,3.3846,-0.3487,0.8669,-0.1001,-0.0269,-0.0122,1,1,1,1,1,1,1
3.9448,sweep,2,+up,-0.00095,0.46368,0.01812,1.56996,0.06008,0.02575,-0.00324,-0.0024,0.1832,-0.0024,-0.0073,-0.0220,-0.0073,-0.0073,-0.1709,3.3846,-0.3487,0.8669,-0.1001,-0.0269,-0.0122,1,1,1,1,1,1,1
3.9852,sweep,2,+up,-0.00095,0.47971,0.01812,1.56996,0.06008,0.02575,-0.00324,0.0024,0.2271,-0.0073,-0.0073,-0.0073,-0.0073,0.0073,-0.1846,3.1111,-0.3350,0.8816,-0.0952,-0.0269,-0.0122,1,1,1,1,1,1,1
4.0250,sweep,2,+up,-0.00095,0.47971,0.01812,1.56996,0.06008,0.02575,-0.00324,0.0024,0.2271,-0.0073,-0.0073,-0.0073,-0.0073,0.0073,-0.1846,3.1111,-0.3350,0.8816,-0.0952,-0.0269,-0.0122,1,1,1,1,1,1,1
4.0649,sweep,2,+up,-0.00095,0.47971,0.01812,1.56996,0.06008,0.02575,-0.00324,0.0024,0.2271,-0.0073,-0.0073,-0.0073,-0.0073,0.0073,-0.1846,3.1111,-0.3350,0.8816,-0.0952,-0.0269,-0.0122,1,1,1,1,1,1,1
4.1054,sweep,2,+up,-0.00095,0.50412,0.01812,1.56996,0.06008,0.02575,-0.00324,0.0024,0.1929,-0.0073,0.0073,-0.0073,-0.0073,-0.0073,-0.1846,2.9607,-0.2393,0.9206,-0.0952,-0.0220,-0.0122,1,1,1,1,1,1,1
4.1455,sweep,2,+up,-0.00095,0.50412,0.01812,1.56996,0.06008,0.02575,-0.00324,0.0024,0.1929,-0.0073,0.0073,-0.0073,-0.0073,-0.0073,-0.1846,2.9607,-0.2393,0.9206,-0.0952,-0.0220,-0.0122,1,1,1,1,1,1,1
4.1849,sweep,2,+up,-0.00095,0.52052,0.01812,1.56996,0.06008,0.02575,-0.00324,-0.0024,0.2076,-0.0024,-0.0073,-0.0073,0.0073,-0.0073,-0.1846,2.6325,-0.2120,0.9499,-0.1001,-0.0269,-0.0122,1,1,1,1,1,1,1
4.2249,sweep,2,+up,-0.00095,0.52052,0.01812,1.56996,0.06008,0.02575,-0.00324,-0.0024,0.2076,-0.0024,-0.0073,-0.0073,0.0073,-0.0073,-0.1846,2.6325,-0.2120,0.9499,-0.1001,-0.0269,-0.0122,1,1,1,1,1,1,1
4.2649,sweep,2,+up,-0.00095,0.52052,0.01812,1.56996,0.06008,0.02575,-0.00324,-0.0024,0.2076,-0.0024,-0.0073,-0.0073,0.0073,-0.0073,-0.1846,2.6325,-0.2120,0.9499,-0.1001,-0.0269,-0.0122,1,1,1,1,1,1,1
4.3049,sweep,2,+up,-0.00095,0.54418,0.01812,1.56996,0.06008,0.02575,-0.00362,-0.0024,0.1880,0.0024,-0.0073,-0.0220,0.0220,-0.0366,-0.1983,2.6872,-0.1709,0.9646,-0.1001,-0.0269,-0.0122,1,1,1,1,1,1,1
4.3451,sweep,2,+up,-0.00095,0.54418,0.01812,1.56996,0.06008,0.02575,-0.00362,-0.0024,0.1880,0.0024,-0.0073,-0.0220,0.0220,-0.0366,-0.1983,2.6872,-0.1709,0.9646,-0.1001,-0.0269,-0.0122,1,1,1,1,1,1,1
4.3849,sweep,2,+up,-0.00095,0.56020,0.01812,1.56996,0.06046,0.02575,-0.00362,-0.0024,0.1929,-0.0073,0.0073,0.0073,-0.0073,-0.0220,-0.2120,2.5915,-0.1709,1.0085,-0.0904,-0.0317,-0.0122,1,1,1,1,1,1,1
4.4248,sweep,2,+up,-0.00095,0.56020,0.01812,1.56996,0.06046,0.02575,-0.00362,-0.0024,0.1929,-0.0073,0.0073,0.0073,-0.0073,-0.0220,-0.2120,2.5915,-0.1709,1.0085,-0.0904,-0.0317,-0.0122,1,1,1,1,1,1,1
4.4652,sweep,2,+up,-0.00095,0.56020,0.01812,1.56996,0.06046,0.02575,-0.00362,-0.0024,0.1929,-0.0073,0.0073,0.0073,-0.0073,-0.0220,-0.2120,2.5915,-0.1709,1.0085,-0.0904,-0.0317,-0.0122,1,1,1,1,1,1,1
4.5051,sweep,2,+up,-0.00095,0.58461,0.01812,1.57034,0.06046,0.02575,-0.00324,-0.0024,0.2222,-0.0024,-0.0073,0.0073,-0.0073,-0.0073,-0.2256,2.4274,-0.1573,0.9744,-0.0952,-0.0317,-0.0122,1,1,1,1,1,1,1
4.5449,sweep,2,+up,-0.00095,0.58461,0.01812,1.57034,0.06046,0.02575,-0.00324,-0.0024,0.2222,-0.0024,-0.0073,0.0073,-0.0073,-0.0073,-0.2256,2.4274,-0.1573,0.9744,-0.0952,-0.0317,-0.0122,1,1,1,1,1,1,1
4.5848,sweep,2,+up,-0.00095,0.60063,0.01812,1.56996,0.06008,0.02575,-0.00324,-0.0024,0.1832,-0.0024,0.0073,-0.0073,-0.0073,-0.0073,-0.2120,2.1402,-0.1299,1.0134,-0.0952,-0.0269,-0.0122,1,1,1,1,1,1,1
4.6249,sweep,2,+up,-0.00095,0.60063,0.01812,1.56996,0.06008,0.02575,-0.00324,-0.0024,0.1832,-0.0024,0.0073,-0.0073,-0.0073,-0.0073,-0.2120,2.1402,-0.1299,1.0134,-0.0952,-0.0269,-0.0122,1,1,1,1,1,1,1
4.6651,sweep,2,+up,-0.00095,0.60063,0.01812,1.56996,0.06008,0.02575,-0.00324,-0.0024,0.1832,-0.0024,0.0073,-0.0073,-0.0073,-0.0073,-0.2120,2.1402,-0.1299,1.0134,-0.0952,-0.0269,-0.0122,1,1,1,1,1,1,1
4.7049,sweep,2,+up,-0.00095,0.62467,0.01812,1.56958,0.06046,0.02575,-0.00362,0.0024,0.2076,-0.0024,-0.0220,-0.0073,-0.0073,-0.0220,-0.2120,1.9897,-0.1162,1.0916,-0.0952,-0.0317,-0.0122,1,1,1,1,1,1,1
4.7451,sweep,2,+up,-0.00095,0.62467,0.01812,1.56958,0.06046,0.02575,-0.00362,0.0024,0.2076,-0.0024,-0.0220,-0.0073,-0.0073,-0.0220,-0.2120,1.9897,-0.1162,1.0916,-0.0952,-0.0317,-0.0122,1,1,1,1,1,1,1
4.7850,sweep,2,+up,-0.00095,0.63954,0.01812,1.56958,0.06046,0.02575,-0.00324,-0.0024,0.1685,-0.0024,0.0073,-0.0073,-0.0073,-0.0073,-0.2256,2.0855,-0.1026,1.1209,-0.0904,-0.0317,-0.0073,1,1,1,1,1,1,1
4.8252,sweep,2,+up,-0.00095,0.63954,0.01812,1.56958,0.06046,0.02575,-0.00324,-0.0024,0.1685,-0.0024,0.0073,-0.0073,-0.0073,-0.0073,-0.2256,2.0855,-0.1026,1.1209,-0.0904,-0.0317,-0.0073,1,1,1,1,1,1,1
4.8649,sweep,2,+up,-0.00095,0.63954,0.01812,1.56958,0.06046,0.02575,-0.00324,-0.0024,0.1685,-0.0024,0.0073,-0.0073,-0.0073,-0.0073,-0.2256,2.0855,-0.1026,1.1209,-0.0904,-0.0317,-0.0073,1,1,1,1,1,1,1
4.9048,sweep,2,+up,-0.00095,0.65900,0.01812,1.56958,0.06008,0.02575,-0.00324,-0.0024,0.1392,-0.0024,-0.0073,-0.0073,-0.0073,0.0073,-0.2120,2.0034,-0.0752,1.1648,-0.0904,-0.0366,-0.0122,1,1,1,1,1,1,1
4.9451,sweep,2,+up,-0.00095,0.65900,0.01812,1.56958,0.06008,0.02575,-0.00324,-0.0024,0.1392,-0.0024,-0.0073,-0.0073,-0.0073,0.0073,-0.2120,2.0034,-0.0752,1.1648,-0.0904,-0.0366,-0.0122,1,1,1,1,1,1,1
4.9851,sweep,2,+up,-0.00095,0.67083,0.01812,1.56996,0.06008,0.02575,-0.00324,0.0024,0.1294,-0.0073,-0.0073,-0.0366,-0.0220,-0.0073,-0.2256,1.8530,-0.0752,1.1844,-0.0952,-0.0464,-0.0122,1,1,1,1,1,1,1
5.0249,sweep,2,+up,-0.00095,0.67083,0.01812,1.56996,0.06008,0.02575,-0.00324,0.0024,0.1294,-0.0073,-0.0073,-0.0366,-0.0220,-0.0073,-0.2256,1.8530,-0.0752,1.1844,-0.0952,-0.0464,-0.0122,1,1,1,1,1,1,1
5.0653,sweep,2,+up,-0.00095,0.67083,0.01812,1.56996,0.06008,0.02575,-0.00324,0.0024,0.1294,-0.0073,-0.0073,-0.0366,-0.0220,-0.0073,-0.2256,1.8530,-0.0752,1.1844,-0.0952,-0.0464,-0.0122,1,1,1,1,1,1,1
5.1051,sweep,2,+up,-0.00095,0.68570,0.01812,1.56958,0.06046,0.02575,-0.00324,-0.0024,0.1099,0.0024,0.0073,-0.0073,0.0220,-0.0220,-0.2256,1.8256,-0.0479,1.2430,-0.0952,-0.0366,-0.0122,1,1,1,1,1,1,1
5.1451,sweep,2,+up,-0.00095,0.68570,0.01812,1.56958,0.06046,0.02575,-0.00324,-0.0024,0.1099,0.0024,0.0073,-0.0073,0.0220,-0.0220,-0.2256,1.8256,-0.0479,1.2430,-0.0952,-0.0366,-0.0122,1,1,1,1,1,1,1
5.1849,sweep,2,+up,-0.00095,0.69448,0.01812,1.56958,0.06008,0.02575,-0.00324,-0.0073,0.0904,-0.0024,-0.0073,-0.0220,-0.0073,-0.0073,-0.2393,1.5111,-0.0342,1.2821,-0.1001,-0.0415,-0.0122,1,1,1,1,1,1,1
5.2251,sweep,2,+up,-0.00095,0.69448,0.01812,1.56958,0.06008,0.02575,-0.00324,-0.0073,0.0904,-0.0024,-0.0073,-0.0220,-0.0073,-0.0073,-0.2393,1.5111,-0.0342,1.2821,-0.1001,-0.0415,-0.0122,1,1,1,1,1,1,1
5.2651,sweep,2,+up,-0.00095,0.69448,0.01812,1.56958,0.06008,0.02575,-0.00324,-0.0073,0.0904,-0.0024,-0.0073,-0.0220,-0.0073,-0.0073,-0.2393,1.5111,-0.0342,1.2821,-0.1001,-0.0415,-0.0122,1,1,1,1,1,1,1
5.3050,sweep,2,+up,-0.00095,0.70554,0.01812,1.56996,0.06046,0.02575,-0.00362,-0.0024,0.0659,-0.0024,0.0073,-0.0073,-0.0220,-0.0073,-0.2530,1.7436,-0.0205,1.3162,-0.0904,-0.0415,-0.0171,1,1,1,1,1,1,1
5.3455,sweep,2,+up,-0.00095,0.70554,0.01812,1.56996,0.06046,0.02575,-0.00362,-0.0024,0.0659,-0.0024,0.0073,-0.0073,-0.0220,-0.0073,-0.2530,1.7436,-0.0205,1.3162,-0.0904,-0.0415,-0.0171,1,1,1,1,1,1,1
5.3850,sweep,2,+up,-0.00095,0.71241,0.01812,1.56996,0.06008,0.02575,-0.00324,-0.0073,0.0757,-0.0024,-0.0220,-0.0073,-0.0220,-0.0073,-0.2530,1.4974,-0.0068,1.3358,-0.0952,-0.0464,-0.0122,1,1,1,1,1,1,1
5.4249,sweep,2,+up,-0.00095,0.71241,0.01812,1.56996,0.06008,0.02575,-0.00324,-0.0073,0.0757,-0.0024,-0.0220,-0.0073,-0.0220,-0.0073,-0.2530,1.4974,-0.0068,1.3358,-0.0952,-0.0464,-0.0122,1,1,1,1,1,1,1
5.4649,sweep,2,+up,-0.00095,0.71241,0.01812,1.56996,0.06008,0.02575,-0.00324,-0.0073,0.0757,-0.0024,-0.0220,-0.0073,-0.0220,-0.0073,-0.2530,1.4974,-0.0068,1.3358,-0.0952,-0.0464,-0.0122,1,1,1,1,1,1,1
5.5049,sweep,2,+up,-0.00095,0.72080,0.01812,1.56996,0.06008,0.02575,-0.00324,0.0024,0.0708,-0.0073,-0.0073,-0.0073,-0.0220,-0.0073,-0.2256,1.4017,0.0205,1.3602,-0.0952,-0.0464,-0.0171,1,1,1,1,1,1,1
5.5451,sweep,2,+up,-0.00095,0.72080,0.01812,1.56996,0.06008,0.02575,-0.00324,0.0024,0.0708,-0.0073,-0.0073,-0.0073,-0.0220,-0.0073,-0.2256,1.4017,0.0205,1.3602,-0.0952,-0.0464,-0.0171,1,1,1,1,1,1,1
5.5853,sweep,2,+up,-0.00095,0.72614,0.01812,1.56996,0.06008,0.02575,-0.00324,-0.0024,0.0708,-0.0024,-0.0073,-0.0073,-0.0073,-0.0073,-0.2120,1.1009,0.0479,1.3602,-0.0904,-0.0464,-0.0171,1,1,1,1,1,1,1
5.6250,sweep,2,+up,-0.00095,0.72614,0.01812,1.56996,0.06008,0.02575,-0.00324,-0.0024,0.0708,-0.0024,-0.0073,-0.0073,-0.0073,-0.0073,-0.2120,1.1009,0.0479,1.3602,-0.0904,-0.0464,-0.0171,1,1,1,1,1,1,1
5.6648,sweep,2,+up,-0.00095,0.72614,0.01812,1.56996,0.06008,0.02575,-0.00324,-0.0024,0.0708,-0.0024,-0.0073,-0.0073,-0.0073,-0.0073,-0.2120,1.1009,0.0479,1.3602,-0.0904,-0.0464,-0.0171,1,1,1,1,1,1,1
5.7051,sweep,2,+up,-0.00095,0.73262,0.01812,1.57034,0.06008,0.02575,-0.00324,-0.0024,0.0513,-0.0024,0.0073,-0.0073,-0.0073,0.0073,-0.2120,1.1282,0.0479,1.3895,-0.0855,-0.0464,-0.0220,1,1,1,1,1,1,1
5.7455,sweep,2,+up,-0.00095,0.73262,0.01812,1.57034,0.06008,0.02575,-0.00324,-0.0024,0.0513,-0.0024,0.0073,-0.0073,-0.0073,0.0073,-0.2120,1.1282,0.0479,1.3895,-0.0855,-0.0464,-0.0220,1,1,1,1,1,1,1
5.7851,sweep,2,+up,-0.00095,0.73644,0.01812,1.57034,0.06008,0.02575,-0.00362,0.0024,0.0562,-0.0024,0.0073,-0.0073,-0.0073,0.0073,-0.2256,1.1692,0.0752,1.4139,-0.0952,-0.0464,-0.0171,1,1,1,1,1,1,1
5.8250,sweep,2,+up,-0.00095,0.73644,0.01812,1.57034,0.06008,0.02575,-0.00362,0.0024,0.0562,-0.0024,0.0073,-0.0073,-0.0073,0.0073,-0.2256,1.1692,0.0752,1.4139,-0.0952,-0.0464,-0.0171,1,1,1,1,1,1,1
5.8649,sweep,2,+up,-0.00095,0.73644,0.01812,1.57034,0.06008,0.02575,-0.00362,0.0024,0.0562,-0.0024,0.0073,-0.0073,-0.0073,0.0073,-0.2256,1.1692,0.0752,1.4139,-0.0952,-0.0464,-0.0171,1,1,1,1,1,1,1
5.9051,sweep,2,+up,-0.00095,0.74140,0.01812,1.57034,0.06046,0.02575,-0.00324,-0.0024,0.0317,-0.0024,-0.0073,-0.0073,-0.0073,0.0073,-0.1983,1.0735,0.1026,1.4237,-0.0904,-0.0513,-0.0122,1,1,1,1,1,1,1
5.9450,sweep,2,+up,-0.00095,0.74140,0.01812,1.57034,0.06046,0.02575,-0.00324,-0.0024,0.0317,-0.0024,-0.0073,-0.0073,-0.0073,0.0073,-0.1983,1.0735,0.1026,1.4237,-0.0904,-0.0513,-0.0122,1,1,1,1,1,1,1
5.9850,sweep,2,+up,-0.00095,0.74445,0.01812,1.57034,0.06008,0.02575,-0.00362,-0.0024,0.0317,-0.0024,-0.0073,-0.0366,0.0220,-0.0073,-0.2120,1.1009,0.1026,1.4481,-0.0952,-0.0513,-0.0171,1,1,1,1,1,1,1
6.0247,sweep,2,+up,-0.00095,0.74445,0.01812,1.57034,0.06008,0.02575,-0.00362,-0.0024,0.0317,-0.0024,-0.0073,-0.0366,0.0220,-0.0073,-0.2120,1.1009,0.1026,1.4481,-0.0952,-0.0513,-0.0171,1,1,1,1,1,1,1
6.0650,sweep,2,+up,-0.00095,0.74445,0.01812,1.57034,0.06008,0.02575,-0.00362,-0.0024,0.0317,-0.0024,-0.0073,-0.0366,0.0220,-0.0073,-0.2120,1.1009,0.1026,1.4481,-0.0952,-0.0513,-0.0171,1,1,1,1,1,1,1
6.1051,sweep,2,+up,-0.00095,0.74826,0.01812,1.57034,0.06046,0.02575,-0.00324,-0.0024,0.0122,0.0024,0.0073,0.0073,-0.0073,-0.0073,-0.2120,1.0735,0.1162,1.4530,-0.0952,-0.0562,-0.0171,1,1,1,1,1,1,1
6.1457,sweep,2,+up,-0.00095,0.74826,0.01812,1.57034,0.06046,0.02575,-0.00324,-0.0024,0.0122,0.0024,0.0073,0.0073,-0.0073,-0.0073,-0.2120,1.0735,0.1162,1.4530,-0.0952,-0.0562,-0.0171,1,1,1,1,1,1,1
6.1849,sweep,2,+up,-0.00095,0.75017,0.01812,1.57073,0.06046,0.02575,-0.00324,-0.0073,0.0122,-0.0024,-0.0220,0.0073,0.0073,0.0073,-0.2256,1.3060,0.1299,1.4481,-0.0855,-0.0562,-0.0122,1,1,1,1,1,1,1
6.6877,sweep,2,-down,-0.00095,0.75132,0.01812,1.57073,0.06046,0.02575,-0.00362,0.0024,0.0269,-0.0024,-0.0073,-0.0073,0.0073,-0.0220,-0.2256,1.3470,0.1436,1.4335,-0.0904,-0.0562,-0.0171,1,1,1,1,1,1,1
6.7279,sweep,2,-down,-0.00095,0.75132,0.01812,1.57073,0.06046,0.02575,-0.00362,0.0024,0.0269,-0.0024,-0.0073,-0.0073,0.0073,-0.0220,-0.2256,1.3470,0.1436,1.4335,-0.0904,-0.0562,-0.0171,1,1,1,1,1,1,1
6.7680,sweep,2,-down,-0.00095,0.75132,0.01812,1.57073,0.06046,0.02575,-0.00362,0.0024,0.0269,-0.0024,-0.0073,-0.0073,0.0073,-0.0220,-0.2256,1.3470,0.1436,1.4335,-0.0904,-0.0562,-0.0171,1,1,1,1,1,1,1
6.8076,sweep,2,-down,-0.00095,0.74750,0.01812,1.56844,0.06046,0.02537,-0.00362,0.0024,-0.1929,-0.0024,-0.0073,-0.0073,-0.0220,-0.0073,-0.2120,-0.2393,0.2120,1.5702,-0.0806,-0.0659,-0.0073,1,1,1,1,1,1,1
6.8480,sweep,2,-down,-0.00095,0.74750,0.01812,1.56844,0.06046,0.02537,-0.00362,0.0024,-0.1929,-0.0024,-0.0073,-0.0073,-0.0220,-0.0073,-0.2120,-0.2393,0.2120,1.5702,-0.0806,-0.0659,-0.0073,1,1,1,1,1,1,1
6.8881,sweep,2,-down,-0.00095,0.73034,0.01812,1.56920,0.06046,0.02537,-0.00324,-0.0073,-0.2320,-0.0024,0.0220,-0.0073,0.0073,-0.0073,-0.2120,0.1162,0.2256,1.5653,-0.0855,-0.0513,-0.0073,1,1,1,1,1,1,1
6.9288,sweep,2,-down,-0.00095,0.73034,0.01812,1.56920,0.06046,0.02537,-0.00324,-0.0073,-0.2320,-0.0024,0.0220,-0.0073,0.0073,-0.0073,-0.2120,0.1162,0.2256,1.5653,-0.0855,-0.0513,-0.0073,1,1,1,1,1,1,1
6.9675,sweep,2,-down,-0.00095,0.73034,0.01812,1.56920,0.06046,0.02537,-0.00324,-0.0073,-0.2320,-0.0024,0.0220,-0.0073,0.0073,-0.0073,-0.2120,0.1162,0.2256,1.5653,-0.0855,-0.0513,-0.0073,1,1,1,1,1,1,1
7.0075,sweep,2,-down,-0.00095,0.70630,0.01812,1.57225,0.06046,0.02537,-0.00362,-0.0073,-0.1734,-0.0024,-0.0073,-0.0073,-0.0073,-0.0220,-0.2120,0.2120,0.2530,1.2918,-0.0855,-0.0513,-0.0073,1,1,1,1,1,1,1
7.0477,sweep,2,-down,-0.00095,0.70630,0.01812,1.57225,0.06046,0.02537,-0.00362,-0.0073,-0.1734,-0.0024,-0.0073,-0.0073,-0.0073,-0.0220,-0.2120,0.2120,0.2530,1.2918,-0.0855,-0.0513,-0.0073,1,1,1,1,1,1,1
7.0879,sweep,2,-down,-0.00095,0.69028,0.01812,1.57225,0.06046,0.02537,-0.00324,-0.0024,-0.2222,-0.0073,-0.0073,0.0073,-0.0366,-0.0073,-0.1983,0.4308,0.2530,1.2381,-0.0855,-0.0464,-0.0073,1,1,1,1,1,1,1
7.1279,sweep,2,-down,-0.00095,0.69028,0.01812,1.57225,0.06046,0.02537,-0.00324,-0.0024,-0.2222,-0.0073,-0.0073,0.0073,-0.0366,-0.0073,-0.1983,0.4308,0.2530,1.2381,-0.0855,-0.0464,-0.0073,1,1,1,1,1,1,1
7.1676,sweep,2,-down,-0.00095,0.69028,0.01812,1.57225,0.06046,0.02537,-0.00324,-0.0024,-0.2222,-0.0073,-0.0073,0.0073,-0.0366,-0.0073,-0.1983,0.4308,0.2530,1.2381,-0.0855,-0.0464,-0.0073,1,1,1,1,1,1,1
7.2075,sweep,2,-down,-0.00095,0.66625,0.01812,1.57225,0.06046,0.02537,-0.00362,0.0024,-0.1880,-0.0073,-0.0073,0.0073,-0.0220,-0.0073,-0.1983,0.3350,0.2803,1.1600,-0.0904,-0.0464,-0.0073,1,1,1,1,1,1,1
7.2475,sweep,2,-down,-0.00095,0.66625,0.01812,1.57225,0.06046,0.02537,-0.00362,0.0024,-0.1880,-0.0073,-0.0073,0.0073,-0.0220,-0.0073,-0.1983,0.3350,0.2803,1.1600,-0.0904,-0.0464,-0.0073,1,1,1,1,1,1,1
7.2875,sweep,2,-down,-0.00095,0.64984,0.01812,1.57187,0.06008,0.02537,-0.00362,-0.0024,-0.2320,-0.0024,-0.0073,-0.0073,-0.0073,-0.0220,-0.2120,0.7863,0.2803,1.1160,-0.0904,-0.0415,-0.0122,1,1,1,1,1,1,1
7.3277,sweep,2,-down,-0.00095,0.64984,0.01812,1.57187,0.06008,0.02537,-0.00362,-0.0024,-0.2320,-0.0024,-0.0073,-0.0073,-0.0073,-0.0220,-0.2120,0.7863,0.2803,1.1160,-0.0904,-0.0415,-0.0122,1,1,1,1,1,1,1
7.3679,sweep,2,-down,-0.00095,0.64984,0.01812,1.57187,0.06008,0.02537,-0.00362,-0.0024,-0.2320,-0.0024,-0.0073,-0.0073,-0.0073,-0.0220,-0.2120,0.7863,0.2803,1.1160,-0.0904,-0.0415,-0.0122,1,1,1,1,1,1,1
7.4075,sweep,2,-down,-0.00095,0.62581,0.01812,1.57187,0.06008,0.02537,-0.00324,-0.0024,-0.1978,-0.0073,-0.0073,-0.0220,-0.0073,-0.0073,-0.1983,0.7179,0.2803,1.0379,-0.0904,-0.0464,-0.0073,1,1,1,1,1,1,1
7.4475,sweep,2,-down,-0.00095,0.62581,0.01812,1.57187,0.06008,0.02537,-0.00324,-0.0024,-0.1978,-0.0073,-0.0073,-0.0220,-0.0073,-0.0073,-0.1983,0.7179,0.2803,1.0379,-0.0904,-0.0464,-0.0073,1,1,1,1,1,1,1
7.4876,sweep,2,-down,-0.00095,0.60979,0.01812,1.57187,0.06008,0.02537,-0.00324,-0.0024,-0.2222,-0.0024,-0.0220,-0.0073,-0.0220,0.0073,-0.2256,1.0462,0.2940,0.9939,-0.0952,-0.0415,-0.0073,1,1,1,1,1,1,1
7.5277,sweep,2,-down,-0.00095,0.60979,0.01812,1.57187,0.06008,0.02537,-0.00324,-0.0024,-0.2222,-0.0024,-0.0220,-0.0073,-0.0220,0.0073,-0.2256,1.0462,0.2940,0.9939,-0.0952,-0.0415,-0.0073,1,1,1,1,1,1,1
7.5675,sweep,2,-down,-0.00095,0.60979,0.01812,1.57187,0.06008,0.02537,-0.00324,-0.0024,-0.2222,-0.0024,-0.0220,-0.0073,-0.0220,0.0073,-0.2256,1.0462,0.2940,0.9939,-0.0952,-0.0415,-0.0073,1,1,1,1,1,1,1
7.6074,sweep,2,-down,-0.00095,0.58576,0.01812,1.57187,0.06008,0.02537,-0.00324,-0.0024,-0.2222,0.0024,-0.0073,-0.0073,-0.0220,-0.0220,-0.2393,0.9368,0.3077,0.9255,-0.0952,-0.0415,-0.0073,1,1,1,1,1,1,1
7.6476,sweep,2,-down,-0.00095,0.58576,0.01812,1.57187,0.06008,0.02537,-0.00324,-0.0024,-0.2222,0.0024,-0.0073,-0.0073,-0.0220,-0.0220,-0.2393,0.9368,0.3077,0.9255,-0.0952,-0.0415,-0.0073,1,1,1,1,1,1,1
7.6876,sweep,2,-down,-0.00095,0.56973,0.01812,1.57187,0.06008,0.02537,-0.00324,0.0024,-0.1929,0.0024,-0.0220,-0.0073,0.0073,-0.0073,-0.2393,1.2376,0.3350,0.8864,-0.0904,-0.0415,-0.0073,1,1,1,1,1,1,1
7.7278,sweep,2,-down,-0.00095,0.56973,0.01812,1.57187,0.06008,0.02537,-0.00324,0.0024,-0.1929,0.0024,-0.0220,-0.0073,0.0073,-0.0073,-0.2393,1.2376,0.3350,0.8864,-0.0904,-0.0415,-0.0073,1,1,1,1,1,1,1
7.7674,sweep,2,-down,-0.00095,0.56973,0.01812,1.57187,0.06008,0.02537,-0.00324,0.0024,-0.1929,0.0024,-0.0220,-0.0073,0.0073,-0.0073,-0.2393,1.2376,0.3350,0.8864,-0.0904,-0.0415,-0.0073,1,1,1,1,1,1,1
7.8075,sweep,2,-down,-0.00095,0.54532,0.01812,1.57187,0.06008,0.02537,-0.00324,-0.0073,-0.2076,-0.0024,-0.0073,-0.0220,-0.0220,0.0073,-0.2393,1.4291,0.3624,0.8132,-0.0904,-0.0366,-0.0073,1,1,1,1,1,1,1
7.8478,sweep,2,-down,-0.00095,0.54532,0.01812,1.57187,0.06008,0.02537,-0.00324,-0.0073,-0.2076,-0.0024,-0.0073,-0.0220,-0.0220,0.0073,-0.2393,1.4291,0.3624,0.8132,-0.0904,-0.0366,-0.0073,1,1,1,1,1,1,1
7.8876,sweep,2,-down,-0.00095,0.52968,0.01812,1.57149,0.06008,0.02537,-0.00324,-0.0024,-0.1880,-0.0024,-0.0073,0.0073,-0.0220,-0.0073,-0.2393,1.2239,0.3487,0.7985,-0.0855,-0.0366,-0.0073,1,1,1,1,1,1,1
7.9276,sweep,2,-down,-0.00095,0.52968,0.01812,1.57149,0.06008,0.02537,-0.00324,-0.0024,-0.1880,-0.0024,-0.0073,0.0073,-0.0220,-0.0073,-0.2393,1.2239,0.3487,0.7985,-0.0855,-0.0366,-0.0073,1,1,1,1,1,1,1
7.9675,sweep,2,-down,-0.00095,0.52968,0.01812,1.57149,0.06008,0.02537,-0.00324,-0.0024,-0.1880,-0.0024,-0.0073,0.0073,-0.0220,-0.0073,-0.2393,1.2239,0.3487,0.7985,-0.0855,-0.0366,-0.0073,1,1,1,1,1,1,1
8.0074,sweep,2,-down,-0.00095,0.50565,0.01812,1.57111,0.06046,0.02537,-0.00324,-0.0073,-0.2173,-0.0073,0.0073,0.0073,-0.0220,-0.0073,-0.2530,1.4838,0.3624,0.7839,-0.0904,-0.0366,-0.0073,1,1,1,1,1,1,1
8.0475,sweep,2,-down,-0.00095,0.50565,0.01812,1.57111,0.06046,0.02537,-0.00324,-0.0073,-0.2173,-0.0073,0.0073,0.0073,-0.0220,-0.0073,-0.2530,1.4838,0.3624,0.7839,-0.0904,-0.0366,-0.0073,1,1,1,1,1,1,1
8.0876,sweep,2,-down,-0.00095,0.48962,0.01812,1.57111,0.06046,0.02537,-0.00362,-0.0024,-0.1978,0.0024,-0.0073,-0.0073,-0.0073,-0.0220,-0.2667,1.4701,0.3761,0.7643,-0.0855,-0.0366,-0.0073,1,1,1,1,1,1,1
8.1277,sweep,2,-down,-0.00095,0.48962,0.01812,1.57111,0.06046,0.02537,-0.00362,-0.0024,-0.1978,0.0024,-0.0073,-0.0073,-0.0073,-0.0220,-0.2667,1.4701,0.3761,0.7643,-0.0855,-0.0366,-0.0073,1,1,1,1,1,1,1
8.1677,sweep,2,-down,-0.00095,0.48962,0.01812,1.57111,0.06046,0.02537,-0.00362,-0.0024,-0.1978,0.0024,-0.0073,-0.0073,-0.0073,-0.0220,-0.2667,1.4701,0.3761,0.7643,-0.0855,-0.0366,-0.0073,1,1,1,1,1,1,1
8.2074,sweep,2,-down,-0.00095,0.46521,0.01812,1.57149,0.06046,0.02537,-0.00362,0.0024,-0.2076,-0.0024,-0.0073,-0.0073,-0.0220,-0.0220,-0.2530,1.8393,0.3761,0.7155,-0.0806,-0.0269,-0.0073,1,1,1,1,1,1,1
8.2475,sweep,2,-down,-0.00095,0.46521,0.01812,1.57149,0.06046,0.02537,-0.00362,0.0024,-0.2076,-0.0024,-0.0073,-0.0073,-0.0220,-0.0220,-0.2530,1.8393,0.3761,0.7155,-0.0806,-0.0269,-0.0073,1,1,1,1,1,1,1
8.2876,sweep,2,-down,-0.00095,0.44919,0.01812,1.57149,0.06046,0.02537,-0.00324,-0.0024,-0.1880,-0.0024,-0.0220,-0.0073,-0.0073,-0.0073,-0.2667,1.7026,0.3761,0.6716,-0.0855,-0.0317,-0.0073,1,1,1,1,1,1,1
8.3274,sweep,2,-down,-0.00095,0.44919,0.01812,1.57149,0.06046,0.02537,-0.00324,-0.0024,-0.1880,-0.0024,-0.0220,-0.0073,-0.0073,-0.0073,-0.2667,1.7026,0.3761,0.6716,-0.0855,-0.0317,-0.0073,1,1,1,1,1,1,1
8.3675,sweep,2,-down,-0.00095,0.44919,0.01812,1.57149,0.06046,0.02537,-0.00324,-0.0024,-0.1880,-0.0024,-0.0220,-0.0073,-0.0073,-0.0073,-0.2667,1.7026,0.3761,0.6716,-0.0855,-0.0317,-0.0073,1,1,1,1,1,1,1
8.4077,sweep,2,-down,-0.00095,0.42515,0.01812,1.57149,0.06008,0.02537,-0.00362,-0.0024,-0.1783,0.0024,-0.0073,-0.0073,0.0073,-0.0073,-0.2667,1.8256,0.4171,0.6178,-0.0855,-0.0269,-0.0122,1,1,1,1,1,1,1
8.4480,sweep,2,-down,-0.00095,0.42515,0.01812,1.57149,0.06008,0.02537,-0.00362,-0.0024,-0.1783,0.0024,-0.0073,-0.0073,0.0073,-0.0073,-0.2667,1.8256,0.4171,0.6178,-0.0855,-0.0269,-0.0122,1,1,1,1,1,1,1
8.4878,sweep,2,-down,-0.00095,0.40875,0.01812,1.57149,0.06008,0.02537,-0.00362,-0.0024,-0.2222,-0.0024,-0.0073,-0.0073,-0.0073,-0.0073,-0.2667,2.0308,0.4171,0.5885,-0.0806,-0.0220,-0.0073,1,1,1,1,1,1,1
8.5277,sweep,2,-down,-0.00095,0.40875,0.01812,1.57149,0.06008,0.02537,-0.00362,-0.0024,-0.2222,-0.0024,-0.0073,-0.0073,-0.0073,-0.0073,-0.2667,2.0308,0.4171,0.5885,-0.0806,-0.0220,-0.0073,1,1,1,1,1,1,1
8.5676,sweep,2,-down,-0.00095,0.40875,0.01812,1.57149,0.06008,0.02537,-0.00362,-0.0024,-0.2222,-0.0024,-0.0073,-0.0073,-0.0073,-0.0073,-0.2667,2.0308,0.4171,0.5885,-0.0806,-0.0220,-0.0073,1,1,1,1,1,1,1
8.6076,sweep,2,-down,-0.00095,0.38472,0.01812,1.57149,0.06008,0.02537,-0.00324,-0.0024,-0.2027,-0.0024,-0.0073,-0.0073,0.0073,-0.0073,-0.2667,2.0581,0.4171,0.5446,-0.0855,-0.0171,-0.0024,1,1,1,1,1,1,1
8.6477,sweep,2,-down,-0.00095,0.38472,0.01812,1.57149,0.06008,0.02537,-0.00324,-0.0024,-0.2027,-0.0024,-0.0073,-0.0073,0.0073,-0.0073,-0.2667,2.0581,0.4171,0.5446,-0.0855,-0.0171,-0.0024,1,1,1,1,1,1,1
8.6876,sweep,2,-down,-0.00095,0.36870,0.01812,1.57149,0.06046,0.02537,-0.00324,0.0024,-0.2173,-0.0024,-0.0073,-0.0220,-0.0073,0.0073,-0.2667,2.3043,0.4171,0.5055,-0.0806,-0.0171,-0.0024,1,1,1,1,1,1,1
8.7274,sweep,2,-down,-0.00095,0.36870,0.01812,1.57149,0.06046,0.02537,-0.00324,0.0024,-0.2173,-0.0024,-0.0073,-0.0220,-0.0073,0.0073,-0.2667,2.3043,0.4171,0.5055,-0.0806,-0.0171,-0.0024,1,1,1,1,1,1,1
8.7677,sweep,2,-down,-0.00095,0.36870,0.01812,1.57149,0.06046,0.02537,-0.00324,0.0024,-0.2173,-0.0024,-0.0073,-0.0220,-0.0073,0.0073,-0.2667,2.3043,0.4171,0.5055,-0.0806,-0.0171,-0.0024,1,1,1,1,1,1,1
8.8074,sweep,2,-down,-0.00095,0.34466,0.01812,1.57187,0.06046,0.02537,-0.00324,-0.0024,-0.1880,-0.0024,-0.0073,-0.0073,-0.0073,-0.0220,-0.3077,2.3590,0.3761,0.4371,-0.0855,-0.0220,-0.0073,1,1,1,1,1,1,1
8.8473,sweep,2,-down,-0.00095,0.34466,0.01812,1.57187,0.06046,0.02537,-0.00324,-0.0024,-0.1880,-0.0024,-0.0073,-0.0073,-0.0073,-0.0220,-0.3077,2.3590,0.3761,0.4371,-0.0855,-0.0220,-0.0073,1,1,1,1,1,1,1
8.8874,sweep,2,-down,-0.00095,0.32826,0.01812,1.57187,0.06008,0.02537,-0.00324,0.0024,-0.2173,-0.0024,0.0073,-0.0220,-0.0073,-0.0220,-0.3214,2.6872,0.4034,0.4029,-0.0855,-0.0220,-0.0024,1,1,1,1,1,1,1
8.9275,sweep,2,-down,-0.00095,0.32826,0.01812,1.57187,0.06008,0.02537,-0.00324,0.0024,-0.2173,-0.0024,0.0073,-0.0220,-0.0073,-0.0220,-0.3214,2.6872,0.4034,0.4029,-0.0855,-0.0220,-0.0024,1,1,1,1,1,1,1
8.9674,sweep,2,-down,-0.00095,0.32826,0.01812,1.57187,0.06008,0.02537,-0.00324,0.0024,-0.2173,-0.0024,0.0073,-0.0220,-0.0073,-0.0220,-0.3214,2.6872,0.4034,0.4029,-0.0855,-0.0220,-0.0024,1,1,1,1,1,1,1
9.0075,sweep,2,-down,-0.00095,0.30461,0.01812,1.57187,0.06008,0.02537,-0.00324,-0.0024,-0.2222,-0.0024,-0.0220,-0.0220,-0.0220,-0.0073,-0.3077,2.6051,0.4171,0.3443,-0.0904,-0.0171,-0.0024,1,1,1,1,1,1,1
9.0474,sweep,2,-down,-0.00095,0.30461,0.01812,1.57187,0.06008,0.02537,-0.00324,-0.0024,-0.2222,-0.0024,-0.0220,-0.0220,-0.0220,-0.0073,-0.3077,2.6051,0.4171,0.3443,-0.0904,-0.0171,-0.0024,1,1,1,1,1,1,1
9.0874,sweep,2,-down,-0.00095,0.28859,0.01812,1.57187,0.06008,0.02537,-0.00324,-0.0024,-0.1929,-0.0024,0.0073,-0.0220,0.0073,-0.0220,-0.3350,2.7145,0.4171,0.3053,-0.0904,-0.0122,-0.0024,1,1,1,1,1,1,1
9.1274,sweep,2,-down,-0.00095,0.28859,0.01812,1.57187,0.06008,0.02537,-0.00324,-0.0024,-0.1929,-0.0024,0.0073,-0.0220,0.0073,-0.0220,-0.3350,2.7145,0.4171,0.3053,-0.0904,-0.0122,-0.0024,1,1,1,1,1,1,1
9.1674,sweep,2,-down,-0.00095,0.28859,0.01812,1.57187,0.06008,0.02537,-0.00324,-0.0024,-0.1929,-0.0024,0.0073,-0.0220,0.0073,-0.0220,-0.3350,2.7145,0.4171,0.3053,-0.0904,-0.0122,-0.0024,1,1,1,1,1,1,1
9.2074,sweep,2,-down,-0.00134,0.26417,0.01812,1.57187,0.06008,0.02537,-0.00324,-0.0073,-0.2173,-0.0024,-0.0073,-0.0073,-0.0220,-0.0073,-0.3487,2.9470,0.4171,0.2466,-0.0904,-0.0122,-0.0073,1,1,1,1,1,1,1
9.2476,sweep,2,-down,-0.00134,0.26417,0.01812,1.57187,0.06008,0.02537,-0.00324,-0.0073,-0.2173,-0.0024,-0.0073,-0.0073,-0.0220,-0.0073,-0.3487,2.9470,0.4171,0.2466,-0.0904,-0.0122,-0.0073,1,1,1,1,1,1,1
9.2874,sweep,2,-down,-0.00095,0.24929,0.01850,1.57187,0.06008,0.02537,-0.00324,-0.0024,-0.1587,0.0024,-0.0073,-0.0073,-0.0073,-0.0220,-0.3624,3.0017,0.4034,0.2076,-0.0952,-0.0122,-0.0073,1,1,1,1,1,1,1
9.3275,sweep,2,-down,-0.00095,0.24929,0.01850,1.57187,0.06008,0.02537,-0.00324,-0.0024,-0.1587,0.0024,-0.0073,-0.0073,-0.0073,-0.0220,-0.3624,3.0017,0.4034,0.2076,-0.0952,-0.0122,-0.0073,1,1,1,1,1,1,1
9.3673,sweep,2,-down,-0.00095,0.24929,0.01850,1.57187,0.06008,0.02537,-0.00324,-0.0024,-0.1587,0.0024,-0.0073,-0.0073,-0.0073,-0.0220,-0.3624,3.0017,0.4034,0.2076,-0.0952,-0.0122,-0.0073,1,1,1,1,1,1,1
9.4073,sweep,2,-down,-0.00095,0.22984,0.01850,1.57187,0.06008,0.02537,-0.00324,-0.0024,-0.1538,-0.0024,-0.0073,0.0073,-0.0073,-0.0073,-0.3624,3.0154,0.4034,0.1490,-0.0952,-0.0024,-0.0122,1,1,1,1,1,1,1
9.4474,sweep,2,-down,-0.00095,0.22984,0.01850,1.57187,0.06008,0.02537,-0.00324,-0.0024,-0.1538,-0.0024,-0.0073,0.0073,-0.0073,-0.0073,-0.3624,3.0154,0.4034,0.1490,-0.0952,-0.0024,-0.0122,1,1,1,1,1,1,1
9.4874,sweep,2,-down,-0.00134,0.21839,0.01850,1.57187,0.06008,0.02537,-0.00362,-0.0073,-0.1441,0.0024,-0.0220,0.0073,-0.0073,-0.0073,-0.3761,3.0974,0.3897,0.1099,-0.0952,-0.0024,-0.0073,1,1,1,1,1,1,1
9.5274,sweep,2,-down,-0.00134,0.21839,0.01850,1.57187,0.06008,0.02537,-0.00362,-0.0073,-0.1441,0.0024,-0.0220,0.0073,-0.0073,-0.0073,-0.3761,3.0974,0.3897,0.1099,-0.0952,-0.0024,-0.0073,1,1,1,1,1,1,1
9.5674,sweep,2,-down,-0.00134,0.21839,0.01850,1.57187,0.06008,0.02537,-0.00362,-0.0073,-0.1441,0.0024,-0.0220,0.0073,-0.0073,-0.0073,-0.3761,3.0974,0.3897,0.1099,-0.0952,-0.0024,-0.0073,1,1,1,1,1,1,1
9.6074,sweep,2,-down,-0.00134,0.20352,0.01850,1.57187,0.06008,0.02575,-0.00324,-0.0073,-0.1148,-0.0024,-0.0220,0.0073,0.0073,-0.0073,-0.3761,3.0564,0.3897,0.0806,-0.1001,-0.0024,-0.0122,1,1,1,1,1,1,1
9.6478,sweep,2,-down,-0.00134,0.20352,0.01850,1.57187,0.06008,0.02575,-0.00324,-0.0073,-0.1148,-0.0024,-0.0220,0.0073,0.0073,-0.0073,-0.3761,3.0564,0.3897,0.0806,-0.1001,-0.0024,-0.0122,1,1,1,1,1,1,1
9.6877,sweep,2,-down,-0.00134,0.19512,0.01850,1.57187,0.06008,0.02537,-0.00324,-0.0024,-0.1050,-0.0024,-0.0073,0.0073,-0.0073,-0.0073,-0.3624,2.7692,0.3897,0.0562,-0.1001,0.0024,-0.0171,1,1,1,1,1,1,1
9.7274,sweep,2,-down,-0.00134,0.19512,0.01850,1.57187,0.06008,0.02537,-0.00324,-0.0024,-0.1050,-0.0024,-0.0073,0.0073,-0.0073,-0.0073,-0.3624,2.7692,0.3897,0.0562,-0.1001,0.0024,-0.0171,1,1,1,1,1,1,1
9.7677,sweep,2,-down,-0.00134,0.19512,0.01850,1.57187,0.06008,0.02537,-0.00324,-0.0024,-0.1050,-0.0024,-0.0073,0.0073,-0.0073,-0.0073,-0.3624,2.7692,0.3897,0.0562,-0.1001,0.0024,-0.0171,1,1,1,1,1,1,1
9.8078,sweep,2,-down,-0.00095,0.18368,0.01850,1.57187,0.06008,0.02575,-0.00362,-0.0024,-0.0806,-0.0024,-0.0220,-0.0220,-0.0073,-0.0073,-0.3624,2.9744,0.3897,0.0317,-0.1050,0.0024,-0.0122,1,1,1,1,1,1,1
9.8475,sweep,2,-down,-0.00095,0.18368,0.01850,1.57187,0.06008,0.02575,-0.00362,-0.0024,-0.0806,-0.0024,-0.0220,-0.0220,-0.0073,-0.0073,-0.3624,2.9744,0.3897,0.0317,-0.1050,0.0024,-0.0122,1,1,1,1,1,1,1
9.8876,sweep,2,-down,-0.00095,0.17720,0.01850,1.57187,0.06008,0.02575,-0.00324,-0.0024,-0.0659,-0.0024,-0.0220,0.0073,0.0073,-0.0220,-0.3761,3.0701,0.3624,0.0122,-0.1050,0.0024,-0.0171,1,1,1,1,1,1,1
9.9276,sweep,2,-down,-0.00095,0.17720,0.01850,1.57187,0.06008,0.02575,-0.00324,-0.0024,-0.0659,-0.0024,-0.0220,0.0073,0.0073,-0.0220,-0.3761,3.0701,0.3624,0.0122,-0.1050,0.0024,-0.0171,1,1,1,1,1,1,1
9.9679,sweep,2,-down,-0.00095,0.17720,0.01850,1.57187,0.06008,0.02575,-0.00324,-0.0024,-0.0659,-0.0024,-0.0220,0.0073,0.0073,-0.0220,-0.3761,3.0701,0.3624,0.0122,-0.1050,0.0024,-0.0171,1,1,1,1,1,1,1
10.0074,sweep,2,-down,-0.00134,0.16842,0.01850,1.57187,0.06008,0.02537,-0.00362,-0.0024,-0.0708,0.0024,-0.0073,-0.0073,-0.0073,-0.0220,-0.3624,2.9607,0.3350,-0.0171,-0.1050,0.0024,-0.0171,1,1,1,1,1,1,1
10.0478,sweep,2,-down,-0.00134,0.16842,0.01850,1.57187,0.06008,0.02537,-0.00362,-0.0024,-0.0708,0.0024,-0.0073,-0.0073,-0.0073,-0.0220,-0.3624,2.9607,0.3350,-0.0171,-0.1050,0.0024,-0.0171,1,1,1,1,1,1,1
10.0876,sweep,2,-down,-0.00095,0.16384,0.01850,1.57187,0.06008,0.02575,-0.00324,-0.0024,-0.0562,-0.0073,-0.0220,-0.0073,-0.0073,-0.0220,-0.3761,2.7282,0.3214,-0.0317,-0.1099,-0.0024,-0.0171,1,1,1,1,1,1,1
10.1281,sweep,2,-down,-0.00095,0.16384,0.01850,1.57187,0.06008,0.02575,-0.00324,-0.0024,-0.0562,-0.0073,-0.0220,-0.0073,-0.0073,-0.0220,-0.3761,2.7282,0.3214,-0.0317,-0.1099,-0.0024,-0.0171,1,1,1,1,1,1,1
10.1678,sweep,2,-down,-0.00095,0.16384,0.01850,1.57187,0.06008,0.02575,-0.00324,-0.0024,-0.0562,-0.0073,-0.0220,-0.0073,-0.0073,-0.0220,-0.3761,2.7282,0.3214,-0.0317,-0.1099,-0.0024,-0.0171,1,1,1,1,1,1,1
10.2077,sweep,2,-down,-0.00134,0.15698,0.01850,1.57187,0.06008,0.02575,-0.00362,-0.0073,-0.0659,-0.0024,-0.0073,0.0073,0.0073,-0.0073,-0.3897,2.9880,0.3077,-0.0513,-0.1001,-0.0024,-0.0171,1,1,1,1,1,1,1
10.2475,sweep,2,-down,-0.00134,0.15698,0.01850,1.57187,0.06008,0.02575,-0.00362,-0.0073,-0.0659,-0.0024,-0.0073,0.0073,0.0073,-0.0073,-0.3897,2.9880,0.3077,-0.0513,-0.1001,-0.0024,-0.0171,1,1,1,1,1,1,1
10.2879,sweep,2,-down,-0.00134,0.15278,0.01850,1.57187,0.06008,0.02575,-0.00324,-0.0024,-0.0366,-0.0073,-0.0073,-0.0073,-0.0073,-0.0073,-0.3761,3.3299,0.3077,-0.0659,-0.1050,-0.0073,-0.0171,1,1,1,1,1,1,1
10.3278,sweep,2,-down,-0.00134,0.15278,0.01850,1.57187,0.06008,0.02575,-0.00324,-0.0024,-0.0366,-0.0073,-0.0073,-0.0073,-0.0073,-0.0073,-0.3761,3.3299,0.3077,-0.0659,-0.1050,-0.0073,-0.0171,1,1,1,1,1,1,1
10.3675,sweep,2,-down,-0.00134,0.15278,0.01850,1.57187,0.06008,0.02575,-0.00324,-0.0024,-0.0366,-0.0073,-0.0073,-0.0073,-0.0073,-0.0073,-0.3761,3.3299,0.3077,-0.0659,-0.1050,-0.0073,-0.0171,1,1,1,1,1,1,1
10.4076,sweep,2,-down,-0.00095,0.14782,0.01850,1.57187,0.06008,0.02575,-0.00362,0.0024,-0.0464,-0.0024,0.0073,-0.0073,0.0073,-0.0073,-0.3761,3.2479,0.2940,-0.1050,-0.1001,0.0024,-0.0220,1,1,1,1,1,1,1
10.4476,sweep,2,-down,-0.00095,0.14782,0.01850,1.57187,0.06008,0.02575,-0.00362,0.0024,-0.0464,-0.0024,0.0073,-0.0073,0.0073,-0.0073,-0.3761,3.2479,0.2940,-0.1050,-0.1001,0.0024,-0.0220,1,1,1,1,1,1,1
10.4876,sweep,2,-down,-0.00134,0.14515,0.01850,1.57187,0.06008,0.02575,-0.00362,-0.0073,-0.0171,-0.0024,-0.0220,-0.0220,-0.0073,-0.0220,-0.3897,2.9333,0.3077,-0.1294,-0.1050,0.0024,-0.0171,1,1,1,1,1,1,1
10.5276,sweep,2,-down,-0.00134,0.14515,0.01850,1.57187,0.06008,0.02575,-0.00362,-0.0073,-0.0171,-0.0024,-0.0220,-0.0220,-0.0073,-0.0220,-0.3897,2.9333,0.3077,-0.1294,-0.1050,0.0024,-0.0171,1,1,1,1,1,1,1
10.5678,sweep,2,-down,-0.00134,0.14515,0.01850,1.57187,0.06008,0.02575,-0.00362,-0.0073,-0.0171,-0.0024,-0.0220,-0.0220,-0.0073,-0.0220,-0.3897,2.9333,0.3077,-0.1294,-0.1050,0.0024,-0.0171,1,1,1,1,1,1,1
10.6076,sweep,2,-down,-0.00095,0.14134,0.01850,1.57187,0.06008,0.02575,-0.00324,-0.0024,-0.0317,0.0024,-0.0073,0.0073,-0.0073,-0.0073,-0.3897,3.1658,0.2940,-0.1587,-0.1001,0.0024,-0.0171,1,1,1,1,1,1,1
10.6474,sweep,2,-down,-0.00095,0.14134,0.01850,1.57187,0.06008,0.02575,-0.00324,-0.0024,-0.0317,0.0024,-0.0073,0.0073,-0.0073,-0.0073,-0.3897,3.1658,0.2940,-0.1587,-0.1001,0.0024,-0.0171,1,1,1,1,1,1,1
10.6877,sweep,2,-down,-0.00134,0.13905,0.01850,1.57187,0.06008,0.02575,-0.00362,-0.0024,-0.0317,-0.0024,-0.0073,-0.0073,-0.0073,-0.0073,-0.4171,3.3026,0.2803,-0.1929,-0.0952,0.0024,-0.0171,1,1,1,1,1,1,1
11.1904,sweep,2,+up,-0.00134,0.13790,0.01850,1.57187,0.06008,0.02575,-0.00362,-0.0024,-0.0171,-0.0024,0.0073,-0.0073,-0.0220,-0.0073,-0.4171,3.2342,0.2940,-0.2173,-0.0952,-0.0024,-0.0171,1,1,1,1,1,1,1
11.2302,sweep,2,+up,-0.00134,0.13790,0.01850,1.57187,0.06008,0.02575,-0.00362,-0.0024,-0.0171,-0.0024,0.0073,-0.0073,-0.0220,-0.0073,-0.4171,3.2342,0.2940,-0.2173,-0.0952,-0.0024,-0.0171,1,1,1,1,1,1,1
11.2703,sweep,2,+up,-0.00134,0.13790,0.01850,1.57187,0.06008,0.02575,-0.00362,-0.0024,-0.0171,-0.0024,0.0073,-0.0073,-0.0220,-0.0073,-0.4171,3.2342,0.2940,-0.2173,-0.0952,-0.0024,-0.0171,1,1,1,1,1,1,1
11.3102,sweep,2,+up,-0.00134,0.14172,0.01850,1.57454,0.06008,0.02575,-0.00324,-0.0024,0.1929,-0.0024,-0.0366,-0.0073,0.0073,-0.0073,-0.4581,5.7231,0.2393,-0.5690,-0.0855,0.0073,-0.0171,1,1,1,1,1,1,1
11.3504,sweep,2,+up,-0.00134,0.14172,0.01850,1.57454,0.06008,0.02575,-0.00324,-0.0024,0.1929,-0.0024,-0.0366,-0.0073,0.0073,-0.0073,-0.4581,5.7231,0.2393,-0.5690,-0.0855,0.0073,-0.0171,1,1,1,1,1,1,1
11.3903,sweep,2,+up,-0.00134,0.15812,0.01850,1.56920,0.06008,0.02575,-0.00362,0.0024,0.2027,-0.0073,-0.0366,-0.0220,0.0073,-0.0073,-0.4444,5.0803,0.2393,-0.1636,-0.0757,-0.0024,-0.0220,1,1,1,1,1,1,1
11.4302,sweep,2,+up,-0.00134,0.15812,0.01850,1.56920,0.06008,0.02575,-0.00362,0.0024,0.2027,-0.0073,-0.0366,-0.0220,0.0073,-0.0073,-0.4444,5.0803,0.2393,-0.1636,-0.0757,-0.0024,-0.0220,1,1,1,1,1,1,1
11.4705,sweep,2,+up,-0.00134,0.15812,0.01850,1.56920,0.06008,0.02575,-0.00362,0.0024,0.2027,-0.0073,-0.0366,-0.0220,0.0073,-0.0073,-0.4444,5.0803,0.2393,-0.1636,-0.0757,-0.0024,-0.0220,1,1,1,1,1,1,1
11.5103,sweep,2,+up,-0.00134,0.18215,0.01850,1.56844,0.06008,0.02575,-0.00324,-0.0024,0.1685,-0.0024,-0.0073,-0.0220,-0.0073,-0.0073,-0.4855,5.4222,0.2393,-0.0806,-0.0708,0.0024,-0.0171,1,1,1,1,1,1,1
11.5502,sweep,2,+up,-0.00134,0.18215,0.01850,1.56844,0.06008,0.02575,-0.00324,-0.0024,0.1685,-0.0024,-0.0073,-0.0220,-0.0073,-0.0073,-0.4855,5.4222,0.2393,-0.0806,-0.0708,0.0024,-0.0171,1,1,1,1,1,1,1
11.5902,sweep,2,+up,-0.00134,0.19017,0.01850,1.56806,0.06008,0.02575,-0.00324,0.0024,0.1978,-0.0024,0.0073,-0.0073,-0.0073,-0.0073,-0.4718,5.1077,0.2256,-0.0269,-0.0806,-0.0024,-0.0171,1,1,1,1,1,1,1
11.6303,sweep,2,+up,-0.00134,0.19017,0.01850,1.56806,0.06008,0.02575,-0.00324,0.0024,0.1978,-0.0024,0.0073,-0.0073,-0.0073,-0.0073,-0.4718,5.1077,0.2256,-0.0269,-0.0806,-0.0024,-0.0171,1,1,1,1,1,1,1
11.6703,sweep,2,+up,-0.00134,0.19017,0.01850,1.56806,0.06008,0.02575,-0.00324,0.0024,0.1978,-0.0024,0.0073,-0.0073,-0.0073,-0.0073,-0.4718,5.1077,0.2256,-0.0269,-0.0806,-0.0024,-0.0171,1,1,1,1,1,1,1
11.7108,sweep,2,+up,-0.00134,0.22335,0.01850,1.56119,0.06008,0.02575,-0.00324,-0.0024,0.2125,-0.0073,0.1099,-0.0073,0.0073,-0.0073,-0.4991,3.6034,0.2256,0.6276,-0.0806,0.0073,-0.0171,1,1,1,1,1,1,1
11.7508,sweep,2,+up,-0.00134,0.22335,0.01850,1.56119,0.06008,0.02575,-0.00324,-0.0024,0.2125,-0.0073,0.1099,-0.0073,0.0073,-0.0073,-0.4991,3.6034,0.2256,0.6276,-0.0806,0.0073,-0.0171,1,1,1,1,1,1,1
11.7906,sweep,2,+up,-0.00134,0.23861,0.01850,1.56806,0.06008,0.02575,-0.00362,-0.0024,0.1978,-0.0024,0.1831,-0.0073,0.0073,-0.0073,-0.4991,4.6838,0.2256,0.3248,-0.0855,0.0024,-0.0122,1,1,1,1,1,1,1
11.8305,sweep,2,+up,-0.00134,0.23861,0.01850,1.56806,0.06008,0.02575,-0.00362,-0.0024,0.1978,-0.0024,0.1831,-0.0073,0.0073,-0.0073,-0.4991,4.6838,0.2256,0.3248,-0.0855,0.0024,-0.0122,1,1,1,1,1,1,1
11.8709,sweep,2,+up,-0.00134,0.23861,0.01850,1.56806,0.06008,0.02575,-0.00362,-0.0024,0.1978,-0.0024,0.1831,-0.0073,0.0073,-0.0073,-0.4991,4.6838,0.2256,0.3248,-0.0855,0.0024,-0.0122,1,1,1,1,1,1,1
11.9106,sweep,2,+up,-0.00134,0.26341,0.01850,1.56767,0.06008,0.02575,-0.00324,-0.0024,0.2125,0.0024,-0.0513,-0.0073,-0.0073,0.0073,-0.5128,3.9863,0.2530,0.4371,-0.0806,0.0024,-0.0122,1,1,1,1,1,1,1
11.9510,sweep,2,+up,-0.00134,0.26341,0.01850,1.56767,0.06008,0.02575,-0.00324,-0.0024,0.2125,0.0024,-0.0513,-0.0073,-0.0073,0.0073,-0.5128,3.9863,0.2530,0.4371,-0.0806,0.0024,-0.0122,1,1,1,1,1,1,1
11.9908,sweep,2,+up,-0.00134,0.27905,0.01850,1.56844,0.06046,0.02575,-0.00324,-0.0024,0.1929,0.0024,-0.0220,0.0073,-0.0220,0.0073,-0.4991,4.3282,0.2667,0.4567,-0.0806,-0.0024,-0.0122,1,1,1,1,1,1,1
12.0304,sweep,2,+up,-0.00134,0.27905,0.01850,1.56844,0.06046,0.02575,-0.00324,-0.0024,0.1929,0.0024,-0.0220,0.0073,-0.0220,0.0073,-0.4991,4.3282,0.2667,0.4567,-0.0806,-0.0024,-0.0122,1,1,1,1,1,1,1
12.0705,sweep,2,+up,-0.00134,0.27905,0.01850,1.56844,0.06046,0.02575,-0.00324,-0.0024,0.1929,0.0024,-0.0220,0.0073,-0.0220,0.0073,-0.4991,4.3282,0.2667,0.4567,-0.0806,-0.0024,-0.0122,1,1,1,1,1,1,1
12.1102,sweep,2,+up,-0.00134,0.30346,0.01850,1.56844,0.06008,0.02575,-0.00324,-0.0024,0.2222,-0.0024,-0.0073,-0.0073,-0.0073,-0.0073,-0.4855,3.5897,0.2803,0.5543,-0.0904,-0.0024,-0.0122,1,1,1,1,1,1,1
12.1504,sweep,2,+up,-0.00134,0.30346,0.01850,1.56844,0.06008,0.02575,-0.00324,-0.0024,0.2222,-0.0024,-0.0073,-0.0073,-0.0073,-0.0073,-0.4855,3.5897,0.2803,0.5543,-0.0904,-0.0024,-0.0122,1,1,1,1,1,1,1
12.1903,sweep,2,+up,-0.00134,0.31910,0.01850,1.56882,0.06008,0.02575,-0.00324,-0.0073,0.1734,-0.0073,0.0073,-0.0073,-0.0073,0.0073,-0.4855,4.1094,0.2667,0.5690,-0.0904,0.0024,-0.0122,1,1,1,1,1,1,1
12.2305,sweep,2,+up,-0.00134,0.31910,0.01850,1.56882,0.06008,0.02575,-0.00324,-0.0073,0.1734,-0.0073,0.0073,-0.0073,-0.0073,0.0073,-0.4855,4.1094,0.2667,0.5690,-0.0904,0.0024,-0.0122,1,1,1,1,1,1,1
12.2703,sweep,2,+up,-0.00134,0.31910,0.01850,1.56882,0.06008,0.02575,-0.00324,-0.0073,0.1734,-0.0073,0.0073,-0.0073,-0.0073,0.0073,-0.4855,4.1094,0.2667,0.5690,-0.0904,0.0024,-0.0122,1,1,1,1,1,1,1
12.3104,sweep,2,+up,-0.00134,0.34352,0.01850,1.56882,0.06008,0.02575,-0.00324,-0.0024,0.1880,-0.0024,-0.0220,-0.0073,0.0073,-0.0073,-0.4581,3.4940,0.2803,0.6520,-0.0806,0.0024,-0.0122,1,1,1,1,1,1,1
12.3503,sweep,2,+up,-0.00134,0.34352,0.01850,1.56882,0.06008,0.02575,-0.00324,-0.0024,0.1880,-0.0024,-0.0220,-0.0073,0.0073,-0.0073,-0.4581,3.4940,0.2803,0.6520,-0.0806,0.0024,-0.0122,1,1,1,1,1,1,1
12.3904,sweep,2,+up,-0.00134,0.35916,0.01850,1.56920,0.06008,0.02537,-0.00324,-0.0024,0.1832,-0.0073,-0.0073,-0.0073,-0.0073,-0.0073,-0.4581,3.9316,0.3077,0.6716,-0.0806,-0.0073,-0.0122,1,1,1,1,1,1,1
12.4303,sweep,2,+up,-0.00134,0.35916,0.01850,1.56920,0.06008,0.02537,-0.00324,-0.0024,0.1832,-0.0073,-0.0073,-0.0073,-0.0073,-0.0073,-0.4581,3.9316,0.3077,0.6716,-0.0806,-0.0073,-0.0122,1,1,1,1,1,1,1
12.4704,sweep,2,+up,-0.00134,0.35916,0.01850,1.56920,0.06008,0.02537,-0.00324,-0.0024,0.1832,-0.0073,-0.0073,-0.0073,-0.0073,-0.0073,-0.4581,3.9316,0.3077,0.6716,-0.0806,-0.0073,-0.0122,1,1,1,1,1,1,1
12.5103,sweep,2,+up,-0.00134,0.38357,0.01850,1.56920,0.06008,0.02537,-0.00324,0.0024,0.1978,-0.0024,-0.0073,-0.0073,-0.0220,-0.0220,-0.4444,3.3709,0.2940,0.7448,-0.0806,-0.0073,-0.0171,1,1,1,1,1,1,1
12.5503,sweep,2,+up,-0.00134,0.38357,0.01850,1.56920,0.06008,0.02537,-0.00324,0.0024,0.1978,-0.0024,-0.0073,-0.0073,-0.0220,-0.0220,-0.4444,3.3709,0.2940,0.7448,-0.0806,-0.0073,-0.0171,1,1,1,1,1,1,1
12.5903,sweep,2,+up,-0.00134,0.39960,0.01850,1.56958,0.06008,0.02575,-0.00324,0.0024,0.1978,-0.0024,-0.0073,-0.0220,-0.0073,-0.0073,-0.4581,3.5624,0.2803,0.7839,-0.0708,-0.0073,-0.0171,1,1,1,1,1,1,1
12.6306,sweep,2,+up,-0.00134,0.39960,0.01850,1.56958,0.06008,0.02575,-0.00324,0.0024,0.1978,-0.0024,-0.0073,-0.0220,-0.0073,-0.0073,-0.4581,3.5624,0.2803,0.7839,-0.0708,-0.0073,-0.0171,1,1,1,1,1,1,1
12.6702,sweep,2,+up,-0.00134,0.39960,0.01850,1.56958,0.06008,0.02575,-0.00324,0.0024,0.1978,-0.0024,-0.0073,-0.0220,-0.0073,-0.0073,-0.4581,3.5624,0.2803,0.7839,-0.0708,-0.0073,-0.0171,1,1,1,1,1,1,1
12.7103,sweep,2,+up,-0.00134,0.42363,0.01850,1.56958,0.06008,0.02575,-0.00324,-0.0073,0.1734,-0.0024,0.0073,-0.0073,-0.0220,-0.0073,-0.4581,3.3573,0.2803,0.8620,-0.0659,-0.0073,-0.0171,1,1,1,1,1,1,1
12.7503,sweep,2,+up,-0.00134,0.42363,0.01850,1.56958,0.06008,0.02575,-0.00324,-0.0073,0.1734,-0.0024,0.0073,-0.0073,-0.0220,-0.0073,-0.4581,3.3573,0.2803,0.8620,-0.0659,-0.0073,-0.0171,1,1,1,1,1,1,1
12.7903,sweep,2,+up,-0.00134,0.43965,0.01850,1.56958,0.06046,0.02575,-0.00324,-0.0024,0.2076,-0.0024,-0.0073,-0.0073,0.0073,-0.0073,-0.4444,3.2068,0.2803,0.9011,-0.0611,-0.0073,-0.0122,1,1,1,1,1,1,1
12.8303,sweep,2,+up,-0.00134,0.43965,0.01850,1.56958,0.06046,0.02575,-0.00324,-0.0024,0.2076,-0.0024,-0.0073,-0.0073,0.0073,-0.0073,-0.4444,3.2068,0.2803,0.9011,-0.0611,-0.0073,-0.0122,1,1,1,1,1,1,1
12.8702,sweep,2,+up,-0.00134,0.43965,0.01850,1.56958,0.06046,0.02575,-0.00324,-0.0024,0.2076,-0.0024,-0.0073,-0.0073,0.0073,-0.0073,-0.4444,3.2068,0.2803,0.9011,-0.0611,-0.0073,-0.0122,1,1,1,1,1,1,1
12.9103,sweep,2,+up,-0.00134,0.46368,0.01850,1.56958,0.06046,0.02575,-0.00324,-0.0024,0.1832,-0.0024,-0.0073,0.0073,-0.0366,-0.0073,-0.4308,3.1795,0.2940,0.9548,-0.0659,-0.0122,-0.0171,1,1,1,1,1,1,1
12.9506,sweep,2,+up,-0.00134,0.46368,0.01850,1.56958,0.06046,0.02575,-0.00324,-0.0024,0.1832,-0.0024,-0.0073,0.0073,-0.0366,-0.0073,-0.4308,3.1795,0.2940,0.9548,-0.0659,-0.0122,-0.0171,1,1,1,1,1,1,1
12.9908,sweep,2,+up,-0.00134,0.48009,0.01850,1.56958,0.06046,0.02537,-0.00324,-0.0024,0.2320,0.0024,-0.0073,-0.0073,-0.0220,-0.0073,-0.4171,2.9607,0.2667,0.9646,-0.0562,-0.0073,-0.0122,1,1,1,1,1,1,1
13.0303,sweep,2,+up,-0.00134,0.48009,0.01850,1.56958,0.06046,0.02537,-0.00324,-0.0024,0.2320,0.0024,-0.0073,-0.0073,-0.0220,-0.0073,-0.4171,2.9607,0.2667,0.9646,-0.0562,-0.0073,-0.0122,1,1,1,1,1,1,1
13.0703,sweep,2,+up,-0.00134,0.48009,0.01850,1.56958,0.06046,0.02537,-0.00324,-0.0024,0.2320,0.0024,-0.0073,-0.0073,-0.0220,-0.0073,-0.4171,2.9607,0.2667,0.9646,-0.0562,-0.0073,-0.0122,1,1,1,1,1,1,1
13.1104,sweep,2,+up,-0.00134,0.50412,0.01850,1.56958,0.06008,0.02575,-0.00324,-0.0024,0.1978,-0.0073,-0.0073,-0.0220,-0.0220,-0.0073,-0.4034,2.8103,0.2530,1.0183,-0.0611,-0.0073,-0.0122,1,1,1,1,1,1,1
13.1503,sweep,2,+up,-0.00134,0.50412,0.01850,1.56958,0.06008,0.02575,-0.00324,-0.0024,0.1978,-0.0073,-0.0073,-0.0220,-0.0220,-0.0073,-0.4034,2.8103,0.2530,1.0183,-0.0611,-0.0073,-0.0122,1,1,1,1,1,1,1
13.1901,sweep,2,+up,-0.00134,0.52014,0.01850,1.56958,0.06046,0.02575,-0.00324,-0.0073,0.2027,-0.0024,-0.0220,-0.0220,-0.0220,-0.0073,-0.4034,2.4684,0.2667,1.0574,-0.0659,-0.0073,-0.0171,1,1,1,1,1,1,1
13.2302,sweep,2,+up,-0.00134,0.52014,0.01850,1.56958,0.06046,0.02575,-0.00324,-0.0073,0.2027,-0.0024,-0.0220,-0.0220,-0.0220,-0.0073,-0.4034,2.4684,0.2667,1.0574,-0.0659,-0.0073,-0.0171,1,1,1,1,1,1,1
13.2703,sweep,2,+up,-0.00134,0.52014,0.01850,1.56958,0.06046,0.02575,-0.00324,-0.0073,0.2027,-0.0024,-0.0220,-0.0220,-0.0220,-0.0073,-0.4034,2.4684,0.2667,1.0574,-0.0659,-0.0073,-0.0171,1,1,1,1,1,1,1
13.3102,sweep,2,+up,-0.00134,0.54418,0.01850,1.56958,0.06046,0.02575,-0.00362,-0.0073,0.1978,-0.0024,-0.0073,-0.0073,-0.0073,-0.0220,-0.4171,2.5231,0.2393,1.1111,-0.0611,-0.0122,-0.0171,1,1,1,1,1,1,1
13.3504,sweep,2,+up,-0.00134,0.54418,0.01850,1.56958,0.06046,0.02575,-0.00362,-0.0073,0.1978,-0.0024,-0.0073,-0.0073,-0.0073,-0.0220,-0.4171,2.5231,0.2393,1.1111,-0.0611,-0.0122,-0.0171,1,1,1,1,1,1,1
13.3902,sweep,2,+up,-0.00134,0.56058,0.01850,1.56958,0.06046,0.02575,-0.00324,0.0024,0.1978,0.0024,-0.0073,0.0073,-0.0073,-0.0073,-0.4034,2.3179,0.2393,1.1404,-0.0562,-0.0220,-0.0122,1,1,1,1,1,1,1
13.4303,sweep,2,+up,-0.00134,0.56058,0.01850,1.56958,0.06046,0.02575,-0.00324,0.0024,0.1978,0.0024,-0.0073,0.0073,-0.0073,-0.0073,-0.4034,2.3179,0.2393,1.1404,-0.0562,-0.0220,-0.0122,1,1,1,1,1,1,1
13.4703,sweep,2,+up,-0.00134,0.56058,0.01850,1.56958,0.06046,0.02575,-0.00324,0.0024,0.1978,0.0024,-0.0073,0.0073,-0.0073,-0.0073,-0.4034,2.3179,0.2393,1.1404,-0.0562,-0.0220,-0.0122,1,1,1,1,1,1,1
13.5103,sweep,2,+up,-0.00134,0.58461,0.01850,1.56996,0.06046,0.02575,-0.00324,-0.0024,0.2222,-0.0024,0.0073,-0.0073,0.0073,-0.0073,-0.3897,2.1265,0.2393,1.1551,-0.0611,-0.0171,-0.0122,1,1,1,1,1,1,1
13.5503,sweep,2,+up,-0.00134,0.58461,0.01850,1.56996,0.06046,0.02575,-0.00324,-0.0024,0.2222,-0.0024,0.0073,-0.0073,0.0073,-0.0073,-0.3897,2.1265,0.2393,1.1551,-0.0611,-0.0171,-0.0122,1,1,1,1,1,1,1
13.5902,sweep,2,+up,-0.00134,0.60063,0.01850,1.56996,0.06046,0.02575,-0.00362,-0.0024,0.1832,-0.0073,-0.0073,-0.0073,-0.0073,-0.0073,-0.4171,2.0581,0.2393,1.1746,-0.0562,-0.0171,-0.0122,1,1,1,1,1,1,1
13.6302,sweep,2,+up,-0.00134,0.60063,0.01850,1.56996,0.06046,0.02575,-0.00362,-0.0024,0.1832,-0.0073,-0.0073,-0.0073,-0.0073,-0.0073,-0.4171,2.0581,0.2393,1.1746,-0.0562,-0.0171,-0.0122,1,1,1,1,1,1,1
13.6703,sweep,2,+up,-0.00134,0.60063,0.01850,1.56996,0.06046,0.02575,-0.00362,-0.0024,0.1832,-0.0073,-0.0073,-0.0073,-0.0073,-0.0073,-0.4171,2.0581,0.2393,1.1746,-0.0562,-0.0171,-0.0122,1,1,1,1,1,1,1
13.7101,sweep,2,+up,-0.00134,0.62467,0.01850,1.56996,0.06046,0.02575,-0.00362,-0.0024,0.2076,-0.0024,-0.0220,0.0073,-0.0073,-0.0220,-0.4308,1.8803,0.2530,1.2137,-0.0562,-0.0171,-0.0122,1,1,1,1,1,1,1
13.7504,sweep,2,+up,-0.00134,0.62467,0.01850,1.56996,0.06046,0.02575,-0.00362,-0.0024,0.2076,-0.0024,-0.0220,0.0073,-0.0073,-0.0220,-0.4308,1.8803,0.2530,1.2137,-0.0562,-0.0171,-0.0122,1,1,1,1,1,1,1
13.7904,sweep,2,+up,-0.00134,0.64641,0.01850,1.56996,0.06046,0.02575,-0.00324,-0.0073,0.1490,-0.0024,-0.0073,-0.0073,-0.0073,-0.0073,-0.4171,1.8256,0.2530,1.2479,-0.0611,-0.0220,-0.0171,1,1,1,1,1,1,1
13.8304,sweep,2,+up,-0.00134,0.64641,0.01850,1.56996,0.06046,0.02575,-0.00324,-0.0073,0.1490,-0.0024,-0.0073,-0.0073,-0.0073,-0.0073,-0.4171,1.8256,0.2530,1.2479,-0.0611,-0.0220,-0.0171,1,1,1,1,1,1,1
13.8702,sweep,2,+up,-0.00134,0.64641,0.01850,1.56996,0.06046,0.02575,-0.00324,-0.0073,0.1490,-0.0024,-0.0073,-0.0073,-0.0073,-0.0073,-0.4171,1.8256,0.2530,1.2479,-0.0611,-0.0220,-0.0171,1,1,1,1,1,1,1
13.9104,sweep,2,+up,-0.00134,0.65900,0.01850,1.56996,0.06046,0.02575,-0.00362,-0.0024,0.1343,0.0024,-0.0073,0.0073,-0.0220,-0.0073,-0.4034,1.9487,0.2530,1.2918,-0.0611,-0.0220,-0.0220,1,1,1,1,1,1,1
13.9503,sweep,2,+up,-0.00134,0.65900,0.01850,1.56996,0.06046,0.02575,-0.00362,-0.0024,0.1343,0.0024,-0.0073,0.0073,-0.0220,-0.0073,-0.4034,1.9487,0.2530,1.2918,-0.0611,-0.0220,-0.0220,1,1,1,1,1,1,1
13.9909,sweep,2,+up,-0.00134,0.67617,0.01850,1.56996,0.06046,0.02575,-0.00362,-0.0024,0.1490,-0.0024,-0.0220,-0.0073,-0.0220,-0.0073,-0.4034,1.3607,0.2530,1.3065,-0.0708,-0.0171,-0.0171,1,1,1,1,1,1,1
14.0302,sweep,2,+up,-0.00134,0.67617,0.01850,1.56996,0.06046,0.02575,-0.00362,-0.0024,0.1490,-0.0024,-0.0220,-0.0073,-0.0220,-0.0073,-0.4034,1.3607,0.2530,1.3065,-0.0708,-0.0171,-0.0171,1,1,1,1,1,1,1
14.0702,sweep,2,+up,-0.00134,0.67617,0.01850,1.56996,0.06046,0.02575,-0.00362,-0.0024,0.1490,-0.0024,-0.0220,-0.0073,-0.0220,-0.0073,-0.4034,1.3607,0.2530,1.3065,-0.0708,-0.0171,-0.0171,1,1,1,1,1,1,1
14.1105,sweep,2,+up,-0.00134,0.68532,0.01850,1.56996,0.06046,0.02575,-0.00362,-0.0024,0.1001,-0.0024,0.0073,-0.0073,-0.0073,-0.0073,-0.4171,1.7709,0.2530,1.3309,-0.0708,-0.0220,-0.0220,1,1,1,1,1,1,1
14.1503,sweep,2,+up,-0.00134,0.68532,0.01850,1.56996,0.06046,0.02575,-0.00362,-0.0024,0.1001,-0.0024,0.0073,-0.0073,-0.0073,-0.0073,-0.4171,1.7709,0.2530,1.3309,-0.0708,-0.0220,-0.0220,1,1,1,1,1,1,1
14.1905,sweep,2,+up,-0.00134,0.69829,0.01850,1.56996,0.06046,0.02575,-0.00362,-0.0024,0.0757,-0.0024,-0.0073,-0.0073,-0.0073,-0.0220,-0.4034,1.4017,0.2393,1.3797,-0.0659,-0.0220,-0.0220,1,1,1,1,1,1,1
14.2303,sweep,2,+up,-0.00134,0.69829,0.01850,1.56996,0.06046,0.02575,-0.00362,-0.0024,0.0757,-0.0024,-0.0073,-0.0073,-0.0073,-0.0220,-0.4034,1.4017,0.2393,1.3797,-0.0659,-0.0220,-0.0220,1,1,1,1,1,1,1
14.2702,sweep,2,+up,-0.00134,0.69829,0.01850,1.56996,0.06046,0.02575,-0.00362,-0.0024,0.0757,-0.0024,-0.0073,-0.0073,-0.0073,-0.0220,-0.4034,1.4017,0.2393,1.3797,-0.0659,-0.0220,-0.0220,1,1,1,1,1,1,1
14.3103,sweep,2,+up,-0.00134,0.70554,0.01850,1.56958,0.06046,0.02575,-0.00362,-0.0024,0.0757,-0.0024,-0.0073,-0.0073,-0.0073,-0.0220,-0.4171,1.4564,0.2393,1.4139,-0.0611,-0.0220,-0.0220,1,1,1,1,1,1,1
14.3502,sweep,2,+up,-0.00134,0.70554,0.01850,1.56958,0.06046,0.02575,-0.00362,-0.0024,0.0757,-0.0024,-0.0073,-0.0073,-0.0073,-0.0220,-0.4171,1.4564,0.2393,1.4139,-0.0611,-0.0220,-0.0220,1,1,1,1,1,1,1
14.3901,sweep,2,+up,-0.00134,0.70554,0.01850,1.56958,0.06046,0.02575,-0.00362,-0.0024,0.0757,-0.0024,-0.0073,-0.0073,-0.0073,-0.0220,-0.4171,1.4564,0.2393,1.4139,-0.0611,-0.0220,-0.0220,1,1,1,1,1,1,1
14.4303,sweep,2,+up,-0.00134,0.71546,0.01850,1.56996,0.06046,0.02575,-0.00362,-0.0073,0.0708,0.0024,-0.0073,0.0073,-0.0073,-0.0220,-0.4034,1.0735,0.2530,1.4383,-0.0611,-0.0220,-0.0220,1,1,1,1,1,1,1
14.4702,sweep,2,+up,-0.00134,0.71546,0.01850,1.56996,0.06046,0.02575,-0.00362,-0.0073,0.0708,0.0024,-0.0073,0.0073,-0.0073,-0.0220,-0.4034,1.0735,0.2530,1.4383,-0.0611,-0.0220,-0.0220,1,1,1,1,1,1,1
14.5102,sweep,2,+up,-0.00134,0.72118,0.01850,1.56996,0.06046,0.02575,-0.00324,-0.0073,0.0757,-0.0024,-0.0073,-0.0073,-0.0073,0.0073,-0.3897,1.1556,0.2530,1.4530,-0.0562,-0.0269,-0.0220,1,1,1,1,1,1,1
14.5502,sweep,2,+up,-0.00134,0.72118,0.01850,1.56996,0.06046,0.02575,-0.00324,-0.0073,0.0757,-0.0024,-0.0073,-0.0073,-0.0073,0.0073,-0.3897,1.1556,0.2530,1.4530,-0.0562,-0.0269,-0.0220,1,1,1,1,1,1,1
14.5905,sweep,2,+up,-0.00134,0.72118,0.01850,1.56996,0.06046,0.02575,-0.00362,-0.0073,0.0757,-0.0024,-0.0073,-0.0220,-0.0220,-0.0073,-0.3897,1.1556,0.2530,1.4530,-0.0611,-0.0269,-0.0269,1,1,1,1,1,1,1
14.6302,sweep,2,+up,-0.00134,0.72843,0.01850,1.57111,0.06046,0.02575,-0.00362,-0.0073,0.0513,-0.0024,-0.0073,-0.0220,-0.0220,-0.0073,-0.3897,1.0325,0.2530,1.3553,-0.0611,-0.0269,-0.0269,1,1,1,1,1,1,1
14.6704,sweep,2,+up,-0.00134,0.72843,0.01850,1.57111,0.06046,0.02575,-0.00362,-0.0073,0.0513,-0.0024,-0.0073,-0.0220,-0.0220,-0.0073,-0.3897,1.0325,0.2530,1.3553,-0.0611,-0.0269,-0.0269,1,1,1,1,1,1,1
14.7102,sweep,2,+up,-0.00134,0.73262,0.01850,1.57111,0.06046,0.02575,-0.00362,-0.0024,0.0562,-0.0024,-0.0073,-0.0073,-0.0073,-0.0220,-0.4034,1.1692,0.2256,1.3358,-0.0611,-0.0317,-0.0269,1,1,1,1,1,1,1
14.7502,sweep,2,+up,-0.00134,0.73262,0.01850,1.57111,0.06046,0.02575,-0.00362,-0.0024,0.0562,-0.0024,-0.0073,-0.0073,-0.0073,-0.0220,-0.4034,1.1692,0.2256,1.3358,-0.0611,-0.0317,-0.0269,1,1,1,1,1,1,1
14.7903,sweep,2,+up,-0.00134,0.73262,0.01850,1.57111,0.06046,0.02575,-0.00362,-0.0024,0.0562,-0.0024,-0.0073,-0.0073,-0.0220,-0.0073,-0.4034,1.1692,0.2256,1.3358,-0.0611,-0.0317,-0.0317,1,1,1,1,1,1,1
14.8303,sweep,2,+up,-0.00134,0.73796,0.01850,1.57111,0.06046,0.02575,-0.00362,-0.0024,0.0513,-0.0024,-0.0073,-0.0073,-0.0220,-0.0073,-0.3761,1.3880,0.2256,1.3162,-0.0611,-0.0317,-0.0317,1,1,1,1,1,1,1
14.8702,sweep,2,+up,-0.00134,0.73796,0.01850,1.57111,0.06046,0.02575,-0.00362,-0.0024,0.0513,-0.0024,-0.0073,-0.0073,-0.0220,-0.0073,-0.3761,1.3880,0.2256,1.3162,-0.0611,-0.0317,-0.0317,1,1,1,1,1,1,1
14.9105,sweep,2,+up,-0.00134,0.74140,0.01850,1.57073,0.06046,0.02575,-0.00362,-0.0073,0.0366,-0.0024,-0.0073,-0.0073,-0.0220,-0.0073,-0.3761,0.9641,0.2120,1.3260,-0.0611,-0.0269,-0.0317,1,1,1,1,1,1,1
14.9503,sweep,2,+up,-0.00134,0.74140,0.01850,1.57073,0.06046,0.02575,-0.00362,-0.0073,0.0366,-0.0024,-0.0073,-0.0073,-0.0220,-0.0073,-0.3761,0.9641,0.2120,1.3260,-0.0611,-0.0269,-0.0317,1,1,1,1,1,1,1
14.9902,sweep,2,+up,-0.00134,0.74140,0.01850,1.57073,0.06046,0.02575,-0.00362,-0.0073,0.0366,-0.0024,-0.0073,-0.0073,-0.0220,-0.0073,-0.3761,0.9641,0.2120,1.3260,-0.0611,-0.0269,-0.0317,1,1,1,1,1,1,1
15.0303,sweep,2,+up,-0.00134,0.74598,0.01850,1.57073,0.06046,0.02575,-0.00362,-0.0073,0.0415,-0.0024,0.0073,-0.0073,0.0073,-0.0073,-0.3761,0.9504,0.1983,1.3309,-0.0708,-0.0317,-0.0269,1,1,1,1,1,1,1
15.0705,sweep,2,+up,-0.00134,0.74598,0.01850,1.57073,0.06046,0.02575,-0.00362,-0.0073,0.0415,-0.0024,0.0073,-0.0073,0.0073,-0.0073,-0.3761,0.9504,0.1983,1.3309,-0.0708,-0.0317,-0.0269,1,1,1,1,1,1,1
15.1102,sweep,2,+up,-0.00134,0.74826,0.01850,1.57073,0.06046,0.02575,-0.00362,-0.0024,0.0171,-0.0024,-0.0073,0.0073,-0.0073,-0.0073,-0.3761,1.0325,0.2120,1.3455,-0.0659,-0.0269,-0.0317,1,1,1,1,1,1,1
15.1501,sweep,2,+up,-0.00134,0.74826,0.01850,1.57073,0.06046,0.02575,-0.00362,-0.0024,0.0171,-0.0024,-0.0073,0.0073,-0.0073,-0.0073,-0.3761,1.0325,0.2120,1.3455,-0.0659,-0.0269,-0.0317,1,1,1,1,1,1,1
15.1901,sweep,2,+up,-0.00134,0.74826,0.01850,1.57073,0.06046,0.02575,-0.00362,-0.0024,0.0171,-0.0024,-0.0073,0.0073,-0.0073,-0.0073,-0.3761,1.0325,0.2120,1.3455,-0.0659,-0.0269,-0.0317,1,1,1,1,1,1,1
15.2303,sweep,2,+up,-0.00134,0.75132,0.01850,1.57073,0.06046,0.02575,-0.00362,-0.0073,0.0269,-0.0024,-0.0073,-0.0073,0.0073,-0.0073,-0.3761,1.2786,0.1983,1.3455,-0.0708,-0.0366,-0.0317,1,1,1,1,1,1,1
15.7329,sweep,2,-down,-0.00134,0.75208,0.01850,1.57073,0.06046,0.02575,-0.00362,-0.0024,0.0122,-0.0024,-0.0220,0.0073,0.0220,-0.0220,-0.3624,1.2103,0.1983,1.3407,-0.0659,-0.0317,-0.0269,1,1,1,1,1,1,1
15.7729,sweep,2,-down,-0.00134,0.75208,0.01850,1.57073,0.06046,0.02575,-0.00362,-0.0024,0.0122,-0.0024,-0.0220,0.0073,0.0220,-0.0220,-0.3624,1.2103,0.1983,1.3407,-0.0659,-0.0317,-0.0269,1,1,1,1,1,1,1
15.8129,sweep,2,-down,-0.00134,0.75589,0.01850,1.56996,0.06046,0.02575,-0.00362,-0.0024,-0.2173,0.0024,-0.0366,-0.0073,-0.0073,-0.0073,-0.4034,-0.1983,0.2120,1.4090,-0.0757,-0.0415,-0.0269,1,1,1,1,1,1,1
15.8528,sweep,2,-down,-0.00134,0.75589,0.01850,1.56996,0.06046,0.02575,-0.00362,-0.0024,-0.2173,0.0024,-0.0366,-0.0073,-0.0073,-0.0073,-0.4034,-0.1983,0.2120,1.4090,-0.0757,-0.0415,-0.0269,1,1,1,1,1,1,1
15.8927,sweep,2,-down,-0.00134,0.73110,0.01850,1.56920,0.06008,0.02575,-0.00362,0.0024,-0.2320,-0.0024,0.0220,-0.0073,-0.0220,-0.0073,-0.3897,0.1846,0.1983,1.5507,-0.0757,-0.0415,-0.0269,1,1,1,1,1,1,1
15.9327,sweep,2,-down,-0.00134,0.73110,0.01850,1.56920,0.06008,0.02575,-0.00362,-0.0024,-0.2320,-0.0024,0.0220,-0.0073,-0.0220,-0.0073,-0.4034,0.1846,0.1983,1.5507,-0.0757,-0.0415,-0.0269,1,1,1,1,1,1,1
15.9728,sweep,2,-down,-0.00134,0.73110,0.01850,1.56920,0.06008,0.02575,-0.00362,-0.0024,-0.2320,-0.0024,0.0220,-0.0073,-0.0220,-0.0073,-0.4034,0.1846,0.1983,1.5507,-0.0757,-0.0415,-0.0269,1,1,1,1,1,1,1
16.0128,sweep,2,-down,-0.00134,0.71431,0.01850,1.57263,0.06008,0.02537,-0.00362,-0.0024,-0.2173,-0.0024,-0.0366,-0.0220,-0.0220,-0.0073,-0.4171,0.6222,0.1846,1.2674,-0.0806,-0.0415,-0.0220,1,1,1,1,1,1,1
16.0527,sweep,2,-down,-0.00134,0.71431,0.01850,1.57263,0.06008,0.02537,-0.00362,-0.0024,-0.2173,-0.0024,-0.0366,-0.0220,-0.0220,-0.0073,-0.4171,0.6222,0.1846,1.2674,-0.0806,-0.0415,-0.0220,1,1,1,1,1,1,1
16.0928,sweep,2,-down,-0.00134,0.71431,0.01850,1.57263,0.06008,0.02537,-0.00362,-0.0024,-0.2173,-0.0024,-0.0366,-0.0220,-0.0220,-0.0073,-0.4171,0.6222,0.1846,1.2674,-0.0806,-0.0415,-0.0220,1,1,1,1,1,1,1
16.1328,sweep,2,-down,-0.00134,0.69066,0.01850,1.57187,0.06008,0.02537,-0.00362,-0.0024,-0.2125,0.0024,0.0073,-0.0073,-0.0220,0.0073,-0.4308,0.3487,0.1983,1.2332,-0.0806,-0.0464,-0.0220,1,1,1,1,1,1,1
16.1727,sweep,2,-down,-0.00134,0.69066,0.01850,1.57187,0.06008,0.02537,-0.00362,-0.0024,-0.2125,0.0024,0.0073,-0.0073,-0.0220,0.0073,-0.4308,0.3487,0.1983,1.2332,-0.0806,-0.0464,-0.0220,1,1,1,1,1,1,1
16.2127,sweep,2,-down,-0.00134,0.67426,0.01850,1.57225,0.06008,0.02575,-0.00362,0.0024,-0.1929,-0.0073,0.0073,-0.0073,-0.0073,0.0073,-0.4444,0.6632,0.1846,1.1746,-0.0904,-0.0464,-0.0220,1,1,1,1,1,1,1
16.2527,sweep,2,-down,-0.00134,0.67426,0.01850,1.57225,0.06008,0.02575,-0.00362,0.0024,-0.1929,-0.0073,0.0073,-0.0073,-0.0073,0.0073,-0.4444,0.6632,0.1846,1.1746,-0.0904,-0.0464,-0.0220,1,1,1,1,1,1,1
16.2927,sweep,2,-down,-0.00134,0.67426,0.01850,1.57225,0.06008,0.02575,-0.00362,0.0024,-0.1929,-0.0073,0.0073,-0.0073,-0.0073,0.0073,-0.4444,0.6632,0.1846,1.1746,-0.0904,-0.0464,-0.0220,1,1,1,1,1,1,1
16.3328,sweep,2,-down,-0.00134,0.65022,0.01850,1.57225,0.06046,0.02537,-0.00324,-0.0073,-0.2320,-0.0024,-0.0073,-0.0073,-0.0073,0.0073,-0.4171,0.7179,0.1983,1.0916,-0.0904,-0.0464,-0.0220,1,1,1,1,1,1,1
16.3727,sweep,2,-down,-0.00134,0.65022,0.01850,1.57225,0.06046,0.02537,-0.00324,-0.0073,-0.2320,-0.0024,-0.0073,-0.0073,-0.0073,0.0073,-0.4171,0.7179,0.1983,1.0916,-0.0904,-0.0464,-0.0220,1,1,1,1,1,1,1
16.4127,sweep,2,-down,-0.00134,0.63420,0.01850,1.57225,0.06008,0.02537,-0.00324,-0.0024,-0.1734,-0.0024,-0.0073,0.0073,-0.0073,-0.0073,-0.4034,0.8274,0.1846,1.0379,-0.0904,-0.0415,-0.0220,1,1,1,1,1,1,1
16.4527,sweep,2,-down,-0.00134,0.63420,0.01850,1.57225,0.06008,0.02537,-0.00324,-0.0024,-0.1734,-0.0024,-0.0073,0.0073,-0.0073,-0.0073,-0.4034,0.8274,0.1846,1.0379,-0.0904,-0.0415,-0.0220,1,1,1,1,1,1,1
16.4929,sweep,2,-down,-0.00134,0.63420,0.01850,1.57225,0.06008,0.02537,-0.00324,-0.0024,-0.1734,-0.0024,-0.0073,0.0073,-0.0073,-0.0073,-0.4034,0.8274,0.1846,1.0379,-0.0904,-0.0415,-0.0220,1,1,1,1,1,1,1
16.5329,sweep,2,-down,-0.00134,0.61017,0.01850,1.57187,0.06008,0.02537,-0.00362,-0.0024,-0.2173,-0.0024,-0.0073,-0.0073,-0.0073,-0.0073,-0.4034,1.0188,0.1709,0.9890,-0.0952,-0.0415,-0.0171,1,1,1,1,1,1,1
16.5729,sweep,2,-down,-0.00134,0.61017,0.01850,1.57187,0.06008,0.02537,-0.00362,-0.0024,-0.2173,-0.0024,-0.0073,-0.0073,-0.0073,-0.0073,-0.4034,1.0188,0.1709,0.9890,-0.0952,-0.0415,-0.0171,1,1,1,1,1,1,1
16.6130,sweep,2,-down,-0.00134,0.59415,0.01850,1.57187,0.06008,0.02537,-0.00324,-0.0024,-0.2027,-0.0024,0.0073,-0.0073,-0.0073,-0.0073,-0.4308,0.9094,0.1709,0.9353,-0.0952,-0.0366,-0.0171,1,1,1,1,1,1,1
16.6528,sweep,2,-down,-0.00134,0.59415,0.01850,1.57187,0.06008,0.02537,-0.00324,-0.0024,-0.2027,-0.0024,0.0073,-0.0073,-0.0073,-0.0073,-0.4308,0.9094,0.1709,0.9353,-0.0952,-0.0366,-0.0171,1,1,1,1,1,1,1
16.6929,sweep,2,-down,-0.00134,0.59415,0.01850,1.57187,0.06008,0.02537,-0.00324,-0.0024,-0.2027,-0.0024,0.0073,-0.0073,-0.0073,-0.0073,-0.4308,0.9094,0.1709,0.9353,-0.0952,-0.0366,-0.0171,1,1,1,1,1,1,1
16.7327,sweep,2,-down,-0.00134,0.57012,0.01850,1.57187,0.06008,0.02537,-0.00324,-0.0024,-0.2076,-0.0073,-0.0073,-0.0073,-0.0073,-0.0073,-0.4034,1.2376,0.1846,0.9060,-0.0952,-0.0317,-0.0122,1,1,1,1,1,1,1
16.7728,sweep,2,-down,-0.00134,0.57012,0.01850,1.57187,0.06008,0.02537,-0.00324,-0.0024,-0.2076,-0.0073,-0.0073,-0.0073,-0.0073,-0.0073,-0.4034,1.2376,0.1846,0.9060,-0.0952,-0.0317,-0.0122,1,1,1,1,1,1,1
16.8127,sweep,2,-down,-0.00134,0.55409,0.01850,1.57187,0.06008,0.02537,-0.00362,-0.0024,-0.1978,-0.0073,-0.0073,-0.0073,-0.0220,-0.0073,-0.4034,1.1145,0.1573,0.8425,-0.0952,-0.0317,-0.0122,1,1,1,1,1,1,1
16.8528,sweep,2,-down,-0.00134,0.55409,0.01850,1.57187,0.06008,0.02537,-0.00362,-0.0024,-0.1978,-0.0073,-0.0073,-0.0073,-0.0220,-0.0073,-0.4034,1.1145,0.1573,0.8425,-0.0952,-0.0317,-0.0122,1,1,1,1,1,1,1
16.8930,sweep,2,-down,-0.00134,0.55409,0.01850,1.57187,0.06008,0.02537,-0.00362,-0.0024,-0.1978,-0.0073,-0.0073,-0.0073,-0.0220,-0.0073,-0.4034,1.1145,0.1573,0.8425,-0.0952,-0.0317,-0.0122,1,1,1,1,1,1,1
16.9329,sweep,2,-down,-0.00134,0.53006,0.01850,1.57149,0.06008,0.02575,-0.00362,-0.0024,-0.1832,0.0024,-0.0073,-0.0073,0.0073,-0.0073,-0.4034,1.2650,0.1573,0.8034,-0.1001,-0.0317,-0.0122,1,1,1,1,1,1,1
16.9728,sweep,2,-down,-0.00134,0.53006,0.01850,1.57149,0.06008,0.02575,-0.00362,-0.0024,-0.1832,0.0024,-0.0073,-0.0073,0.0073,-0.0073,-0.4034,1.2650,0.1573,0.8034,-0.1001,-0.0317,-0.0122,1,1,1,1,1,1,1
17.0128,sweep,2,-down,-0.00134,0.51404,0.01850,1.57149,0.06008,0.02537,-0.00324,-0.0024,-0.2027,0.0024,-0.0073,-0.0073,0.0073,0.0073,-0.4034,1.3060,0.1573,0.7839,-0.0952,-0.0269,-0.0122,1,1,1,1,1,1,1
17.0531,sweep,2,-down,-0.00134,0.51404,0.01850,1.57149,0.06008,0.02537,-0.00324,-0.0024,-0.2027,0.0024,-0.0073,-0.0073,0.0073,0.0073,-0.4034,1.3060,0.1573,0.7839,-0.0952,-0.0269,-0.0122,1,1,1,1,1,1,1
17.0931,sweep,2,-down,-0.00134,0.51404,0.01850,1.57149,0.06008,0.02537,-0.00324,-0.0024,-0.2027,0.0024,-0.0073,-0.0073,0.0073,0.0073,-0.4034,1.3060,0.1573,0.7839,-0.0952,-0.0269,-0.0122,1,1,1,1,1,1,1
17.1327,sweep,2,-down,-0.00134,0.48962,0.01850,1.57149,0.06008,0.02537,-0.00324,-0.0024,-0.1978,-0.0024,-0.0073,0.0073,-0.0073,0.0073,-0.3897,1.4701,0.1709,0.7448,-0.0904,-0.0269,-0.0073,1,1,1,1,1,1,1
17.1729,sweep,2,-down,-0.00134,0.48962,0.01850,1.57149,0.06008,0.02537,-0.00324,-0.0024,-0.1978,-0.0024,-0.0073,0.0073,-0.0073,0.0073,-0.3897,1.4701,0.1709,0.7448,-0.0904,-0.0269,-0.0073,1,1,1,1,1,1,1
17.2130,sweep,2,-down,-0.00134,0.47360,0.01812,1.57149,0.06008,0.02537,-0.00324,-0.0024,-0.2027,-0.0024,-0.0073,-0.0220,-0.0220,-0.0073,-0.3897,1.6752,0.1709,0.7155,-0.0952,-0.0269,-0.0122,1,1,1,1,1,1,1
17.2527,sweep,2,-down,-0.00134,0.47360,0.01812,1.57149,0.06008,0.02537,-0.00324,-0.0024,-0.2027,-0.0024,-0.0073,-0.0220,-0.0220,-0.0073,-0.3897,1.6752,0.1709,0.7155,-0.0952,-0.0269,-0.0122,1,1,1,1,1,1,1
17.2929,sweep,2,-down,-0.00134,0.47360,0.01812,1.57149,0.06008,0.02537,-0.00324,-0.0024,-0.2027,-0.0024,-0.0073,-0.0220,-0.0220,-0.0073,-0.3897,1.6752,0.1709,0.7155,-0.0952,-0.0269,-0.0122,1,1,1,1,1,1,1
17.3328,sweep,2,-down,-0.00134,0.44957,0.01850,1.57149,0.06008,0.02537,-0.00324,-0.0024,-0.1880,0.0024,0.0073,-0.0073,0.0073,-0.0073,-0.3487,1.6889,0.1573,0.6569,-0.0952,-0.0269,-0.0073,1,1,1,1,1,1,1
17.3732,sweep,2,-down,-0.00134,0.44957,0.01850,1.57149,0.06008,0.02537,-0.00324,-0.0024,-0.1880,0.0024,0.0073,-0.0073,0.0073,-0.0073,-0.3487,1.6889,0.1573,0.6569,-0.0952,-0.0269,-0.0073,1,1,1,1,1,1,1
17.4126,sweep,2,-down,-0.00134,0.43317,0.01850,1.57149,0.06008,0.02537,-0.00362,-0.0024,-0.2222,-0.0024,-0.0073,-0.0073,-0.0073,-0.0073,-0.3624,2.1265,0.1436,0.6325,-0.0904,-0.0220,-0.0073,1,1,1,1,1,1,1
17.4527,sweep,2,-down,-0.00134,0.43317,0.01850,1.57149,0.06008,0.02537,-0.00362,-0.0024,-0.2222,-0.0024,-0.0073,-0.0073,-0.0073,-0.0073,-0.3624,2.1265,0.1436,0.6325,-0.0904,-0.0220,-0.0073,1,1,1,1,1,1,1
17.4929,sweep,2,-down,-0.00134,0.43317,0.01850,1.57149,0.06008,0.02537,-0.00362,-0.0024,-0.2222,-0.0024,-0.0073,-0.0073,-0.0073,-0.0073,-0.3624,2.1265,0.1436,0.6325,-0.0904,-0.0220,-0.0073,1,1,1,1,1,1,1
17.5328,sweep,2,-down,-0.00134,0.40913,0.01850,1.57187,0.06046,0.02537,-0.00324,-0.0073,-0.2125,-0.0024,-0.0073,0.0073,-0.0073,0.0073,-0.3487,2.0171,0.1436,0.5641,-0.0952,-0.0220,-0.0024,1,1,1,1,1,1,1
17.5728,sweep,2,-down,-0.00134,0.40913,0.01850,1.57187,0.06046,0.02537,-0.00324,-0.0073,-0.2125,-0.0024,-0.0073,0.0073,-0.0073,0.0073,-0.3487,2.0171,0.1436,0.5641,-0.0952,-0.0220,-0.0024,1,1,1,1,1,1,1
17.6131,sweep,2,-down,-0.00134,0.39311,0.01850,1.57187,0.06008,0.02537,-0.00324,-0.0024,-0.1832,0.0024,-0.0220,-0.0073,-0.0073,-0.0073,-0.3350,2.2085,0.1436,0.5250,-0.0952,-0.0220,-0.0073,1,1,1,1,1,1,1
17.6529,sweep,2,-down,-0.00134,0.39311,0.01850,1.57187,0.06008,0.02537,-0.00324,-0.0024,-0.1832,0.0024,-0.0220,-0.0073,-0.0073,-0.0073,-0.3350,2.2085,0.1436,0.5250,-0.0952,-0.0220,-0.0073,1,1,1,1,1,1,1
17.6929,sweep,2,-down,-0.00134,0.39311,0.01850,1.57187,0.06008,0.02537,-0.00324,-0.0024,-0.1832,0.0024,-0.0220,-0.0073,-0.0073,-0.0073,-0.3350,2.2085,0.1436,0.5250,-0.0952,-0.0220,-0.0073,1,1,1,1,1,1,1
17.7327,sweep,2,-down,-0.00134,0.36908,0.01850,1.57149,0.06008,0.02537,-0.00324,-0.0024,-0.2222,0.0024,-0.0073,0.0073,0.0073,-0.0073,-0.3350,2.3590,0.1573,0.4762,-0.0904,-0.0220,-0.0024,1,1,1,1,1,1,1
17.7726,sweep,2,-down,-0.00134,0.36908,0.01850,1.57149,0.06008,0.02537,-0.00324,-0.0024,-0.2222,0.0024,-0.0073,0.0073,0.0073,-0.0073,-0.3350,2.3590,0.1573,0.4762,-0.0904,-0.0220,-0.0024,1,1,1,1,1,1,1
17.8127,sweep,2,-down,-0.00134,0.35306,0.01850,1.57149,0.06008,0.02537,-0.00362,-0.0024,-0.1832,-0.0024,-0.0073,-0.0220,-0.0073,0.0073,-0.3487,2.2632,0.1299,0.4518,-0.0855,-0.0220,-0.0073,1,1,1,1,1,1,1
17.8527,sweep,2,-down,-0.00134,0.35306,0.01850,1.57149,0.06008,0.02537,-0.00362,-0.0024,-0.1832,-0.0024,-0.0073,-0.0220,-0.0073,0.0073,-0.3487,2.2632,0.1299,0.4518,-0.0855,-0.0220,-0.0073,1,1,1,1,1,1,1
17.8928,sweep,2,-down,-0.00134,0.35306,0.01850,1.57149,0.06008,0.02537,-0.00362,-0.0024,-0.1832,-0.0024,-0.0073,-0.0220,-0.0073,0.0073,-0.3487,2.2632,0.1299,0.4518,-0.0855,-0.0220,-0.0073,1,1,1,1,1,1,1
17.9327,sweep,2,-down,-0.00134,0.32864,0.01850,1.57187,0.06008,0.02537,-0.00324,-0.0073,-0.2125,-0.0024,0.0073,-0.0073,-0.0073,0.0073,-0.3350,2.6188,0.1299,0.4029,-0.0855,-0.0171,-0.0073,1,1,1,1,1,1,1
17.9728,sweep,2,-down,-0.00134,0.32864,0.01850,1.57187,0.06008,0.02537,-0.00324,-0.0073,-0.2125,-0.0024,0.0073,-0.0073,-0.0073,0.0073,-0.3350,2.6188,0.1299,0.4029,-0.0855,-0.0171,-0.0073,1,1,1,1,1,1,1
18.0127,sweep,2,-down,-0.00134,0.31300,0.01850,1.57187,0.06008,0.02537,-0.00324,-0.0073,-0.1929,-0.0024,-0.0073,-0.0073,-0.0073,-0.0073,-0.3350,2.4547,0.1162,0.3687,-0.0904,-0.0171,-0.0024,1,1,1,1,1,1,1
18.0527,sweep,2,-down,-0.00134,0.31300,0.01850,1.57187,0.06008,0.02537,-0.00324,-0.0073,-0.1929,-0.0024,-0.0073,-0.0073,-0.0073,-0.0073,-0.3350,2.4547,0.1162,0.3687,-0.0904,-0.0171,-0.0024,1,1,1,1,1,1,1
18.0928,sweep,2,-down,-0.00134,0.31300,0.01850,1.57187,0.06008,0.02537,-0.00324,-0.0073,-0.1929,-0.0024,-0.0073,-0.0073,-0.0073,-0.0073,-0.3350,2.4547,0.1162,0.3687,-0.0904,-0.0171,-0.0024,1,1,1,1,1,1,1
18.1327,sweep,2,-down,-0.00134,0.28859,0.01850,1.57187,0.06008,0.02537,-0.00324,0.0024,-0.2222,-0.0024,-0.0220,-0.0073,-0.0073,-0.0220,-0.3624,2.8239,0.1162,0.3004,-0.0806,-0.0122,-0.0024,1,1,1,1,1,1,1
18.1727,sweep,2,-down,-0.00134,0.28859,0.01850,1.57187,0.06008,0.02537,-0.00324,0.0024,-0.2222,-0.0024,-0.0220,-0.0073,-0.0073,-0.0220,-0.3624,2.8239,0.1162,0.3004,-0.0806,-0.0122,-0.0024,1,1,1,1,1,1,1
18.2128,sweep,2,-down,-0.00134,0.27295,0.01850,1.57187,0.06008,0.02575,-0.00324,-0.0024,-0.1978,0.0024,0.0073,-0.0073,-0.0073,-0.0073,-0.3487,2.5778,0.1162,0.2662,-0.0855,-0.0073,-0.0024,1,1,1,1,1,1,1
18.2528,sweep,2,-down,-0.00134,0.27295,0.01850,1.57187,0.06008,0.02575,-0.00324,-0.0024,-0.1978,0.0024,0.0073,-0.0073,-0.0073,-0.0073,-0.3487,2.5778,0.1162,0.2662,-0.0855,-0.0073,-0.0024,1,1,1,1,1,1,1
18.2929,sweep,2,-down,-0.00134,0.27295,0.01850,1.57187,0.06008,0.02575,-0.00324,-0.0024,-0.1978,0.0024,0.0073,-0.0073,-0.0073,-0.0073,-0.3487,2.5778,0.1162,0.2662,-0.0855,-0.0073,-0.0024,1,1,1,1,1,1,1
18.3329,sweep,2,-down,-0.00134,0.24968,0.01850,1.57187,0.06008,0.02537,-0.00362,-0.0024,-0.1832,-0.0024,-0.0073,-0.0073,-0.0073,-0.0073,-0.3761,3.0974,0.1162,0.2076,-0.0855,-0.0122,0.0024,1,1,1,1,1,1,1
18.3729,sweep,2,-down,-0.00134,0.24968,0.01850,1.57187,0.06008,0.02537,-0.00362,-0.0024,-0.1832,-0.0024,-0.0073,-0.0073,-0.0073,-0.0073,-0.3761,3.0974,0.1162,0.2076,-0.0855,-0.0122,0.0024,1,1,1,1,1,1,1
18.4127,sweep,2,-down,-0.00134,0.23632,0.01850,1.57187,0.06008,0.02537,-0.00324,-0.0024,-0.1441,-0.0024,-0.0073,-0.0073,0.0073,-0.0220,-0.3761,3.0154,0.1026,0.1734,-0.0757,-0.0122,0.0024,1,1,1,1,1,1,1
18.4529,sweep,2,-down,-0.00134,0.23632,0.01850,1.57187,0.06008,0.02537,-0.00324,-0.0024,-0.1441,-0.0024,-0.0073,-0.0073,0.0073,-0.0220,-0.3761,3.0154,0.1026,0.1734,-0.0757,-0.0122,0.0024,1,1,1,1,1,1,1
18.4927,sweep,2,-down,-0.00134,0.23632,0.01850,1.57187,0.06008,0.02537,-0.00324,-0.0024,-0.1441,-0.0024,-0.0073,-0.0073,0.0073,-0.0220,-0.3761,3.0154,0.1026,0.1734,-0.0757,-0.0122,0.0024,1,1,1,1,1,1,1
18.5328,sweep,2,-down,-0.00134,0.21878,0.01850,1.57187,0.06008,0.02575,-0.00324,-0.0024,-0.1490,-0.0024,0.0073,0.0073,-0.0220,-0.0073,-0.4034,3.0154,0.1026,0.1197,-0.0757,-0.0122,0.0024,1,1,1,1,1,1,1
18.5728,sweep,2,-down,-0.00134,0.21878,0.01850,1.57187,0.06008,0.02575,-0.00324,-0.0024,-0.1490,-0.0024,0.0073,0.0073,-0.0220,-0.0073,-0.4034,3.0154,0.1026,0.1197,-0.0757,-0.0122,0.0024,1,1,1,1,1,1,1
18.6127,sweep,2,-down,-0.00134,0.20848,0.01850,1.57187,0.06008,0.02575,-0.00324,-0.0024,-0.1245,-0.0024,0.0220,-0.0220,-0.0073,-0.0073,-0.4034,2.9470,0.1162,0.0952,-0.0757,-0.0122,0.0024,1,1,1,1,1,1,1
18.6528,sweep,2,-down,-0.00134,0.20848,0.01850,1.57187,0.06008,0.02575,-0.00324,-0.0024,-0.1245,-0.0024,0.0220,-0.0220,-0.0073,-0.0073,-0.4034,2.9470,0.1162,0.0952,-0.0757,-0.0122,0.0024,1,1,1,1,1,1,1
18.6928,sweep,2,-down,-0.00134,0.20848,0.01850,1.57187,0.06008,0.02575,-0.00324,-0.0024,-0.1245,-0.0024,0.0220,-0.0220,-0.0073,-0.0073,-0.4034,2.9470,0.1162,0.0952,-0.0757,-0.0122,0.0024,1,1,1,1,1,1,1
18.7327,sweep,2,-down,-0.00134,0.19512,0.01850,1.57187,0.06008,0.02537,-0.00324,-0.0024,-0.1001,-0.0024,-0.0073,-0.0220,0.0073,-0.0073,-0.4034,2.8513,0.1299,0.0562,-0.0806,-0.0073,-0.0024,1,1,1,1,1,1,1
18.7727,sweep,2,-down,-0.00134,0.19512,0.01850,1.57187,0.06008,0.02537,-0.00324,-0.0024,-0.1001,-0.0024,-0.0073,-0.0220,0.0073,-0.0073,-0.4034,2.8513,0.1299,0.0562,-0.0806,-0.0073,-0.0024,1,1,1,1,1,1,1
18.8129,sweep,2,-down,-0.00134,0.18750,0.01850,1.57149,0.06008,0.02537,-0.00324,-0.0073,-0.1148,-0.0024,-0.0073,-0.0220,-0.0073,-0.0220,-0.3761,3.0701,0.1162,0.0513,-0.0757,-0.0024,-0.0024,1,1,1,1,1,1,1
18.8527,sweep,2,-down,-0.00134,0.18750,0.01850,1.57149,0.06008,0.02537,-0.00324,-0.0073,-0.1148,-0.0024,-0.0073,-0.0220,-0.0073,-0.0220,-0.3761,3.0701,0.1162,0.0513,-0.0757,-0.0024,-0.0024,1,1,1,1,1,1,1
18.8928,sweep,2,-down,-0.00134,0.18750,0.01850,1.57149,0.06008,0.02537,-0.00324,-0.0073,-0.1148,-0.0024,-0.0073,-0.0220,-0.0073,-0.0220,-0.3761,3.0701,0.1162,0.0513,-0.0757,-0.0024,-0.0024,1,1,1,1,1,1,1
18.9329,sweep,2,-down,-0.00134,0.17720,0.01850,1.57149,0.06008,0.02537,-0.00324,0.0024,-0.0757,-0.0024,-0.0220,-0.0073,-0.0220,-0.0220,-0.3761,3.0154,0.1162,0.0513,-0.0757,0.0024,-0.0024,1,1,1,1,1,1,1
18.9730,sweep,2,-down,-0.00134,0.17720,0.01850,1.57149,0.06008,0.02537,-0.00324,0.0024,-0.0757,-0.0024,-0.0220,-0.0073,-0.0220,-0.0220,-0.3761,3.0154,0.1162,0.0513,-0.0757,0.0024,-0.0024,1,1,1,1,1,1,1
19.0127,sweep,2,-down,-0.00134,0.17147,0.01850,1.57149,0.06008,0.02575,-0.00324,-0.0024,-0.0464,-0.0024,0.0220,-0.0073,-0.0073,-0.0073,-0.3487,3.0838,0.1162,0.0366,-0.0708,0.0024,-0.0073,1,1,1,1,1,1,1
19.0527,sweep,2,-down,-0.00134,0.17147,0.01850,1.57149,0.06008,0.02575,-0.00324,-0.0024,-0.0464,-0.0024,0.0220,-0.0073,-0.0073,-0.0073,-0.3487,3.0838,0.1162,0.0366,-0.0708,0.0024,-0.0073,1,1,1,1,1,1,1
19.0927,sweep,2,-down,-0.00134,0.17147,0.01850,1.57149,0.06008,0.02575,-0.00324,-0.0024,-0.0464,-0.0024,0.0220,-0.0073,-0.0073,-0.0073,-0.3487,3.0838,0.1162,0.0366,-0.0708,0.0024,-0.0073,1,1,1,1,1,1,1
19.1329,sweep,2,-down,-0.00134,0.16384,0.01850,1.57187,0.06008,0.02575,-0.00362,-0.0024,-0.0415,0.0024,0.0073,-0.0073,0.0073,-0.0220,-0.3350,2.7282,0.1026,0.0073,-0.0757,-0.0024,-0.0073,1,1,1,1,1,1,1
19.1727,sweep,2,-down,-0.00134,0.16384,0.01850,1.57187,0.06008,0.02575,-0.00362,-0.0024,-0.0415,0.0024,0.0073,-0.0073,0.0073,-0.0220,-0.3350,2.7282,0.1026,0.0073,-0.0757,-0.0024,-0.0073,1,1,1,1,1,1,1
19.2131,sweep,2,-down,-0.00134,0.15889,0.01850,1.57187,0.06008,0.02575,-0.00324,-0.0024,-0.0757,0.0024,-0.0073,-0.0073,0.0073,-0.0073,-0.3350,3.3846,0.0889,-0.0122,-0.0708,-0.0024,-0.0122,1,1,1,1,1,1,1
19.2528,sweep,2,-down,-0.00134,0.15889,0.01850,1.57187,0.06008,0.02575,-0.00324,-0.0024,-0.0757,0.0024,-0.0073,-0.0073,0.0073,-0.0073,-0.3350,3.3846,0.0889,-0.0122,-0.0708,-0.0024,-0.0122,1,1,1,1,1,1,1
19.2929,sweep,2,-down,-0.00134,0.15889,0.01850,1.57187,0.06008,0.02575,-0.00324,-0.0024,-0.0757,0.0024,-0.0073,-0.0073,0.0073,-0.0073,-0.3350,3.3846,0.0889,-0.0122,-0.0708,-0.0024,-0.0122,1,1,1,1,1,1,1
19.3333,sweep,2,-down,-0.00134,0.15278,0.01850,1.57187,0.06046,0.02575,-0.00324,-0.0073,-0.0366,-0.0073,-0.0073,0.0073,0.0073,-0.0073,-0.3214,3.3709,0.1026,-0.0366,-0.0708,-0.0024,-0.0122,1,1,1,1,1,1,1
19.3731,sweep,2,-down,-0.00134,0.15278,0.01850,1.57187,0.06046,0.02575,-0.00324,-0.0073,-0.0366,-0.0073,-0.0073,0.0073,0.0073,-0.0073,-0.3214,3.3709,0.1026,-0.0366,-0.0708,-0.0024,-0.0122,1,1,1,1,1,1,1
19.4128,sweep,2,-down,-0.00134,0.14973,0.01850,1.57187,0.06008,0.02575,-0.00362,-0.0024,-0.0513,-0.0024,-0.0220,-0.0073,-0.0220,-0.0073,-0.3214,3.0427,0.1026,-0.0513,-0.0708,-0.0024,-0.0073,1,1,1,1,1,1,1
19.4527,sweep,2,-down,-0.00134,0.14973,0.01850,1.57187,0.06008,0.02575,-0.00362,-0.0024,-0.0513,-0.0024,-0.0220,-0.0073,-0.0220,-0.0073,-0.3214,3.0427,0.1026,-0.0513,-0.0708,-0.0024,-0.0073,1,1,1,1,1,1,1
19.4931,sweep,2,-down,-0.00134,0.14973,0.01850,1.57187,0.06008,0.02575,-0.00362,-0.0024,-0.0513,-0.0024,-0.0220,-0.0073,-0.0220,-0.0073,-0.3214,3.0427,0.1026,-0.0513,-0.0708,-0.0024,-0.0073,1,1,1,1,1,1,1
19.5331,sweep,2,-down,-0.00134,0.14515,0.01850,1.57187,0.06008,0.02575,-0.00362,-0.0024,-0.0171,-0.0024,-0.0220,-0.0073,-0.0073,-0.0073,-0.3350,2.9607,0.0889,-0.0806,-0.0757,-0.0024,-0.0073,1,1,1,1,1,1,1
19.5730,sweep,2,-down,-0.00134,0.14515,0.01850,1.57187,0.06008,0.02575,-0.00362,-0.0024,-0.0171,-0.0024,-0.0220,-0.0073,-0.0073,-0.0073,-0.3350,2.9607,0.0889,-0.0806,-0.0757,-0.0024,-0.0073,1,1,1,1,1,1,1
19.6127,sweep,2,-down,-0.00134,0.14248,0.01850,1.57187,0.06008,0.02575,-0.00362,-0.0024,-0.0464,-0.0024,0.0073,-0.0073,-0.0073,-0.0073,-0.3214,3.0017,0.0889,-0.1001,-0.0806,-0.0024,-0.0073,1,1,1,1,1,1,1
19.6526,sweep,2,-down,-0.00134,0.14248,0.01850,1.57187,0.06008,0.02575,-0.00362,-0.0024,-0.0464,-0.0024,0.0073,-0.0073,-0.0073,-0.0073,-0.3214,3.0017,0.0889,-0.1001,-0.0806,-0.0024,-0.0073,1,1,1,1,1,1,1
19.6929,sweep,2,-down,-0.00134,0.14248,0.01850,1.57187,0.06008,0.02575,-0.00362,-0.0024,-0.0464,-0.0024,0.0073,-0.0073,-0.0073,-0.0073,-0.3214,3.0017,0.0889,-0.1001,-0.0806,-0.0024,-0.0073,1,1,1,1,1,1,1
19.7327,sweep,2,-down,-0.00134,0.13905,0.01850,1.57149,0.06008,0.02575,-0.00324,-0.0024,-0.0269,-0.0024,-0.0073,-0.0073,-0.0220,-0.0073,-0.3214,3.1932,0.1026,-0.1343,-0.0806,-0.0024,-0.0073,1,1,1,1,1,1,1
20.2351,approach,2,return,-0.00134,0.13790,0.01850,1.57187,0.06008,0.02575,-0.00362,-0.0024,-0.0269,-0.0073,0.0073,-0.0073,-0.0220,-0.0073,-0.3214,3.1248,0.1026,-0.1490,-0.0855,-0.0024,-0.0073,1,1,1,1,1,1,1
20.2750,approach,2,return,-0.00134,0.13790,0.01850,1.57187,0.06008,0.02575,-0.00362,-0.0024,-0.0269,-0.0073,0.0073,-0.0073,-0.0220,-0.0073,-0.3214,3.1248,0.1026,-0.1490,-0.0855,-0.0024,-0.0073,1,1,1,1,1,1,1
20.3151,approach,2,return,-0.00134,0.12341,0.01850,1.56882,0.06008,0.02575,-0.00362,-0.0024,-0.1734,-0.0024,-0.0952,-0.0073,-0.0073,-0.0073,-0.3487,2.5368,0.1162,-0.1050,-0.0806,-0.0122,-0.0073,1,1,1,1,1,1,1
20.3550,approach,2,return,-0.00134,0.12341,0.01850,1.56882,0.06008,0.02575,-0.00362,-0.0024,-0.1734,-0.0024,-0.0952,-0.0073,-0.0073,-0.0073,-0.3487,2.5368,0.1162,-0.1050,-0.0806,-0.0122,-0.0073,1,1,1,1,1,1,1
20.3952,approach,2,return,-0.00134,0.12341,0.01850,1.56882,0.06008,0.02575,-0.00362,-0.0024,-0.1734,-0.0024,-0.0952,-0.0073,-0.0073,-0.0073,-0.3487,2.5368,0.1162,-0.1050,-0.0806,-0.0122,-0.0073,1,1,1,1,1,1,1
20.4351,approach,2,return,-0.00134,0.10433,0.01850,1.56767,0.06046,0.02575,-0.00324,-0.0024,-0.1636,-0.0024,-0.0073,-0.0073,-0.0220,0.0073,-0.3761,3.3299,0.1162,-0.0269,-0.0806,-0.0073,-0.0073,1,1,1,1,1,1,1
20.4752,approach,2,return,-0.00134,0.10433,0.01850,1.56767,0.06046,0.02575,-0.00324,-0.0024,-0.1636,-0.0024,-0.0073,-0.0073,-0.0220,0.0073,-0.3761,3.3299,0.1162,-0.0269,-0.0806,-0.0073,-0.0073,1,1,1,1,1,1,1
20.5157,approach,2,return,-0.00134,0.09365,0.01850,1.56844,0.06008,0.02575,-0.00362,-0.0024,-0.1392,-0.0024,0.0073,-0.0220,-0.0073,-0.0220,-0.3897,3.2752,0.1162,-0.0122,-0.0757,-0.0024,-0.0073,1,1,1,1,1,1,1
20.5555,approach,2,return,-0.00134,0.09365,0.01850,1.56844,0.06008,0.02575,-0.00362,-0.0024,-0.1392,-0.0024,0.0073,-0.0220,-0.0073,-0.0220,-0.3897,3.2752,0.1162,-0.0122,-0.0757,-0.0024,-0.0073,1,1,1,1,1,1,1
20.5954,approach,2,return,-0.00134,0.09365,0.01850,1.56844,0.06008,0.02575,-0.00362,-0.0024,-0.1392,-0.0024,0.0073,-0.0220,-0.0073,-0.0220,-0.3897,3.2752,0.1162,-0.0122,-0.0757,-0.0024,-0.0073,1,1,1,1,1,1,1
20.6350,approach,2,return,-0.00134,0.07954,0.01850,1.56920,0.06008,0.02575,-0.00324,-0.0024,-0.1050,-0.0024,-0.0073,0.0073,-0.0220,-0.0073,-0.3897,2.9880,0.1162,0.0024,-0.0806,-0.0073,-0.0122,1,1,1,1,1,1,1
20.6752,approach,2,return,-0.00134,0.07954,0.01850,1.56920,0.06008,0.02575,-0.00324,-0.0024,-0.1050,-0.0024,-0.0073,0.0073,-0.0220,-0.0073,-0.3897,2.9880,0.1162,0.0024,-0.0806,-0.0073,-0.0122,1,1,1,1,1,1,1
20.7151,approach,2,return,-0.00134,0.07153,0.01850,1.57225,0.06008,0.02537,-0.00324,-0.0024,-0.0952,0.0024,0.0513,-0.0073,-0.0073,0.0073,-0.4171,2.4821,0.1162,-0.1001,-0.0708,-0.0073,-0.0073,1,1,1,1,1,1,1
20.7553,approach,2,return,-0.00134,0.07153,0.01850,1.57225,0.06008,0.02537,-0.00324,-0.0024,-0.0952,0.0024,0.0513,-0.0073,-0.0073,0.0073,-0.4171,2.4821,0.1162,-0.1001,-0.0708,-0.0073,-0.0073,1,1,1,1,1,1,1
20.7952,approach,2,return,-0.00134,0.07153,0.01850,1.57225,0.06008,0.02537,-0.00324,-0.0024,-0.0952,0.0024,0.0513,-0.0073,-0.0073,0.0073,-0.4171,2.4821,0.1162,-0.1001,-0.0708,-0.0073,-0.0073,1,1,1,1,1,1,1
20.8353,approach,2,return,-0.00134,0.06085,0.01850,1.57301,0.06046,0.02537,-0.00362,-0.0024,-0.0611,-0.0024,-0.0366,-0.0073,-0.0220,-0.0220,-0.4171,2.4547,0.1162,-0.2369,-0.0659,-0.0122,-0.0122,1,1,1,1,1,1,1
20.8754,approach,2,return,-0.00134,0.06085,0.01850,1.57301,0.06046,0.02537,-0.00362,-0.0024,-0.0611,-0.0024,-0.0366,-0.0073,-0.0220,-0.0220,-0.4171,2.4547,0.1162,-0.2369,-0.0659,-0.0122,-0.0122,1,1,1,1,1,1,1
20.9155,approach,2,return,-0.00134,0.05474,0.01850,1.57263,0.06008,0.02537,-0.00324,-0.0024,-0.0757,0.0024,-0.0073,-0.0073,0.0073,-0.0073,-0.4444,2.1675,0.1162,-0.2759,-0.0611,-0.0073,-0.0122,1,1,1,1,1,1,1
20.9551,approach,2,return,-0.00134,0.05474,0.01850,1.57263,0.06008,0.02537,-0.00324,-0.0024,-0.0757,0.0024,-0.0073,-0.0073,0.0073,-0.0073,-0.4444,2.1675,0.1162,-0.2759,-0.0611,-0.0073,-0.0122,1,1,1,1,1,1,1
20.9951,approach,2,return,-0.00134,0.05474,0.01850,1.57263,0.06008,0.02537,-0.00324,-0.0024,-0.0757,0.0024,-0.0073,-0.0073,0.0073,-0.0073,-0.4444,2.1675,0.1162,-0.2759,-0.0611,-0.0073,-0.0122,1,1,1,1,1,1,1
21.0350,approach,2,return,-0.00134,0.04711,0.01850,1.57263,0.06046,0.02575,-0.00324,-0.0024,-0.0562,-0.0073,-0.0073,0.0073,0.0220,-0.0073,-0.4308,1.3744,0.1299,-0.3785,-0.0659,-0.0073,-0.0122,1,1,1,1,1,1,1
21.0755,approach,2,return,-0.00134,0.04711,0.01850,1.57263,0.06046,0.02575,-0.00324,-0.0024,-0.0562,-0.0073,-0.0073,0.0073,0.0220,-0.0073,-0.4308,1.3744,0.1299,-0.3785,-0.0659,-0.0073,-0.0122,1,1,1,1,1,1,1
21.1157,approach,2,return,-0.00134,0.04253,0.01850,1.57225,0.06046,0.02537,-0.00324,-0.0024,-0.0415,-0.0024,-0.0220,0.0073,-0.0073,-0.0073,-0.4581,1.0325,0.1162,-0.4225,-0.0611,-0.0073,-0.0122,1,1,1,1,1,1,1
21.1552,approach,2,return,-0.00134,0.04253,0.01850,1.57225,0.06046,0.02537,-0.00324,-0.0024,-0.0415,-0.0024,-0.0220,0.0073,-0.0073,-0.0073,-0.4581,1.0325,0.1162,-0.4225,-0.0611,-0.0073,-0.0122,1,1,1,1,1,1,1
21.1952,approach,2,return,-0.00134,0.04253,0.01850,1.57225,0.06046,0.02537,-0.00324,-0.0024,-0.0415,-0.0024,-0.0220,0.0073,-0.0073,-0.0073,-0.4581,1.0325,0.1162,-0.4225,-0.0611,-0.0073,-0.0122,1,1,1,1,1,1,1
21.2354,approach,2,return,-0.00134,0.03643,0.01850,1.57225,0.06046,0.02537,-0.00324,-0.0024,-0.0708,0.0024,-0.0073,-0.0073,-0.0073,-0.0073,-0.4581,0.4171,0.1162,-0.4811,-0.0659,-0.0024,-0.0122,1,1,1,1,1,1,1
21.2751,approach,2,return,-0.00134,0.03643,0.01850,1.57225,0.06046,0.02537,-0.00324,-0.0024,-0.0708,0.0024,-0.0073,-0.0073,-0.0073,-0.0073,-0.4581,0.4171,0.1162,-0.4811,-0.0659,-0.0024,-0.0122,1,1,1,1,1,1,1
21.3151,approach,2,return,-0.00134,0.03376,0.01850,1.57187,0.06008,0.02537,-0.00324,-0.0024,-0.0269,-0.0073,0.0073,-0.0073,-0.0220,-0.0073,-0.4308,-0.1436,0.1026,-0.5397,-0.0659,-0.0073,-0.0122,1,1,1,1,1,1,1
21.3551,approach,2,return,-0.00134,0.03376,0.01850,1.57187,0.06008,0.02537,-0.00324,-0.0024,-0.0269,-0.0073,0.0073,-0.0073,-0.0220,-0.0073,-0.4308,-0.1436,0.1026,-0.5397,-0.0659,-0.0073,-0.0122,1,1,1,1,1,1,1
21.3951,approach,2,return,-0.00134,0.03376,0.01850,1.57187,0.06008,0.02537,-0.00324,-0.0024,-0.0269,-0.0073,0.0073,-0.0073,-0.0220,-0.0073,-0.4308,-0.1436,0.1026,-0.5397,-0.0659,-0.0073,-0.0122,1,1,1,1,1,1,1
21.4352,approach,2,return,-0.00134,0.02842,0.01850,1.57149,0.06008,0.02575,-0.00362,0.0024,-0.0562,0.0024,-0.0073,-0.0073,0.0220,-0.0220,-0.4444,-0.1299,0.1026,-0.5543,-0.0757,0.0024,-0.0122,1,1,1,1,1,1,1
21.4754,approach,2,return,-0.00134,0.02842,0.01850,1.57149,0.06008,0.02575,-0.00362,0.0024,-0.0562,0.0024,-0.0073,-0.0073,0.0220,-0.0220,-0.4444,-0.1299,0.1026,-0.5543,-0.0757,0.0024,-0.0122,1,1,1,1,1,1,1
21.5151,approach,2,return,-0.00134,0.02613,0.01850,1.57111,0.06008,0.02537,-0.00324,-0.0024,-0.0611,0.0024,-0.0220,-0.0073,-0.0220,-0.0073,-0.4171,-0.5812,0.1026,-0.5397,-0.0806,-0.0024,-0.0073,1,1,1,1,1,1,1
21.5551,approach,2,return,-0.00134,0.02613,0.01850,1.57111,0.06008,0.02537,-0.00324,-0.0024,-0.0611,0.0024,-0.0220,-0.0073,-0.0220,-0.0073,-0.4171,-0.5812,0.1026,-0.5397,-0.0806,-0.0024,-0.0073,1,1,1,1,1,1,1
21.5951,approach,2,return,-0.00134,0.02613,0.01850,1.57111,0.06008,0.02537,-0.00324,-0.0024,-0.0611,0.0024,-0.0220,-0.0073,-0.0220,-0.0073,-0.4171,-0.5812,0.1026,-0.5397,-0.0806,-0.0024,-0.0073,1,1,1,1,1,1,1
21.6352,approach,2,return,-0.00134,0.02193,0.01850,1.57073,0.06046,0.02575,-0.00362,-0.0024,-0.0220,-0.0024,0.0073,-0.0073,0.0073,-0.0073,-0.4171,-0.3077,0.1026,-0.5006,-0.0757,0.0024,-0.0122,1,1,1,1,1,1,1
21.6753,approach,2,return,-0.00134,0.02193,0.01850,1.57073,0.06046,0.02575,-0.00362,-0.0024,-0.0220,-0.0024,0.0073,-0.0073,0.0073,-0.0073,-0.4171,-0.3077,0.1026,-0.5006,-0.0757,0.0024,-0.0122,1,1,1,1,1,1,1
21.7151,approach,2,return,-0.00134,0.02003,0.01850,1.57034,0.06046,0.02537,-0.00324,-0.0024,-0.0220,0.0024,-0.0073,-0.0073,-0.0073,-0.0073,-0.4034,-0.8000,0.1026,-0.4762,-0.0757,-0.0024,-0.0122,1,1,1,1,1,1,1
21.7553,approach,2,return,-0.00134,0.02003,0.01850,1.57034,0.06046,0.02537,-0.00324,-0.0024,-0.0220,0.0024,-0.0073,-0.0073,-0.0073,-0.0073,-0.4034,-0.8000,0.1026,-0.4762,-0.0757,-0.0024,-0.0122,1,1,1,1,1,1,1
21.7954,approach,2,return,-0.00134,0.02003,0.01850,1.57034,0.06046,0.02537,-0.00324,-0.0024,-0.0220,0.0024,-0.0073,-0.0073,-0.0073,-0.0073,-0.4034,-0.8000,0.1026,-0.4762,-0.0757,-0.0024,-0.0122,1,1,1,1,1,1,1
21.8351,approach,2,return,-0.00134,0.01698,0.01850,1.56958,0.06008,0.02575,-0.00324,-0.0024,-0.0269,0.0024,-0.0073,-0.0073,-0.0073,-0.0073,-0.4034,-0.5538,0.1026,-0.3883,-0.0708,0.0024,-0.0122,1,1,1,1,1,1,1
21.8753,approach,2,return,-0.00134,0.01698,0.01850,1.56958,0.06008,0.02575,-0.00324,-0.0024,-0.0269,0.0024,-0.0073,-0.0073,-0.0073,-0.0073,-0.4034,-0.5538,0.1026,-0.3883,-0.0708,0.0024,-0.0122,1,1,1,1,1,1,1
21.9153,approach,2,return,-0.00134,0.01545,0.01850,1.56920,0.06008,0.02537,-0.00324,-0.0024,-0.0220,-0.0024,-0.0366,-0.0073,-0.0220,-0.0073,-0.4444,-0.8821,0.1162,-0.3346,-0.0757,-0.0024,-0.0073,1,1,1,1,1,1,1
21.9552,approach,2,return,-0.00134,0.01545,0.01850,1.56920,0.06008,0.02537,-0.00324,-0.0024,-0.0220,-0.0024,-0.0366,-0.0073,-0.0220,-0.0073,-0.4444,-0.8821,0.1162,-0.3346,-0.0757,-0.0024,-0.0073,1,1,1,1,1,1,1
21.9952,approach,2,return,-0.00134,0.01545,0.01850,1.56920,0.06008,0.02537,-0.00324,-0.0024,-0.0220,-0.0024,-0.0366,-0.0073,-0.0220,-0.0073,-0.4444,-0.8821,0.1162,-0.3346,-0.0757,-0.0024,-0.0073,1,1,1,1,1,1,1
22.0352,approach,2,return,-0.00134,0.01354,0.01850,1.56920,0.06046,0.02537,-0.00362,0.0024,-0.0220,0.0024,-0.0073,-0.0073,-0.0073,-0.0220,-0.4308,-1.3333,0.1162,-0.2466,-0.0708,0.0024,-0.0122,1,1,1,1,1,1,1
