peipl15/reBot_Arm/outputs/gravity_calib_20260622_153940.csv
t_s,phase,swept_joint,direction,q1,q2,q3,q4,q5,q6,q7,v1,v2,v3,v4,v5,v6,v7,tau1,tau2,tau3,tau4,tau5,tau6,tau7,st1,st2,st3,st4,st5,st6,st7
0.0023,approach,2,to_lo,0.06619,0.00553,1.67716,-0.13600,-0.05283,1.59667,-0.00744,-0.0024,-0.0024,-0.0024,-0.0073,-0.0073,-0.0220,-0.0220,0.0342,0.0205,-0.9231,0.0122,-0.0171,-0.0024,-0.0024,1,1,1,1,1,1,1
0.0424,approach,2,to_lo,0.06619,0.00553,1.67716,-0.13600,-0.05283,1.59667,-0.00744,-0.0024,-0.0024,-0.0024,-0.0073,-0.0073,-0.0220,-0.0220,0.0342,0.0205,-0.9231,0.0122,-0.0171,-0.0024,-0.0024,1,1,1,1,1,1,1
0.0824,approach,2,to_lo,0.06619,0.00553,1.67716,-0.13600,-0.05283,1.59667,-0.00744,-0.0024,-0.0024,-0.0024,-0.0073,-0.0073,-0.0220,-0.0220,0.0342,0.0205,-0.9231,0.0122,-0.0171,-0.0024,-0.0024,1,1,1,1,1,1,1
0.1224,approach,2,to_lo,0.06619,0.01278,1.67792,-0.13523,-0.05283,1.59667,-0.00744,-0.0024,0.1392,-0.0073,0.0073,-0.0220,-0.0220,-0.0073,0.0752,4.6427,-2.2359,-0.0220,-0.0269,0.0122,-0.0073,1,1,1,1,1,1,1
0.1624,approach,2,to_lo,0.06619,0.01278,1.67792,-0.13523,-0.05283,1.59667,-0.00744,-0.0024,0.1392,-0.0073,0.0073,-0.0220,-0.0220,-0.0073,0.0752,4.6427,-2.2359,-0.0220,-0.0269,0.0122,-0.0073,1,1,1,1,1,1,1
0.2023,approach,2,to_lo,0.06619,0.02232,1.67792,-0.13485,-0.05283,1.59667,-0.00744,-0.0024,0.1099,-0.0073,-0.0073,-0.0220,0.0073,-0.0220,0.0615,6.5299,-2.4957,-0.0415,-0.0317,0.0073,-0.0122,1,1,1,1,1,1,1
0.2425,approach,2,to_lo,0.06619,0.02232,1.67792,-0.13485,-0.05283,1.59667,-0.00744,-0.0024,0.1099,-0.0073,-0.0073,-0.0220,0.0073,-0.0220,0.0615,6.5299,-2.4957,-0.0415,-0.0317,0.0073,-0.0122,1,1,1,1,1,1,1
0.2825,approach,2,to_lo,0.06619,0.02232,1.67792,-0.13485,-0.05283,1.59667,-0.00744,-0.0024,0.1099,-0.0073,-0.0073,-0.0220,0.0073,-0.0220,0.0615,6.5299,-2.4957,-0.0415,-0.0317,0.0073,-0.0122,1,1,1,1,1,1,1
0.3225,approach,2,to_lo,0.06619,0.03376,1.67792,-0.13485,-0.05283,1.59667,-0.00744,-0.0024,0.1148,-0.0024,-0.0073,0.0073,-0.0220,0.0073,0.0479,11.2068,-2.8103,-0.0708,-0.0317,0.0024,-0.0122,1,1,1,1,1,1,1
0.3626,approach,2,to_lo,0.06619,0.03376,1.67792,-0.13485,-0.05283,1.59667,-0.00744,-0.0024,0.1148,-0.0024,-0.0073,0.0073,-0.0220,0.0073,0.0479,11.2068,-2.8103,-0.0708,-0.0317,0.0024,-0.0122,1,1,1,1,1,1,1
0.4024,approach,2,to_lo,0.06619,0.04101,1.67754,-0.13485,-0.05283,1.59667,-0.00744,-0.0024,0.1197,0.0024,-0.0073,-0.0220,-0.0073,-0.0073,0.0205,13.1897,-3.0291,-0.0806,-0.0366,-0.0024,-0.0122,1,1,1,1,1,1,1
0.4425,approach,2,to_lo,0.06619,0.04101,1.67754,-0.13485,-0.05283,1.59667,-0.00744,-0.0024,0.1197,0.0024,-0.0073,-0.0220,-0.0073,-0.0073,0.0205,13.1897,-3.0291,-0.0806,-0.0366,-0.0024,-0.0122,1,1,1,1,1,1,1
0.4825,approach,2,to_lo,0.06619,0.04101,1.67754,-0.13485,-0.05283,1.59667,-0.00744,-0.0024,0.1197,0.0024,-0.0073,-0.0220,-0.0073,-0.0073,0.0205,13.1897,-3.0291,-0.0806,-0.0366,-0.0024,-0.0122,1,1,1,1,1,1,1
0.5224,approach,2,to_lo,0.06619,0.05055,1.67754,-0.13523,-0.05283,1.59667,-0.00744,-0.0024,0.0562,-0.0073,-0.0073,0.0073,-0.0073,0.0073,0.0068,16.2667,-3.1658,-0.0904,-0.0415,-0.0024,-0.0171,1,1,1,1,1,1,1
0.5625,approach,2,to_lo,0.06619,0.05055,1.67754,-0.13523,-0.05283,1.59667,-0.00744,-0.0024,0.0562,-0.0073,-0.0073,0.0073,-0.0073,0.0073,0.0068,16.2667,-3.1658,-0.0904,-0.0415,-0.0024,-0.0171,1,1,1,1,1,1,1
0.6024,approach,2,to_lo,0.06619,0.05818,1.67754,-0.13523,-0.05283,1.59667,-0.00744,0.0024,0.1099,0.0024,-0.0073,-0.0073,0.0073,-0.0073,-0.0068,15.8564,-3.3436,-0.1148,-0.0415,-0.0024,-0.0171,1,1,1,1,1,1,1
0.6426,approach,2,to_lo,0.06619,0.05818,1.67754,-0.13523,-0.05283,1.59667,-0.00744,0.0024,0.1099,0.0024,-0.0073,-0.0073,0.0073,-0.0073,-0.0068,15.8564,-3.3436,-0.1148,-0.0415,-0.0024,-0.0171,1,1,1,1,1,1,1
0.6825,approach,2,to_lo,0.06619,0.05818,1.67754,-0.13523,-0.05283,1.59667,-0.00744,0.0024,0.1099,0.0024,-0.0073,-0.0073,0.0073,-0.0073,-0.0068,15.8564,-3.3436,-0.1148,-0.0415,-0.0024,-0.0171,1,1,1,1,1,1,1
0.7224,approach,2,to_lo,0.06619,0.06733,1.67678,-0.13600,-0.05283,1.59667,-0.00744,-0.0024,0.0366,-0.0024,-0.0366,0.0073,-0.0073,-0.0073,-0.0205,15.9385,-2.5915,-0.0904,-0.0464,-0.0024,-0.0220,1,1,1,1,1,1,1
0.7628,approach,2,to_lo,0.06619,0.06733,1.67678,-0.13600,-0.05283,1.59667,-0.00744,-0.0024,0.0366,-0.0024,-0.0366,0.0073,-0.0073,-0.0073,-0.0205,15.9385,-2.5915,-0.0904,-0.0464,-0.0024,-0.0220,1,1,1,1,1,1,1
0.8027,approach,2,to_lo,0.06619,0.07305,1.67639,-0.13676,-0.05283,1.59667,-0.00744,0.0024,0.0562,-0.0024,-0.0073,0.0073,-0.0073,-0.0073,-0.0205,15.4051,-2.4137,-0.0562,-0.0464,-0.0073,-0.0269,1,1,1,1,1,1,1
0.8425,approach,2,to_lo,0.06619,0.07305,1.67639,-0.13676,-0.05283,1.59667,-0.00744,0.0024,0.0562,-0.0024,-0.0073,0.0073,-0.0073,-0.0073,-0.0205,15.4051,-2.4137,-0.0562,-0.0464,-0.0073,-0.0269,1,1,1,1,1,1,1
0.8824,approach,2,to_lo,0.06619,0.07305,1.67639,-0.13676,-0.05283,1.59667,-0.00744,0.0024,0.0562,-0.0024,-0.0073,0.0073,-0.0073,-0.0073,-0.0205,15.4051,-2.4137,-0.0562,-0.0464,-0.0073,-0.0269,1,1,1,1,1,1,1
0.9224,approach,2,to_lo,0.06619,0.07916,1.67639,-0.13638,-0.05283,1.59628,-0.00744,-0.0024,0.0464,-0.0024,-0.0073,-0.0073,-0.0073,0.0073,-0.0342,16.8274,-2.5915,-0.0611,-0.0513,-0.0073,-0.0220,1,1,1,1,1,1,1
0.9625,approach,2,to_lo,0.06619,0.07916,1.67639,-0.13638,-0.05283,1.59628,-0.00744,-0.0024,0.0464,-0.0024,-0.0073,-0.0073,-0.0073,0.0073,-0.0342,16.8274,-2.5915,-0.0611,-0.0513,-0.0073,-0.0220,1,1,1,1,1,1,1
1.0026,approach,2,to_lo,0.06619,0.08259,1.67639,-0.13638,-0.05283,1.59628,-0.00744,-0.0024,0.0220,-0.0024,0.0073,-0.0073,-0.0073,-0.0073,-0.0479,17.9077,-2.7282,-0.0562,-0.0464,-0.0073,-0.0269,1,1,1,1,1,1,1
1.0426,approach,2,to_lo,0.06619,0.08259,1.67639,-0.13638,-0.05283,1.59628,-0.00744,-0.0024,0.0220,-0.0024,0.0073,-0.0073,-0.0073,-0.0073,-0.0479,17.9077,-2.7282,-0.0562,-0.0464,-0.0073,-0.0269,1,1,1,1,1,1,1
1.0826,approach,2,to_lo,0.06619,0.08259,1.67639,-0.13638,-0.05283,1.59628,-0.00744,-0.0024,0.0220,-0.0024,0.0073,-0.0073,-0.0073,-0.0073,-0.0479,17.9077,-2.7282,-0.0562,-0.0464,-0.0073,-0.0269,1,1,1,1,1,1,1
1.1226,approach,2,to_lo,0.06619,0.08907,1.67639,-0.13600,-0.05283,1.59628,-0.00744,-0.0024,0.0513,0.0024,-0.0073,-0.0073,-0.0073,-0.0220,-0.0479,16.8274,-2.8239,-0.0611,-0.0513,-0.0073,-0.0366,1,1,1,1,1,1,1
1.1626,approach,2,to_lo,0.06619,0.08907,1.67639,-0.13600,-0.05283,1.59628,-0.00744,-0.0024,0.0513,0.0024,-0.0073,-0.0073,-0.0073,-0.0220,-0.0479,16.8274,-2.8239,-0.0611,-0.0513,-0.0073,-0.0366,1,1,1,1,1,1,1
1.2026,approach,2,to_lo,0.06619,0.09251,1.67639,-0.13600,-0.05283,1.59628,-0.00744,-0.0024,0.0464,-0.0073,-0.0073,-0.0073,0.0073,0.0073,-0.0615,16.3897,-2.8239,-0.0562,-0.0513,-0.0024,-0.0366,1,1,1,1,1,1,1
1.2424,approach,2,to_lo,0.06619,0.09251,1.67639,-0.13600,-0.05283,1.59628,-0.00744,-0.0024,0.0464,-0.0073,-0.0073,-0.0073,0.0073,0.0073,-0.0615,16.3897,-2.8239,-0.0562,-0.0513,-0.0024,-0.0366,1,1,1,1,1,1,1
1.2828,approach,2,to_lo,0.06619,0.09251,1.67639,-0.13600,-0.05283,1.59628,-0.00744,-0.0024,0.0464,-0.0073,-0.0073,-0.0073,0.0073,0.0073,-0.0615,16.3897,-2.8239,-0.0562,-0.0513,-0.0024,-0.0366,1,1,1,1,1,1,1
1.3225,approach,2,to_lo,0.06619,0.09594,1.67601,-0.13638,-0.05283,1.59667,-0.00744,-0.0024,0.0171,-0.0024,0.0073,-0.0220,-0.0073,-0.0073,-0.0752,17.4427,-2.7009,-0.0366,-0.0611,-0.0073,-0.0317,1,1,1,1,1,1,1
1.3629,approach,2,to_lo,0.06619,0.09594,1.67601,-0.13638,-0.05283,1.59667,-0.00744,-0.0024,0.0171,-0.0024,0.0073,-0.0220,-0.0073,-0.0073,-0.0752,17.4427,-2.7009,-0.0366,-0.0611,-0.0073,-0.0317,1,1,1,1,1,1,1
1.4024,approach,2,to_lo,0.06619,0.09785,1.67601,-0.13638,-0.05283,1.59628,-0.00744,-0.0073,0.0366,0.0024,0.0073,-0.0073,0.0073,0.0073,-0.1026,17.7573,-2.7556,-0.0464,-0.0611,-0.0073,-0.0366,1,1,1,1,1,1,1
1.4428,approach,2,to_lo,0.06619,0.09785,1.67601,-0.13638,-0.05283,1.59628,-0.00744,-0.0073,0.0366,0.0024,0.0073,-0.0073,0.0073,0.0073,-0.1026,17.7573,-2.7556,-0.0464,-0.0611,-0.0073,-0.0366,1,1,1,1,1,1,1
1.4826,approach,2,to_lo,0.06619,0.09785,1.67601,-0.13638,-0.05283,1.59628,-0.00744,-0.0073,0.0366,0.0024,0.0073,-0.0073,0.0073,0.0073,-0.1026,17.7573,-2.7556,-0.0464,-0.0611,-0.0073,-0.0366,1,1,1,1,1,1,1
1.5223,approach,2,to_lo,0.06619,0.10128,1.67601,-0.13638,-0.05283,1.59667,-0.00744,-0.0024,0.0122,0.0024,-0.0073,-0.0073,-0.0073,-0.0073,-0.1026,17.8120,-2.8239,-0.0415,-0.0611,-0.0073,-0.0415,1,1,1,1,1,1,1
2.0249,sweep,2,+up,0.06619,0.10281,1.67601,-0.13638,-0.05283,1.59667,-0.00744,-0.0024,0.0513,-0.0024,0.0073,-0.0073,-0.0073,-0.0220,-0.1162,17.0735,-2.8376,-0.0366,-0.0659,-0.0024,-0.0415,1,1,1,1,1,1,1
2.0648,sweep,2,+up,0.06619,0.10281,1.67601,-0.13638,-0.05283,1.59667,-0.00744,-0.0024,0.0513,-0.0024,0.0073,-0.0073,-0.0073,-0.0220,-0.1162,17.0735,-2.8376,-0.0366,-0.0659,-0.0024,-0.0415,1,1,1,1,1,1,1
2.1050,sweep,2,+up,0.06619,0.11654,1.67601,-0.13638,-0.05283,1.59628,-0.00744,-0.0024,0.1441,-0.0024,-0.0220,-0.0073,0.0073,-0.0073,-0.1573,19.1658,-2.7282,-0.0220,-0.0659,-0.0171,-0.0513,1,1,1,1,1,1,1
2.1449,sweep,2,+up,0.06619,0.11654,1.67601,-0.13638,-0.05283,1.59628,-0.00744,-0.0024,0.1441,-0.0024,-0.0220,-0.0073,0.0073,-0.0073,-0.1573,19.1658,-2.7282,-0.0220,-0.0659,-0.0171,-0.0513,1,1,1,1,1,1,1
2.1850,sweep,2,+up,0.06619,0.11654,1.67601,-0.13638,-0.05283,1.59628,-0.00744,-0.0024,0.1441,-0.0024,-0.0220,-0.0073,0.0073,-0.0073,-0.1573,19.1658,-2.7282,-0.0220,-0.0659,-0.0171,-0.0513,1,1,1,1,1,1,1
2.2249,sweep,2,+up,0.06619,0.14248,1.67601,-0.13371,-0.05322,1.59628,-0.00744,-0.0024,0.1734,0.0024,-0.0952,-0.0220,-0.0220,-0.0073,-0.1846,16.5128,-2.8103,-0.2222,-0.0513,-0.0024,-0.0464,1,1,1,1,1,1,1
2.2649,sweep,2,+up,0.06619,0.14248,1.67601,-0.13371,-0.05322,1.59628,-0.00744,-0.0024,0.1734,0.0024,-0.0952,-0.0220,-0.0220,-0.0073,-0.1846,16.5128,-2.8103,-0.2222,-0.0513,-0.0024,-0.0464,1,1,1,1,1,1,1
2.3047,sweep,2,+up,0.06619,0.15850,1.67601,-0.13905,-0.05283,1.59628,-0.00744,0.0024,0.2125,-0.0024,-0.1099,0.0073,0.0073,0.0073,-0.1573,16.5812,-2.6598,0.0171,-0.0562,-0.0024,-0.0464,1,1,1,1,1,1,1
2.3450,sweep,2,+up,0.06619,0.15850,1.67601,-0.13905,-0.05283,1.59628,-0.00744,0.0024,0.2125,-0.0024,-0.1099,0.0073,0.0073,0.0073,-0.1573,16.5812,-2.6598,0.0171,-0.0562,-0.0024,-0.0464,1,1,1,1,1,1,1
2.3850,sweep,2,+up,0.06619,0.15850,1.67601,-0.13905,-0.05283,1.59628,-0.00744,0.0024,0.2125,-0.0024,-0.1099,0.0073,0.0073,0.0073,-0.1573,16.5812,-2.6598,0.0171,-0.0562,-0.0024,-0.0464,1,1,1,1,1,1,1
2.4249,sweep,2,+up,0.06619,0.18330,1.67525,-0.14172,-0.05283,1.59667,-0.00744,0.0024,0.1929,-0.0171,-0.0073,0.0073,0.0073,0.0073,-0.1709,15.7197,-1.7983,0.2759,-0.0562,-0.0122,-0.0513,1,1,1,1,1,1,1
2.4651,sweep,2,+up,0.06619,0.18330,1.67525,-0.14172,-0.05283,1.59667,-0.00744,0.0024,0.1929,-0.0171,-0.0073,0.0073,0.0073,0.0073,-0.1709,15.7197,-1.7983,0.2759,-0.0562,-0.0122,-0.0513,1,1,1,1,1,1,1
2.5052,sweep,2,+up,0.06619,0.19970,1.67525,-0.14095,-0.05322,1.59667,-0.00744,0.0024,0.1832,-0.0024,-0.0220,-0.0220,0.0073,-0.0073,-0.1846,14.8171,-1.4291,0.4029,-0.0562,-0.0073,-0.0513,1,1,1,1,1,1,1
2.5449,sweep,2,+up,0.06619,0.19970,1.67525,-0.14095,-0.05322,1.59667,-0.00744,0.0024,0.1832,-0.0024,-0.0220,-0.0220,0.0073,-0.0073,-0.1846,14.8171,-1.4291,0.4029,-0.0562,-0.0073,-0.0513,1,1,1,1,1,1,1
2.5849,sweep,2,+up,0.06619,0.19970,1.67525,-0.14095,-0.05322,1.59667,-0.00744,0.0024,0.1832,-0.0024,-0.0220,-0.0220,0.0073,-0.0073,-0.1846,14.8171,-1.4291,0.4029,-0.0562,-0.0073,-0.0513,1,1,1,1,1,1,1
2.6250,sweep,2,+up,0.06619,0.22335,1.67525,-0.13828,-0.05322,1.59667,-0.00782,-0.0024,0.1978,-0.0024,0.0513,-0.0073,-0.0073,-0.0220,-0.1983,15.2137,-1.2786,0.3687,-0.0562,-0.0073,-0.0513,1,1,1,1,1,1,1
2.6653,sweep,2,+up,0.06619,0.22335,1.67525,-0.13828,-0.05322,1.59667,-0.00782,-0.0024,0.1978,-0.0024,0.0513,-0.0073,-0.0073,-0.0220,-0.1983,15.2137,-1.2786,0.3687,-0.0562,-0.0073,-0.0513,1,1,1,1,1,1,1
2.7051,sweep,2,+up,0.06619,0.23976,1.67525,-0.13752,-0.05283,1.59667,-0.00744,-0.0073,0.2125,-0.0024,-0.0366,-0.0073,-0.0073,-0.0073,-0.2120,14.8308,-1.2103,0.3639,-0.0562,-0.0122,-0.0513,1,1,1,1,1,1,1
2.7452,sweep,2,+up,0.06619,0.23976,1.67525,-0.13752,-0.05283,1.59667,-0.00744,-0.0073,0.2125,-0.0024,-0.0366,-0.0073,-0.0073,-0.0073,-0.2120,14.8308,-1.2103,0.3639,-0.0562,-0.0122,-0.0513,1,1,1,1,1,1,1
2.7850,sweep,2,+up,0.06619,0.23976,1.67525,-0.13752,-0.05283,1.59667,-0.00744,-0.0073,0.2125,-0.0024,-0.0366,-0.0073,-0.0073,-0.0073,-0.2120,14.8308,-1.2103,0.3639,-0.0562,-0.0122,-0.0513,1,1,1,1,1,1,1
2.8248,sweep,2,+up,0.06619,0.26417,1.67525,-0.13752,-0.05283,1.59667,-0.00744,-0.0024,0.2125,-0.0024,-0.0073,-0.0073,0.0220,-0.0073,-0.2256,14.1744,-1.0462,0.4127,-0.0562,-0.0073,-0.0464,1,1,1,1,1,1,1
2.8649,sweep,2,+up,0.06619,0.26417,1.67525,-0.13752,-0.05283,1.59667,-0.00744,-0.0024,0.2125,-0.0024,-0.0073,-0.0073,0.0220,-0.0073,-0.2256,14.1744,-1.0462,0.4127,-0.0562,-0.0073,-0.0464,1,1,1,1,1,1,1
2.9050,sweep,2,+up,0.06619,0.27981,1.67525,-0.13752,-0.05283,1.59667,-0.00744,-0.0073,0.1587,-0.0024,-0.0073,0.0073,-0.0073,-0.0073,-0.2530,14.5162,-0.9504,0.4567,-0.0611,-0.0073,-0.0464,1,1,1,1,1,1,1
2.9451,sweep,2,+up,0.06619,0.27981,1.67525,-0.13752,-0.05283,1.59667,-0.00744,-0.0073,0.1587,-0.0024,-0.0073,0.0073,-0.0073,-0.0073,-0.2530,14.5162,-0.9504,0.4567,-0.0611,-0.0073,-0.0464,1,1,1,1,1,1,1
2.9849,sweep,2,+up,0.06619,0.27981,1.67525,-0.13752,-0.05283,1.59667,-0.00744,-0.0073,0.1587,-0.0024,-0.0073,0.0073,-0.0073,-0.0073,-0.2530,14.5162,-0.9504,0.4567,-0.0611,-0.0073,-0.0464,1,1,1,1,1,1,1
3.0249,sweep,2,+up,0.06619,0.30461,1.67487,-0.13752,-0.05322,1.59667,-0.00744,-0.0073,0.2027,-0.0024,-0.0220,-0.0073,-0.0073,-0.0220,-0.2667,13.4496,-0.7863,0.5055,-0.0611,-0.0122,-0.0513,1,1,1,1,1,1,1
3.0650,sweep,2,+up,0.06619,0.30461,1.67487,-0.13752,-0.05322,1.59667,-0.00744,-0.0073,0.2027,-0.0024,-0.0220,-0.0073,-0.0073,-0.0220,-0.2667,13.4496,-0.7863,0.5055,-0.0611,-0.0122,-0.0513,1,1,1,1,1,1,1
3.1049,sweep,2,+up,0.06619,0.32101,1.67487,-0.13752,-0.05322,1.59667,-0.00744,-0.0073,0.1929,0.0024,-0.0073,-0.0220,-0.0073,0.0073,-0.2667,13.3128,-0.6222,0.5495,-0.0611,-0.0073,-0.0513,1,1,1,1,1,1,1
3.1448,sweep,2,+up,0.06619,0.32101,1.67487,-0.13752,-0.05322,1.59667,-0.00744,-0.0073,0.1929,0.0024,-0.0073,-0.0220,-0.0073,0.0073,-0.2667,13.3128,-0.6222,0.5495,-0.0611,-0.0073,-0.0513,1,1,1,1,1,1,1
3.1848,sweep,2,+up,0.06619,0.32101,1.67487,-0.13752,-0.05322,1.59667,-0.00744,-0.0073,0.1929,0.0024,-0.0073,-0.0220,-0.0073,0.0073,-0.2667,13.3128,-0.6222,0.5495,-0.0611,-0.0073,-0.0513,1,1,1,1,1,1,1
3.2252,sweep,2,+up,0.06619,0.34505,1.67487,-0.13714,-0.05322,1.59667,-0.00744,-0.0073,0.1734,-0.0024,-0.0073,-0.0220,-0.0073,-0.0220,-0.2667,13.2034,-0.4718,0.5836,-0.0611,-0.0024,-0.0562,1,1,1,1,1,1,1
3.2648,sweep,2,+up,0.06619,0.34505,1.67487,-0.13714,-0.05322,1.59667,-0.00744,-0.0073,0.1734,-0.0024,-0.0073,-0.0220,-0.0073,-0.0220,-0.2667,13.2034,-0.4718,0.5836,-0.0611,-0.0024,-0.0562,1,1,1,1,1,1,1
3.3049,sweep,2,+up,0.06619,0.36145,1.67487,-0.13752,-0.05283,1.59667,-0.00744,0.0024,0.2173,-0.0024,-0.0220,-0.0073,-0.0073,-0.0073,-0.2530,12.8068,-0.3487,0.6129,-0.0562,-0.0024,-0.0562,1,1,1,1,1,1,1
3.3449,sweep,2,+up,0.06619,0.36145,1.67487,-0.13752,-0.05283,1.59667,-0.00744,0.0024,0.2173,-0.0024,-0.0220,-0.0073,-0.0073,-0.0073,-0.2530,12.8068,-0.3487,0.6129,-0.0562,-0.0024,-0.0562,1,1,1,1,1,1,1
3.3849,sweep,2,+up,0.06619,0.36145,1.67487,-0.13752,-0.05283,1.59667,-0.00744,0.0024,0.2173,-0.0024,-0.0220,-0.0073,-0.0073,-0.0073,-0.2530,12.8068,-0.3487,0.6129,-0.0562,-0.0024,-0.0562,1,1,1,1,1,1,1
3.4254,sweep,2,+up,0.06619,0.38586,1.67487,-0.13676,-0.05322,1.59667,-0.00744,-0.0024,0.2027,-0.0024,-0.0073,0.0073,-0.0220,-0.0073,-0.2667,12.1778,-0.2393,0.6032,-0.0562,-0.0024,-0.0611,1,1,1,1,1,1,1
3.4651,sweep,2,+up,0.06619,0.38586,1.67487,-0.13676,-0.05322,1.59667,-0.00744,-0.0024,0.2027,-0.0024,-0.0073,0.0073,-0.0220,-0.0073,-0.2667,12.1778,-0.2393,0.6032,-0.0562,-0.0024,-0.0611,1,1,1,1,1,1,1
3.5049,sweep,2,+up,0.06619,0.40265,1.67372,-0.13714,-0.05322,1.59667,-0.00744,-0.0024,0.2125,-0.0317,-0.0513,-0.0073,-0.0073,-0.0073,-0.2667,10.9470,0.6632,0.6716,-0.0562,-0.0073,-0.0611,1,1,1,1,1,1,1
3.5449,sweep,2,+up,0.06619,0.40265,1.67372,-0.13714,-0.05322,1.59667,-0.00744,-0.0024,0.2125,-0.0317,-0.0513,-0.0073,-0.0073,-0.0073,-0.2667,10.9470,0.6632,0.6716,-0.0562,-0.0073,-0.0611,1,1,1,1,1,1,1
3.5850,sweep,2,+up,0.06619,0.40265,1.67372,-0.13714,-0.05322,1.59667,-0.00744,-0.0024,0.2125,-0.0317,-0.0513,-0.0073,-0.0073,-0.0073,-0.2667,10.9470,0.6632,0.6716,-0.0562,-0.0073,-0.0611,1,1,1,1,1,1,1
3.6248,sweep,2,+up,0.06619,0.42897,1.67258,-0.14248,-0.05322,1.59667,-0.00782,-0.0024,0.1929,0.0024,0.0073,-0.0220,-0.0073,-0.0073,-0.2803,8.3077,2.3863,1.3309,-0.0415,-0.0171,-0.0611,1,1,1,1,1,1,1
3.6647,sweep,2,+up,0.06619,0.42897,1.67258,-0.14248,-0.05322,1.59667,-0.00782,-0.0024,0.1929,0.0024,0.0073,-0.0220,-0.0073,-0.0073,-0.2803,8.3077,2.3863,1.3309,-0.0415,-0.0171,-0.0611,1,1,1,1,1,1,1
3.7050,sweep,2,+up,0.06619,0.44308,1.67296,-0.13790,-0.05322,1.59667,-0.00744,0.0024,0.1392,0.0024,0.0073,-0.0073,-0.0073,-0.0073,-0.2667,10.5504,2.3727,1.0965,-0.0366,-0.0220,-0.0611,1,1,1,1,1,1,1
3.7447,sweep,2,+up,0.06619,0.44308,1.67296,-0.13790,-0.05322,1.59667,-0.00744,0.0024,0.1392,0.0024,0.0073,-0.0073,-0.0073,-0.0073,-0.2667,10.5504,2.3727,1.0965,-0.0366,-0.0220,-0.0611,1,1,1,1,1,1,1
3.7847,sweep,2,+up,0.06619,0.44308,1.67296,-0.13790,-0.05322,1.59667,-0.00744,0.0024,0.1392,0.0024,0.0073,-0.0073,-0.0073,-0.0073,-0.2667,10.5504,2.3727,1.0965,-0.0366,-0.0220,-0.0611,1,1,1,1,1,1,1
3.8250,sweep,2,+up,0.06580,0.46635,1.67411,-0.13447,-0.05322,1.59667,-0.00782,-0.0024,0.2369,-0.0024,-0.0366,-0.0073,0.0073,-0.0073,-0.2667,11.3709,1.3880,0.8181,-0.0415,-0.0122,-0.0659,1,1,1,1,1,1,1
3.8650,sweep,2,+up,0.06580,0.46635,1.67411,-0.13447,-0.05322,1.59667,-0.00782,-0.0024,0.2369,-0.0024,-0.0366,-0.0073,0.0073,-0.0073,-0.2667,11.3709,1.3880,0.8181,-0.0415,-0.0122,-0.0659,1,1,1,1,1,1,1
3.9049,sweep,2,+up,0.06619,0.48390,1.67411,-0.13676,-0.05283,1.59667,-0.00782,-0.0024,0.2173,-0.0024,-0.0513,0.0073,-0.0073,-0.0073,-0.2940,9.5795,1.8256,0.9792,-0.0415,-0.0122,-0.0659,1,1,1,1,1,1,1
3.9453,sweep,2,+up,0.06619,0.48390,1.67411,-0.13676,-0.05283,1.59667,-0.00782,-0.0024,0.2173,-0.0024,-0.0513,0.0073,-0.0073,-0.0073,-0.2940,9.5795,1.8256,0.9792,-0.0415,-0.0122,-0.0659,1,1,1,1,1,1,1
3.9850,sweep,2,+up,0.06619,0.48390,1.67411,-0.13676,-0.05283,1.59667,-0.00782,-0.0024,0.2173,-0.0024,-0.0513,0.0073,-0.0073,-0.0073,-0.2940,9.5795,1.8256,0.9792,-0.0415,-0.0122,-0.0659,1,1,1,1,1,1,1
4.0248,sweep,2,+up,0.06619,0.50793,1.67372,-0.13714,-0.05283,1.59667,-0.00782,0.0024,0.1636,-0.0024,0.0073,-0.0073,-0.0073,-0.0073,-0.2940,9.6342,2.2359,1.0916,-0.0513,-0.0171,-0.0708,1,1,1,1,1,1,1
4.0648,sweep,2,+up,0.06619,0.50793,1.67372,-0.13714,-0.05283,1.59667,-0.00782,0.0024,0.1636,-0.0024,0.0073,-0.0073,-0.0073,-0.0073,-0.2940,9.6342,2.2359,1.0916,-0.0513,-0.0171,-0.0708,1,1,1,1,1,1,1
4.1050,sweep,2,+up,0.06580,0.52396,1.67411,-0.13676,-0.05283,1.59667,-0.00744,-0.0024,0.2076,-0.0024,0.0073,-0.0073,0.0073,0.0073,-0.2803,9.6479,2.5231,1.0769,-0.0464,-0.0122,-0.0659,1,1,1,1,1,1,1
4.1452,sweep,2,+up,0.06580,0.52396,1.67411,-0.13676,-0.05283,1.59667,-0.00744,-0.0024,0.2076,-0.0024,0.0073,-0.0073,0.0073,0.0073,-0.2803,9.6479,2.5231,1.0769,-0.0464,-0.0122,-0.0659,1,1,1,1,1,1,1
4.1853,sweep,2,+up,0.06580,0.52396,1.67411,-0.13676,-0.05283,1.59667,-0.00744,-0.0024,0.2076,-0.0024,0.0073,-0.0073,0.0073,0.0073,-0.2803,9.6479,2.5231,1.0769,-0.0464,-0.0122,-0.0659,1,1,1,1,1,1,1
4.2249,sweep,2,+up,0.06580,0.54913,1.67411,-0.13752,-0.05283,1.59667,-0.00782,-0.0073,0.1929,-0.0024,-0.0073,0.0366,0.0073,-0.0073,-0.2940,8.1573,2.9607,1.2137,-0.0464,-0.0220,-0.0611,1,1,1,1,1,1,1
4.2648,sweep,2,+up,0.06580,0.54913,1.67411,-0.13752,-0.05283,1.59667,-0.00782,-0.0073,0.1929,-0.0024,-0.0073,0.0366,0.0073,-0.0073,-0.2940,8.1573,2.9607,1.2137,-0.0464,-0.0220,-0.0611,1,1,1,1,1,1,1
4.3049,sweep,2,+up,0.06580,0.56516,1.67411,-0.13752,-0.05322,1.59667,-0.00782,-0.0024,0.2173,-0.0024,-0.0073,-0.0073,0.0073,-0.0220,-0.3077,7.8154,3.1932,1.2479,-0.0464,-0.0269,-0.0611,1,1,1,1,1,1,1
4.3450,sweep,2,+up,0.06580,0.56516,1.67411,-0.13752,-0.05322,1.59667,-0.00782,-0.0024,0.2173,-0.0024,-0.0073,-0.0073,0.0073,-0.0220,-0.3077,7.8154,3.1932,1.2479,-0.0464,-0.0269,-0.0611,1,1,1,1,1,1,1
4.3849,sweep,2,+up,0.06580,0.56516,1.67411,-0.13752,-0.05322,1.59667,-0.00782,-0.0024,0.2173,-0.0024,-0.0073,-0.0073,0.0073,-0.0220,-0.3077,7.8154,3.1932,1.2479,-0.0464,-0.0269,-0.0611,1,1,1,1,1,1,1
4.4252,sweep,2,+up,0.06580,0.58919,1.67411,-0.13714,-0.05322,1.59667,-0.00782,0.0024,0.2076,-0.0024,-0.0073,-0.0073,-0.0073,0.0073,-0.3077,7.9521,3.5761,1.2625,-0.0415,-0.0220,-0.0562,1,1,1,1,1,1,1
4.4648,sweep,2,+up,0.06580,0.58919,1.67411,-0.13714,-0.05322,1.59667,-0.00782,0.0024,0.2076,-0.0024,-0.0073,-0.0073,-0.0073,0.0073,-0.3077,7.9521,3.5761,1.2625,-0.0415,-0.0220,-0.0562,1,1,1,1,1,1,1
4.5051,sweep,2,+up,0.06580,0.60559,1.67411,-0.13714,-0.05322,1.59667,-0.00744,-0.0024,0.1880,-0.0024,-0.0073,-0.0073,0.0073,0.0073,-0.2803,7.4188,3.7949,1.3065,-0.0464,-0.0269,-0.0562,1,1,1,1,1,1,1
4.5450,sweep,2,+up,0.06580,0.60559,1.67411,-0.13714,-0.05322,1.59667,-0.00744,-0.0024,0.1880,-0.0024,-0.0073,-0.0073,0.0073,0.0073,-0.2803,7.4188,3.7949,1.3065,-0.0464,-0.0269,-0.0562,1,1,1,1,1,1,1
4.5851,sweep,2,+up,0.06580,0.60559,1.67411,-0.13714,-0.05322,1.59667,-0.00744,-0.0024,0.1880,-0.0024,-0.0073,-0.0073,0.0073,0.0073,-0.2803,7.4188,3.7949,1.3065,-0.0464,-0.0269,-0.0562,1,1,1,1,1,1,1
4.6250,sweep,2,+up,0.06580,0.63001,1.67411,-0.13752,-0.05322,1.59667,-0.00744,-0.0024,0.2173,-0.0024,-0.0220,-0.0073,-0.0220,0.0073,-0.3077,6.8718,4.1641,1.3602,-0.0464,-0.0269,-0.0513,1,1,1,1,1,1,1
4.6650,sweep,2,+up,0.06580,0.63001,1.67411,-0.13752,-0.05322,1.59667,-0.00744,-0.0024,0.2173,-0.0024,-0.0220,-0.0073,-0.0220,0.0073,-0.3077,6.8718,4.1641,1.3602,-0.0464,-0.0269,-0.0513,1,1,1,1,1,1,1
4.7052,sweep,2,+up,0.06580,0.64603,1.67411,-0.13714,-0.05322,1.59667,-0.00782,-0.0024,0.1832,0.0024,-0.0073,-0.0073,-0.0220,-0.0220,-0.3077,6.6393,4.4513,1.4042,-0.0366,-0.0269,-0.0562,1,1,1,1,1,1,1
4.7452,sweep,2,+up,0.06580,0.64603,1.67411,-0.13714,-0.05322,1.59667,-0.00782,-0.0024,0.1832,0.0024,-0.0073,-0.0073,-0.0220,-0.0220,-0.3077,6.6393,4.4513,1.4042,-0.0366,-0.0269,-0.0562,1,1,1,1,1,1,1
4.7849,sweep,2,+up,0.06580,0.64603,1.67411,-0.13714,-0.05322,1.59667,-0.00782,-0.0024,0.1832,0.0024,-0.0073,-0.0073,-0.0220,-0.0220,-0.3077,6.6393,4.4513,1.4042,-0.0366,-0.0269,-0.0562,1,1,1,1,1,1,1
4.8249,sweep,2,+up,0.06580,0.67044,1.67411,-0.13714,-0.05283,1.59667,-0.00782,-0.0024,0.1978,0.0024,0.0073,-0.0073,-0.0220,-0.0073,-0.3077,6.3932,4.7385,1.4628,-0.0366,-0.0366,-0.0513,1,1,1,1,1,1,1
4.8649,sweep,2,+up,0.06580,0.67044,1.67411,-0.13714,-0.05283,1.59667,-0.00782,-0.0024,0.1978,0.0024,0.0073,-0.0073,-0.0220,-0.0073,-0.3077,6.3932,4.7385,1.4628,-0.0366,-0.0366,-0.0513,1,1,1,1,1,1,1
4.9050,sweep,2,+up,0.06580,0.68647,1.67411,-0.13714,-0.05283,1.59667,-0.00782,-0.0024,0.1929,-0.0024,-0.0073,-0.0073,0.0073,-0.0073,-0.2940,6.4615,4.8479,1.4774,-0.0366,-0.0317,-0.0464,1,1,1,1,1,1,1
4.9451,sweep,2,+up,0.06580,0.68647,1.67411,-0.13714,-0.05283,1.59667,-0.00782,-0.0024,0.1929,-0.0024,-0.0073,-0.0073,0.0073,-0.0073,-0.2940,6.4615,4.8479,1.4774,-0.0366,-0.0317,-0.0464,1,1,1,1,1,1,1
4.9850,sweep,2,+up,0.06580,0.68647,1.67411,-0.13714,-0.05283,1.59667,-0.00782,-0.0024,0.1929,-0.0024,-0.0073,-0.0073,0.0073,-0.0073,-0.2940,6.4615,4.8479,1.4774,-0.0366,-0.0317,-0.0464,1,1,1,1,1,1,1
5.0250,sweep,2,+up,0.06580,0.71126,1.67411,-0.13752,-0.05283,1.59667,-0.00782,-0.0024,0.2027,-0.0024,-0.0220,0.0073,-0.0073,-0.0220,-0.3077,5.3538,5.1761,1.5360,-0.0366,-0.0366,-0.0513,1,1,1,1,1,1,1
5.0650,sweep,2,+up,0.06580,0.71126,1.67411,-0.13752,-0.05283,1.59667,-0.00782,-0.0024,0.2027,-0.0024,-0.0220,0.0073,-0.0073,-0.0220,-0.3077,5.3538,5.1761,1.5360,-0.0366,-0.0366,-0.0513,1,1,1,1,1,1,1
5.1048,sweep,2,+up,0.06580,0.72728,1.67411,-0.13714,-0.05283,1.59667,-0.00782,-0.0024,0.2125,0.0024,-0.0220,-0.0073,0.0073,-0.0073,-0.2940,5.0393,5.3949,1.5751,-0.0366,-0.0366,-0.0513,1,1,1,1,1,1,1
5.1448,sweep,2,+up,0.06580,0.72728,1.67411,-0.13714,-0.05283,1.59667,-0.00782,-0.0024,0.2125,0.0024,-0.0220,-0.0073,0.0073,-0.0073,-0.2940,5.0393,5.3949,1.5751,-0.0366,-0.0366,-0.0513,1,1,1,1,1,1,1
5.1848,sweep,2,+up,0.06580,0.72728,1.67411,-0.13714,-0.05283,1.59667,-0.00782,-0.0024,0.2125,0.0024,-0.0220,-0.0073,0.0073,-0.0073,-0.2940,5.0393,5.3949,1.5751,-0.0366,-0.0366,-0.0513,1,1,1,1,1,1,1
5.2246,sweep,2,+up,0.06580,0.75132,1.67449,-0.13714,-0.05322,1.59667,-0.00782,-0.0024,0.1832,0.0024,0.0220,-0.0073,-0.0073,-0.0073,-0.2940,5.0530,5.5453,1.6142,-0.0366,-0.0415,-0.0562,1,1,1,1,1,1,1
5.2648,sweep,2,+up,0.06580,0.75132,1.67449,-0.13714,-0.05322,1.59667,-0.00782,-0.0024,0.1832,0.0024,0.0220,-0.0073,-0.0073,-0.0073,-0.2940,5.0530,5.5453,1.6142,-0.0366,-0.0415,-0.0562,1,1,1,1,1,1,1
5.3052,sweep,2,+up,0.06580,0.76810,1.67449,-0.13714,-0.05322,1.59667,-0.00782,-0.0024,0.2173,-0.0024,0.0073,-0.0073,-0.0073,0.0073,-0.2940,4.3009,5.5863,1.6337,-0.0366,-0.0415,-0.0562,1,1,1,1,1,1,1
5.3451,sweep,2,+up,0.06580,0.76810,1.67449,-0.13714,-0.05322,1.59667,-0.00782,-0.0024,0.2173,-0.0024,0.0073,-0.0073,-0.0073,0.0073,-0.2940,4.3009,5.5863,1.6337,-0.0366,-0.0415,-0.0562,1,1,1,1,1,1,1
5.3848,sweep,2,+up,0.06580,0.76810,1.67449,-0.13714,-0.05322,1.59667,-0.00782,-0.0024,0.2173,-0.0024,0.0073,-0.0073,-0.0073,0.0073,-0.2940,4.3009,5.5863,1.6337,-0.0366,-0.0415,-0.0562,1,1,1,1,1,1,1
5.4248,sweep,2,+up,0.06580,0.79213,1.67449,-0.13714,-0.05283,1.59667,-0.00782,-0.0073,0.2125,-0.0024,-0.0073,-0.0073,-0.0073,-0.0220,-0.3077,3.8769,5.8462,1.6825,-0.0317,-0.0415,-0.0562,1,1,1,1,1,1,1
5.4649,sweep,2,+up,0.06580,0.79213,1.67449,-0.13714,-0.05283,1.59667,-0.00782,-0.0073,0.2125,-0.0024,-0.0073,-0.0073,-0.0073,-0.0220,-0.3077,3.8769,5.8462,1.6825,-0.0317,-0.0415,-0.0562,1,1,1,1,1,1,1
5.5048,sweep,2,+up,0.06580,0.80854,1.67449,-0.13714,-0.05322,1.59667,-0.00782,-0.0073,0.1978,-0.0024,-0.0073,-0.0073,-0.0073,-0.0220,-0.3077,3.4940,6.0239,1.7167,-0.0317,-0.0464,-0.0611,1,1,1,1,1,1,1
5.5448,sweep,2,+up,0.06580,0.80854,1.67449,-0.13714,-0.05322,1.59667,-0.00782,-0.0073,0.1978,-0.0024,-0.0073,-0.0073,-0.0073,-0.0220,-0.3077,3.4940,6.0239,1.7167,-0.0317,-0.0464,-0.0611,1,1,1,1,1,1,1
5.5851,sweep,2,+up,0.06580,0.80854,1.67449,-0.13714,-0.05322,1.59667,-0.00782,-0.0073,0.1978,-0.0024,-0.0073,-0.0073,-0.0073,-0.0220,-0.3077,3.4940,6.0239,1.7167,-0.0317,-0.0464,-0.0611,1,1,1,1,1,1,1
5.6251,sweep,2,+up,0.06580,0.83295,1.67449,-0.13714,-0.05283,1.59667,-0.00782,-0.0073,0.2222,0.0024,-0.0073,-0.0073,0.0073,0.0073,-0.2940,3.0564,6.2154,1.7460,-0.0317,-0.0513,-0.0562,1,1,1,1,1,1,1
5.6650,sweep,2,+up,0.06580,0.83295,1.67449,-0.13714,-0.05283,1.59667,-0.00782,-0.0073,0.2222,0.0024,-0.0073,-0.0073,0.0073,0.0073,-0.2940,3.0564,6.2154,1.7460,-0.0317,-0.0513,-0.0562,1,1,1,1,1,1,1
5.7052,sweep,2,+up,0.06580,0.84897,1.67449,-0.13714,-0.05283,1.59667,-0.00782,-0.0024,0.1832,-0.0073,-0.0220,-0.0073,-0.0073,-0.0073,-0.2803,2.9880,6.3111,1.7656,-0.0317,-0.0513,-0.0562,1,1,1,1,1,1,1
5.7448,sweep,2,+up,0.06580,0.84897,1.67449,-0.13714,-0.05283,1.59667,-0.00782,-0.0024,0.1832,-0.0073,-0.0220,-0.0073,-0.0073,-0.0073,-0.2803,2.9880,6.3111,1.7656,-0.0317,-0.0513,-0.0562,1,1,1,1,1,1,1
5.7848,sweep,2,+up,0.06580,0.84897,1.67449,-0.13714,-0.05283,1.59667,-0.00782,-0.0024,0.1832,-0.0073,-0.0220,-0.0073,-0.0073,-0.0073,-0.2803,2.9880,6.3111,1.7656,-0.0317,-0.0513,-0.0562,1,1,1,1,1,1,1
5.8248,sweep,2,+up,0.06580,0.87339,1.67449,-0.13676,-0.05283,1.59667,-0.00782,-0.0024,0.2173,-0.0024,0.0073,-0.0073,-0.0073,-0.0073,-0.2940,2.3863,6.5299,1.8046,-0.0317,-0.0513,-0.0562,1,1,1,1,1,1,1
5.8649,sweep,2,+up,0.06580,0.87339,1.67449,-0.13676,-0.05283,1.59667,-0.00782,-0.0024,0.2173,-0.0024,0.0073,-0.0073,-0.0073,-0.0073,-0.2940,2.3863,6.5299,1.8046,-0.0317,-0.0513,-0.0562,1,1,1,1,1,1,1
5.9049,sweep,2,+up,0.06580,0.88941,1.67449,-0.13676,-0.05322,1.59667,-0.00782,-0.0024,0.1929,-0.0024,-0.0073,-0.0366,-0.0073,-0.0073,-0.2803,2.2906,6.6393,1.8291,-0.0317,-0.0562,-0.0513,1,1,1,1,1,1,1
5.9452,sweep,2,+up,0.06580,0.88941,1.67449,-0.13676,-0.05322,1.59667,-0.00782,-0.0024,0.1929,-0.0024,-0.0073,-0.0366,-0.0073,-0.0073,-0.2803,2.2906,6.6393,1.8291,-0.0317,-0.0562,-0.0513,1,1,1,1,1,1,1
5.9850,sweep,2,+up,0.06580,0.88941,1.67449,-0.13676,-0.05322,1.59667,-0.00782,-0.0024,0.1929,-0.0024,-0.0073,-0.0366,-0.0073,-0.0073,-0.2803,2.2906,6.6393,1.8291,-0.0317,-0.0562,-0.0513,1,1,1,1,1,1,1
6.0248,sweep,2,+up,0.06580,0.91421,1.67487,-0.13676,-0.05322,1.59667,-0.00782,-0.0024,0.1929,-0.0024,-0.0073,-0.0220,-0.0220,-0.0073,-0.2803,1.5658,6.8581,1.8486,-0.0269,-0.0611,-0.0562,1,1,1,1,1,1,1
6.0649,sweep,2,+up,0.06580,0.91421,1.67487,-0.13676,-0.05322,1.59667,-0.00782,-0.0024,0.1929,-0.0024,-0.0073,-0.0220,-0.0220,-0.0073,-0.2803,1.5658,6.8581,1.8486,-0.0269,-0.0611,-0.0562,1,1,1,1,1,1,1
6.1049,sweep,2,+up,0.06580,0.93061,1.67487,-0.13676,-0.05283,1.59667,-0.00744,-0.0024,0.2027,-0.0024,-0.0073,0.0073,-0.0220,0.0073,-0.2940,0.9915,7.0085,1.8779,-0.0171,-0.0611,-0.0513,1,1,1,1,1,1,1
6.1448,sweep,2,+up,0.06580,0.93061,1.67487,-0.13676,-0.05283,1.59667,-0.00744,-0.0024,0.2027,-0.0024,-0.0073,0.0073,-0.0220,0.0073,-0.2940,0.9915,7.0085,1.8779,-0.0171,-0.0611,-0.0513,1,1,1,1,1,1,1
6.1853,sweep,2,+up,0.06580,0.93061,1.67487,-0.13676,-0.05283,1.59667,-0.00744,-0.0024,0.2027,-0.0024,-0.0073,0.0073,-0.0220,0.0073,-0.2940,0.9915,7.0085,1.8779,-0.0171,-0.0611,-0.0513,1,1,1,1,1,1,1
6.2249,sweep,2,+up,0.06580,0.95502,1.67487,-0.13714,-0.05322,1.59667,-0.00782,-0.0073,0.1832,-0.0073,-0.0073,-0.0220,0.0073,0.0073,-0.2803,0.6359,7.2957,1.9267,-0.0171,-0.0611,-0.0562,1,1,1,1,1,1,1
6.2647,sweep,2,+up,0.06580,0.95502,1.67487,-0.13714,-0.05322,1.59667,-0.00782,-0.0073,0.1832,-0.0073,-0.0073,-0.0220,0.0073,0.0073,-0.2803,0.6359,7.2957,1.9267,-0.0171,-0.0611,-0.0562,1,1,1,1,1,1,1
6.3049,sweep,2,+up,0.06580,0.97143,1.67487,-0.13714,-0.05322,1.59667,-0.00782,-0.0024,0.2173,-0.0122,-0.0220,-0.0073,-0.0220,0.0073,-0.2940,0.1573,7.4462,1.9463,-0.0220,-0.0611,-0.0562,1,1,1,1,1,1,1
6.3449,sweep,2,+up,0.06580,0.97143,1.67487,-0.13714,-0.05322,1.59667,-0.00782,-0.0024,0.2173,-0.0122,-0.0220,-0.0073,-0.0220,0.0073,-0.2940,0.1573,7.4462,1.9463,-0.0220,-0.0611,-0.0562,1,1,1,1,1,1,1
6.3851,sweep,2,+up,0.06580,0.97143,1.67487,-0.13714,-0.05322,1.59667,-0.00782,-0.0024,0.2173,-0.0122,-0.0220,-0.0073,-0.0220,0.0073,-0.2940,0.1573,7.4462,1.9463,-0.0220,-0.0611,-0.0562,1,1,1,1,1,1,1
6.4249,sweep,2,+up,0.06580,0.99508,1.67487,-0.13714,-0.05322,1.59667,-0.00782,-0.0024,0.1978,-0.0024,-0.0073,0.0073,-0.0073,-0.0073,-0.2667,0.2530,7.6376,1.9805,-0.0171,-0.0659,-0.0513,1,1,1,1,1,1,1
6.4648,sweep,2,+up,0.06580,0.99508,1.67487,-0.13714,-0.05322,1.59667,-0.00782,-0.0024,0.1978,-0.0024,-0.0073,0.0073,-0.0073,-0.0073,-0.2667,0.2530,7.6376,1.9805,-0.0171,-0.0659,-0.0513,1,1,1,1,1,1,1
6.5050,sweep,2,+up,0.06580,1.01186,1.67487,-0.13676,-0.05322,1.59667,-0.00782,-0.0024,0.2125,-0.0073,-0.0220,-0.0366,-0.0073,-0.0220,-0.2393,0.0068,7.7470,2.0000,-0.0220,-0.0611,-0.0513,1,1,1,1,1,1,1
6.5449,sweep,2,+up,0.06580,1.01186,1.67487,-0.13676,-0.05322,1.59667,-0.00782,-0.0024,0.2125,-0.0073,-0.0220,-0.0366,-0.0073,-0.0220,-0.2393,0.0068,7.7470,2.0000,-0.0220,-0.0611,-0.0513,1,1,1,1,1,1,1
6.5850,sweep,2,+up,0.06580,1.01186,1.67487,-0.13676,-0.05322,1.59667,-0.00782,-0.0024,0.2125,-0.0073,-0.0220,-0.0366,-0.0073,-0.0220,-0.2393,0.0068,7.7470,2.0000,-0.0220,-0.0611,-0.0513,1,1,1,1,1,1,1
6.6247,sweep,2,+up,0.06580,1.03704,1.67487,-0.13676,-0.05283,1.59667,-0.00782,-0.0024,0.2271,-0.0024,-0.0073,-0.0073,0.0073,-0.0073,-0.2393,-0.8000,7.9795,2.0391,-0.0171,-0.0659,-0.0464,1,1,1,1,1,1,1
6.6650,sweep,2,+up,0.06580,1.03704,1.67487,-0.13676,-0.05283,1.59667,-0.00782,-0.0024,0.2271,-0.0024,-0.0073,-0.0073,0.0073,-0.0073,-0.2393,-0.8000,7.9795,2.0391,-0.0171,-0.0659,-0.0464,1,1,1,1,1,1,1
6.7048,sweep,2,+up,0.06580,1.05306,1.67487,-0.13714,-0.05283,1.59667,-0.00782,0.0024,0.1978,-0.0073,-0.0073,-0.0073,-0.0220,-0.0073,-0.2256,-1.0735,8.1026,2.0733,-0.0220,-0.0659,-0.0464,1,1,1,1,1,1,1
6.7449,sweep,2,+up,0.06580,1.05306,1.67487,-0.13714,-0.05283,1.59667,-0.00782,0.0024,0.1978,-0.0073,-0.0073,-0.0073,-0.0220,-0.0073,-0.2256,-1.0735,8.1026,2.0733,-0.0220,-0.0659,-0.0464,1,1,1,1,1,1,1
6.7848,sweep,2,+up,0.06580,1.05306,1.67487,-0.13714,-0.05283,1.59667,-0.00782,0.0024,0.1978,-0.0073,-0.0073,-0.0073,-0.0220,-0.0073,-0.2256,-1.0735,8.1026,2.0733,-0.0220,-0.0659,-0.0464,1,1,1,1,1,1,1
6.8250,sweep,2,+up,0.06580,1.07977,1.67487,-0.14057,-0.05283,1.59667,-0.00782,-0.0024,0.2173,-0.0024,-0.0659,-0.0220,-0.0220,-0.0073,-0.2120,-4.1778,8.3214,2.4444,-0.0269,-0.0708,-0.0464,1,1,1,1,1,1,1
6.8649,sweep,2,+up,0.06580,1.07977,1.67487,-0.14057,-0.05283,1.59667,-0.00782,-0.0024,0.2173,-0.0024,-0.0659,-0.0220,-0.0220,-0.0073,-0.2120,-4.1778,8.3214,2.4444,-0.0269,-0.0708,-0.0464,1,1,1,1,1,1,1
6.9049,sweep,2,+up,0.06580,1.09503,1.67487,-0.13867,-0.05283,1.59667,-0.00744,-0.0024,0.1978,-0.0024,0.0513,0.0073,-0.0073,-0.0073,-0.2256,-3.2889,8.5265,2.4347,-0.0220,-0.0757,-0.0464,1,1,1,1,1,1,1
6.9448,sweep,2,+up,0.06580,1.09503,1.67487,-0.13867,-0.05283,1.59667,-0.00744,-0.0024,0.1978,-0.0024,0.0513,0.0073,-0.0073,-0.0073,-0.2256,-3.2889,8.5265,2.4347,-0.0220,-0.0757,-0.0464,1,1,1,1,1,1,1
6.9850,sweep,2,+up,0.06580,1.09503,1.67487,-0.13867,-0.05283,1.59667,-0.00744,-0.0024,0.1978,-0.0024,0.0513,0.0073,-0.0073,-0.0073,-0.2256,-3.2889,8.5265,2.4347,-0.0220,-0.0757,-0.0464,1,1,1,1,1,1,1
7.0250,sweep,2,+up,0.06580,1.11753,1.67487,-0.13561,-0.05283,1.59667,-0.00782,-0.0024,0.1783,-0.0024,-0.0073,-0.0073,-0.0073,-0.0220,-0.2256,-1.3333,8.6359,2.1954,-0.0171,-0.0757,-0.0464,1,1,1,1,1,1,1
7.0647,sweep,2,+up,0.06580,1.11753,1.67487,-0.13561,-0.05283,1.59667,-0.00782,-0.0024,0.1783,-0.0024,-0.0073,-0.0073,-0.0073,-0.0220,-0.2256,-1.3333,8.6359,2.1954,-0.0171,-0.0757,-0.0464,1,1,1,1,1,1,1
7.1048,sweep,2,+up,0.06580,1.13470,1.67487,-0.13638,-0.05283,1.59628,-0.00744,-0.0024,0.2271,0.0024,-0.0220,0.0073,-0.0366,0.0073,-0.1983,-2.9880,8.7453,2.2491,-0.0171,-0.0708,-0.0415,1,1,1,1,1,1,1
7.1448,sweep,2,+up,0.06580,1.13470,1.67487,-0.13638,-0.05283,1.59628,-0.00744,-0.0024,0.2271,0.0024,-0.0220,0.0073,-0.0366,0.0073,-0.1983,-2.9880,8.7453,2.2491,-0.0171,-0.0708,-0.0415,1,1,1,1,1,1,1
7.1849,sweep,2,+up,0.06580,1.13470,1.67487,-0.13638,-0.05283,1.59628,-0.00744,-0.0024,0.2271,0.0024,-0.0220,0.0073,-0.0366,0.0073,-0.1983,-2.9880,8.7453,2.2491,-0.0171,-0.0708,-0.0415,1,1,1,1,1,1,1
7.2247,sweep,2,+up,0.06580,1.15911,1.67487,-0.13676,-0.05283,1.59667,-0.00782,-0.0024,0.1978,-0.0024,-0.0220,-0.0220,-0.0073,-0.0073,-0.1983,-3.4940,8.9778,2.2882,-0.0220,-0.0757,-0.0366,1,1,1,1,1,1,1
7.2647,sweep,2,+up,0.06580,1.15911,1.67487,-0.13676,-0.05283,1.59667,-0.00782,-0.0024,0.1978,-0.0024,-0.0220,-0.0220,-0.0073,-0.0073,-0.1983,-3.4940,8.9778,2.2882,-0.0220,-0.0757,-0.0366,1,1,1,1,1,1,1
7.3049,sweep,2,+up,0.06580,1.17475,1.67487,-0.13638,-0.05283,1.59628,-0.00782,-0.0024,0.1880,0.0024,0.0073,-0.0073,-0.0073,-0.0073,-0.2120,-2.8376,9.1419,2.2735,-0.0220,-0.0757,-0.0366,1,1,1,1,1,1,1
7.3448,sweep,2,+up,0.06580,1.17475,1.67487,-0.13638,-0.05283,1.59628,-0.00782,-0.0024,0.1880,0.0024,0.0073,-0.0073,-0.0073,-0.0073,-0.2120,-2.8376,9.1419,2.2735,-0.0220,-0.0757,-0.0366,1,1,1,1,1,1,1
7.3848,sweep,2,+up,0.06580,1.17475,1.67487,-0.13638,-0.05283,1.59628,-0.00782,-0.0024,0.1880,0.0024,0.0073,-0.0073,-0.0073,-0.0073,-0.2120,-2.8376,9.1419,2.2735,-0.0220,-0.0757,-0.0366,1,1,1,1,1,1,1
7.4249,sweep,2,+up,0.06580,1.19955,1.67487,-0.13676,-0.05283,1.59667,-0.00782,-0.0024,0.2173,-0.0024,-0.0073,-0.0220,-0.0073,-0.0073,-0.1846,-3.9863,9.3333,2.2979,-0.0269,-0.0806,-0.0415,1,1,1,1,1,1,1
7.4649,sweep,2,+up,0.06580,1.19955,1.67487,-0.13676,-0.05283,1.59667,-0.00782,-0.0024,0.2173,-0.0024,-0.0073,-0.0220,-0.0073,-0.0073,-0.1846,-3.9863,9.3333,2.2979,-0.0269,-0.0806,-0.0415,1,1,1,1,1,1,1
7.5048,sweep,2,+up,0.06580,1.21557,1.67487,-0.13676,-0.05283,1.59628,-0.00782,0.0024,0.1734,-0.0024,-0.0073,-0.0073,-0.0073,-0.0220,-0.1709,-3.9590,9.4291,2.3175,-0.0269,-0.0757,-0.0415,1,1,1,1,1,1,1
7.5449,sweep,2,+up,0.06580,1.21557,1.67487,-0.13676,-0.05283,1.59628,-0.00782,0.0024,0.1734,-0.0024,-0.0073,-0.0073,-0.0073,-0.0220,-0.1709,-3.9590,9.4291,2.3175,-0.0269,-0.0757,-0.0415,1,1,1,1,1,1,1
7.5850,sweep,2,+up,0.06580,1.21557,1.67487,-0.13676,-0.05283,1.59628,-0.00782,0.0024,0.1734,-0.0024,-0.0073,-0.0073,-0.0073,-0.0220,-0.1709,-3.9590,9.4291,2.3175,-0.0269,-0.0757,-0.0415,1,1,1,1,1,1,1
7.6247,sweep,2,+up,0.06580,1.23960,1.67487,-0.13638,-0.05283,1.59628,-0.00782,-0.0024,0.2027,-0.0024,-0.0073,0.0073,-0.0073,-0.0073,-0.1846,-4.0821,9.6479,2.3272,-0.0366,-0.0806,-0.0415,1,1,1,1,1,1,1
7.6649,sweep,2,+up,0.06580,1.23960,1.67487,-0.13638,-0.05283,1.59628,-0.00782,-0.0024,0.2027,-0.0024,-0.0073,0.0073,-0.0073,-0.0073,-0.1846,-4.0821,9.6479,2.3272,-0.0366,-0.0806,-0.0415,1,1,1,1,1,1,1
7.7048,sweep,2,+up,0.06580,1.25601,1.67487,-0.13676,-0.05283,1.59628,-0.00744,-0.0073,0.1978,-0.0024,-0.0366,0.0073,-0.0220,-0.0073,-0.1709,-4.3009,9.7573,2.3516,-0.0269,-0.0855,-0.0366,1,1,1,1,1,1,1
7.7448,sweep,2,+up,0.06580,1.25601,1.67487,-0.13676,-0.05283,1.59628,-0.00744,-0.0073,0.1978,-0.0024,-0.0366,0.0073,-0.0220,-0.0073,-0.1709,-4.3009,9.7573,2.3516,-0.0269,-0.0855,-0.0366,1,1,1,1,1,1,1
7.7851,sweep,2,+up,0.06580,1.25601,1.67487,-0.13676,-0.05283,1.59628,-0.00744,-0.0073,0.1978,-0.0024,-0.0366,0.0073,-0.0220,-0.0073,-0.1709,-4.3009,9.7573,2.3516,-0.0269,-0.0855,-0.0366,1,1,1,1,1,1,1
7.8247,sweep,2,+up,0.06580,1.28042,1.67487,-0.13638,-0.05322,1.59628,-0.00782,-0.0024,0.1880,-0.0024,-0.0073,-0.0220,0.0073,-0.0073,-0.1573,-4.7795,10.0581,2.3468,-0.0220,-0.0904,-0.0366,1,1,1,1,1,1,1
7.8649,sweep,2,+up,0.06580,1.28042,1.67487,-0.13638,-0.05322,1.59628,-0.00782,-0.0024,0.1880,-0.0024,-0.0073,-0.0220,0.0073,-0.0073,-0.1573,-4.7795,10.0581,2.3468,-0.0220,-0.0904,-0.0366,1,1,1,1,1,1,1
7.9048,sweep,2,+up,0.06580,1.29606,1.67487,-0.13638,-0.05322,1.59628,-0.00782,-0.0024,0.1880,-0.0024,-0.0073,0.0073,-0.0073,-0.0073,-0.1436,-4.7932,10.1402,2.3370,-0.0122,-0.0904,-0.0366,1,1,1,1,1,1,1
7.9451,sweep,2,+up,0.06580,1.29606,1.67487,-0.13638,-0.05322,1.59628,-0.00782,-0.0024,0.1880,-0.0024,-0.0073,0.0073,-0.0073,-0.0073,-0.1436,-4.7932,10.1402,2.3370,-0.0122,-0.0904,-0.0366,1,1,1,1,1,1,1
7.9848,sweep,2,+up,0.06580,1.29606,1.67487,-0.13638,-0.05322,1.59628,-0.00782,-0.0024,0.1880,-0.0024,-0.0073,0.0073,-0.0073,-0.0073,-0.1436,-4.7932,10.1402,2.3370,-0.0122,-0.0904,-0.0366,1,1,1,1,1,1,1
8.0249,sweep,2,+up,0.06580,1.32048,1.67487,-0.13638,-0.05322,1.59628,-0.00744,-0.0073,0.1832,-0.0024,-0.0220,-0.0073,0.0073,-0.0220,-0.1436,-5.2034,10.3179,2.3419,-0.0122,-0.0757,-0.0366,1,1,1,1,1,1,1
8.0647,sweep,2,+up,0.06580,1.32048,1.67487,-0.13638,-0.05322,1.59628,-0.00744,-0.0073,0.1832,-0.0024,-0.0220,-0.0073,0.0073,-0.0220,-0.1436,-5.2034,10.3179,2.3419,-0.0122,-0.0757,-0.0366,1,1,1,1,1,1,1
8.1049,sweep,2,+up,0.06580,1.33688,1.67487,-0.13638,-0.05322,1.59628,-0.00782,0.0024,0.2271,-0.0024,-0.0073,-0.0073,-0.0220,-0.0073,-0.1299,-5.8051,10.4821,2.3516,-0.0073,-0.0757,-0.0366,1,1,1,1,1,1,1
8.1447,sweep,2,+up,0.06580,1.33688,1.67487,-0.13638,-0.05322,1.59628,-0.00782,0.0024,0.2271,-0.0024,-0.0073,-0.0073,-0.0220,-0.0073,-0.1299,-5.8051,10.4821,2.3516,-0.0073,-0.0757,-0.0366,1,1,1,1,1,1,1
8.1849,sweep,2,+up,0.06580,1.33688,1.67487,-0.13638,-0.05322,1.59628,-0.00782,0.0024,0.2271,-0.0024,-0.0073,-0.0073,-0.0220,-0.0073,-0.1299,-5.8051,10.4821,2.3516,-0.0073,-0.0757,-0.0366,1,1,1,1,1,1,1
8.2249,sweep,2,+up,0.06580,1.36091,1.67487,-0.13600,-0.05322,1.59628,-0.00782,-0.0024,0.2076,-0.0024,-0.0073,-0.0073,-0.0220,-0.0220,-0.1299,-5.9556,10.6735,2.3516,-0.0073,-0.0708,-0.0366,1,1,1,1,1,1,1
8.2651,sweep,2,+up,0.06580,1.36091,1.67487,-0.13600,-0.05322,1.59628,-0.00782,-0.0024,0.2076,-0.0024,-0.0073,-0.0073,-0.0220,-0.0220,-0.1299,-5.9556,10.6735,2.3516,-0.0073,-0.0708,-0.0366,1,1,1,1,1,1,1
8.3049,sweep,2,+up,0.06580,1.37732,1.67487,-0.13600,-0.05322,1.59628,-0.00782,-0.0024,0.2076,-0.0024,-0.0073,-0.0073,0.0073,-0.0073,-0.1162,-6.0650,10.7556,2.3516,-0.0024,-0.0708,-0.0415,1,1,1,1,1,1,1
8.3450,sweep,2,+up,0.06580,1.37732,1.67487,-0.13600,-0.05322,1.59628,-0.00782,-0.0024,0.2076,-0.0024,-0.0073,-0.0073,0.0073,-0.0073,-0.1162,-6.0650,10.7556,2.3516,-0.0024,-0.0708,-0.0415,1,1,1,1,1,1,1
8.3848,sweep,2,+up,0.06580,1.37732,1.67487,-0.13600,-0.05322,1.59628,-0.00782,-0.0024,0.2076,-0.0024,-0.0073,-0.0073,0.0073,-0.0073,-0.1162,-6.0650,10.7556,2.3516,-0.0024,-0.0708,-0.0415,1,1,1,1,1,1,1
8.4249,sweep,2,+up,0.06580,1.40135,1.67487,-0.13638,-0.05322,1.59628,-0.00782,-0.0024,0.2125,-0.0024,-0.0073,-0.0220,0.0073,-0.0073,-0.0889,-6.1197,10.9060,2.3516,0.0024,-0.0708,-0.0366,1,1,1,1,1,1,1
8.4652,sweep,2,+up,0.06580,1.40135,1.67487,-0.13638,-0.05322,1.59628,-0.00782,-0.0024,0.2125,-0.0024,-0.0073,-0.0220,0.0073,-0.0073,-0.0889,-6.1197,10.9060,2.3516,0.0024,-0.0708,-0.0366,1,1,1,1,1,1,1
8.5051,sweep,2,+up,0.06580,1.41775,1.67487,-0.13638,-0.05322,1.59628,-0.00782,-0.0073,0.2125,-0.0024,-0.0073,-0.0073,0.0073,-0.0073,-0.0889,-6.7624,10.9880,2.3468,0.0073,-0.0708,-0.0415,1,1,1,1,1,1,1
8.5448,sweep,2,+up,0.06580,1.41775,1.67487,-0.13638,-0.05322,1.59628,-0.00782,-0.0073,0.2125,-0.0024,-0.0073,-0.0073,0.0073,-0.0073,-0.0889,-6.7624,10.9880,2.3468,0.0073,-0.0708,-0.0415,1,1,1,1,1,1,1
8.5851,sweep,2,+up,0.06580,1.41775,1.67487,-0.13638,-0.05322,1.59628,-0.00782,-0.0073,0.2125,-0.0024,-0.0073,-0.0073,0.0073,-0.0073,-0.0889,-6.7624,10.9880,2.3468,0.0073,-0.0708,-0.0415,1,1,1,1,1,1,1
8.6248,sweep,2,+up,0.06580,1.44217,1.67487,-0.13600,-0.05322,1.59667,-0.00782,-0.0073,0.2076,-0.0073,0.0220,0.0073,0.0073,-0.0073,-0.0889,-7.1316,11.1385,2.3370,0.0171,-0.0659,-0.0464,1,1,1,1,1,1,1
8.6649,sweep,2,+up,0.06580,1.44217,1.67487,-0.13600,-0.05322,1.59667,-0.00782,-0.0073,0.2076,-0.0073,0.0220,0.0073,0.0073,-0.0073,-0.0889,-7.1316,11.1385,2.3370,0.0171,-0.0659,-0.0464,1,1,1,1,1,1,1
8.7050,sweep,2,+up,0.06580,1.45819,1.67487,-0.13600,-0.05322,1.59628,-0.00782,-0.0024,0.1832,0.0024,0.0073,-0.0073,-0.0073,-0.0220,-0.0752,-7.2137,11.1932,2.3272,0.0171,-0.0659,-0.0415,1,1,1,1,1,1,1
8.7449,sweep,2,+up,0.06580,1.45819,1.67487,-0.13600,-0.05322,1.59628,-0.00782,-0.0024,0.1832,0.0024,0.0073,-0.0073,-0.0073,-0.0220,-0.0752,-7.2137,11.1932,2.3272,0.0171,-0.0659,-0.0415,1,1,1,1,1,1,1
8.7847,sweep,2,+up,0.06580,1.45819,1.67487,-0.13600,-0.05322,1.59628,-0.00782,-0.0024,0.1832,0.0024,0.0073,-0.0073,-0.0073,-0.0220,-0.0752,-7.2137,11.1932,2.3272,0.0171,-0.0659,-0.0415,1,1,1,1,1,1,1
8.8252,sweep,2,+up,0.06580,1.48222,1.67487,-0.13600,-0.05322,1.59628,-0.00782,-0.0024,0.2076,-0.0024,-0.0073,0.0073,-0.0073,-0.0073,-0.0342,-7.4872,11.3299,2.3223,0.0171,-0.0659,-0.0415,1,1,1,1,1,1,1
8.8651,sweep,2,+up,0.06580,1.48222,1.67487,-0.13600,-0.05322,1.59628,-0.00782,-0.0024,0.2076,-0.0024,-0.0073,0.0073,-0.0073,-0.0073,-0.0342,-7.4872,11.3299,2.3223,0.0171,-0.0659,-0.0415,1,1,1,1,1,1,1
8.9051,sweep,2,+up,0.06580,1.49825,1.67487,-0.13638,-0.05322,1.59628,-0.00782,-0.0024,0.1978,-0.0024,-0.0220,-0.0220,-0.0073,-0.0073,-0.0205,-7.4735,11.3983,2.3468,0.0171,-0.0708,-0.0415,1,1,1,1,1,1,1
8.9450,sweep,2,+up,0.06580,1.49825,1.67487,-0.13638,-0.05322,1.59628,-0.00782,-0.0024,0.1978,-0.0024,-0.0220,-0.0220,-0.0073,-0.0073,-0.0205,-7.4735,11.3983,2.3468,0.0171,-0.0708,-0.0415,1,1,1,1,1,1,1
8.9849,sweep,2,+up,0.06580,1.49825,1.67487,-0.13638,-0.05322,1.59628,-0.00782,-0.0024,0.1978,-0.0024,-0.0220,-0.0220,-0.0073,-0.0073,-0.0205,-7.4735,11.3983,2.3468,0.0171,-0.0708,-0.0415,1,1,1,1,1,1,1
9.0249,sweep,2,+up,0.06580,1.52266,1.67487,-0.13638,-0.05322,1.59667,-0.00782,-0.0024,0.1929,-0.0073,0.0073,-0.0073,0.0073,-0.0073,-0.0205,-7.7060,11.5487,2.3370,0.0171,-0.0611,-0.0415,1,1,1,1,1,1,1
9.0653,sweep,2,+up,0.06580,1.52266,1.67487,-0.13638,-0.05322,1.59667,-0.00782,-0.0024,0.1929,-0.0073,0.0073,-0.0073,0.0073,-0.0073,-0.0205,-7.7060,11.5487,2.3370,0.0171,-0.0611,-0.0415,1,1,1,1,1,1,1
9.1048,sweep,2,+up,0.06580,1.53868,1.67525,-0.13638,-0.05322,1.59628,-0.00744,0.0024,0.2076,0.0024,-0.0220,-0.0073,-0.0073,-0.0073,-0.0205,-8.0342,11.6308,2.3419,0.0220,-0.0611,-0.0366,1,1,1,1,1,1,1
9.1449,sweep,2,+up,0.06580,1.53868,1.67525,-0.13638,-0.05322,1.59628,-0.00744,0.0024,0.2076,0.0024,-0.0220,-0.0073,-0.0073,-0.0073,-0.0205,-8.0342,11.6308,2.3419,0.0220,-0.0611,-0.0366,1,1,1,1,1,1,1
9.1849,sweep,2,+up,0.06580,1.53868,1.67525,-0.13638,-0.05322,1.59628,-0.00744,0.0024,0.2076,0.0024,-0.0220,-0.0073,-0.0073,-0.0073,-0.0205,-8.0342,11.6308,2.3419,0.0220,-0.0611,-0.0366,1,1,1,1,1,1,1
9.2249,sweep,2,+up,0.06580,1.56310,1.67525,-0.13638,-0.05322,1.59628,-0.00744,-0.0024,0.2027,-0.0024,-0.0073,-0.0073,-0.0220,-0.0073,-0.0068,-8.3624,11.7949,2.3516,0.0269,-0.0659,-0.0415,1,1,1,1,1,1,1
9.2647,sweep,2,+up,0.06580,1.56310,1.67525,-0.13638,-0.05322,1.59628,-0.00744,-0.0024,0.2027,-0.0024,-0.0073,-0.0073,-0.0220,-0.0073,-0.0068,-8.3624,11.7949,2.3516,0.0269,-0.0659,-0.0415,1,1,1,1,1,1,1
9.3048,sweep,2,+up,0.06580,1.57912,1.67525,-0.13638,-0.05322,1.59628,-0.00744,-0.0024,0.2076,-0.0024,0.0220,-0.0073,0.0073,0.0073,-0.0068,-8.2667,11.8769,2.3565,0.0269,-0.0659,-0.0415,1,1,1,1,1,1,1
9.3450,sweep,2,+up,0.06580,1.57912,1.67525,-0.13638,-0.05322,1.59628,-0.00744,-0.0024,0.2076,-0.0024,0.0220,-0.0073,0.0073,0.0073,-0.0068,-8.2667,11.8769,2.3565,0.0269,-0.0659,-0.0415,1,1,1,1,1,1,1
9.3853,sweep,2,+up,0.06580,1.57912,1.67525,-0.13638,-0.05322,1.59628,-0.00744,-0.0024,0.2076,-0.0024,0.0220,-0.0073,0.0073,0.0073,-0.0068,-8.2667,11.8769,2.3565,0.0269,-0.0659,-0.0415,1,1,1,1,1,1,1
9.4254,sweep,2,+up,0.06580,1.60353,1.67525,-0.13638,-0.05283,1.59667,-0.00744,-0.0024,0.2076,-0.0024,-0.0073,-0.0073,-0.0073,0.0073,-0.0068,-8.8547,11.9316,2.3565,0.0220,-0.0611,-0.0415,1,1,1,1,1,1,1
9.4649,sweep,2,+up,0.06580,1.60353,1.67525,-0.13638,-0.05283,1.59667,-0.00744,-0.0024,0.2076,-0.0024,-0.0073,-0.0073,-0.0073,0.0073,-0.0068,-8.8547,11.9316,2.3565,0.0220,-0.0611,-0.0415,1,1,1,1,1,1,1
9.5049,sweep,2,+up,0.06580,1.61955,1.67525,-0.13638,-0.05322,1.59628,-0.00782,-0.0024,0.2125,0.0073,0.0073,-0.0073,0.0073,-0.0220,-0.0068,-8.8957,11.9179,2.3468,0.0269,-0.0659,-0.0415,1,1,1,1,1,1,1
9.5448,sweep,2,+up,0.06580,1.61955,1.67525,-0.13638,-0.05322,1.59628,-0.00782,-0.0024,0.2125,0.0073,0.0073,-0.0073,0.0073,-0.0220,-0.0068,-8.8957,11.9179,2.3468,0.0269,-0.0659,-0.0415,1,1,1,1,1,1,1
9.5850,sweep,2,+up,0.06580,1.61955,1.67525,-0.13638,-0.05322,1.59628,-0.00782,-0.0024,0.2125,0.0073,0.0073,-0.0073,0.0073,-0.0220,-0.0068,-8.8957,11.9179,2.3468,0.0269,-0.0659,-0.0415,1,1,1,1,1,1,1
9.6249,sweep,2,+up,0.06580,1.64359,1.67525,-0.13638,-0.05283,1.59628,-0.00744,-0.0073,0.1832,-0.0024,0.0073,-0.0073,-0.0220,-0.0073,-0.0068,-9.0325,11.7812,2.3468,0.0220,-0.0611,-0.0415,1,1,1,1,1,1,1
9.6648,sweep,2,+up,0.06580,1.64359,1.67525,-0.13638,-0.05283,1.59628,-0.00744,-0.0073,0.1832,-0.0024,0.0073,-0.0073,-0.0220,-0.0073,-0.0068,-9.0325,11.7812,2.3468,0.0220,-0.0611,-0.0415,1,1,1,1,1,1,1
9.7054,sweep,2,+up,0.06580,1.65999,1.67525,-0.13600,-0.05322,1.59628,-0.00782,-0.0073,0.1832,-0.0024,0.0073,-0.0073,0.0073,-0.0220,-0.0205,-9.3060,11.8085,2.3370,0.0269,-0.0659,-0.0415,1,1,1,1,1,1,1
9.7454,sweep,2,+up,0.06580,1.65999,1.67525,-0.13600,-0.05322,1.59628,-0.00782,-0.0073,0.1832,-0.0024,0.0073,-0.0073,0.0073,-0.0220,-0.0205,-9.3060,11.8085,2.3370,0.0269,-0.0659,-0.0415,1,1,1,1,1,1,1
9.7848,sweep,2,+up,0.06580,1.65999,1.67525,-0.13600,-0.05322,1.59628,-0.00782,-0.0073,0.1832,-0.0024,0.0073,-0.0073,0.0073,-0.0220,-0.0205,-9.3060,11.8085,2.3370,0.0269,-0.0659,-0.0415,1,1,1,1,1,1,1
9.8252,sweep,2,+up,0.06580,1.68402,1.67563,-0.13600,-0.05322,1.59628,-0.00782,-0.0024,0.2173,0.0024,0.0073,-0.0073,-0.0073,-0.0220,-0.0068,-9.6205,11.7128,2.3175,0.0220,-0.0611,-0.0415,1,1,1,1,1,1,1
9.8652,sweep,2,+up,0.06580,1.68402,1.67563,-0.13600,-0.05322,1.59628,-0.00782,-0.0024,0.2173,0.0024,0.0073,-0.0073,-0.0073,-0.0220,-0.0068,-9.6205,11.7128,2.3175,0.0220,-0.0611,-0.0415,1,1,1,1,1,1,1
9.9050,sweep,2,+up,0.06580,1.70005,1.67563,-0.13600,-0.05322,1.59628,-0.00782,-0.0024,0.1880,-0.0024,-0.0220,-0.0073,-0.0073,-0.0220,-0.0068,-9.6205,11.6444,2.3223,0.0269,-0.0611,-0.0464,1,1,1,1,1,1,1
9.9450,sweep,2,+up,0.06580,1.70005,1.67563,-0.13600,-0.05322,1.59628,-0.00782,-0.0024,0.1880,-0.0024,-0.0220,-0.0073,-0.0073,-0.0220,-0.0068,-9.6205,11.6444,2.3223,0.0269,-0.0611,-0.0464,1,1,1,1,1,1,1
9.9850,sweep,2,+up,0.06580,1.70005,1.67563,-0.13600,-0.05322,1.59628,-0.00782,-0.0024,0.1880,-0.0024,-0.0220,-0.0073,-0.0073,-0.0220,-0.0068,-9.6205,11.6444,2.3223,0.0269,-0.0611,-0.0464,1,1,1,1,1,1,1
10.0248,sweep,2,+up,0.06580,1.72446,1.67563,-0.13600,-0.05322,1.59628,-0.00782,-0.0024,0.1832,-0.0024,-0.0073,-0.0073,-0.0073,0.0073,-0.0068,-9.8256,11.6034,2.3077,0.0317,-0.0562,-0.0464,1,1,1,1,1,1,1
10.0650,sweep,2,+up,0.06580,1.72446,1.67563,-0.13600,-0.05322,1.59628,-0.00782,-0.0024,0.1832,-0.0024,-0.0073,-0.0073,-0.0073,0.0073,-0.0068,-9.8256,11.6034,2.3077,0.0317,-0.0562,-0.0464,1,1,1,1,1,1,1
10.1048,sweep,2,+up,0.06580,1.74048,1.67563,-0.13600,-0.05283,1.59628,-0.00782,-0.0073,0.1929,-0.0073,-0.0073,0.0073,-0.0073,-0.0073,0.0068,-9.8530,11.6718,2.2833,0.0317,-0.0611,-0.0415,1,1,1,1,1,1,1
10.1452,sweep,2,+up,0.06580,1.74048,1.67563,-0.13600,-0.05283,1.59628,-0.00782,-0.0073,0.1929,-0.0073,-0.0073,0.0073,-0.0073,-0.0073,0.0068,-9.8530,11.6718,2.2833,0.0317,-0.0611,-0.0415,1,1,1,1,1,1,1
10.1850,sweep,2,+up,0.06580,1.74048,1.67563,-0.13600,-0.05283,1.59628,-0.00782,-0.0073,0.1929,-0.0073,-0.0073,0.0073,-0.0073,-0.0073,0.0068,-9.8530,11.6718,2.2833,0.0317,-0.0611,-0.0415,1,1,1,1,1,1,1
10.2247,sweep,2,+up,0.06580,1.76490,1.67563,-0.13600,-0.05322,1.59628,-0.00782,-0.0024,0.2076,-0.0024,0.0073,0.0073,-0.0073,-0.0073,0.0205,-10.7419,11.6444,2.2784,0.0317,-0.0611,-0.0366,1,1,1,1,1,1,1
10.2648,sweep,2,+up,0.06580,1.76490,1.67563,-0.13600,-0.05322,1.59628,-0.00782,-0.0024,0.2076,-0.0024,0.0073,0.0073,-0.0073,-0.0073,0.0205,-10.7419,11.6444,2.2784,0.0317,-0.0611,-0.0366,1,1,1,1,1,1,1
10.3050,sweep,2,+up,0.06580,1.78092,1.67563,-0.13600,-0.05283,1.59628,-0.00782,0.0024,0.1978,0.0024,-0.0220,0.0073,-0.0073,0.0073,0.0479,-10.6462,11.6308,2.2686,0.0269,-0.0611,-0.0415,1,1,1,1,1,1,1
10.3450,sweep,2,+up,0.06580,1.78092,1.67563,-0.13600,-0.05283,1.59628,-0.00782,0.0024,0.1978,0.0024,-0.0220,0.0073,-0.0073,0.0073,0.0479,-10.6462,11.6308,2.2686,0.0269,-0.0611,-0.0415,1,1,1,1,1,1,1
10.3849,sweep,2,+up,0.06580,1.78092,1.67563,-0.13600,-0.05283,1.59628,-0.00782,0.0024,0.1978,0.0024,-0.0220,0.0073,-0.0073,0.0073,0.0479,-10.6462,11.6308,2.2686,0.0269,-0.0611,-0.0415,1,1,1,1,1,1,1
10.4250,sweep,2,+up,0.06580,1.80495,1.67601,-0.13561,-0.05322,1.59628,-0.00744,-0.0024,0.1880,-0.0024,-0.0220,-0.0073,0.0073,-0.0073,0.0479,-10.4137,11.5624,2.2295,0.0317,-0.0659,-0.0464,1,1,1,1,1,1,1
10.4651,sweep,2,+up,0.06580,1.80495,1.67601,-0.13561,-0.05322,1.59628,-0.00744,-0.0024,0.1880,-0.0024,-0.0220,-0.0073,0.0073,-0.0073,0.0479,-10.4137,11.5624,2.2295,0.0317,-0.0659,-0.0464,1,1,1,1,1,1,1
10.5048,sweep,2,+up,0.06580,1.82097,1.67601,-0.13561,-0.05322,1.59628,-0.00744,-0.0073,0.2173,-0.0073,-0.0220,-0.0073,-0.0073,0.0073,0.0615,-10.6735,11.5624,2.2295,0.0269,-0.0708,-0.0415,1,1,1,1,1,1,1
10.5448,sweep,2,+up,0.06580,1.82097,1.67601,-0.13561,-0.05322,1.59628,-0.00744,-0.0073,0.2173,-0.0073,-0.0220,-0.0073,-0.0073,0.0073,0.0615,-10.6735,11.5624,2.2295,0.0269,-0.0708,-0.0415,1,1,1,1,1,1,1
10.5848,sweep,2,+up,0.06580,1.82097,1.67601,-0.13561,-0.05322,1.59628,-0.00744,-0.0073,0.2173,-0.0073,-0.0220,-0.0073,-0.0073,0.0073,0.0615,-10.6735,11.5624,2.2295,0.0269,-0.0708,-0.0415,1,1,1,1,1,1,1
10.6249,sweep,2,+up,0.06580,1.84501,1.67601,-0.13561,-0.05322,1.59628,-0.00744,-0.0024,0.1929,-0.0073,-0.0220,-0.0073,-0.0073,-0.0073,0.0752,-10.8239,11.5214,2.1954,0.0317,-0.0659,-0.0464,1,1,1,1,1,1,1
10.6651,sweep,2,+up,0.06580,1.84501,1.67601,-0.13561,-0.05322,1.59628,-0.00744,-0.0024,0.1929,-0.0073,-0.0220,-0.0073,-0.0073,-0.0073,0.0752,-10.8239,11.5214,2.1954,0.0317,-0.0659,-0.0464,1,1,1,1,1,1,1
10.7048,sweep,2,+up,0.06580,1.86179,1.67601,-0.13600,-0.05322,1.59628,-0.00744,-0.0024,0.2076,-0.0024,0.0073,-0.0220,-0.0220,0.0073,0.1026,-11.5077,11.5214,2.1856,0.0317,-0.0659,-0.0464,1,1,1,1,1,1,1
10.7448,sweep,2,+up,0.06580,1.86179,1.67601,-0.13600,-0.05322,1.59628,-0.00744,-0.0024,0.2076,-0.0024,0.0073,-0.0220,-0.0220,0.0073,0.1026,-11.5077,11.5214,2.1856,0.0317,-0.0659,-0.0464,1,1,1,1,1,1,1
10.7849,sweep,2,+up,0.06580,1.86179,1.67601,-0.13600,-0.05322,1.59628,-0.00744,-0.0024,0.2076,-0.0024,0.0073,-0.0220,-0.0220,0.0073,0.1026,-11.5077,11.5214,2.1856,0.0317,-0.0659,-0.0464,1,1,1,1,1,1,1
10.8248,sweep,2,+up,0.06580,1.88506,1.67601,-0.13561,-0.05283,1.59628,-0.00744,-0.0024,0.1832,-0.0073,-0.0073,-0.0073,-0.0073,0.0073,0.1026,-10.7692,11.3573,2.1514,0.0415,-0.0611,-0.0415,1,1,1,1,1,1,1
10.8651,sweep,2,+up,0.06580,1.88506,1.67601,-0.13561,-0.05283,1.59628,-0.00744,-0.0024,0.1832,-0.0073,-0.0073,-0.0073,-0.0073,0.0073,0.1026,-10.7692,11.3573,2.1514,0.0415,-0.0611,-0.0415,1,1,1,1,1,1,1
10.9049,sweep,2,+up,0.06580,1.90948,1.67601,-0.13600,-0.05322,1.59628,-0.00744,-0.0024,0.1929,-0.0024,-0.0220,0.0073,-0.0220,-0.0073,0.1026,-11.8906,11.3709,2.1465,0.0464,-0.0659,-0.0415,1,1,1,1,1,1,1
10.9453,sweep,2,+up,0.06580,1.90948,1.67601,-0.13600,-0.05322,1.59628,-0.00744,-0.0024,0.1929,-0.0024,-0.0220,0.0073,-0.0220,-0.0073,0.1026,-11.8906,11.3709,2.1465,0.0464,-0.0659,-0.0415,1,1,1,1,1,1,1
10.9849,sweep,2,+up,0.06580,1.90948,1.67601,-0.13600,-0.05322,1.59628,-0.00744,-0.0024,0.1929,-0.0024,-0.0220,0.0073,-0.0220,-0.0073,0.1026,-11.8906,11.3709,2.1465,0.0464,-0.0659,-0.0415,1,1,1,1,1,1,1
11.0249,sweep,2,+up,0.06580,1.92588,1.67601,-0.13600,-0.05322,1.59628,-0.00744,-0.0024,0.2369,-0.0024,-0.0073,-0.0220,-0.0220,-0.0073,0.1162,-11.5761,11.3573,2.1465,0.0464,-0.0659,-0.0415,1,1,1,1,1,1,1
11.0648,sweep,2,+up,0.06580,1.92588,1.67601,-0.13600,-0.05322,1.59628,-0.00744,-0.0024,0.2369,-0.0024,-0.0073,-0.0220,-0.0220,-0.0073,0.1162,-11.5761,11.3573,2.1465,0.0464,-0.0659,-0.0415,1,1,1,1,1,1,1
11.1047,sweep,2,+up,0.06580,1.94915,1.67601,-0.13561,-0.05322,1.59628,-0.00744,-0.0024,0.1783,0.0024,0.0073,-0.0073,-0.0220,-0.0073,0.1162,-11.3709,11.2342,2.1026,0.0464,-0.0562,-0.0464,1,1,1,1,1,1,1
11.1448,sweep,2,+up,0.06580,1.94915,1.67601,-0.13561,-0.05322,1.59628,-0.00744,-0.0024,0.1783,0.0024,0.0073,-0.0073,-0.0220,-0.0073,0.1162,-11.3709,11.2342,2.1026,0.0464,-0.0562,-0.0464,1,1,1,1,1,1,1
11.1848,sweep,2,+up,0.06580,1.94915,1.67601,-0.13561,-0.05322,1.59628,-0.00744,-0.0024,0.1783,0.0024,0.0073,-0.0073,-0.0220,-0.0073,0.1162,-11.3709,11.2342,2.1026,0.0464,-0.0562,-0.0464,1,1,1,1,1,1,1
11.2252,sweep,2,+up,0.06580,1.96555,1.67601,-0.13561,-0.05322,1.59628,-0.00744,0.0024,0.1978,0.0024,-0.0220,-0.0073,-0.0366,0.0073,0.1299,-11.4803,11.0838,2.0586,0.0513,-0.0562,-0.0464,1,1,1,1,1,1,1
11.2650,sweep,2,+up,0.06580,1.96555,1.67601,-0.13561,-0.05322,1.59628,-0.00744,0.0024,0.1978,0.0024,-0.0220,-0.0073,-0.0366,0.0073,0.1299,-11.4803,11.0838,2.0586,0.0513,-0.0562,-0.0464,1,1,1,1,1,1,1
11.3055,sweep,2,+up,0.06580,1.98196,1.67601,-0.13561,-0.05322,1.59628,-0.00782,0.0024,0.1832,-0.0073,-0.0220,-0.0220,-0.0220,-0.0073,0.1573,-11.9316,11.0017,2.0488,0.0513,-0.0562,-0.0513,1,1,1,1,1,1,1
11.3450,sweep,2,+up,0.06580,1.98196,1.67601,-0.13561,-0.05322,1.59628,-0.00782,0.0024,0.1832,-0.0073,-0.0220,-0.0220,-0.0220,-0.0073,0.1573,-11.9316,11.0017,2.0488,0.0513,-0.0562,-0.0513,1,1,1,1,1,1,1
11.3852,sweep,2,+up,0.06580,1.98196,1.67601,-0.13561,-0.05322,1.59628,-0.00782,0.0024,0.1832,-0.0073,-0.0220,-0.0220,-0.0220,-0.0073,0.1573,-11.9316,11.0017,2.0488,0.0513,-0.0562,-0.0513,1,1,1,1,1,1,1
11.4249,sweep,2,+up,0.06580,2.00599,1.67601,-0.13561,-0.05322,1.59628,-0.00782,-0.0024,0.2222,-0.0024,0.0073,-0.0220,-0.0073,-0.0220,0.1299,-11.8906,10.8786,2.0244,0.0513,-0.0513,-0.0464,1,1,1,1,1,1,1
11.4648,sweep,2,+up,0.06580,2.00599,1.67601,-0.13561,-0.05322,1.59628,-0.00782,-0.0024,0.2222,-0.0024,0.0073,-0.0220,-0.0073,-0.0220,0.1299,-11.8906,10.8786,2.0244,0.0513,-0.0513,-0.0464,1,1,1,1,1,1,1
11.5048,sweep,2,+up,0.06580,2.03002,1.67639,-0.13561,-0.05322,1.59628,-0.00782,-0.0024,0.2076,-0.0024,-0.0220,-0.0073,-0.0073,-0.0220,0.1436,-12.2735,10.6598,1.9951,0.0464,-0.0464,-0.0464,1,1,1,1,1,1,1
11.5449,sweep,2,+up,0.06580,2.03002,1.67639,-0.13561,-0.05322,1.59628,-0.00782,-0.0024,0.2076,-0.0024,-0.0220,-0.0073,-0.0073,-0.0220,0.1436,-12.2735,10.6598,1.9951,0.0464,-0.0464,-0.0464,1,1,1,1,1,1,1
11.5851,sweep,2,+up,0.06580,2.03002,1.67639,-0.13561,-0.05322,1.59628,-0.00782,-0.0024,0.2076,-0.0024,-0.0220,-0.0073,-0.0073,-0.0220,0.1436,-12.2735,10.6598,1.9951,0.0464,-0.0464,-0.0464,1,1,1,1,1,1,1
11.6252,sweep,2,+up,0.06580,2.04643,1.67639,-0.13523,-0.05283,1.59628,-0.00782,-0.0073,0.1880,-0.0024,-0.0073,0.0073,-0.0073,-0.0220,0.1573,-12.1504,10.5641,1.9560,0.0513,-0.0415,-0.0464,1,1,1,1,1,1,1
11.6650,sweep,2,+up,0.06580,2.04643,1.67639,-0.13523,-0.05283,1.59628,-0.00782,-0.0073,0.1880,-0.0024,-0.0073,0.0073,-0.0073,-0.0220,0.1573,-12.1504,10.5641,1.9560,0.0513,-0.0415,-0.0464,1,1,1,1,1,1,1
11.7052,sweep,2,+up,0.06580,2.06931,1.67639,-0.13523,-0.05322,1.59628,-0.00782,-0.0024,0.1734,0.0024,-0.0073,0.0073,-0.0073,-0.0073,0.1709,-11.0427,10.1812,1.8926,0.0562,-0.0415,-0.0464,1,1,1,1,1,1,1
11.7451,sweep,2,+up,0.06580,2.06931,1.67639,-0.13523,-0.05322,1.59628,-0.00782,-0.0024,0.1734,0.0024,-0.0073,0.0073,-0.0073,-0.0073,0.1709,-11.0427,10.1812,1.8926,0.0562,-0.0415,-0.0464,1,1,1,1,1,1,1
11.7851,sweep,2,+up,0.06580,2.06931,1.67639,-0.13523,-0.05322,1.59628,-0.00782,-0.0024,0.1734,0.0024,-0.0073,0.0073,-0.0073,-0.0073,0.1709,-11.0427,10.1812,1.8926,0.0562,-0.0415,-0.0464,1,1,1,1,1,1,1
11.8249,sweep,2,+up,0.06580,2.08610,1.67639,-0.13485,-0.05322,1.59628,-0.00782,-0.0024,0.1734,-0.0024,0.0220,-0.0073,-0.0073,-0.0073,0.1709,-11.6034,9.9214,1.8486,0.0611,-0.0415,-0.0464,1,1,1,1,1,1,1
11.8649,sweep,2,+up,0.06580,2.08610,1.67639,-0.13485,-0.05322,1.59628,-0.00782,-0.0024,0.1734,-0.0024,0.0220,-0.0073,-0.0073,-0.0073,0.1709,-11.6034,9.9214,1.8486,0.0611,-0.0415,-0.0464,1,1,1,1,1,1,1
11.9049,sweep,2,+up,0.06580,2.08610,1.67639,-0.13523,-0.05322,1.59628,-0.00782,-0.0024,0.1734,-0.0024,-0.0220,-0.0073,-0.0073,-0.0220,0.1709,-11.6034,9.9214,1.8193,0.0611,-0.0366,-0.0415,1,1,1,1,1,1,1
11.9449,sweep,2,+up,0.06580,2.11013,1.67639,-0.13523,-0.05322,1.59628,-0.00782,-0.0024,0.2027,-0.0024,-0.0220,-0.0073,-0.0073,-0.0220,0.1846,-12.0821,9.7299,1.8193,0.0611,-0.0366,-0.0415,1,1,1,1,1,1,1
11.9849,sweep,2,+up,0.06580,2.11013,1.67639,-0.13523,-0.05322,1.59628,-0.00782,-0.0024,0.2027,-0.0024,-0.0220,-0.0073,-0.0073,-0.0220,0.1846,-12.0821,9.7299,1.8193,0.0611,-0.0366,-0.0415,1,1,1,1,1,1,1
12.0249,sweep,2,+up,0.06580,2.12577,1.67639,-0.13485,-0.05322,1.59628,-0.00782,-0.0024,0.1978,-0.0024,0.0073,-0.0073,-0.0220,-0.0073,0.1983,-11.6034,9.6205,1.7558,0.0562,-0.0317,-0.0464,1,1,1,1,1,1,1
12.0648,sweep,2,+up,0.06580,2.12577,1.67639,-0.13485,-0.05322,1.59628,-0.00782,-0.0024,0.1978,-0.0024,0.0073,-0.0073,-0.0220,-0.0073,0.1983,-11.6034,9.6205,1.7558,0.0562,-0.0317,-0.0464,1,1,1,1,1,1,1
12.1050,sweep,2,+up,0.06580,2.12577,1.67639,-0.13485,-0.05322,1.59628,-0.00782,-0.0024,0.1978,-0.0024,0.0073,-0.0220,-0.0073,-0.0073,0.1983,-11.6034,9.6205,1.7558,0.0611,-0.0317,-0.0464,1,1,1,1,1,1,1
12.1448,sweep,2,+up,0.06580,2.14981,1.67639,-0.13523,-0.05322,1.59628,-0.00782,-0.0024,0.1880,-0.0024,0.0073,-0.0220,-0.0073,-0.0073,0.1983,-11.3846,9.3744,1.7363,0.0611,-0.0317,-0.0464,1,1,1,1,1,1,1
12.1849,sweep,2,+up,0.06580,2.14981,1.67639,-0.13523,-0.05322,1.59628,-0.00782,-0.0024,0.1880,-0.0024,0.0073,-0.0220,-0.0073,-0.0073,0.1983,-11.3846,9.3744,1.7363,0.0611,-0.0317,-0.0464,1,1,1,1,1,1,1
12.2249,sweep,2,+up,0.06580,2.16545,1.67639,-0.13523,-0.05322,1.59628,-0.00744,0.0024,0.1734,-0.0024,-0.0073,-0.0073,0.0073,-0.0073,0.1846,-11.1795,9.1966,1.6972,0.0659,-0.0317,-0.0415,1,1,1,1,1,1,1
12.2649,sweep,2,+up,0.06580,2.16545,1.67639,-0.13523,-0.05322,1.59628,-0.00744,0.0024,0.1734,-0.0024,-0.0073,-0.0073,0.0073,-0.0073,0.1846,-11.1795,9.1966,1.6972,0.0659,-0.0317,-0.0415,1,1,1,1,1,1,1
12.3049,sweep,2,+up,0.06580,2.16545,1.67639,-0.13523,-0.05322,1.59628,-0.00744,0.0024,0.1734,-0.0024,-0.0073,-0.0073,0.0073,-0.0073,0.1846,-11.1795,9.1966,1.6972,0.0659,-0.0317,-0.0415,1,1,1,1,1,1,1
12.3448,sweep,2,+up,0.06580,2.18910,1.67678,-0.13485,-0.05322,1.59628,-0.00782,-0.0024,0.1978,-0.0024,0.0073,-0.0220,0.0073,0.0073,0.1436,-10.6325,8.7179,1.6044,0.0806,-0.0269,-0.0464,1,1,1,1,1,1,1
12.3849,sweep,2,+up,0.06580,2.18910,1.67678,-0.13485,-0.05322,1.59628,-0.00782,-0.0024,0.1978,-0.0024,0.0073,-0.0220,0.0073,0.0073,0.1436,-10.6325,8.7179,1.6044,0.0806,-0.0269,-0.0464,1,1,1,1,1,1,1
12.4249,sweep,2,+up,0.06619,2.20436,1.67716,-0.13485,-0.05283,1.59590,-0.00744,-0.0024,0.1978,0.0073,0.0073,0.0220,-0.0220,-0.0073,0.1436,-9.9624,8.3350,1.5556,0.0806,-0.0220,-0.0415,1,1,1,1,1,1,1
12.4652,sweep,2,+up,0.06619,2.20436,1.67716,-0.13485,-0.05283,1.59590,-0.00744,-0.0024,0.1978,0.0073,0.0073,0.0220,-0.0220,-0.0073,0.1436,-9.9624,8.3350,1.5556,0.0806,-0.0220,-0.0415,1,1,1,1,1,1,1
12.5048,sweep,2,+up,0.06619,2.20436,1.67716,-0.13485,-0.05283,1.59590,-0.00744,-0.0024,0.1978,0.0073,0.0073,0.0220,-0.0220,-0.0073,0.1436,-9.9624,8.3350,1.5556,0.0806,-0.0220,-0.0415,1,1,1,1,1,1,1
12.5448,sweep,2,+up,0.06619,2.22877,1.67754,-0.13523,-0.05322,1.59590,-0.00782,-0.0024,0.1929,0.0024,0.0073,-0.0220,-0.0220,-0.0073,0.1026,-10.1265,7.3915,1.5067,0.0855,-0.0024,-0.0366,1,1,1,1,1,1,1
12.5850,sweep,2,+up,0.06619,2.22877,1.67754,-0.13523,-0.05322,1.59590,-0.00782,-0.0024,0.1929,0.0024,0.0073,-0.0220,-0.0220,-0.0073,0.1026,-10.1265,7.3915,1.5067,0.0855,-0.0024,-0.0366,1,1,1,1,1,1,1
12.6251,sweep,2,+up,0.06619,2.24212,1.67868,-0.13066,-0.05283,1.59552,-0.00782,-0.0024,0.1587,0.0171,0.1392,-0.0073,-0.0659,-0.0220,0.0615,-6.8444,5.4769,1.0965,0.0659,0.0171,-0.0366,1,1,1,1,1,1,1
12.6651,sweep,2,+up,0.06619,2.24212,1.67868,-0.13066,-0.05283,1.59552,-0.00782,-0.0024,0.1587,0.0171,0.1392,-0.0073,-0.0659,-0.0220,0.0615,-6.8444,5.4769,1.0965,0.0659,0.0171,-0.0366,1,1,1,1,1,1,1
12.7051,sweep,2,+up,0.06619,2.24212,1.67868,-0.13066,-0.05283,1.59552,-0.00782,-0.0024,0.1587,0.0171,0.1392,-0.0073,-0.0659,-0.0220,0.0615,-6.8444,5.4769,1.0965,0.0659,0.0171,-0.0366,1,1,1,1,1,1,1
12.7451,sweep,2,+up,0.06619,2.26272,1.68021,-0.12531,-0.05398,1.59590,-0.00744,-0.0073,0.1636,0.0024,0.0366,0.0073,-0.0073,-0.0073,0.0889,-2.1265,2.5778,0.2271,0.1685,0.0171,-0.0415,1,1,1,1,1,1,1
12.7850,sweep,2,+up,0.06619,2.26272,1.68021,-0.12531,-0.05398,1.59590,-0.00744,-0.0073,0.1636,0.0024,0.0366,0.0073,-0.0073,-0.0073,0.0889,-2.1265,2.5778,0.2271,0.1685,0.0171,-0.0415,1,1,1,1,1,1,1
12.8250,sweep,2,+up,0.06619,2.27684,1.68059,-0.12531,-0.05398,1.59590,-0.00744,-0.0073,0.1685,0.0024,-0.0073,-0.0073,-0.0220,0.0073,0.0889,-0.1846,1.5385,-0.0073,0.2125,0.0171,-0.0464,1,1,1,1,1,1,1
12.8647,sweep,2,+up,0.06619,2.27684,1.68059,-0.12531,-0.05398,1.59590,-0.00744,-0.0073,0.1685,0.0024,-0.0073,-0.0073,-0.0220,0.0073,0.0889,-0.1846,1.5385,-0.0073,0.2125,0.0171,-0.0464,1,1,1,1,1,1,1
12.9049,sweep,2,+up,0.06619,2.27684,1.68059,-0.12531,-0.05398,1.59590,-0.00744,-0.0073,0.1685,0.0024,-0.0073,-0.0073,-0.0220,0.0073,0.0889,-0.1846,1.5385,-0.0073,0.2125,0.0171,-0.0464,1,1,1,1,1,1,1
12.9449,sweep,2,+up,0.06619,2.29973,1.68059,-0.12837,-0.05436,1.59628,-0.00744,-0.0024,0.2222,-0.0024,-0.1245,-0.0073,0.0073,0.0073,0.1026,0.4581,0.4581,-0.1197,0.2711,0.0269,-0.0464,1,1,1,1,1,1,1
12.9850,sweep,2,+up,0.06619,2.29973,1.68059,-0.12837,-0.05436,1.59628,-0.00744,-0.0024,0.2222,-0.0024,-0.1245,-0.0073,0.0073,0.0073,0.1026,0.4581,0.4581,-0.1197,0.2711,0.0269,-0.0464,1,1,1,1,1,1,1
13.0249,sweep,2,+up,0.06619,2.31498,1.68059,-0.13142,-0.05398,1.59628,-0.00744,-0.0024,0.1832,-0.0073,-0.0513,-0.0073,0.0073,-0.0073,0.0889,1.1556,0.1846,-0.1245,0.2906,0.0220,-0.0464,1,1,1,1,1,1,1
13.0649,sweep,2,+up,0.06619,2.31498,1.68059,-0.13142,-0.05398,1.59628,-0.00744,-0.0024,0.1832,-0.0073,-0.0513,-0.0073,0.0073,-0.0073,0.0889,1.1556,0.1846,-0.1245,0.2906,0.0220,-0.0464,1,1,1,1,1,1,1
13.1049,sweep,2,+up,0.06619,2.31498,1.68059,-0.13142,-0.05398,1.59628,-0.00744,-0.0024,0.1832,-0.0073,-0.0513,-0.0073,0.0073,-0.0073,0.0889,1.1556,0.1846,-0.1245,0.2906,0.0220,-0.0464,1,1,1,1,1,1,1
13.1448,sweep,2,+up,0.06619,2.33864,1.68059,-0.13333,-0.05398,1.59628,-0.00744,-0.0024,0.2027,-0.0024,-0.0073,0.0073,-0.0073,0.0073,0.0889,1.3744,-0.1299,-0.1148,0.3346,0.0220,-0.0464,1,1,1,1,1,1,1
13.1851,sweep,2,+up,0.06619,2.33864,1.68059,-0.13333,-0.05398,1.59628,-0.00744,-0.0024,0.2027,-0.0024,-0.0073,0.0073,-0.0073,0.0073,0.0889,1.3744,-0.1299,-0.1148,0.3346,0.0220,-0.0464,1,1,1,1,1,1,1
13.2249,sweep,2,+up,0.06619,2.35313,1.68021,-0.13409,-0.05398,1.59628,-0.00744,0.0024,0.1636,-0.0073,-0.0220,-0.0073,0.0073,-0.0220,0.0889,3.3299,-0.3350,-0.1392,0.3736,0.0269,-0.0513,1,1,1,1,1,1,1
13.2649,sweep,2,+up,0.06619,2.35313,1.68021,-0.13409,-0.05398,1.59628,-0.00744,0.0024,0.1636,-0.0073,-0.0220,-0.0073,0.0073,-0.0220,0.0889,3.3299,-0.3350,-0.1392,0.3736,0.0269,-0.0513,1,1,1,1,1,1,1
13.3050,sweep,2,+up,0.06619,2.35313,1.68021,-0.13409,-0.05398,1.59628,-0.00744,0.0024,0.1636,-0.0073,-0.0220,-0.0073,0.0073,-0.0220,0.0889,3.3299,-0.3350,-0.1392,0.3736,0.0269,-0.0513,1,1,1,1,1,1,1
13.3450,sweep,2,+up,0.06619,2.37449,1.67945,-0.13867,-0.05360,1.59628,-0.00744,-0.0024,0.1636,-0.0073,-0.1538,-0.0073,-0.0073,-0.0220,0.0752,4.4239,-0.3214,0.0024,0.3736,0.0317,-0.0513,1,1,1,1,1,1,1
13.3851,sweep,2,+up,0.06619,2.37449,1.67945,-0.13867,-0.05360,1.59628,-0.00744,-0.0024,0.1636,-0.0073,-0.1538,-0.0073,-0.0073,-0.0220,0.0752,4.4239,-0.3214,0.0024,0.3736,0.0317,-0.0513,1,1,1,1,1,1,1
13.4248,sweep,2,+up,0.06619,2.38785,1.67945,-0.14401,-0.05360,1.59667,-0.00744,-0.0024,0.1245,-0.0024,-0.0220,-0.0220,0.0073,-0.0220,0.0615,4.1504,-0.7453,0.4664,0.3932,0.0220,-0.0464,1,1,1,1,1,1,1
13.4650,sweep,2,+up,0.06619,2.38785,1.67945,-0.14401,-0.05360,1.59667,-0.00744,-0.0024,0.1245,-0.0024,-0.0220,-0.0220,0.0073,-0.0220,0.0615,4.1504,-0.7453,0.4664,0.3932,0.0220,-0.0464,1,1,1,1,1,1,1
13.5051,sweep,2,+up,0.06619,2.38785,1.67945,-0.14401,-0.05360,1.59667,-0.00744,-0.0024,0.1245,-0.0024,-0.0220,-0.0220,0.0073,-0.0220,0.0615,4.1504,-0.7453,0.4664,0.3932,0.0220,-0.0464,1,1,1,1,1,1,1
13.5449,sweep,2,+up,0.06619,2.40196,1.67945,-0.14363,-0.05322,1.59667,-0.00744,0.0024,0.1099,-0.0024,-0.0073,-0.0073,-0.0220,-0.0073,0.0615,7.6239,-1.3060,0.8034,0.4029,0.0220,-0.0464,1,1,1,1,1,1,1
13.5850,sweep,2,+up,0.06619,2.40196,1.67945,-0.14363,-0.05322,1.59667,-0.00744,0.0024,0.1099,-0.0024,-0.0073,-0.0073,-0.0220,-0.0073,0.0615,7.6239,-1.3060,0.8034,0.4029,0.0220,-0.0464,1,1,1,1,1,1,1
13.6248,sweep,2,+up,0.06619,2.41074,1.67945,-0.14324,-0.05360,1.59667,-0.00744,-0.0024,0.1099,-0.0024,-0.0073,-0.0073,-0.0073,-0.0073,0.0615,9.3880,-1.9350,1.0183,0.4420,0.0171,-0.0513,1,1,1,1,1,1,1
13.6649,sweep,2,+up,0.06619,2.41074,1.67945,-0.14324,-0.05360,1.59667,-0.00744,-0.0024,0.1099,-0.0024,-0.0073,-0.0073,-0.0073,-0.0073,0.0615,9.3880,-1.9350,1.0183,0.4420,0.0171,-0.0513,1,1,1,1,1,1,1
13.7051,sweep,2,+up,0.06619,2.41074,1.67945,-0.14324,-0.05360,1.59667,-0.00744,-0.0024,0.1099,-0.0024,-0.0073,-0.0073,-0.0073,-0.0073,0.0615,9.3880,-1.9350,1.0183,0.4420,0.0171,-0.0513,1,1,1,1,1,1,1
13.7449,sweep,2,+up,0.06619,2.42180,1.67945,-0.14134,-0.05360,1.59667,-0.00744,0.0024,0.0855,0.0024,0.0073,0.0073,0.0073,-0.0073,0.0479,12.7385,-2.6325,1.2137,0.4469,0.0024,-0.0464,1,1,1,1,1,1,1
13.7848,sweep,2,+up,0.06619,2.42180,1.67945,-0.14134,-0.05360,1.59667,-0.00744,0.0024,0.0855,0.0024,0.0073,0.0073,0.0073,-0.0073,0.0479,12.7385,-2.6325,1.2137,0.4469,0.0024,-0.0464,1,1,1,1,1,1,1
13.8249,sweep,2,+up,0.06619,2.42866,1.67945,-0.14095,-0.05322,1.59667,-0.00744,0.0024,0.0855,-0.0024,0.0073,0.0220,-0.0073,0.0073,0.0479,14.3248,-3.1385,1.3260,0.4615,0.0024,-0.0513,1,1,1,1,1,1,1
13.8649,sweep,2,+up,0.06619,2.42866,1.67945,-0.14095,-0.05322,1.59667,-0.00744,0.0024,0.0855,-0.0024,0.0073,0.0220,-0.0073,0.0073,0.0479,14.3248,-3.1385,1.3260,0.4615,0.0024,-0.0513,1,1,1,1,1,1,1
13.9048,sweep,2,+up,0.06619,2.42866,1.67945,-0.14095,-0.05322,1.59667,-0.00744,0.0024,0.0855,-0.0024,0.0073,0.0220,-0.0073,0.0073,0.0479,14.3248,-3.1385,1.3260,0.4615,0.0024,-0.0513,1,1,1,1,1,1,1
13.9447,sweep,2,+up,0.06619,2.43668,1.67945,-0.14019,-0.05322,1.59705,-0.00744,-0.0024,0.0220,-0.0073,-0.0073,-0.0220,-0.0220,-0.0073,0.0479,17.8256,-3.9179,1.5214,0.4664,-0.0073,-0.0562,1,1,1,1,1,1,1
13.9849,sweep,2,+up,0.06619,2.43668,1.67945,-0.14019,-0.05322,1.59705,-0.00744,-0.0024,0.0220,-0.0073,-0.0073,-0.0220,-0.0220,-0.0073,0.0479,17.8256,-3.9179,1.5214,0.4664,-0.0073,-0.0562,1,1,1,1,1,1,1
14.0248,sweep,2,+up,0.06580,2.44240,1.67945,-0.13981,-0.05360,1.59705,-0.00744,-0.0073,0.1050,0.0024,-0.0220,-0.0073,-0.0073,-0.0220,0.0342,19.0838,-4.4650,1.6239,0.4860,-0.0171,-0.0562,1,1,1,1,1,1,1
14.0649,sweep,2,+up,0.06580,2.44240,1.67945,-0.13981,-0.05360,1.59705,-0.00744,-0.0073,0.1050,0.0024,-0.0220,-0.0073,-0.0073,-0.0220,0.0342,19.0838,-4.4650,1.6239,0.4860,-0.0171,-0.0562,1,1,1,1,1,1,1
14.1047,sweep,2,+up,0.06580,2.44240,1.67945,-0.13981,-0.05360,1.59705,-0.00744,-0.0073,0.1050,0.0024,-0.0220,-0.0073,-0.0073,-0.0220,0.0342,19.0838,-4.4650,1.6239,0.4860,-0.0171,-0.0562,1,1,1,1,1,1,1
14.1447,sweep,2,+up,0.06619,2.44965,1.67945,-0.13867,-0.05322,1.59667,-0.00744,-0.0073,0.0562,-0.0024,0.0073,-0.0220,-0.0073,0.0073,0.0342,21.0120,-5.2034,1.7021,0.4713,-0.0220,-0.0562,1,1,1,1,1,1,1
14.1850,sweep,2,+up,0.06619,2.44965,1.67945,-0.13867,-0.05322,1.59667,-0.00744,-0.0073,0.0562,-0.0024,0.0073,-0.0220,-0.0073,0.0073,0.0342,21.0120,-5.2034,1.7021,0.4713,-0.0220,-0.0562,1,1,1,1,1,1,1
