peipl15/reBot_Arm/outputs/gravity_calib_20260630_162607.csv
t_s,phase,swept_joint,direction,q1,q2,q3,q4,q5,q6,q7,v1,v2,v3,v4,v5,v6,v7,tau1,tau2,tau3,tau4,tau5,tau6,tau7,st1,st2,st3,st4,st5,st6,st7
0.0026,approach,5,to_lo,0.24281,1.10800,0.82837,-0.50641,0.19055,0.18368,-0.00324,-0.0024,-0.0024,-0.0073,0.0073,-0.0073,-0.0073,-0.0220,0.0615,0.0342,0.5265,-0.0024,-0.0024,-0.0122,-0.0122,1,1,1,1,1,1,1
0.0423,approach,5,to_lo,0.24281,1.10800,0.82837,-0.50641,0.19055,0.18368,-0.00324,-0.0024,-0.0024,-0.0073,0.0073,-0.0073,-0.0073,-0.0220,0.0615,0.0342,0.5265,-0.0024,-0.0024,-0.0122,-0.0122,1,1,1,1,1,1,1
0.0825,approach,5,to_lo,0.24281,1.10800,0.82837,-0.50641,0.19055,0.18368,-0.00324,-0.0024,-0.0024,-0.0073,0.0073,-0.0073,-0.0073,-0.0220,0.0615,0.0342,0.5265,-0.0024,-0.0024,-0.0122,-0.0122,1,1,1,1,1,1,1
0.1226,approach,5,to_lo,0.24281,1.11181,0.82341,-0.52434,0.17987,0.18368,-0.00324,-0.0024,0.0024,0.0024,0.0806,-0.1392,-0.0073,-0.0220,0.4581,-4.6701,7.9111,1.8339,-0.0317,-0.0171,-0.0073,1,1,1,1,1,1,1
0.1624,approach,5,to_lo,0.24281,1.11181,0.82341,-0.52434,0.17987,0.18368,-0.00324,-0.0024,0.0024,0.0024,0.0806,-0.1392,-0.0073,-0.0220,0.4581,-4.6701,7.9111,1.8339,-0.0317,-0.0171,-0.0073,1,1,1,1,1,1,1
0.2025,approach,5,to_lo,0.24281,1.11143,0.82341,-0.51518,0.16957,0.18368,-0.00324,0.0024,-0.0024,-0.0024,0.0952,-0.1099,0.0220,-0.0220,0.4444,-5.1214,8.6632,1.5116,-0.0757,-0.0220,-0.0122,1,1,1,1,1,1,1
0.2425,approach,5,to_lo,0.24281,1.11143,0.82341,-0.51518,0.16957,0.18368,-0.00324,0.0024,-0.0024,-0.0024,0.0952,-0.1099,0.0220,-0.0220,0.4444,-5.1214,8.6632,1.5116,-0.0757,-0.0220,-0.0122,1,1,1,1,1,1,1
0.2825,approach,5,to_lo,0.24281,1.11143,0.82341,-0.51518,0.16957,0.18368,-0.00324,0.0024,-0.0024,-0.0024,0.0952,-0.1099,0.0220,-0.0220,0.4444,-5.1214,8.6632,1.5116,-0.0757,-0.0220,-0.0122,1,1,1,1,1,1,1
0.3224,approach,5,to_lo,0.24281,1.11143,0.82380,-0.51251,0.15125,0.18368,-0.00324,-0.0024,-0.0073,-0.0024,0.0513,-0.1245,-0.0073,-0.0073,0.4308,-5.4906,9.9214,1.6679,-0.0562,-0.0366,-0.0122,1,1,1,1,1,1,1
0.3623,approach,5,to_lo,0.24281,1.11143,0.82380,-0.51251,0.15125,0.18368,-0.00324,-0.0024,-0.0073,-0.0024,0.0513,-0.1245,-0.0073,-0.0073,0.4308,-5.4906,9.9214,1.6679,-0.0562,-0.0366,-0.0122,1,1,1,1,1,1,1
0.4023,approach,5,to_lo,0.24281,1.11028,0.82380,-0.51099,0.13905,0.18368,-0.00324,-0.0024,-0.0122,0.0024,-0.0073,-0.2125,0.0220,-0.0073,0.3761,-4.7248,10.3863,1.6777,-0.0513,-0.0366,-0.0073,1,1,1,1,1,1,1
0.4425,approach,5,to_lo,0.24281,1.11028,0.82380,-0.51099,0.13905,0.18368,-0.00324,-0.0024,-0.0122,0.0024,-0.0073,-0.2125,0.0220,-0.0073,0.3761,-4.7248,10.3863,1.6777,-0.0513,-0.0366,-0.0073,1,1,1,1,1,1,1
0.4825,approach,5,to_lo,0.24281,1.11028,0.82380,-0.51099,0.13905,0.18368,-0.00324,-0.0024,-0.0122,0.0024,-0.0073,-0.2125,0.0220,-0.0073,0.3761,-4.7248,10.3863,1.6777,-0.0513,-0.0366,-0.0073,1,1,1,1,1,1,1
0.5226,approach,5,to_lo,0.24281,1.11028,0.82418,-0.51060,0.12188,0.18368,-0.00324,0.0024,-0.0073,-0.0024,-0.0073,-0.1392,0.0073,-0.0073,0.3350,-4.9573,11.1111,1.7949,-0.0806,-0.0415,-0.0122,1,1,1,1,1,1,1
0.5624,approach,5,to_lo,0.24281,1.11028,0.82418,-0.51060,0.12188,0.18368,-0.00324,0.0024,-0.0073,-0.0024,-0.0073,-0.1392,0.0073,-0.0073,0.3350,-4.9573,11.1111,1.7949,-0.0806,-0.0415,-0.0122,1,1,1,1,1,1,1
0.6042,approach,5,to_lo,0.24281,1.10990,0.82494,-0.50984,0.11006,0.18330,-0.00324,-0.0073,-0.0073,0.0073,0.0220,-0.1245,-0.0220,-0.0220,0.3077,-5.0940,10.8650,1.8291,-0.0757,-0.0415,-0.0171,1,1,1,1,1,1,1
0.6426,approach,5,to_lo,0.24281,1.10990,0.82494,-0.50984,0.11006,0.18330,-0.00324,-0.0073,-0.0073,0.0073,0.0220,-0.1245,-0.0220,-0.0220,0.3077,-5.0940,10.8650,1.8291,-0.0757,-0.0415,-0.0171,1,1,1,1,1,1,1
0.6823,approach,5,to_lo,0.24281,1.10990,0.82494,-0.50984,0.11006,0.18330,-0.00324,-0.0073,-0.0073,0.0073,0.0220,-0.1245,-0.0220,-0.0220,0.3077,-5.0940,10.8650,1.8291,-0.0757,-0.0415,-0.0171,1,1,1,1,1,1,1
0.7222,approach,5,to_lo,0.24281,1.10990,0.82570,-0.50755,0.09213,0.18330,-0.00324,-0.0024,-0.0024,0.0024,-0.0073,-0.1538,-0.0220,-0.0073,0.2803,-5.2581,10.7282,1.7363,-0.0757,-0.0464,-0.0122,1,1,1,1,1,1,1
0.7625,approach,5,to_lo,0.24281,1.10990,0.82570,-0.50755,0.09213,0.18330,-0.00324,-0.0024,-0.0024,0.0024,-0.0073,-0.1538,-0.0220,-0.0073,0.2803,-5.2581,10.7282,1.7363,-0.0757,-0.0464,-0.0122,1,1,1,1,1,1,1
0.8023,approach,5,to_lo,0.24281,1.10990,0.82570,-0.50717,0.07992,0.18330,-0.00324,-0.0024,-0.0073,-0.0024,-0.0220,-0.1685,-0.0220,0.0073,0.2530,-5.5453,11.1248,1.7021,-0.0659,-0.0464,-0.0171,1,1,1,1,1,1,1
0.8428,approach,5,to_lo,0.24281,1.10990,0.82570,-0.50717,0.07992,0.18330,-0.00324,-0.0024,-0.0073,-0.0024,-0.0220,-0.1685,-0.0220,0.0073,0.2530,-5.5453,11.1248,1.7021,-0.0659,-0.0464,-0.0171,1,1,1,1,1,1,1
0.8824,approach,5,to_lo,0.24281,1.10990,0.82570,-0.50717,0.07992,0.18330,-0.00324,-0.0024,-0.0073,-0.0024,-0.0220,-0.1685,-0.0220,0.0073,0.2530,-5.5453,11.1248,1.7021,-0.0659,-0.0464,-0.0171,1,1,1,1,1,1,1
0.9226,approach,5,to_lo,0.24281,1.10952,0.82609,-0.50717,0.06313,0.18330,-0.00324,-0.0024,-0.0073,0.0024,0.0073,-0.1685,-0.0073,-0.0073,0.2667,-5.5590,11.1111,1.6874,-0.1245,-0.0513,-0.0171,1,1,1,1,1,1,1
0.9623,approach,5,to_lo,0.24281,1.10952,0.82609,-0.50717,0.06313,0.18330,-0.00324,-0.0024,-0.0073,0.0024,0.0073,-0.1685,-0.0073,-0.0073,0.2667,-5.5590,11.1111,1.6874,-0.1245,-0.0513,-0.0171,1,1,1,1,1,1,1
1.0024,approach,5,to_lo,0.24281,1.10952,0.82723,-0.50717,0.04635,0.18330,-0.00324,-0.0024,-0.0073,0.0024,-0.0220,-0.0952,-0.0220,-0.0073,0.2667,-5.5590,10.4410,1.6825,-0.1832,-0.0562,-0.0220,1,1,1,1,1,1,1
1.0423,approach,5,to_lo,0.24281,1.10914,0.82723,-0.50717,0.04635,0.18330,-0.00324,0.0024,-0.0024,0.0024,-0.0220,-0.0952,-0.0220,-0.0073,0.2667,-5.1761,10.4410,1.6825,-0.1832,-0.0562,-0.0220,1,1,1,1,1,1,1
1.0825,approach,5,to_lo,0.24281,1.10914,0.82723,-0.50717,0.04635,0.18330,-0.00324,0.0024,-0.0024,0.0024,-0.0220,-0.0952,-0.0220,-0.0073,0.2667,-5.1761,10.4410,1.6825,-0.1832,-0.0562,-0.0220,1,1,1,1,1,1,1
1.1225,approach,5,to_lo,0.24281,1.10876,0.82761,-0.50717,0.03262,0.18330,-0.00324,-0.0024,-0.0024,0.0024,-0.0220,-0.2564,0.0073,-0.0073,0.2667,-5.2308,10.3179,1.6728,-0.0952,-0.0562,-0.0220,1,1,1,1,1,1,1
1.1625,approach,5,to_lo,0.24281,1.10876,0.82761,-0.50717,0.03262,0.18330,-0.00324,-0.0024,-0.0024,0.0024,-0.0220,-0.2564,0.0073,-0.0073,0.2667,-5.2308,10.3179,1.6728,-0.0952,-0.0562,-0.0220,1,1,1,1,1,1,1
1.2038,approach,5,to_lo,0.24281,1.10876,0.82761,-0.50717,0.01507,0.18330,-0.00324,-0.0024,-0.0024,0.0024,-0.0220,-0.1978,0.0220,-0.0073,0.2667,-5.2308,10.3179,1.6728,-0.1001,-0.0611,-0.0220,1,1,1,1,1,1,1
1.2423,approach,5,to_lo,0.24281,1.10876,0.82761,-0.50717,0.01507,0.18330,-0.00324,-0.0073,-0.0073,0.0024,-0.0073,-0.1978,0.0220,-0.0073,0.2803,-5.3675,10.5231,1.6728,-0.1001,-0.0611,-0.0220,1,1,1,1,1,1,1
1.2822,approach,5,to_lo,0.24281,1.10876,0.82761,-0.50717,0.01507,0.18330,-0.00324,-0.0073,-0.0073,0.0024,-0.0073,-0.1978,0.0220,-0.0073,0.2803,-5.3675,10.5231,1.6728,-0.1001,-0.0611,-0.0220,1,1,1,1,1,1,1
1.3223,approach,5,to_lo,0.24281,1.10876,0.82761,-0.50717,0.00401,0.18330,-0.00324,-0.0024,-0.0024,0.0024,-0.0073,-0.0952,0.0220,-0.0073,0.2667,-5.2991,10.6598,1.6581,-0.1783,-0.0611,-0.0220,1,1,1,1,1,1,1
1.3626,approach,5,to_lo,0.24281,1.10876,0.82761,-0.50717,0.00401,0.18330,-0.00324,-0.0024,-0.0024,0.0024,-0.0073,-0.0952,0.0220,-0.0073,0.2667,-5.2991,10.6598,1.6581,-0.1783,-0.0611,-0.0220,1,1,1,1,1,1,1
1.4026,approach,5,to_lo,0.24281,1.10876,0.82761,-0.50717,0.00401,0.18292,-0.00324,-0.0024,-0.0024,0.0024,-0.0073,-0.0952,-0.0220,-0.0073,0.2667,-5.2991,10.6598,1.6581,-0.1783,-0.0562,-0.0220,1,1,1,1,1,1,1
1.4423,approach,5,to_lo,0.24281,1.10876,0.82799,-0.50717,-0.01354,0.18292,-0.00324,-0.0073,-0.0024,-0.0073,0.0073,-0.0952,-0.0220,-0.0073,0.2256,-5.2991,10.7829,1.6679,-0.1978,-0.0562,-0.0220,1,1,1,1,1,1,1
1.4825,approach,5,to_lo,0.24281,1.10876,0.82799,-0.50717,-0.01354,0.18292,-0.00324,-0.0073,-0.0024,-0.0073,0.0073,-0.0952,-0.0220,-0.0073,0.2256,-5.2991,10.7829,1.6679,-0.1978,-0.0562,-0.0220,1,1,1,1,1,1,1
1.5224,approach,5,to_lo,0.24281,1.10838,0.82799,-0.50717,-0.02651,0.18330,-0.00324,-0.0024,-0.0024,-0.0024,-0.0073,-0.2418,0.0073,-0.0220,0.2393,-5.2718,10.8923,1.6581,-0.1392,-0.0611,-0.0317,1,1,1,1,1,1,1
1.5624,approach,5,to_lo,0.24281,1.10838,0.82799,-0.50717,-0.02651,0.18330,-0.00324,-0.0024,-0.0024,-0.0024,-0.0073,-0.2418,0.0073,-0.0220,0.2393,-5.2718,10.8923,1.6581,-0.1392,-0.0611,-0.0317,1,1,1,1,1,1,1
1.6024,approach,5,to_lo,0.24281,1.10838,0.82799,-0.50717,-0.02651,0.18330,-0.00324,-0.0024,-0.0024,-0.0024,-0.0073,-0.2418,0.0073,-0.0220,0.2393,-5.2718,10.8923,1.6581,-0.1392,-0.0611,-0.0317,1,1,1,1,1,1,1
1.6423,approach,5,to_lo,0.24281,1.10838,0.82837,-0.50717,-0.04406,0.18292,-0.00324,-0.0073,-0.0073,0.0024,-0.0073,-0.2125,-0.0073,-0.0073,0.2393,-5.0803,10.6462,1.6484,-0.1685,-0.0513,-0.0269,1,1,1,1,1,1,1
1.6825,approach,5,to_lo,0.24281,1.10838,0.82837,-0.50717,-0.04406,0.18292,-0.00324,-0.0073,-0.0073,0.0024,-0.0073,-0.2125,-0.0073,-0.0073,0.2393,-5.0803,10.6462,1.6484,-0.1685,-0.0513,-0.0269,1,1,1,1,1,1,1
1.7227,approach,5,to_lo,0.24281,1.10800,0.82876,-0.50717,-0.05589,0.18330,-0.00324,-0.0024,-0.0073,-0.0024,-0.0073,-0.1245,0.0073,0.0073,0.2393,-5.0393,10.4684,1.6484,-0.1880,-0.0562,-0.0269,1,1,1,1,1,1,1
1.7625,approach,5,to_lo,0.24281,1.10800,0.82876,-0.50717,-0.05589,0.18330,-0.00324,-0.0024,-0.0073,-0.0024,-0.0073,-0.1245,0.0073,0.0073,0.2393,-5.0393,10.4684,1.6484,-0.1880,-0.0562,-0.0269,1,1,1,1,1,1,1
1.8025,approach,5,to_lo,0.24281,1.10800,0.82876,-0.50717,-0.05589,0.18330,-0.00324,-0.0024,-0.0073,-0.0024,-0.0073,-0.1245,0.0073,0.0073,0.2393,-5.0393,10.4684,1.6484,-0.1880,-0.0562,-0.0269,1,1,1,1,1,1,1
1.8425,approach,5,to_lo,0.24281,1.10800,0.82876,-0.50717,-0.07420,0.18292,-0.00324,-0.0024,-0.0073,-0.0024,-0.0073,-0.1978,-0.0220,0.0073,0.2256,-5.0803,10.5231,1.6337,-0.1490,-0.0513,-0.0269,1,1,1,1,1,1,1
1.8824,approach,5,to_lo,0.24281,1.10800,0.82876,-0.50717,-0.07420,0.18292,-0.00324,-0.0024,-0.0073,-0.0024,-0.0073,-0.1978,-0.0220,0.0073,0.2256,-5.0803,10.5231,1.6337,-0.1490,-0.0513,-0.0269,1,1,1,1,1,1,1
1.9226,approach,5,to_lo,0.24281,1.10800,0.82876,-0.50717,-0.08488,0.18330,-0.00324,-0.0024,-0.0073,-0.0024,-0.0073,-0.1245,0.0073,-0.0073,0.2256,-5.0940,10.5915,1.6386,-0.2466,-0.0513,-0.0317,1,1,1,1,1,1,1
1.9623,approach,5,to_lo,0.24281,1.10800,0.82876,-0.50717,-0.08488,0.18330,-0.00324,-0.0024,-0.0073,-0.0024,-0.0073,-0.1245,0.0073,-0.0073,0.2256,-5.0940,10.5915,1.6386,-0.2466,-0.0513,-0.0317,1,1,1,1,1,1,1
2.0025,approach,5,to_lo,0.24281,1.10800,0.82876,-0.50717,-0.08488,0.18330,-0.00324,-0.0024,-0.0073,-0.0024,-0.0073,-0.1245,0.0073,-0.0073,0.2256,-5.0940,10.5915,1.6386,-0.2466,-0.0513,-0.0317,1,1,1,1,1,1,1
2.0424,approach,5,to_lo,0.24281,1.10800,0.82876,-0.50717,-0.10357,0.18330,-0.00324,-0.0073,-0.0024,0.0024,0.0073,-0.1685,0.0073,-0.0073,0.2120,-5.0940,10.5915,1.6337,-0.1880,-0.0513,-0.0220,1,1,1,1,1,1,1
2.0824,approach,5,to_lo,0.24281,1.10800,0.82876,-0.50717,-0.10357,0.18330,-0.00324,-0.0073,-0.0024,0.0024,0.0073,-0.1685,0.0073,-0.0073,0.2120,-5.0940,10.5915,1.6337,-0.1880,-0.0513,-0.0220,1,1,1,1,1,1,1
2.1224,approach,5,to_lo,0.24281,1.10800,0.82876,-0.50717,-0.11502,0.18292,-0.00324,0.0024,-0.0024,-0.0024,-0.0073,-0.1392,-0.0073,0.0073,0.2120,-5.1077,10.5778,1.6288,-0.2369,-0.0464,-0.0220,1,1,1,1,1,1,1
2.1623,approach,5,to_lo,0.24281,1.10800,0.82876,-0.50717,-0.11502,0.18292,-0.00324,0.0024,-0.0024,-0.0024,-0.0073,-0.1392,-0.0073,0.0073,0.2120,-5.1077,10.5778,1.6288,-0.2369,-0.0464,-0.0220,1,1,1,1,1,1,1
2.2024,approach,5,to_lo,0.24281,1.10800,0.82876,-0.50717,-0.11502,0.18292,-0.00324,0.0024,-0.0024,-0.0024,-0.0073,-0.1392,-0.0073,0.0073,0.2120,-5.1077,10.5778,1.6288,-0.2369,-0.0464,-0.0220,1,1,1,1,1,1,1
2.2424,approach,5,to_lo,0.24281,1.10800,0.82914,-0.50717,-0.13333,0.18292,-0.00362,-0.0024,-0.0073,0.0024,-0.0073,-0.1685,-0.0073,-0.0073,0.1846,-5.1487,10.5641,1.6288,-0.2076,-0.0415,-0.0269,1,1,1,1,1,1,1
2.2822,approach,5,to_lo,0.24281,1.10800,0.82914,-0.50717,-0.13333,0.18292,-0.00362,-0.0024,-0.0073,0.0024,-0.0073,-0.1685,-0.0073,-0.0073,0.1846,-5.1487,10.5641,1.6288,-0.2076,-0.0415,-0.0269,1,1,1,1,1,1,1
2.3226,approach,5,to_lo,0.24281,1.10800,0.82914,-0.50717,-0.14439,0.18292,-0.00324,-0.0024,-0.0024,-0.0024,-0.0220,-0.1099,-0.0073,-0.0073,0.1846,-5.1350,10.5368,1.6190,-0.2662,-0.0513,-0.0269,1,1,1,1,1,1,1
2.3625,approach,5,to_lo,0.24281,1.10800,0.82914,-0.50717,-0.14439,0.18292,-0.00324,-0.0024,-0.0024,-0.0024,-0.0220,-0.1099,-0.0073,-0.0073,0.1846,-5.1350,10.5368,1.6190,-0.2662,-0.0513,-0.0269,1,1,1,1,1,1,1
2.4023,approach,5,to_lo,0.24281,1.10800,0.82914,-0.50717,-0.14439,0.18292,-0.00324,-0.0024,-0.0024,-0.0024,-0.0220,-0.1099,-0.0073,-0.0073,0.1846,-5.1350,10.5368,1.6190,-0.2662,-0.0513,-0.0269,1,1,1,1,1,1,1
2.4427,approach,5,to_lo,0.24281,1.10800,0.82914,-0.50717,-0.16270,0.18292,-0.00324,-0.0024,-0.0024,-0.0024,-0.0073,-0.1099,-0.0073,0.0073,0.1983,-5.2034,10.5231,1.6142,-0.2466,-0.0513,-0.0269,1,1,1,1,1,1,1
2.4823,approach,5,to_lo,0.24281,1.10800,0.82914,-0.50717,-0.16270,0.18292,-0.00324,-0.0024,-0.0024,-0.0024,-0.0073,-0.1099,-0.0073,0.0073,0.1983,-5.2034,10.5231,1.6142,-0.2466,-0.0513,-0.0269,1,1,1,1,1,1,1
2.5222,approach,5,to_lo,0.24281,1.10800,0.82914,-0.50717,-0.17414,0.18292,-0.00362,-0.0024,-0.0024,-0.0024,-0.0220,-0.2125,-0.0073,-0.0073,0.1983,-5.2171,10.5094,1.6142,-0.2955,-0.0562,-0.0317,1,1,1,1,1,1,1
2.5625,approach,5,to_lo,0.24281,1.10800,0.82914,-0.50717,-0.17414,0.18292,-0.00362,-0.0024,-0.0024,-0.0024,-0.0220,-0.2125,-0.0073,-0.0073,0.1983,-5.2171,10.5094,1.6142,-0.2955,-0.0562,-0.0317,1,1,1,1,1,1,1
2.6028,approach,5,to_lo,0.24281,1.10800,0.82914,-0.50717,-0.17414,0.18292,-0.00362,-0.0024,-0.0024,-0.0024,-0.0220,-0.2125,-0.0073,-0.0073,0.1983,-5.2171,10.5094,1.6142,-0.2955,-0.0562,-0.0317,1,1,1,1,1,1,1
2.6424,approach,5,to_lo,0.24281,1.10800,0.82914,-0.50717,-0.19245,0.18292,-0.00324,0.0024,-0.0024,-0.0024,-0.0073,-0.1831,-0.0220,-0.0073,0.1983,-5.1624,10.4684,1.6093,-0.2564,-0.0513,-0.0269,1,1,1,1,1,1,1
2.6823,approach,5,to_lo,0.24281,1.10800,0.82914,-0.50717,-0.19245,0.18292,-0.00324,0.0024,-0.0024,-0.0024,-0.0073,-0.1831,-0.0220,-0.0073,0.1983,-5.1624,10.4684,1.6093,-0.2564,-0.0513,-0.0269,1,1,1,1,1,1,1
2.7224,approach,5,to_lo,0.24281,1.10800,0.82914,-0.50717,-0.20466,0.18330,-0.00324,-0.0024,-0.0073,-0.0024,-0.0220,-0.1392,-0.0073,-0.0073,0.1846,-5.1487,10.4957,1.6093,-0.2466,-0.0562,-0.0269,1,1,1,1,1,1,1
2.7626,approach,5,to_lo,0.24281,1.10800,0.82914,-0.50717,-0.20466,0.18330,-0.00324,-0.0024,-0.0073,-0.0024,-0.0220,-0.1392,-0.0073,-0.0073,0.1846,-5.1487,10.4957,1.6093,-0.2466,-0.0562,-0.0269,1,1,1,1,1,1,1
2.8023,approach,5,to_lo,0.24281,1.10800,0.82914,-0.50717,-0.20466,0.18330,-0.00324,-0.0024,-0.0073,-0.0024,-0.0220,-0.1392,-0.0073,-0.0073,0.1846,-5.1487,10.4957,1.6093,-0.2466,-0.0562,-0.0269,1,1,1,1,1,1,1
2.8426,approach,5,to_lo,0.24281,1.10800,0.82914,-0.50717,-0.22259,0.18292,-0.00324,-0.0024,-0.0024,-0.0024,-0.0073,-0.1245,-0.0220,-0.0073,0.1846,-5.1214,10.4410,1.6093,-0.2711,-0.0513,-0.0317,1,1,1,1,1,1,1
2.8825,approach,5,to_lo,0.24281,1.10800,0.82914,-0.50717,-0.22259,0.18292,-0.00324,-0.0024,-0.0024,-0.0024,-0.0073,-0.1245,-0.0220,-0.0073,0.1846,-5.1214,10.4410,1.6093,-0.2711,-0.0513,-0.0317,1,1,1,1,1,1,1
2.9224,approach,5,to_lo,0.24281,1.10800,0.82914,-0.50717,-0.23404,0.18330,-0.00324,-0.0024,-0.0024,-0.0024,0.0073,-0.1538,-0.0073,-0.0073,0.1846,-5.2034,10.4273,1.6142,-0.3199,-0.0562,-0.0317,1,1,1,1,1,1,1
2.9625,approach,5,to_lo,0.24281,1.10800,0.82914,-0.50717,-0.23404,0.18330,-0.00324,-0.0024,-0.0024,-0.0024,0.0073,-0.1538,-0.0073,-0.0073,0.1846,-5.2034,10.4273,1.6142,-0.3199,-0.0562,-0.0317,1,1,1,1,1,1,1
3.0025,approach,5,to_lo,0.24281,1.10800,0.82914,-0.50717,-0.23404,0.18330,-0.00324,-0.0024,-0.0024,-0.0024,0.0073,-0.1538,-0.0073,-0.0073,0.1846,-5.2034,10.4273,1.6142,-0.3199,-0.0562,-0.0317,1,1,1,1,1,1,1
3.0424,approach,5,to_lo,0.24281,1.10800,0.82914,-0.50717,-0.25196,0.18330,-0.00324,-0.0024,-0.0024,-0.0024,0.0073,-0.1978,-0.0073,-0.0073,0.1709,-5.2308,10.4273,1.6093,-0.3004,-0.0562,-0.0366,1,1,1,1,1,1,1
3.0824,approach,5,to_lo,0.24281,1.10800,0.82914,-0.50717,-0.25196,0.18330,-0.00324,-0.0024,-0.0024,-0.0024,0.0073,-0.1978,-0.0073,-0.0073,0.1709,-5.2308,10.4273,1.6093,-0.3004,-0.0562,-0.0366,1,1,1,1,1,1,1
3.1224,approach,5,to_lo,0.24281,1.10800,0.82914,-0.50717,-0.26417,0.18292,-0.00362,-0.0024,-0.0073,-0.0024,-0.0073,-0.1392,0.0073,-0.0073,0.1846,-5.2581,10.3863,1.6142,-0.2906,-0.0611,-0.0366,1,1,1,1,1,1,1
3.1626,approach,5,to_lo,0.24281,1.10800,0.82914,-0.50717,-0.26417,0.18292,-0.00362,-0.0024,-0.0073,-0.0024,-0.0073,-0.1392,0.0073,-0.0073,0.1846,-5.2581,10.3863,1.6142,-0.2906,-0.0611,-0.0366,1,1,1,1,1,1,1
3.2024,approach,5,to_lo,0.24281,1.10800,0.82914,-0.50717,-0.26417,0.18292,-0.00362,-0.0024,-0.0073,-0.0024,-0.0073,-0.1392,0.0073,-0.0073,0.1846,-5.2581,10.3863,1.6142,-0.2906,-0.0611,-0.0366,1,1,1,1,1,1,1
3.2424,approach,5,to_lo,0.24281,1.10800,0.82914,-0.50717,-0.28248,0.18292,-0.00324,-0.0024,-0.0024,-0.0073,-0.0073,-0.1831,-0.0220,-0.0073,0.1573,-5.2581,10.3863,1.6093,-0.2369,-0.0562,-0.0366,1,1,1,1,1,1,1
3.2823,approach,5,to_lo,0.24281,1.10800,0.82914,-0.50717,-0.28248,0.18292,-0.00324,-0.0024,-0.0024,-0.0073,-0.0073,-0.1831,-0.0220,-0.0073,0.1573,-5.2581,10.3863,1.6093,-0.2369,-0.0562,-0.0366,1,1,1,1,1,1,1
3.3223,approach,5,to_lo,0.24281,1.10800,0.82914,-0.50717,-0.29278,0.18292,-0.00324,-0.0073,-0.0073,-0.0024,-0.0073,-0.1245,-0.0073,-0.0073,0.1709,-5.2581,10.4000,1.5995,-0.3785,-0.0611,-0.0366,1,1,1,1,1,1,1
3.3624,approach,5,to_lo,0.24281,1.10800,0.82914,-0.50717,-0.29278,0.18292,-0.00324,-0.0073,-0.0073,-0.0024,-0.0073,-0.1245,-0.0073,-0.0073,0.1709,-5.2581,10.4000,1.5995,-0.3785,-0.0611,-0.0366,1,1,1,1,1,1,1
3.4022,approach,5,to_lo,0.24281,1.10800,0.82914,-0.50717,-0.29278,0.18292,-0.00324,-0.0073,-0.0073,-0.0024,-0.0073,-0.1245,-0.0073,-0.0073,0.1709,-5.2581,10.4000,1.5995,-0.3785,-0.0611,-0.0366,1,1,1,1,1,1,1
3.4426,approach,5,to_lo,0.24281,1.10800,0.82914,-0.50717,-0.31109,0.18292,-0.00324,-0.0024,-0.0073,-0.0024,-0.0220,-0.1392,-0.0220,-0.0073,0.1573,-5.2581,10.3590,1.6093,-0.3687,-0.0611,-0.0317,1,1,1,1,1,1,1
3.4824,approach,5,to_lo,0.24281,1.10800,0.82914,-0.50717,-0.31109,0.18292,-0.00324,-0.0024,-0.0073,-0.0024,-0.0220,-0.1392,-0.0220,-0.0073,0.1573,-5.2581,10.3590,1.6093,-0.3687,-0.0611,-0.0317,1,1,1,1,1,1,1
3.5225,approach,5,to_lo,0.24281,1.10800,0.82914,-0.50717,-0.32368,0.18292,-0.00324,-0.0024,0.0024,-0.0024,-0.0073,-0.1978,-0.0220,-0.0220,0.1573,-5.2581,10.3453,1.5995,-0.3346,-0.0611,-0.0317,1,1,1,1,1,1,1
3.5625,approach,5,to_lo,0.24281,1.10800,0.82914,-0.50717,-0.32368,0.18292,-0.00324,-0.0024,0.0024,-0.0024,-0.0073,-0.1978,-0.0220,-0.0220,0.1573,-5.2581,10.3453,1.5995,-0.3346,-0.0611,-0.0317,1,1,1,1,1,1,1
3.6024,approach,5,to_lo,0.24281,1.10800,0.82914,-0.50717,-0.32368,0.18292,-0.00324,-0.0024,0.0024,-0.0024,-0.0073,-0.1978,-0.0220,-0.0220,0.1573,-5.2581,10.3453,1.5995,-0.3346,-0.0611,-0.0317,1,1,1,1,1,1,1
3.6424,approach,5,to_lo,0.24281,1.10800,0.82914,-0.50717,-0.34199,0.18292,-0.00324,-0.0024,-0.0073,-0.0024,0.0073,-0.2125,-0.0220,0.0073,0.1573,-5.2991,10.3453,1.6093,-0.2662,-0.0611,-0.0366,1,1,1,1,1,1,1
3.6825,approach,5,to_lo,0.24281,1.10800,0.82914,-0.50717,-0.34199,0.18292,-0.00324,-0.0024,-0.0073,-0.0024,0.0073,-0.2125,-0.0220,0.0073,0.1573,-5.2991,10.3453,1.6093,-0.2662,-0.0611,-0.0366,1,1,1,1,1,1,1
3.7225,approach,5,to_lo,0.24281,1.10800,0.82914,-0.50755,-0.35267,0.18292,-0.00324,-0.0024,-0.0024,-0.0073,-0.0220,-0.1685,-0.0220,-0.0073,0.1709,-5.2855,10.3590,1.5995,-0.4029,-0.0611,-0.0366,1,1,1,1,1,1,1
3.7625,approach,5,to_lo,0.24281,1.10800,0.82914,-0.50755,-0.35267,0.18292,-0.00324,-0.0024,-0.0024,-0.0073,-0.0220,-0.1685,-0.0220,-0.0073,0.1709,-5.2855,10.3590,1.5995,-0.4029,-0.0611,-0.0366,1,1,1,1,1,1,1
3.8022,approach,5,to_lo,0.24281,1.10800,0.82914,-0.50755,-0.35267,0.18292,-0.00324,-0.0024,-0.0024,-0.0073,-0.0220,-0.1685,-0.0220,-0.0073,0.1709,-5.2855,10.3590,1.5995,-0.4029,-0.0611,-0.0366,1,1,1,1,1,1,1
3.8424,approach,5,to_lo,0.24281,1.10800,0.82914,-0.50717,-0.37099,0.18330,-0.00362,-0.0024,-0.0024,-0.0024,0.0073,-0.1099,-0.0366,-0.0220,0.1709,-5.3128,10.3179,1.6142,-0.3590,-0.0659,-0.0366,1,1,1,1,1,1,1
3.8826,approach,5,to_lo,0.24281,1.10800,0.82914,-0.50717,-0.37099,0.18330,-0.00362,-0.0024,-0.0024,-0.0024,0.0073,-0.1099,-0.0366,-0.0220,0.1709,-5.3128,10.3179,1.6142,-0.3590,-0.0659,-0.0366,1,1,1,1,1,1,1
3.9225,approach,5,to_lo,0.24281,1.10800,0.82914,-0.50755,-0.38205,0.18292,-0.00362,-0.0024,-0.0024,0.0024,-0.0073,-0.1685,-0.0073,0.0073,0.1436,-5.3402,10.3316,1.6142,-0.4322,-0.0611,-0.0317,1,1,1,1,1,1,1
3.9625,approach,5,to_lo,0.24281,1.10800,0.82914,-0.50755,-0.38205,0.18292,-0.00362,-0.0024,-0.0024,0.0024,-0.0073,-0.1685,-0.0073,0.0073,0.1436,-5.3402,10.3316,1.6142,-0.4322,-0.0611,-0.0317,1,1,1,1,1,1,1
4.0026,approach,5,to_lo,0.24281,1.10800,0.82914,-0.50755,-0.38205,0.18292,-0.00362,-0.0024,-0.0024,0.0024,-0.0073,-0.1685,-0.0073,0.0073,0.1436,-5.3402,10.3316,1.6142,-0.4322,-0.0611,-0.0317,1,1,1,1,1,1,1
4.0426,approach,5,to_lo,0.24281,1.10800,0.82914,-0.50717,-0.40112,0.18330,-0.00324,-0.0024,-0.0024,-0.0024,-0.0073,-0.1978,-0.0073,-0.0073,0.1573,-5.3538,10.3316,1.6239,-0.3834,-0.0708,-0.0317,1,1,1,1,1,1,1
4.0825,approach,5,to_lo,0.24281,1.10800,0.82914,-0.50717,-0.40112,0.18330,-0.00324,-0.0024,-0.0024,-0.0024,-0.0073,-0.1978,-0.0073,-0.0073,0.1573,-5.3538,10.3316,1.6239,-0.3834,-0.0708,-0.0317,1,1,1,1,1,1,1
4.1223,approach,5,to_lo,0.24281,1.10800,0.82914,-0.50717,-0.41295,0.18330,-0.00324,-0.0024,-0.0024,-0.0024,-0.0073,-0.2125,-0.0073,-0.0073,0.1436,-5.3538,10.3453,1.6239,-0.3883,-0.0708,-0.0366,1,1,1,1,1,1,1
4.1625,approach,5,to_lo,0.24281,1.10800,0.82914,-0.50717,-0.41295,0.18330,-0.00324,-0.0024,-0.0024,-0.0024,-0.0073,-0.2125,-0.0073,-0.0073,0.1436,-5.3538,10.3453,1.6239,-0.3883,-0.0708,-0.0366,1,1,1,1,1,1,1
4.2026,approach,5,to_lo,0.24281,1.10800,0.82914,-0.50717,-0.41295,0.18330,-0.00324,-0.0024,-0.0024,-0.0024,-0.0073,-0.2125,-0.0073,-0.0073,0.1436,-5.3538,10.3453,1.6239,-0.3883,-0.0708,-0.0366,1,1,1,1,1,1,1
4.2422,approach,5,to_lo,0.24281,1.10800,0.82914,-0.50755,-0.43088,0.18330,-0.00362,-0.0073,-0.0024,-0.0024,-0.0220,-0.2271,-0.0073,-0.0073,0.1436,-5.3538,10.3316,1.6142,-0.3932,-0.0855,-0.0366,1,1,1,1,1,1,1
4.2825,approach,5,to_lo,0.24281,1.10800,0.82914,-0.50755,-0.43088,0.18330,-0.00362,-0.0073,-0.0024,-0.0024,-0.0220,-0.2271,-0.0073,-0.0073,0.1436,-5.3538,10.3316,1.6142,-0.3932,-0.0855,-0.0366,1,1,1,1,1,1,1
4.3226,approach,5,to_lo,0.24281,1.10800,0.82914,-0.50755,-0.44270,0.18292,-0.00362,-0.0073,-0.0024,-0.0024,-0.0073,-0.1245,-0.0366,0.0073,0.1299,-5.3538,10.3043,1.6093,-0.4225,-0.0757,-0.0366,1,1,1,1,1,1,1
4.3625,approach,5,to_lo,0.24281,1.10800,0.82914,-0.50755,-0.44270,0.18292,-0.00362,-0.0073,-0.0024,-0.0024,-0.0073,-0.1245,-0.0366,0.0073,0.1299,-5.3538,10.3043,1.6093,-0.4225,-0.0757,-0.0366,1,1,1,1,1,1,1
4.4027,approach,5,to_lo,0.24281,1.10800,0.82914,-0.50755,-0.44270,0.18292,-0.00362,-0.0073,-0.0024,-0.0024,-0.0073,-0.1245,-0.0366,0.0073,0.1299,-5.3538,10.3043,1.6093,-0.4225,-0.0757,-0.0366,1,1,1,1,1,1,1
4.4426,approach,5,to_lo,0.24281,1.10800,0.82914,-0.50755,-0.46025,0.18292,-0.00362,-0.0024,-0.0024,-0.0024,-0.0220,-0.1538,-0.0073,0.0073,0.1299,-5.3538,10.2769,1.6142,-0.4420,-0.0806,-0.0366,1,1,1,1,1,1,1
4.4825,approach,5,to_lo,0.24281,1.10800,0.82914,-0.50755,-0.46025,0.18292,-0.00362,-0.0024,-0.0024,-0.0024,-0.0220,-0.1538,-0.0073,0.0073,0.1299,-5.3538,10.2769,1.6142,-0.4420,-0.0806,-0.0366,1,1,1,1,1,1,1
4.5226,approach,5,to_lo,0.24281,1.10800,0.82914,-0.50717,-0.47246,0.18292,-0.00362,-0.0024,-0.0073,-0.0073,-0.0073,-0.1978,-0.0073,-0.0073,0.1162,-5.3812,10.2906,1.6093,-0.4176,-0.0757,-0.0366,1,1,1,1,1,1,1
4.5627,approach,5,to_lo,0.24281,1.10800,0.82914,-0.50717,-0.47246,0.18292,-0.00362,-0.0024,-0.0073,-0.0073,-0.0073,-0.1978,-0.0073,-0.0073,0.1162,-5.3812,10.2906,1.6093,-0.4176,-0.0757,-0.0366,1,1,1,1,1,1,1
4.6024,approach,5,to_lo,0.24281,1.10800,0.82914,-0.50717,-0.47246,0.18292,-0.00362,-0.0024,-0.0073,-0.0073,-0.0073,-0.1978,-0.0073,-0.0073,0.1162,-5.3812,10.2906,1.6093,-0.4176,-0.0757,-0.0366,1,1,1,1,1,1,1
4.6424,approach,5,to_lo,0.24281,1.10800,0.82914,-0.50717,-0.49039,0.18292,-0.00324,-0.0024,-0.0024,-0.0024,-0.0220,-0.2564,-0.0073,0.0073,0.0889,-5.4085,10.3316,1.5995,-0.4420,-0.0855,-0.0366,1,1,1,1,1,1,1
4.6824,approach,5,to_lo,0.24281,1.10800,0.82914,-0.50717,-0.49039,0.18292,-0.00324,-0.0024,-0.0024,-0.0024,-0.0220,-0.2564,-0.0073,0.0073,0.0889,-5.4085,10.3316,1.5995,-0.4420,-0.0855,-0.0366,1,1,1,1,1,1,1
4.7224,approach,5,to_lo,0.24281,1.10800,0.82914,-0.50717,-0.50221,0.18292,-0.00324,0.0024,-0.0024,-0.0024,0.0073,-0.0952,-0.0366,-0.0073,0.1162,-5.4222,10.2769,1.6044,-0.4518,-0.0806,-0.0366,1,1,1,1,1,1,1
4.7627,approach,5,to_lo,0.24281,1.10800,0.82914,-0.50717,-0.50221,0.18292,-0.00324,0.0024,-0.0024,-0.0024,0.0073,-0.0952,-0.0366,-0.0073,0.1162,-5.4222,10.2769,1.6044,-0.4518,-0.0806,-0.0366,1,1,1,1,1,1,1
4.8026,approach,5,to_lo,0.24281,1.10800,0.82914,-0.50717,-0.50221,0.18292,-0.00324,0.0024,-0.0024,-0.0024,0.0073,-0.0952,-0.0366,-0.0073,0.1162,-5.4222,10.2769,1.6044,-0.4518,-0.0806,-0.0366,1,1,1,1,1,1,1
4.8424,approach,5,to_lo,0.24281,1.10800,0.82914,-0.50717,-0.52052,0.18292,-0.00362,-0.0024,0.0024,-0.0024,0.0073,-0.1538,-0.0220,-0.0220,0.1026,-5.3949,10.2906,1.6142,-0.4518,-0.0806,-0.0366,1,1,1,1,1,1,1
4.8825,approach,5,to_lo,0.24281,1.10800,0.82914,-0.50717,-0.52052,0.18292,-0.00362,-0.0024,0.0024,-0.0024,0.0073,-0.1538,-0.0220,-0.0220,0.1026,-5.3949,10.2906,1.6142,-0.4518,-0.0806,-0.0366,1,1,1,1,1,1,1
4.9225,approach,5,to_lo,0.24281,1.10800,0.82914,-0.50717,-0.53159,0.18330,-0.00324,-0.0024,-0.0024,-0.0024,-0.0073,-0.1538,-0.0073,-0.0073,0.1026,-5.4222,10.3316,1.6190,-0.5201,-0.0757,-0.0366,1,1,1,1,1,1,1
4.9625,approach,5,to_lo,0.24281,1.10800,0.82914,-0.50717,-0.53159,0.18330,-0.00324,-0.0024,-0.0024,-0.0024,-0.0073,-0.1538,-0.0073,-0.0073,0.1026,-5.4222,10.3316,1.6190,-0.5201,-0.0757,-0.0366,1,1,1,1,1,1,1
5.0024,approach,5,to_lo,0.24281,1.10800,0.82914,-0.50717,-0.53159,0.18330,-0.00324,-0.0024,-0.0024,-0.0024,-0.0073,-0.1538,-0.0073,-0.0073,0.1026,-5.4222,10.3316,1.6190,-0.5201,-0.0757,-0.0366,1,1,1,1,1,1,1
5.0424,approach,5,to_lo,0.24281,1.10800,0.82914,-0.50755,-0.55104,0.18330,-0.00324,-0.0024,-0.0024,-0.0024,-0.0073,-0.2418,-0.0073,-0.0073,0.0889,-5.4496,10.3453,1.6239,-0.4225,-0.0806,-0.0366,1,1,1,1,1,1,1
5.0824,approach,5,to_lo,0.24281,1.10800,0.82914,-0.50755,-0.55104,0.18330,-0.00324,-0.0024,-0.0024,-0.0024,-0.0073,-0.2418,-0.0073,-0.0073,0.0889,-5.4496,10.3453,1.6239,-0.4225,-0.0806,-0.0366,1,1,1,1,1,1,1
5.1223,approach,5,to_lo,0.24281,1.10800,0.82914,-0.50755,-0.56210,0.18330,-0.00362,-0.0024,-0.0024,-0.0024,-0.0073,-0.1392,-0.0073,-0.0073,0.0479,-5.4496,10.3453,1.6190,-0.4713,-0.0757,-0.0366,1,1,1,1,1,1,1
5.1625,approach,5,to_lo,0.24281,1.10800,0.82914,-0.50755,-0.56210,0.18330,-0.00362,-0.0024,-0.0024,-0.0024,-0.0073,-0.1392,-0.0073,-0.0073,0.0479,-5.4496,10.3453,1.6190,-0.4713,-0.0757,-0.0366,1,1,1,1,1,1,1
5.2024,approach,5,to_lo,0.24281,1.10800,0.82914,-0.50755,-0.56210,0.18330,-0.00362,-0.0024,-0.0024,-0.0024,-0.0073,-0.1392,-0.0073,-0.0073,0.0479,-5.4496,10.3453,1.6190,-0.4713,-0.0757,-0.0366,1,1,1,1,1,1,1
5.2427,approach,5,to_lo,0.24281,1.10800,0.82952,-0.50717,-0.57965,0.18330,-0.00324,-0.0024,-0.0024,-0.0024,-0.0073,-0.1392,-0.0073,0.0073,0.0342,-5.4359,10.3179,1.6093,-0.5299,-0.0855,-0.0366,1,1,1,1,1,1,1
5.2824,approach,5,to_lo,0.24281,1.10800,0.82952,-0.50717,-0.57965,0.18330,-0.00324,-0.0024,-0.0024,-0.0024,-0.0073,-0.1392,-0.0073,0.0073,0.0342,-5.4359,10.3179,1.6093,-0.5299,-0.0855,-0.0366,1,1,1,1,1,1,1
5.3225,approach,5,to_lo,0.24281,1.10800,0.82952,-0.50717,-0.59071,0.18330,-0.00362,-0.0024,-0.0024,-0.0024,-0.0220,-0.1245,-0.0073,-0.0073,0.0068,-5.4222,10.3179,1.6093,-0.5983,-0.0855,-0.0366,1,1,1,1,1,1,1
5.3624,approach,5,to_lo,0.24281,1.10800,0.82952,-0.50717,-0.59071,0.18330,-0.00362,-0.0024,-0.0024,-0.0024,-0.0220,-0.1245,-0.0073,-0.0073,0.0068,-5.4222,10.3179,1.6093,-0.5983,-0.0855,-0.0366,1,1,1,1,1,1,1
5.4027,approach,5,to_lo,0.24281,1.10800,0.82952,-0.50717,-0.59071,0.18330,-0.00362,-0.0024,-0.0024,-0.0024,-0.0220,-0.1245,-0.0073,-0.0073,0.0068,-5.4222,10.3179,1.6093,-0.5983,-0.0855,-0.0366,1,1,1,1,1,1,1
5.4426,approach,5,to_lo,0.24281,1.10800,0.82952,-0.50717,-0.60979,0.18330,-0.00324,-0.0073,-0.0024,0.0024,-0.0073,-0.2271,0.0073,-0.0073,0.0205,-5.4359,10.3453,1.6093,-0.5201,-0.0855,-0.0366,1,1,1,1,1,1,1
5.4825,approach,5,to_lo,0.24281,1.10800,0.82952,-0.50717,-0.60979,0.18330,-0.00324,-0.0073,-0.0024,0.0024,-0.0073,-0.2271,0.0073,-0.0073,0.0205,-5.4359,10.3453,1.6093,-0.5201,-0.0855,-0.0366,1,1,1,1,1,1,1
5.5224,approach,5,to_lo,0.24281,1.10800,0.82952,-0.50717,-0.62276,0.18292,-0.00362,-0.0073,0.0024,-0.0024,-0.0073,-0.1538,-0.0220,-0.0073,0.0205,-5.4222,10.3179,1.6142,-0.4518,-0.0855,-0.0317,1,1,1,1,1,1,1
5.5625,approach,5,to_lo,0.24281,1.10800,0.82952,-0.50717,-0.62276,0.18292,-0.00362,-0.0073,0.0024,-0.0024,-0.0073,-0.1538,-0.0220,-0.0073,0.0205,-5.4222,10.3179,1.6142,-0.4518,-0.0855,-0.0317,1,1,1,1,1,1,1
5.6028,approach,5,to_lo,0.24281,1.10800,0.82952,-0.50717,-0.62276,0.18292,-0.00362,-0.0073,0.0024,-0.0024,-0.0073,-0.1538,-0.0220,-0.0073,0.0205,-5.4222,10.3179,1.6142,-0.4518,-0.0855,-0.0317,1,1,1,1,1,1,1
5.6427,approach,5,to_lo,0.24281,1.10800,0.82952,-0.50717,-0.63954,0.18292,-0.00362,-0.0024,-0.0024,-0.0024,-0.0220,-0.1831,-0.0220,-0.0220,0.0205,-5.4222,10.2769,1.6142,-0.5592,-0.0904,-0.0366,1,1,1,1,1,1,1
5.6827,approach,5,to_lo,0.24281,1.10800,0.82952,-0.50717,-0.63954,0.18292,-0.00362,-0.0024,-0.0024,-0.0024,-0.0220,-0.1831,-0.0220,-0.0220,0.0205,-5.4222,10.2769,1.6142,-0.5592,-0.0904,-0.0366,1,1,1,1,1,1,1
5.7224,approach,5,to_lo,0.24281,1.10800,0.82914,-0.50717,-0.65061,0.18330,-0.00362,-0.0024,-0.0024,-0.0073,-0.0073,-0.1099,0.0073,-0.0073,0.0068,-5.4222,10.2632,1.6093,-0.5836,-0.0904,-0.0317,1,1,1,1,1,1,1
5.7625,approach,5,to_lo,0.24281,1.10800,0.82914,-0.50717,-0.65061,0.18330,-0.00362,-0.0024,-0.0024,-0.0073,-0.0073,-0.1099,0.0073,-0.0073,0.0068,-5.4222,10.2632,1.6093,-0.5836,-0.0904,-0.0317,1,1,1,1,1,1,1
5.8024,approach,5,to_lo,0.24281,1.10800,0.82914,-0.50717,-0.65061,0.18330,-0.00362,-0.0024,-0.0024,-0.0073,-0.0073,-0.1099,0.0073,-0.0073,0.0068,-5.4222,10.2632,1.6093,-0.5836,-0.0904,-0.0317,1,1,1,1,1,1,1
5.8423,approach,5,to_lo,0.24281,1.10800,0.82952,-0.50717,-0.66930,0.18330,-0.00324,-0.0024,-0.0024,-0.0024,-0.0073,-0.1538,0.0073,-0.0073,0.0068,-5.4632,10.2496,1.6044,-0.5885,-0.0904,-0.0317,1,1,1,1,1,1,1
5.8825,approach,5,to_lo,0.24281,1.10800,0.82952,-0.50717,-0.66930,0.18330,-0.00324,-0.0024,-0.0024,-0.0024,-0.0073,-0.1538,0.0073,-0.0073,0.0068,-5.4632,10.2496,1.6044,-0.5885,-0.0904,-0.0317,1,1,1,1,1,1,1
5.9223,approach,5,to_lo,0.24281,1.10800,0.82952,-0.50717,-0.68265,0.18292,-0.00362,-0.0024,-0.0024,-0.0024,-0.0073,-0.1831,-0.0220,-0.0220,0.0205,-5.4359,10.2632,1.6093,-0.4615,-0.0855,-0.0317,1,1,1,1,1,1,1
5.9624,approach,5,to_lo,0.24281,1.10800,0.82952,-0.50717,-0.68265,0.18292,-0.00362,-0.0024,-0.0024,-0.0024,-0.0073,-0.1831,-0.0220,-0.0220,0.0205,-5.4359,10.2632,1.6093,-0.4615,-0.0855,-0.0317,1,1,1,1,1,1,1
6.0023,approach,5,to_lo,0.24281,1.10800,0.82952,-0.50717,-0.68265,0.18292,-0.00362,-0.0024,-0.0024,-0.0024,-0.0073,-0.1831,-0.0220,-0.0220,0.0205,-5.4359,10.2632,1.6093,-0.4615,-0.0855,-0.0317,1,1,1,1,1,1,1
6.0424,approach,5,to_lo,0.24281,1.10800,0.82952,-0.50717,-0.69905,0.18330,-0.00324,-0.0024,-0.0024,-0.0024,0.0073,-0.2125,-0.0220,-0.0073,0.0068,-5.4496,10.2496,1.6190,-0.5788,-0.0952,-0.0366,1,1,1,1,1,1,1
6.0824,approach,5,to_lo,0.24281,1.10800,0.82952,-0.50717,-0.69905,0.18330,-0.00324,-0.0024,-0.0024,-0.0024,0.0073,-0.2125,-0.0220,-0.0073,0.0068,-5.4496,10.2496,1.6190,-0.5788,-0.0952,-0.0366,1,1,1,1,1,1,1
6.1224,approach,5,to_lo,0.24281,1.10800,0.82952,-0.50717,-0.71088,0.18330,-0.00324,-0.0024,-0.0024,-0.0024,-0.0073,-0.0806,-0.0073,-0.0073,-0.0068,-5.4085,10.2632,1.6142,-0.6032,-0.0904,-0.0317,1,1,1,1,1,1,1
6.1626,approach,5,to_lo,0.24281,1.10800,0.82952,-0.50717,-0.71088,0.18330,-0.00324,-0.0024,-0.0024,-0.0024,-0.0073,-0.0806,-0.0073,-0.0073,-0.0068,-5.4085,10.2632,1.6142,-0.6032,-0.0904,-0.0317,1,1,1,1,1,1,1
6.2025,approach,5,to_lo,0.24281,1.10800,0.82952,-0.50717,-0.71088,0.18330,-0.00324,-0.0024,-0.0024,-0.0024,-0.0073,-0.0806,-0.0073,-0.0073,-0.0068,-5.4085,10.2632,1.6142,-0.6032,-0.0904,-0.0317,1,1,1,1,1,1,1
6.2425,approach,5,to_lo,0.24281,1.10800,0.82952,-0.50717,-0.72995,0.18292,-0.00324,-0.0024,-0.0024,-0.0024,0.0073,-0.1538,-0.0073,-0.0073,-0.0342,-5.3812,10.2769,1.6142,-0.5153,-0.1001,-0.0317,1,1,1,1,1,1,1
6.2825,approach,5,to_lo,0.24281,1.10800,0.82952,-0.50717,-0.72995,0.18292,-0.00324,-0.0024,-0.0024,-0.0024,0.0073,-0.1538,-0.0073,-0.0073,-0.0342,-5.3812,10.2769,1.6142,-0.5153,-0.1001,-0.0317,1,1,1,1,1,1,1
6.3224,approach,5,to_lo,0.24281,1.10800,0.82952,-0.50717,-0.74102,0.18330,-0.00324,0.0024,-0.0024,-0.0073,0.0220,-0.1538,0.0073,-0.0073,-0.0205,-5.3675,10.2359,1.6142,-0.5788,-0.0952,-0.0366,1,1,1,1,1,1,1
6.3625,approach,5,to_lo,0.24281,1.10800,0.82952,-0.50717,-0.74102,0.18330,-0.00324,0.0024,-0.0024,-0.0073,0.0220,-0.1538,0.0073,-0.0073,-0.0205,-5.3675,10.2359,1.6142,-0.5788,-0.0952,-0.0366,1,1,1,1,1,1,1
6.4025,approach,5,to_lo,0.24281,1.10800,0.82952,-0.50717,-0.74102,0.18330,-0.00324,0.0024,-0.0024,-0.0073,0.0220,-0.1538,0.0073,-0.0073,-0.0205,-5.3675,10.2359,1.6142,-0.5788,-0.0952,-0.0366,1,1,1,1,1,1,1
6.4428,approach,5,to_lo,0.24281,1.10800,0.82952,-0.50717,-0.75856,0.18330,-0.00324,-0.0024,-0.0073,-0.0024,-0.0220,-0.2271,-0.0073,-0.0073,-0.0342,-5.3675,10.3043,1.6093,-0.6227,-0.1001,-0.0366,1,1,1,1,1,1,1
6.4829,approach,5,to_lo,0.24281,1.10800,0.82952,-0.50717,-0.75856,0.18330,-0.00324,-0.0024,-0.0073,-0.0024,-0.0220,-0.2271,-0.0073,-0.0073,-0.0342,-5.3675,10.3043,1.6093,-0.6227,-0.1001,-0.0366,1,1,1,1,1,1,1
6.5227,approach,5,to_lo,0.24281,1.10800,0.82952,-0.50717,-0.77077,0.18330,-0.00324,-0.0073,-0.0024,-0.0024,-0.0073,-0.1245,-0.0073,0.0073,-0.0342,-5.3675,10.3179,1.5946,-0.6129,-0.1001,-0.0317,1,1,1,1,1,1,1
6.5627,approach,5,to_lo,0.24281,1.10800,0.82952,-0.50717,-0.77077,0.18330,-0.00324,-0.0073,-0.0024,-0.0024,-0.0073,-0.1245,-0.0073,0.0073,-0.0342,-5.3675,10.3179,1.5946,-0.6129,-0.1001,-0.0317,1,1,1,1,1,1,1
6.6026,approach,5,to_lo,0.24281,1.10800,0.82952,-0.50717,-0.77077,0.18330,-0.00324,-0.0073,-0.0024,-0.0024,-0.0073,-0.1245,-0.0073,0.0073,-0.0342,-5.3675,10.3179,1.5946,-0.6129,-0.1001,-0.0317,1,1,1,1,1,1,1
6.6425,approach,5,to_lo,0.24281,1.10800,0.82952,-0.50717,-0.78985,0.18292,-0.00362,0.0024,-0.0024,0.0024,-0.0073,-0.1538,-0.0073,-0.0073,-0.0068,-5.3675,10.3043,1.5946,-0.5250,-0.0952,-0.0317,1,1,1,1,1,1,1
6.6826,approach,5,to_lo,0.24281,1.10800,0.82952,-0.50717,-0.78985,0.18292,-0.00362,0.0024,-0.0024,0.0024,-0.0073,-0.1538,-0.0073,-0.0073,-0.0068,-5.3675,10.3043,1.5946,-0.5250,-0.0952,-0.0317,1,1,1,1,1,1,1
6.7225,approach,5,to_lo,0.24281,1.10800,0.82952,-0.50717,-0.80053,0.18292,-0.00324,0.0024,-0.0024,-0.0073,-0.0073,-0.1245,0.0073,-0.0073,0.0205,-5.3538,10.2496,1.5849,-0.6471,-0.0952,-0.0317,1,1,1,1,1,1,1
6.7626,approach,5,to_lo,0.24281,1.10800,0.82952,-0.50717,-0.80053,0.18292,-0.00324,0.0024,-0.0024,-0.0073,-0.0073,-0.1245,0.0073,-0.0073,0.0205,-5.3538,10.2496,1.5849,-0.6471,-0.0952,-0.0317,1,1,1,1,1,1,1
6.8023,approach,5,to_lo,0.24281,1.10800,0.82952,-0.50717,-0.80053,0.18292,-0.00324,0.0024,-0.0024,-0.0073,-0.0073,-0.1245,0.0073,-0.0073,0.0205,-5.3538,10.2496,1.5849,-0.6471,-0.0952,-0.0317,1,1,1,1,1,1,1
6.8423,approach,5,to_lo,0.24281,1.10800,0.82952,-0.50717,-0.81807,0.18330,-0.00362,-0.0073,-0.0024,0.0024,-0.0220,-0.1978,-0.0220,-0.0073,-0.0205,-5.3538,10.1949,1.5653,-0.7009,-0.0904,-0.0317,1,1,1,1,1,1,1
6.8825,approach,5,to_lo,0.24281,1.10800,0.82952,-0.50717,-0.81807,0.18330,-0.00362,-0.0073,-0.0024,0.0024,-0.0220,-0.1978,-0.0220,-0.0073,-0.0205,-5.3538,10.1949,1.5653,-0.7009,-0.0904,-0.0317,1,1,1,1,1,1,1
6.9225,approach,5,to_lo,0.24281,1.10800,0.82952,-0.50717,-0.83143,0.18330,-0.00362,-0.0073,-0.0024,-0.0024,-0.0073,-0.2125,-0.0073,-0.0073,-0.0068,-5.4085,10.2085,1.5751,-0.5788,-0.0952,-0.0317,1,1,1,1,1,1,1
6.9624,approach,5,to_lo,0.24281,1.10800,0.82952,-0.50717,-0.83143,0.18330,-0.00362,-0.0073,-0.0024,-0.0024,-0.0073,-0.2125,-0.0073,-0.0073,-0.0068,-5.4085,10.2085,1.5751,-0.5788,-0.0952,-0.0317,1,1,1,1,1,1,1
7.0025,approach,5,to_lo,0.24281,1.10800,0.82952,-0.50717,-0.83143,0.18330,-0.00362,-0.0073,-0.0024,-0.0024,-0.0073,-0.2125,-0.0073,-0.0073,-0.0068,-5.4085,10.2085,1.5751,-0.5788,-0.0952,-0.0317,1,1,1,1,1,1,1
7.0424,approach,5,to_lo,0.24281,1.10800,0.82952,-0.50717,-0.84974,0.18330,-0.00324,-0.0024,-0.0024,-0.0024,0.0073,-0.2125,-0.0073,-0.0073,-0.0205,-5.3812,10.1949,1.5702,-0.5788,-0.1001,-0.0366,1,1,1,1,1,1,1
7.0829,approach,5,to_lo,0.24281,1.10800,0.82952,-0.50717,-0.84974,0.18330,-0.00324,-0.0024,-0.0024,-0.0024,0.0073,-0.2125,-0.0073,-0.0073,-0.0205,-5.3812,10.1949,1.5702,-0.5788,-0.1001,-0.0366,1,1,1,1,1,1,1
7.1224,approach,5,to_lo,0.24281,1.10800,0.82952,-0.50717,-0.86118,0.18292,-0.00324,-0.0073,-0.0024,-0.0024,-0.0073,-0.0806,-0.0073,-0.0220,-0.0205,-5.4085,10.1949,1.5604,-0.6227,-0.0952,-0.0317,1,1,1,1,1,1,1
7.1624,approach,5,to_lo,0.24281,1.10800,0.82952,-0.50717,-0.86118,0.18292,-0.00324,-0.0073,-0.0024,-0.0024,-0.0073,-0.0806,-0.0073,-0.0220,-0.0205,-5.4085,10.1949,1.5604,-0.6227,-0.0952,-0.0317,1,1,1,1,1,1,1
7.2024,approach,5,to_lo,0.24281,1.10800,0.82952,-0.50717,-0.86118,0.18292,-0.00324,-0.0073,-0.0024,-0.0024,-0.0073,-0.0806,-0.0073,-0.0220,-0.0205,-5.4085,10.1949,1.5604,-0.6227,-0.0952,-0.0317,1,1,1,1,1,1,1
7.2425,approach,5,to_lo,0.24281,1.10800,0.82952,-0.50717,-0.87835,0.18330,-0.00362,-0.0024,-0.0024,-0.0024,-0.0073,-0.1685,0.0073,-0.0073,0.0068,-5.3812,10.1538,1.5604,-0.6862,-0.1001,-0.0317,1,1,1,1,1,1,1
7.2825,approach,5,to_lo,0.24281,1.10800,0.82952,-0.50717,-0.87835,0.18330,-0.00362,-0.0024,-0.0024,-0.0024,-0.0073,-0.1685,0.0073,-0.0073,0.0068,-5.3812,10.1538,1.5604,-0.6862,-0.1001,-0.0317,1,1,1,1,1,1,1
7.3224,approach,5,to_lo,0.24281,1.10800,0.82952,-0.50717,-0.89132,0.18292,-0.00362,-0.0024,-0.0024,-0.0024,-0.0073,-0.1538,-0.0073,-0.0073,-0.0342,-5.3675,10.1675,1.5556,-0.6081,-0.1001,-0.0366,1,1,1,1,1,1,1
7.3624,approach,5,to_lo,0.24281,1.10800,0.82952,-0.50717,-0.89132,0.18292,-0.00362,-0.0024,-0.0024,-0.0024,-0.0073,-0.1538,-0.0073,-0.0073,-0.0342,-5.3675,10.1675,1.5556,-0.6081,-0.1001,-0.0366,1,1,1,1,1,1,1
7.4026,approach,5,to_lo,0.24281,1.10800,0.82952,-0.50717,-0.89132,0.18292,-0.00362,-0.0024,-0.0024,-0.0024,-0.0073,-0.1538,-0.0073,-0.0073,-0.0342,-5.3675,10.1675,1.5556,-0.6081,-0.1001,-0.0366,1,1,1,1,1,1,1
7.4424,approach,5,to_lo,0.24281,1.10800,0.82952,-0.50717,-0.90963,0.18330,-0.00324,-0.0073,-0.0073,-0.0024,-0.0220,-0.2857,-0.0220,-0.0220,-0.0205,-5.3538,10.1675,1.5604,-0.5641,-0.1001,-0.0317,1,1,1,1,1,1,1
7.4824,approach,5,to_lo,0.24281,1.10800,0.82952,-0.50717,-0.90963,0.18330,-0.00324,-0.0073,-0.0073,-0.0024,-0.0220,-0.2857,-0.0220,-0.0220,-0.0205,-5.3538,10.1675,1.5604,-0.5641,-0.1001,-0.0317,1,1,1,1,1,1,1
7.5227,approach,5,to_lo,0.24281,1.10800,0.82952,-0.50717,-0.92069,0.18292,-0.00362,-0.0024,-0.0024,-0.0024,-0.0220,-0.1099,-0.0073,-0.0073,0.0205,-5.3675,10.1402,1.5556,-0.6520,-0.0952,-0.0317,1,1,1,1,1,1,1
7.5623,approach,5,to_lo,0.24281,1.10800,0.82952,-0.50717,-0.92069,0.18292,-0.00362,-0.0024,-0.0024,-0.0024,-0.0220,-0.1099,-0.0073,-0.0073,0.0205,-5.3675,10.1402,1.5556,-0.6520,-0.0952,-0.0317,1,1,1,1,1,1,1
7.6024,approach,5,to_lo,0.24281,1.10800,0.82952,-0.50717,-0.92069,0.18292,-0.00362,-0.0024,-0.0024,-0.0024,-0.0220,-0.1099,-0.0073,-0.0073,0.0205,-5.3675,10.1402,1.5556,-0.6520,-0.0952,-0.0317,1,1,1,1,1,1,1
7.6423,approach,5,to_lo,0.24281,1.10800,0.82952,-0.50717,-0.93824,0.18330,-0.00362,-0.0024,-0.0024,-0.0024,-0.0073,-0.1538,-0.0073,-0.0220,0.0205,-5.3538,10.1402,1.5556,-0.6960,-0.0904,-0.0366,1,1,1,1,1,1,1
7.6826,approach,5,to_lo,0.24281,1.10800,0.82952,-0.50717,-0.93824,0.18330,-0.00362,-0.0024,-0.0024,-0.0024,-0.0073,-0.1538,-0.0073,-0.0220,0.0205,-5.3538,10.1402,1.5556,-0.6960,-0.0904,-0.0366,1,1,1,1,1,1,1
7.7226,approach,5,to_lo,0.24281,1.10800,0.82952,-0.50717,-0.94968,0.18330,-0.00362,-0.0024,-0.0024,-0.0024,-0.0073,-0.1245,-0.0220,-0.0073,0.0068,-5.3402,10.1402,1.5409,-0.7155,-0.0904,-0.0317,1,1,1,1,1,1,1
7.7627,approach,5,to_lo,0.24281,1.10800,0.82952,-0.50717,-0.94968,0.18330,-0.00362,-0.0024,-0.0024,-0.0024,-0.0073,-0.1245,-0.0220,-0.0073,0.0068,-5.3402,10.1402,1.5409,-0.7155,-0.0904,-0.0317,1,1,1,1,1,1,1
7.8025,approach,5,to_lo,0.24281,1.10800,0.82952,-0.50717,-0.94968,0.18330,-0.00362,-0.0024,-0.0024,-0.0024,-0.0073,-0.1245,-0.0220,-0.0073,0.0068,-5.3402,10.1402,1.5409,-0.7155,-0.0904,-0.0317,1,1,1,1,1,1,1
7.8427,approach,5,to_lo,0.24281,1.10800,0.82952,-0.50717,-0.96914,0.18330,-0.00324,-0.0024,-0.0024,-0.0024,-0.0073,-0.2125,-0.0073,-0.0073,0.0068,-5.2991,10.1128,1.5360,-0.5788,-0.0952,-0.0317,1,1,1,1,1,1,1
7.8826,approach,5,to_lo,0.24281,1.10800,0.82952,-0.50717,-0.96914,0.18330,-0.00324,-0.0024,-0.0024,-0.0024,-0.0073,-0.2125,-0.0073,-0.0073,0.0068,-5.2991,10.1128,1.5360,-0.5788,-0.0952,-0.0317,1,1,1,1,1,1,1
7.9225,approach,5,to_lo,0.24281,1.10800,0.82952,-0.50717,-0.98020,0.18330,-0.00362,-0.0024,-0.0024,-0.0024,0.0220,-0.1245,-0.0220,-0.0073,-0.0205,-5.3675,10.0991,1.5409,-0.6618,-0.0952,-0.0317,1,1,1,1,1,1,1
7.9624,approach,5,to_lo,0.24281,1.10800,0.82952,-0.50717,-0.98020,0.18330,-0.00362,-0.0024,-0.0024,-0.0024,0.0220,-0.1245,-0.0220,-0.0073,-0.0205,-5.3675,10.0991,1.5409,-0.6618,-0.0952,-0.0317,1,1,1,1,1,1,1
8.0024,approach,5,to_lo,0.24281,1.10800,0.82952,-0.50717,-0.98020,0.18330,-0.00362,-0.0024,-0.0024,-0.0024,0.0220,-0.1245,-0.0220,-0.0073,-0.0205,-5.3675,10.0991,1.5409,-0.6618,-0.0952,-0.0317,1,1,1,1,1,1,1
8.0424,approach,5,to_lo,0.24281,1.10800,0.82952,-0.50717,-0.99470,0.18330,-0.00324,-0.0073,-0.0024,0.0024,0.0073,-0.1099,0.0073,-0.0073,-0.0068,-5.3538,10.0718,1.5165,-0.6520,-0.0952,-0.0317,1,1,1,1,1,1,1
8.5448,sweep,5,+up,0.24281,1.10800,0.82952,-0.50717,-0.99737,0.18330,-0.00362,-0.0024,-0.0024,-0.0024,-0.0073,-0.0806,0.0073,-0.0220,-0.0205,-5.3538,10.0718,1.5214,-0.6911,-0.1001,-0.0317,1,1,1,1,1,1,1
8.5850,sweep,5,+up,0.24281,1.10800,0.82952,-0.50717,-0.99737,0.18330,-0.00362,-0.0024,-0.0024,-0.0024,-0.0073,-0.0806,0.0073,-0.0220,-0.0205,-5.3538,10.0718,1.5214,-0.6911,-0.1001,-0.0317,1,1,1,1,1,1,1
8.6251,sweep,5,+up,0.24281,1.10800,0.82952,-0.50717,-1.00652,0.18330,-0.00362,-0.0073,-0.0024,-0.0024,-0.0220,0.0513,-0.0073,-0.0073,0.0205,-5.2581,10.0171,1.4921,-0.4469,-0.1050,-0.0269,1,1,1,1,1,1,1
8.6653,sweep,5,+up,0.24281,1.10800,0.82952,-0.50717,-1.00652,0.18330,-0.00362,-0.0073,-0.0024,-0.0024,-0.0220,0.0513,-0.0073,-0.0073,0.0205,-5.2581,10.0171,1.4921,-0.4469,-0.1050,-0.0269,1,1,1,1,1,1,1
8.7050,sweep,5,+up,0.24281,1.10800,0.82952,-0.50717,-1.00652,0.18330,-0.00362,-0.0073,-0.0024,-0.0024,-0.0220,0.0513,-0.0073,-0.0073,0.0205,-5.2581,10.0171,1.4921,-0.4469,-0.1050,-0.0269,1,1,1,1,1,1,1
8.7450,sweep,5,+up,0.24281,1.10800,0.82952,-0.50717,-0.98898,0.18292,-0.00362,-0.0024,-0.0024,-0.0024,-0.0073,0.1538,-0.0073,-0.0073,0.0205,-5.2855,10.0308,1.4969,-0.4567,-0.0952,-0.0269,1,1,1,1,1,1,1
8.7851,sweep,5,+up,0.24281,1.10800,0.82952,-0.50717,-0.98898,0.18292,-0.00362,-0.0024,-0.0024,-0.0024,-0.0073,0.1538,-0.0073,-0.0073,0.0205,-5.2855,10.0308,1.4969,-0.4567,-0.0952,-0.0269,1,1,1,1,1,1,1
8.8250,sweep,5,+up,0.24281,1.10800,0.82952,-0.50717,-0.97715,0.18330,-0.00324,-0.0024,-0.0024,-0.0024,-0.0073,0.1245,0.0220,0.0073,0.0205,-5.2718,10.0308,1.5018,-0.4176,-0.1050,-0.0317,1,1,1,1,1,1,1
8.8653,sweep,5,+up,0.24281,1.10800,0.82952,-0.50717,-0.97715,0.18330,-0.00324,-0.0024,-0.0024,-0.0024,-0.0073,0.1245,0.0220,0.0073,0.0205,-5.2718,10.0308,1.5018,-0.4176,-0.1050,-0.0317,1,1,1,1,1,1,1
8.9050,sweep,5,+up,0.24281,1.10800,0.82952,-0.50717,-0.97715,0.18330,-0.00324,-0.0024,-0.0024,-0.0024,-0.0073,0.1245,0.0220,0.0073,0.0205,-5.2718,10.0308,1.5018,-0.4176,-0.1050,-0.0317,1,1,1,1,1,1,1
8.9450,sweep,5,+up,0.24281,1.10800,0.82952,-0.50717,-0.95998,0.18292,-0.00362,-0.0024,0.0024,-0.0024,-0.0073,0.1245,-0.0073,-0.0073,0.0068,-5.2444,9.9761,1.4823,-0.3687,-0.0952,-0.0269,1,1,1,1,1,1,1
8.9851,sweep,5,+up,0.24281,1.10800,0.82952,-0.50717,-0.95998,0.18292,-0.00362,-0.0024,0.0024,-0.0024,-0.0073,0.1245,-0.0073,-0.0073,0.0068,-5.2444,9.9761,1.4823,-0.3687,-0.0952,-0.0269,1,1,1,1,1,1,1
9.0251,sweep,5,+up,0.24281,1.10800,0.82952,-0.50717,-0.94816,0.18292,-0.00324,-0.0024,-0.0024,-0.0024,-0.0073,0.1685,-0.0220,-0.0073,0.0068,-5.2855,10.0171,1.4872,-0.3590,-0.0904,-0.0269,1,1,1,1,1,1,1
9.0650,sweep,5,+up,0.24281,1.10800,0.82952,-0.50717,-0.94816,0.18292,-0.00324,-0.0024,-0.0024,-0.0024,-0.0073,0.1685,-0.0220,-0.0073,0.0068,-5.2855,10.0171,1.4872,-0.3590,-0.0904,-0.0269,1,1,1,1,1,1,1
9.1050,sweep,5,+up,0.24281,1.10800,0.82952,-0.50717,-0.94816,0.18292,-0.00324,-0.0024,-0.0024,-0.0024,-0.0073,0.1685,-0.0220,-0.0073,0.0068,-5.2855,10.0171,1.4872,-0.3590,-0.0904,-0.0269,1,1,1,1,1,1,1
9.1450,sweep,5,+up,0.24281,1.10800,0.82952,-0.50717,-0.93023,0.18292,-0.00362,-0.0024,-0.0024,-0.0024,-0.0073,0.1685,-0.0220,-0.0073,0.0342,-5.2991,9.9761,1.4872,-0.3785,-0.0855,-0.0317,1,1,1,1,1,1,1
9.1850,sweep,5,+up,0.24281,1.10800,0.82952,-0.50717,-0.93023,0.18292,-0.00362,-0.0024,-0.0024,-0.0024,-0.0073,0.1685,-0.0220,-0.0073,0.0342,-5.2991,9.9761,1.4872,-0.3785,-0.0855,-0.0317,1,1,1,1,1,1,1
9.2251,sweep,5,+up,0.24281,1.10800,0.82952,-0.50717,-0.91802,0.18292,-0.00324,-0.0024,-0.0024,-0.0024,0.0073,0.1685,-0.0220,-0.0073,0.0068,-5.2855,9.9897,1.4872,-0.3687,-0.0757,-0.0317,1,1,1,1,1,1,1
9.2652,sweep,5,+up,0.24281,1.10800,0.82952,-0.50717,-0.91802,0.18292,-0.00324,-0.0024,-0.0024,-0.0024,0.0073,0.1685,-0.0220,-0.0073,0.0068,-5.2855,9.9897,1.4872,-0.3687,-0.0757,-0.0317,1,1,1,1,1,1,1
9.3050,sweep,5,+up,0.24281,1.10800,0.82952,-0.50717,-0.91802,0.18292,-0.00324,-0.0024,-0.0024,-0.0024,0.0073,0.1685,-0.0220,-0.0073,0.0068,-5.2855,9.9897,1.4872,-0.3687,-0.0757,-0.0317,1,1,1,1,1,1,1
9.3450,sweep,5,+up,0.24281,1.10800,0.82952,-0.50717,-0.90009,0.18330,-0.00362,-0.0073,-0.0024,-0.0024,-0.0073,0.1538,0.0073,-0.0220,-0.0068,-5.2855,10.0034,1.4921,-0.4029,-0.0855,-0.0269,1,1,1,1,1,1,1
9.3849,sweep,5,+up,0.24281,1.10800,0.82952,-0.50717,-0.90009,0.18330,-0.00362,-0.0073,-0.0024,-0.0024,-0.0073,0.1538,0.0073,-0.0220,-0.0068,-5.2855,10.0034,1.4921,-0.4029,-0.0855,-0.0269,1,1,1,1,1,1,1
9.4253,sweep,5,+up,0.24281,1.10800,0.82952,-0.50717,-0.88903,0.18292,-0.00324,-0.0024,-0.0073,-0.0024,-0.0073,0.1245,-0.0220,-0.0073,-0.0068,-5.3128,10.0171,1.4921,-0.3053,-0.0757,-0.0269,1,1,1,1,1,1,1
9.4650,sweep,5,+up,0.24281,1.10800,0.82952,-0.50717,-0.88903,0.18292,-0.00324,-0.0024,-0.0073,-0.0024,-0.0073,0.1245,-0.0220,-0.0073,-0.0068,-5.3128,10.0171,1.4921,-0.3053,-0.0757,-0.0269,1,1,1,1,1,1,1
9.5052,sweep,5,+up,0.24281,1.10800,0.82952,-0.50717,-0.88903,0.18292,-0.00324,-0.0024,-0.0073,-0.0024,-0.0073,0.1245,-0.0220,-0.0073,-0.0068,-5.3128,10.0171,1.4921,-0.3053,-0.0757,-0.0269,1,1,1,1,1,1,1
9.5451,sweep,5,+up,0.24281,1.10800,0.82952,-0.50717,-0.87034,0.18292,-0.00362,-0.0024,-0.0024,0.0024,-0.0073,0.0952,-0.0073,-0.0220,-0.0479,-5.3265,9.9897,1.4774,-0.3687,-0.0757,-0.0220,1,1,1,1,1,1,1
9.5849,sweep,5,+up,0.24281,1.10800,0.82952,-0.50717,-0.87034,0.18292,-0.00362,-0.0024,-0.0024,0.0024,-0.0073,0.0952,-0.0073,-0.0220,-0.0479,-5.3265,9.9897,1.4774,-0.3687,-0.0757,-0.0220,1,1,1,1,1,1,1
9.6251,sweep,5,+up,0.24281,1.10800,0.82952,-0.50717,-0.85966,0.18292,-0.00324,-0.0024,-0.0024,-0.0024,-0.0073,0.1978,-0.0073,-0.0073,-0.0205,-5.3675,10.0171,1.4774,-0.2515,-0.0708,-0.0220,1,1,1,1,1,1,1
9.6652,sweep,5,+up,0.24281,1.10800,0.82952,-0.50717,-0.85966,0.18292,-0.00324,-0.0024,-0.0024,-0.0024,-0.0073,0.1978,-0.0073,-0.0073,-0.0205,-5.3675,10.0171,1.4774,-0.2515,-0.0708,-0.0220,1,1,1,1,1,1,1
9.7055,sweep,5,+up,0.24281,1.10800,0.82952,-0.50717,-0.85966,0.18292,-0.00324,-0.0024,-0.0024,-0.0024,-0.0073,0.1978,-0.0073,-0.0073,-0.0205,-5.3675,10.0171,1.4774,-0.2515,-0.0708,-0.0220,1,1,1,1,1,1,1
9.7451,sweep,5,+up,0.24281,1.10800,0.82952,-0.50717,-0.84058,0.18292,-0.00324,0.0024,-0.0073,-0.0024,0.0073,0.1685,-0.0073,-0.0073,-0.0342,-5.3538,10.0034,1.4823,-0.3394,-0.0708,-0.0220,1,1,1,1,1,1,1
9.7849,sweep,5,+up,0.24281,1.10800,0.82952,-0.50717,-0.84058,0.18292,-0.00324,0.0024,-0.0073,-0.0024,0.0073,0.1685,-0.0073,-0.0073,-0.0342,-5.3538,10.0034,1.4823,-0.3394,-0.0708,-0.0220,1,1,1,1,1,1,1
9.8250,sweep,5,+up,0.24281,1.10800,0.82952,-0.50717,-0.82914,0.18330,-0.00362,-0.0024,-0.0024,0.0024,0.0220,0.1392,0.0220,-0.0220,-0.0342,-5.3538,10.0308,1.4823,-0.3004,-0.0757,-0.0171,1,1,1,1,1,1,1
9.8652,sweep,5,+up,0.24281,1.10800,0.82952,-0.50717,-0.82914,0.18330,-0.00362,-0.0024,-0.0024,0.0024,0.0220,0.1392,0.0220,-0.0220,-0.0342,-5.3538,10.0308,1.4823,-0.3004,-0.0757,-0.0171,1,1,1,1,1,1,1
9.9049,sweep,5,+up,0.24281,1.10800,0.82952,-0.50717,-0.82914,0.18330,-0.00362,-0.0024,-0.0024,0.0024,0.0220,0.1392,0.0220,-0.0220,-0.0342,-5.3538,10.0308,1.4823,-0.3004,-0.0757,-0.0171,1,1,1,1,1,1,1
9.9451,sweep,5,+up,0.24281,1.10800,0.82952,-0.50717,-0.81044,0.18292,-0.00324,-0.0024,0.0024,-0.0024,-0.0073,0.0659,-0.0220,0.0073,-0.0479,-5.3402,10.0308,1.4774,-0.3590,-0.0659,-0.0171,1,1,1,1,1,1,1
9.9851,sweep,5,+up,0.24281,1.10800,0.82952,-0.50717,-0.81044,0.18292,-0.00324,-0.0024,0.0024,-0.0024,-0.0073,0.0659,-0.0220,0.0073,-0.0479,-5.3402,10.0308,1.4774,-0.3590,-0.0659,-0.0171,1,1,1,1,1,1,1
10.0249,sweep,5,+up,0.24281,1.10800,0.82952,-0.50755,-0.79976,0.18292,-0.00324,-0.0024,-0.0024,-0.0024,-0.0073,0.1831,-0.0220,-0.0073,-0.0479,-5.3675,10.0581,1.4872,-0.2369,-0.0659,-0.0171,1,1,1,1,1,1,1
10.0651,sweep,5,+up,0.24281,1.10800,0.82952,-0.50755,-0.79976,0.18292,-0.00324,-0.0024,-0.0024,-0.0024,-0.0073,0.1831,-0.0220,-0.0073,-0.0479,-5.3675,10.0581,1.4872,-0.2369,-0.0659,-0.0171,1,1,1,1,1,1,1
10.1050,sweep,5,+up,0.24281,1.10800,0.82952,-0.50755,-0.79976,0.18292,-0.00324,-0.0024,-0.0024,-0.0024,-0.0073,0.1831,-0.0220,-0.0073,-0.0479,-5.3675,10.0581,1.4872,-0.2369,-0.0659,-0.0171,1,1,1,1,1,1,1
10.1451,sweep,5,+up,0.24281,1.10800,0.82952,-0.50755,-0.78183,0.18330,-0.00324,-0.0024,-0.0024,-0.0024,-0.0220,0.1685,0.0220,-0.0073,-0.0342,-5.3812,10.0718,1.4823,-0.2515,-0.0611,-0.0171,1,1,1,1,1,1,1
10.1850,sweep,5,+up,0.24281,1.10800,0.82952,-0.50755,-0.78183,0.18330,-0.00324,-0.0024,-0.0024,-0.0024,-0.0220,0.1685,0.0220,-0.0073,-0.0342,-5.3812,10.0718,1.4823,-0.2515,-0.0611,-0.0171,1,1,1,1,1,1,1
10.2251,sweep,5,+up,0.24281,1.10800,0.82952,-0.50717,-0.76886,0.18330,-0.00324,0.0024,-0.0024,-0.0024,0.0073,0.1685,-0.0073,-0.0073,-0.0342,-5.3675,10.0581,1.4921,-0.3346,-0.0611,-0.0171,1,1,1,1,1,1,1
10.2650,sweep,5,+up,0.24281,1.10800,0.82952,-0.50717,-0.76886,0.18330,-0.00324,0.0024,-0.0024,-0.0024,0.0073,0.1685,-0.0073,-0.0073,-0.0342,-5.3675,10.0581,1.4921,-0.3346,-0.0611,-0.0171,1,1,1,1,1,1,1
10.3050,sweep,5,+up,0.24281,1.10800,0.82952,-0.50717,-0.76886,0.18330,-0.00324,0.0024,-0.0024,-0.0024,0.0073,0.1685,-0.0073,-0.0073,-0.0342,-5.3675,10.0581,1.4921,-0.3346,-0.0611,-0.0171,1,1,1,1,1,1,1
10.3451,sweep,5,+up,0.24281,1.10800,0.82952,-0.50755,-0.75093,0.18292,-0.00324,0.0024,0.0024,-0.0024,0.0073,0.1245,0.0073,-0.0073,-0.0615,-5.3812,10.0444,1.4921,-0.3346,-0.0611,-0.0171,1,1,1,1,1,1,1
10.3852,sweep,5,+up,0.24281,1.10800,0.82952,-0.50755,-0.75093,0.18292,-0.00324,0.0024,0.0024,-0.0024,0.0073,0.1245,0.0073,-0.0073,-0.0615,-5.3812,10.0444,1.4921,-0.3346,-0.0611,-0.0171,1,1,1,1,1,1,1
10.4252,sweep,5,+up,0.24281,1.10800,0.82952,-0.50717,-0.74025,0.18292,-0.00324,-0.0024,-0.0024,-0.0024,-0.0220,0.0952,-0.0073,-0.0073,-0.0479,-5.4085,10.0308,1.5018,-0.2125,-0.0611,-0.0220,1,1,1,1,1,1,1
10.4651,sweep,5,+up,0.24281,1.10800,0.82952,-0.50717,-0.74025,0.18292,-0.00324,-0.0024,-0.0024,-0.0024,-0.0220,0.0952,-0.0073,-0.0073,-0.0479,-5.4085,10.0308,1.5018,-0.2125,-0.0611,-0.0220,1,1,1,1,1,1,1
10.5050,sweep,5,+up,0.24281,1.10800,0.82952,-0.50717,-0.74025,0.18292,-0.00324,-0.0024,-0.0024,-0.0024,-0.0220,0.0952,-0.0073,-0.0073,-0.0479,-5.4085,10.0308,1.5018,-0.2125,-0.0611,-0.0220,1,1,1,1,1,1,1
10.5450,sweep,5,+up,0.24281,1.10800,0.82952,-0.50717,-0.72232,0.18292,-0.00324,-0.0073,-0.0024,-0.0024,0.0073,0.1392,-0.0073,-0.0073,-0.0752,-5.4085,10.0444,1.5018,-0.2076,-0.0513,-0.0220,1,1,1,1,1,1,1
10.5852,sweep,5,+up,0.24281,1.10800,0.82952,-0.50717,-0.72232,0.18292,-0.00324,-0.0073,-0.0024,-0.0024,0.0073,0.1392,-0.0073,-0.0073,-0.0752,-5.4085,10.0444,1.5018,-0.2076,-0.0513,-0.0220,1,1,1,1,1,1,1
10.6250,sweep,5,+up,0.24281,1.10800,0.82952,-0.50717,-0.70935,0.18292,-0.00324,-0.0024,-0.0024,-0.0073,0.0073,0.1978,-0.0073,0.0073,-0.0752,-5.4222,10.0581,1.5067,-0.2613,-0.0562,-0.0220,1,1,1,1,1,1,1
10.6650,sweep,5,+up,0.24281,1.10800,0.82952,-0.50717,-0.70935,0.18292,-0.00324,-0.0024,-0.0024,-0.0073,0.0073,0.1978,-0.0073,0.0073,-0.0752,-5.4222,10.0581,1.5067,-0.2613,-0.0562,-0.0220,1,1,1,1,1,1,1
10.7052,sweep,5,+up,0.24281,1.10800,0.82952,-0.50717,-0.70935,0.18292,-0.00324,-0.0024,-0.0024,-0.0073,0.0073,0.1978,-0.0073,0.0073,-0.0752,-5.4222,10.0581,1.5067,-0.2613,-0.0562,-0.0220,1,1,1,1,1,1,1
10.7452,sweep,5,+up,0.24281,1.10800,0.82952,-0.50755,-0.69104,0.18292,-0.00324,-0.0024,-0.0024,-0.0024,0.0073,0.2125,0.0073,-0.0073,-0.0752,-5.4085,10.0444,1.5067,-0.3053,-0.0562,-0.0171,1,1,1,1,1,1,1
10.7851,sweep,5,+up,0.24281,1.10800,0.82952,-0.50755,-0.69104,0.18292,-0.00324,-0.0024,-0.0024,-0.0024,0.0073,0.2125,0.0073,-0.0073,-0.0752,-5.4085,10.0444,1.5067,-0.3053,-0.0562,-0.0171,1,1,1,1,1,1,1
10.8250,sweep,5,+up,0.24281,1.10800,0.82952,-0.50755,-0.68074,0.18292,-0.00362,-0.0024,-0.0073,-0.0024,0.0073,0.1099,-0.0073,-0.0220,-0.0752,-5.4085,10.0444,1.5018,-0.1783,-0.0513,-0.0220,1,1,1,1,1,1,1
10.8650,sweep,5,+up,0.24281,1.10800,0.82952,-0.50755,-0.68074,0.18292,-0.00362,-0.0024,-0.0073,-0.0024,0.0073,0.1099,-0.0073,-0.0220,-0.0752,-5.4085,10.0444,1.5018,-0.1783,-0.0513,-0.0220,1,1,1,1,1,1,1
10.9051,sweep,5,+up,0.24281,1.10800,0.82952,-0.50755,-0.68074,0.18292,-0.00362,-0.0024,-0.0073,-0.0024,0.0073,0.1099,-0.0073,-0.0220,-0.0752,-5.4085,10.0444,1.5018,-0.1783,-0.0513,-0.0220,1,1,1,1,1,1,1
10.9452,sweep,5,+up,0.24281,1.10800,0.82952,-0.50755,-0.66205,0.18292,-0.00324,0.0024,-0.0024,-0.0024,-0.0073,0.1245,-0.0073,-0.0073,-0.0889,-5.3949,10.0581,1.5018,-0.2418,-0.0513,-0.0220,1,1,1,1,1,1,1
10.9850,sweep,5,+up,0.24281,1.10800,0.82952,-0.50755,-0.66205,0.18292,-0.00324,0.0024,-0.0024,-0.0024,-0.0073,0.1245,-0.0073,-0.0073,-0.0889,-5.3949,10.0581,1.5018,-0.2418,-0.0513,-0.0220,1,1,1,1,1,1,1
11.0251,sweep,5,+up,0.24281,1.10800,0.82952,-0.50755,-0.65137,0.18292,-0.00324,-0.0024,-0.0024,-0.0024,-0.0220,0.1831,-0.0073,-0.0073,-0.0752,-5.4085,10.0581,1.5116,-0.1441,-0.0513,-0.0220,1,1,1,1,1,1,1
11.0652,sweep,5,+up,0.24281,1.10800,0.82952,-0.50755,-0.65137,0.18292,-0.00324,-0.0024,-0.0024,-0.0024,-0.0220,0.1831,-0.0073,-0.0073,-0.0752,-5.4085,10.0581,1.5116,-0.1441,-0.0513,-0.0220,1,1,1,1,1,1,1
11.1050,sweep,5,+up,0.24281,1.10800,0.82952,-0.50755,-0.65137,0.18292,-0.00324,-0.0024,-0.0024,-0.0024,-0.0220,0.1831,-0.0073,-0.0073,-0.0752,-5.4085,10.0581,1.5116,-0.1441,-0.0513,-0.0220,1,1,1,1,1,1,1
11.1451,sweep,5,+up,0.24281,1.10800,0.82952,-0.50755,-0.63191,0.18330,-0.00362,-0.0024,-0.0024,-0.0024,0.0073,0.1685,0.0073,-0.0220,-0.0889,-5.4496,10.0855,1.5116,-0.2613,-0.0562,-0.0220,1,1,1,1,1,1,1
11.1851,sweep,5,+up,0.24281,1.10800,0.82952,-0.50755,-0.63191,0.18330,-0.00362,-0.0024,-0.0024,-0.0024,0.0073,0.1685,0.0073,-0.0220,-0.0889,-5.4496,10.0855,1.5116,-0.2613,-0.0562,-0.0220,1,1,1,1,1,1,1
11.2249,sweep,5,+up,0.24281,1.10800,0.82952,-0.50755,-0.62047,0.18292,-0.00324,-0.0024,0.0024,-0.0024,-0.0073,0.1392,0.0073,-0.0073,-0.0889,-5.4632,10.0718,1.5116,-0.2125,-0.0562,-0.0171,1,1,1,1,1,1,1
11.2650,sweep,5,+up,0.24281,1.10800,0.82952,-0.50755,-0.62047,0.18292,-0.00324,-0.0024,0.0024,-0.0024,-0.0073,0.1392,0.0073,-0.0073,-0.0889,-5.4632,10.0718,1.5116,-0.2125,-0.0562,-0.0171,1,1,1,1,1,1,1
11.3049,sweep,5,+up,0.24281,1.10800,0.82952,-0.50755,-0.62047,0.18292,-0.00324,-0.0024,0.0024,-0.0024,-0.0073,0.1392,0.0073,-0.0073,-0.0889,-5.4632,10.0718,1.5116,-0.2125,-0.0562,-0.0171,1,1,1,1,1,1,1
11.3451,sweep,5,+up,0.24281,1.10800,0.82952,-0.50755,-0.60216,0.18292,-0.00324,-0.0073,-0.0024,0.0024,-0.0073,0.1685,-0.0073,-0.0073,-0.0889,-5.4632,10.0171,1.5214,-0.2466,-0.0513,-0.0171,1,1,1,1,1,1,1
11.3852,sweep,5,+up,0.24281,1.10800,0.82952,-0.50755,-0.60216,0.18292,-0.00324,-0.0073,-0.0024,0.0024,-0.0073,0.1685,-0.0073,-0.0073,-0.0889,-5.4632,10.0171,1.5214,-0.2466,-0.0513,-0.0171,1,1,1,1,1,1,1
11.4251,sweep,5,+up,0.24281,1.10800,0.82952,-0.50755,-0.59148,0.18330,-0.00324,-0.0024,-0.0024,-0.0024,-0.0073,0.1099,0.0073,-0.0073,-0.0889,-5.4769,10.0308,1.5311,-0.1636,-0.0562,-0.0220,1,1,1,1,1,1,1
11.4652,sweep,5,+up,0.24281,1.10800,0.82952,-0.50755,-0.59148,0.18330,-0.00324,-0.0024,-0.0024,-0.0024,-0.0073,0.1099,0.0073,-0.0073,-0.0889,-5.4769,10.0308,1.5311,-0.1636,-0.0562,-0.0220,1,1,1,1,1,1,1
11.5051,sweep,5,+up,0.24281,1.10800,0.82952,-0.50755,-0.59148,0.18330,-0.00324,-0.0024,-0.0024,-0.0024,-0.0073,0.1099,0.0073,-0.0073,-0.0889,-5.4769,10.0308,1.5311,-0.1636,-0.0562,-0.0220,1,1,1,1,1,1,1
11.5450,sweep,5,+up,0.24281,1.10800,0.82952,-0.50755,-0.57317,0.18292,-0.00324,-0.0073,-0.0024,-0.0024,0.0073,0.1538,-0.0073,-0.0073,-0.0752,-5.4769,10.0034,1.5458,-0.1538,-0.0562,-0.0171,1,1,1,1,1,1,1
11.5851,sweep,5,+up,0.24281,1.10800,0.82952,-0.50755,-0.57317,0.18292,-0.00324,-0.0073,-0.0024,-0.0024,0.0073,0.1538,-0.0073,-0.0073,-0.0752,-5.4769,10.0034,1.5458,-0.1538,-0.0562,-0.0171,1,1,1,1,1,1,1
11.6251,sweep,5,+up,0.24281,1.10800,0.82952,-0.50755,-0.56058,0.18292,-0.00324,-0.0024,-0.0024,-0.0024,-0.0073,0.2271,-0.0073,-0.0073,-0.0752,-5.5043,9.9624,1.5458,-0.2076,-0.0513,-0.0220,1,1,1,1,1,1,1
11.6652,sweep,5,+up,0.24281,1.10800,0.82952,-0.50755,-0.56058,0.18292,-0.00324,-0.0024,-0.0024,-0.0024,-0.0073,0.2271,-0.0073,-0.0073,-0.0752,-5.5043,9.9624,1.5458,-0.2076,-0.0513,-0.0220,1,1,1,1,1,1,1
11.7051,sweep,5,+up,0.24281,1.10800,0.82952,-0.50755,-0.56058,0.18292,-0.00324,-0.0024,-0.0024,-0.0024,-0.0073,0.2271,-0.0073,-0.0073,-0.0752,-5.5043,9.9624,1.5458,-0.2076,-0.0513,-0.0220,1,1,1,1,1,1,1
11.7451,sweep,5,+up,0.24281,1.10800,0.82952,-0.50755,-0.54265,0.18292,-0.00324,-0.0024,-0.0024,0.0024,0.0073,0.2418,-0.0220,-0.0073,-0.1026,-5.5179,9.8940,1.5507,-0.1978,-0.0513,-0.0220,1,1,1,1,1,1,1
11.7850,sweep,5,+up,0.24281,1.10800,0.82952,-0.50755,-0.54265,0.18292,-0.00324,-0.0024,-0.0024,0.0024,0.0073,0.2418,-0.0220,-0.0073,-0.1026,-5.5179,9.8940,1.5507,-0.1978,-0.0513,-0.0220,1,1,1,1,1,1,1
11.8250,sweep,5,+up,0.24281,1.10800,0.82952,-0.50755,-0.53044,0.18330,-0.00324,-0.0024,-0.0024,-0.0024,-0.0073,0.0952,0.0220,-0.0073,-0.1026,-5.5179,9.8667,1.5604,-0.2027,-0.0513,-0.0220,1,1,1,1,1,1,1
11.8653,sweep,5,+up,0.24281,1.10800,0.82952,-0.50755,-0.53044,0.18330,-0.00324,-0.0024,-0.0024,-0.0024,-0.0073,0.0952,0.0220,-0.0073,-0.1026,-5.5179,9.8667,1.5604,-0.2027,-0.0513,-0.0220,1,1,1,1,1,1,1
11.9052,sweep,5,+up,0.24281,1.10800,0.82952,-0.50755,-0.53044,0.18330,-0.00324,-0.0024,-0.0024,-0.0024,-0.0073,0.0952,0.0220,-0.0073,-0.1026,-5.5179,9.8667,1.5604,-0.2027,-0.0513,-0.0220,1,1,1,1,1,1,1
11.9451,sweep,5,+up,0.24281,1.10800,0.82952,-0.50755,-0.51366,0.18292,-0.00362,-0.0073,-0.0024,-0.0024,-0.0220,0.1099,-0.0220,-0.0220,-0.1026,-5.5863,9.8393,1.5604,-0.1245,-0.0464,-0.0220,1,1,1,1,1,1,1
11.9851,sweep,5,+up,0.24281,1.10800,0.82952,-0.50755,-0.51366,0.18292,-0.00362,-0.0073,-0.0024,-0.0024,-0.0220,0.1099,-0.0220,-0.0220,-0.1026,-5.5863,9.8393,1.5604,-0.1245,-0.0464,-0.0220,1,1,1,1,1,1,1
12.0250,sweep,5,+up,0.24281,1.10800,0.82952,-0.50755,-0.50183,0.18292,-0.00362,-0.0024,-0.0024,0.0024,-0.0220,0.1392,-0.0073,-0.0073,-0.0889,-5.6000,9.8530,1.5653,-0.1392,-0.0464,-0.0220,1,1,1,1,1,1,1
12.0650,sweep,5,+up,0.24281,1.10800,0.82952,-0.50755,-0.50183,0.18292,-0.00362,-0.0024,-0.0024,0.0024,-0.0220,0.1392,-0.0073,-0.0073,-0.0889,-5.6000,9.8530,1.5653,-0.1392,-0.0464,-0.0220,1,1,1,1,1,1,1
12.1050,sweep,5,+up,0.24281,1.10800,0.82952,-0.50755,-0.50183,0.18292,-0.00362,-0.0024,-0.0024,0.0024,-0.0220,0.1392,-0.0073,-0.0073,-0.0889,-5.6000,9.8530,1.5653,-0.1392,-0.0464,-0.0220,1,1,1,1,1,1,1
12.1450,sweep,5,+up,0.24281,1.10800,0.82952,-0.50755,-0.48314,0.18292,-0.00324,-0.0024,-0.0073,-0.0024,-0.0220,0.2418,-0.0220,-0.0073,-0.0752,-5.5863,9.7983,1.5653,-0.1734,-0.0464,-0.0171,1,1,1,1,1,1,1
12.1851,sweep,5,+up,0.24281,1.10800,0.82952,-0.50755,-0.48314,0.18292,-0.00324,-0.0024,-0.0073,-0.0024,-0.0220,0.2418,-0.0220,-0.0073,-0.0752,-5.5863,9.7983,1.5653,-0.1734,-0.0464,-0.0171,1,1,1,1,1,1,1
12.2249,sweep,5,+up,0.24281,1.10800,0.82952,-0.50755,-0.47093,0.18330,-0.00362,-0.0024,-0.0024,-0.0024,-0.0073,0.1392,0.0220,-0.0073,-0.0889,-5.5863,9.7709,1.5751,-0.1783,-0.0513,-0.0220,1,1,1,1,1,1,1
12.2650,sweep,5,+up,0.24281,1.10800,0.82952,-0.50755,-0.47093,0.18330,-0.00362,-0.0024,-0.0024,-0.0024,-0.0073,0.1392,0.0220,-0.0073,-0.0889,-5.5863,9.7709,1.5751,-0.1783,-0.0513,-0.0220,1,1,1,1,1,1,1
12.3049,sweep,5,+up,0.24281,1.10800,0.82952,-0.50755,-0.47093,0.18330,-0.00362,-0.0024,-0.0024,-0.0024,-0.0073,0.1392,0.0220,-0.0073,-0.0889,-5.5863,9.7709,1.5751,-0.1783,-0.0513,-0.0220,1,1,1,1,1,1,1
12.3450,sweep,5,+up,0.24281,1.10800,0.82952,-0.50755,-0.45338,0.18292,-0.00324,0.0024,-0.0024,-0.0024,-0.0220,0.1392,-0.0073,-0.0220,-0.1026,-5.5726,9.7846,1.5800,-0.1587,-0.0464,-0.0220,1,1,1,1,1,1,1
12.3850,sweep,5,+up,0.24281,1.10800,0.82952,-0.50755,-0.45338,0.18292,-0.00324,0.0024,-0.0024,-0.0024,-0.0220,0.1392,-0.0073,-0.0220,-0.1026,-5.5726,9.7846,1.5800,-0.1587,-0.0464,-0.0220,1,1,1,1,1,1,1
12.4251,sweep,5,+up,0.24281,1.10800,0.82952,-0.50755,-0.44347,0.18292,-0.00324,-0.0024,-0.0024,-0.0024,-0.0220,0.0806,-0.0073,-0.0073,-0.1026,-5.5726,9.7846,1.5800,-0.0611,-0.0464,-0.0220,1,1,1,1,1,1,1
12.4651,sweep,5,+up,0.24281,1.10800,0.82952,-0.50755,-0.44347,0.18292,-0.00324,-0.0024,-0.0024,-0.0024,-0.0220,0.0806,-0.0073,-0.0073,-0.1026,-5.5726,9.7846,1.5800,-0.0611,-0.0464,-0.0220,1,1,1,1,1,1,1
12.5051,sweep,5,+up,0.24281,1.10800,0.82952,-0.50755,-0.44347,0.18292,-0.00324,-0.0024,-0.0024,-0.0024,-0.0220,0.0806,-0.0073,-0.0073,-0.1026,-5.5726,9.7846,1.5800,-0.0611,-0.0464,-0.0220,1,1,1,1,1,1,1
12.5450,sweep,5,+up,0.24281,1.10800,0.82952,-0.50755,-0.42401,0.18292,-0.00324,0.0024,-0.0024,-0.0024,-0.0073,0.1538,-0.0366,0.0073,-0.1162,-5.5726,9.7983,1.5897,-0.1148,-0.0464,-0.0171,1,1,1,1,1,1,1
12.5850,sweep,5,+up,0.24281,1.10800,0.82952,-0.50755,-0.42401,0.18292,-0.00324,0.0024,-0.0024,-0.0024,-0.0073,0.1538,-0.0366,0.0073,-0.1162,-5.5726,9.7983,1.5897,-0.1148,-0.0464,-0.0171,1,1,1,1,1,1,1
12.6249,sweep,5,+up,0.24281,1.10800,0.82952,-0.50755,-0.41180,0.18292,-0.00324,-0.0024,0.0024,-0.0024,0.0073,0.2125,-0.0073,-0.0073,-0.1026,-5.5726,9.7162,1.5849,-0.1392,-0.0464,-0.0220,1,1,1,1,1,1,1
12.6652,sweep,5,+up,0.24281,1.10800,0.82952,-0.50755,-0.41180,0.18292,-0.00324,-0.0024,0.0024,-0.0024,0.0073,0.2125,-0.0073,-0.0073,-0.1026,-5.5726,9.7162,1.5849,-0.1392,-0.0464,-0.0220,1,1,1,1,1,1,1
12.7050,sweep,5,+up,0.24281,1.10800,0.82952,-0.50755,-0.41180,0.18292,-0.00324,-0.0024,0.0024,-0.0024,0.0073,0.2125,-0.0073,-0.0073,-0.1026,-5.5726,9.7162,1.5849,-0.1392,-0.0464,-0.0220,1,1,1,1,1,1,1
12.7452,sweep,5,+up,0.24281,1.10800,0.82952,-0.50755,-0.39387,0.18292,-0.00362,0.0024,-0.0024,-0.0073,-0.0073,0.1538,-0.0220,-0.0220,-0.1299,-5.5726,9.6752,1.6044,-0.1294,-0.0415,-0.0220,1,1,1,1,1,1,1
12.7851,sweep,5,+up,0.24281,1.10800,0.82952,-0.50755,-0.39387,0.18292,-0.00362,0.0024,-0.0024,-0.0073,-0.0073,0.1538,-0.0220,-0.0220,-0.1299,-5.5726,9.6752,1.6044,-0.1294,-0.0415,-0.0220,1,1,1,1,1,1,1
12.8249,sweep,5,+up,0.24281,1.10800,0.82952,-0.50755,-0.38319,0.18292,-0.00324,-0.0024,-0.0024,-0.0024,-0.0073,0.1538,-0.0073,-0.0073,-0.1436,-5.6000,9.6752,1.5897,-0.0659,-0.0464,-0.0269,1,1,1,1,1,1,1
12.8651,sweep,5,+up,0.24281,1.10800,0.82952,-0.50755,-0.38319,0.18292,-0.00324,-0.0024,-0.0024,-0.0024,-0.0073,0.1538,-0.0073,-0.0073,-0.1436,-5.6000,9.6752,1.5897,-0.0659,-0.0464,-0.0269,1,1,1,1,1,1,1
12.9051,sweep,5,+up,0.24281,1.10800,0.82952,-0.50755,-0.38319,0.18292,-0.00324,-0.0024,-0.0024,-0.0024,-0.0073,0.1538,-0.0073,-0.0073,-0.1436,-5.6000,9.6752,1.5897,-0.0659,-0.0464,-0.0269,1,1,1,1,1,1,1
12.9451,sweep,5,+up,0.24281,1.10800,0.82952,-0.50755,-0.36526,0.18292,-0.00324,-0.0024,-0.0024,-0.0024,-0.0366,0.0513,-0.0220,-0.0073,-0.1436,-5.5863,9.6205,1.5946,-0.0659,-0.0464,-0.0220,1,1,1,1,1,1,1
12.9849,sweep,5,+up,0.24281,1.10800,0.82952,-0.50755,-0.36526,0.18292,-0.00324,-0.0024,-0.0024,-0.0024,-0.0366,0.0513,-0.0220,-0.0073,-0.1436,-5.5863,9.6205,1.5946,-0.0659,-0.0464,-0.0220,1,1,1,1,1,1,1
13.0250,sweep,5,+up,0.24281,1.10800,0.82952,-0.50717,-0.35191,0.18292,-0.00324,-0.0024,-0.0024,-0.0024,0.0073,0.1831,-0.0073,-0.0073,-0.1436,-5.5863,9.6205,1.6044,-0.1294,-0.0415,-0.0269,1,1,1,1,1,1,1
13.0651,sweep,5,+up,0.24281,1.10800,0.82952,-0.50717,-0.35191,0.18292,-0.00324,-0.0024,-0.0024,-0.0024,0.0073,0.1831,-0.0073,-0.0073,-0.1436,-5.5863,9.6205,1.6044,-0.1294,-0.0415,-0.0269,1,1,1,1,1,1,1
13.1050,sweep,5,+up,0.24281,1.10800,0.82952,-0.50717,-0.35191,0.18292,-0.00324,-0.0024,-0.0024,-0.0024,0.0073,0.1831,-0.0073,-0.0073,-0.1436,-5.5863,9.6205,1.6044,-0.1294,-0.0415,-0.0269,1,1,1,1,1,1,1
13.1452,sweep,5,+up,0.24281,1.10800,0.82952,-0.50755,-0.33665,0.18292,-0.00324,0.0024,0.0024,-0.0024,-0.0366,0.1538,-0.0073,-0.0220,-0.1299,-5.5726,9.5521,1.6190,-0.0122,-0.0415,-0.0269,1,1,1,1,1,1,1
13.1850,sweep,5,+up,0.24281,1.10800,0.82952,-0.50755,-0.33665,0.18292,-0.00324,0.0024,0.0024,-0.0024,-0.0366,0.1538,-0.0073,-0.0220,-0.1299,-5.5726,9.5521,1.6190,-0.0122,-0.0415,-0.0269,1,1,1,1,1,1,1
13.2250,sweep,5,+up,0.24281,1.10800,0.82952,-0.50755,-0.32292,0.18292,-0.00324,-0.0024,0.0024,0.0024,-0.0073,0.1538,-0.0220,-0.0073,-0.1573,-5.6000,9.5248,1.6190,-0.0904,-0.0464,-0.0220,1,1,1,1,1,1,1
13.2649,sweep,5,+up,0.24281,1.10800,0.82952,-0.50755,-0.32292,0.18292,-0.00324,-0.0024,0.0024,0.0024,-0.0073,0.1538,-0.0220,-0.0073,-0.1573,-5.6000,9.5248,1.6190,-0.0904,-0.0464,-0.0220,1,1,1,1,1,1,1
13.3050,sweep,5,+up,0.24281,1.10800,0.82952,-0.50755,-0.32292,0.18292,-0.00324,-0.0024,0.0024,0.0024,-0.0073,0.1538,-0.0220,-0.0073,-0.1573,-5.6000,9.5248,1.6190,-0.0904,-0.0464,-0.0220,1,1,1,1,1,1,1
13.3450,sweep,5,+up,0.24281,1.10800,0.82952,-0.50755,-0.30499,0.18330,-0.00324,0.0024,-0.0073,0.0024,0.0073,0.1978,0.0220,-0.0073,-0.1436,-5.6273,9.5248,1.6337,-0.0757,-0.0464,-0.0220,1,1,1,1,1,1,1
13.3849,sweep,5,+up,0.24281,1.10800,0.82952,-0.50755,-0.30499,0.18330,-0.00324,0.0024,-0.0073,0.0024,0.0073,0.1978,0.0220,-0.0073,-0.1436,-5.6273,9.5248,1.6337,-0.0757,-0.0464,-0.0220,1,1,1,1,1,1,1
13.4250,sweep,5,+up,0.24281,1.10761,0.82952,-0.50717,-0.29355,0.18292,-0.00324,-0.0024,-0.0073,-0.0024,-0.0073,0.0952,-0.0073,-0.0073,-0.1436,-5.6273,9.5658,1.6386,-0.0464,-0.0415,-0.0220,1,1,1,1,1,1,1
13.4650,sweep,5,+up,0.24281,1.10761,0.82952,-0.50717,-0.29355,0.18292,-0.00324,-0.0024,-0.0073,-0.0024,-0.0073,0.0952,-0.0073,-0.0073,-0.1436,-5.6273,9.5658,1.6386,-0.0464,-0.0415,-0.0220,1,1,1,1,1,1,1
13.5050,sweep,5,+up,0.24281,1.10761,0.82952,-0.50717,-0.29355,0.18292,-0.00324,-0.0024,-0.0073,-0.0024,-0.0073,0.0952,-0.0073,-0.0073,-0.1436,-5.6273,9.5658,1.6386,-0.0464,-0.0415,-0.0220,1,1,1,1,1,1,1
13.5450,sweep,5,+up,0.24281,1.10800,0.82952,-0.50755,-0.27714,0.18330,-0.00324,-0.0073,-0.0024,-0.0024,-0.0073,0.0659,0.0073,0.0073,-0.1573,-5.6547,9.5248,1.6435,-0.0122,-0.0464,-0.0171,1,1,1,1,1,1,1
13.5850,sweep,5,+up,0.24281,1.10800,0.82952,-0.50755,-0.27714,0.18330,-0.00324,-0.0073,-0.0024,-0.0024,-0.0073,0.0659,0.0073,0.0073,-0.1573,-5.6547,9.5248,1.6435,-0.0122,-0.0464,-0.0171,1,1,1,1,1,1,1
13.6252,sweep,5,+up,0.24281,1.10800,0.82952,-0.50755,-0.26379,0.18292,-0.00324,0.0024,-0.0024,-0.0024,-0.0220,0.1392,-0.0073,-0.0073,-0.1436,-5.6410,9.5111,1.6532,-0.0415,-0.0366,-0.0171,1,1,1,1,1,1,1
13.6652,sweep,5,+up,0.24281,1.10800,0.82952,-0.50755,-0.26379,0.18292,-0.00324,0.0024,-0.0024,-0.0024,-0.0220,0.1392,-0.0073,-0.0073,-0.1436,-5.6410,9.5111,1.6532,-0.0415,-0.0366,-0.0171,1,1,1,1,1,1,1
13.7052,sweep,5,+up,0.24281,1.10800,0.82952,-0.50755,-0.26379,0.18292,-0.00324,0.0024,-0.0024,-0.0024,-0.0220,0.1392,-0.0073,-0.0073,-0.1436,-5.6410,9.5111,1.6532,-0.0415,-0.0366,-0.0171,1,1,1,1,1,1,1
13.7453,sweep,5,+up,0.24281,1.10800,0.82952,-0.50717,-0.24701,0.18292,-0.00324,-0.0024,-0.0024,-0.0024,-0.0073,0.2418,-0.0220,-0.0073,-0.1299,-5.6410,9.4427,1.6532,-0.0122,-0.0415,-0.0171,1,1,1,1,1,1,1
13.7852,sweep,5,+up,0.24281,1.10800,0.82952,-0.50717,-0.24701,0.18292,-0.00324,-0.0024,-0.0024,-0.0024,-0.0073,0.2418,-0.0220,-0.0073,-0.1299,-5.6410,9.4427,1.6532,-0.0122,-0.0415,-0.0171,1,1,1,1,1,1,1
13.8253,sweep,5,+up,0.24281,1.10800,0.82952,-0.50717,-0.23442,0.18292,-0.00324,-0.0073,-0.0024,-0.0024,-0.0220,0.0659,-0.0220,-0.0073,-0.1436,-5.6000,9.4154,1.6581,-0.0366,-0.0415,-0.0171,1,1,1,1,1,1,1
13.8650,sweep,5,+up,0.24281,1.10800,0.82952,-0.50717,-0.23442,0.18292,-0.00324,-0.0073,-0.0024,-0.0024,-0.0220,0.0659,-0.0220,-0.0073,-0.1436,-5.6000,9.4154,1.6581,-0.0366,-0.0415,-0.0171,1,1,1,1,1,1,1
13.9053,sweep,5,+up,0.24281,1.10800,0.82952,-0.50717,-0.23442,0.18292,-0.00324,-0.0073,-0.0024,-0.0024,-0.0220,0.0659,-0.0220,-0.0073,-0.1436,-5.6000,9.4154,1.6581,-0.0366,-0.0415,-0.0171,1,1,1,1,1,1,1
13.9450,sweep,5,+up,0.24281,1.10800,0.82952,-0.50717,-0.21611,0.18292,-0.00324,0.0024,-0.0073,-0.0024,0.0073,0.1245,-0.0073,-0.0073,-0.1573,-5.6410,9.3744,1.6484,-0.0415,-0.0366,-0.0220,1,1,1,1,1,1,1
13.9850,sweep,5,+up,0.24281,1.10800,0.82952,-0.50717,-0.21611,0.18292,-0.00324,0.0024,-0.0073,-0.0024,0.0073,0.1245,-0.0073,-0.0073,-0.1573,-5.6410,9.3744,1.6484,-0.0415,-0.0366,-0.0220,1,1,1,1,1,1,1
14.0250,sweep,5,+up,0.24281,1.10800,0.82952,-0.50717,-0.20771,0.18292,-0.00324,-0.0073,-0.0024,-0.0024,0.0073,0.0513,-0.0220,-0.0220,-0.1299,-5.6547,9.3880,1.6581,0.0757,-0.0415,-0.0171,1,1,1,1,1,1,1
14.0650,sweep,5,+up,0.24281,1.10800,0.82952,-0.50717,-0.20771,0.18292,-0.00324,-0.0073,-0.0024,-0.0024,0.0073,0.0513,-0.0220,-0.0220,-0.1299,-5.6547,9.3880,1.6581,0.0757,-0.0415,-0.0171,1,1,1,1,1,1,1
14.1051,sweep,5,+up,0.24281,1.10800,0.82952,-0.50717,-0.20771,0.18292,-0.00324,-0.0073,-0.0024,-0.0024,0.0073,0.0513,-0.0220,-0.0220,-0.1299,-5.6547,9.3880,1.6581,0.0757,-0.0415,-0.0171,1,1,1,1,1,1,1
14.1449,sweep,5,+up,0.24281,1.10800,0.82952,-0.50717,-0.18673,0.18292,-0.00324,-0.0073,-0.0024,-0.0073,0.0073,0.1538,0.0073,-0.0073,-0.1299,-5.6547,9.4154,1.6435,-0.0317,-0.0415,-0.0171,1,1,1,1,1,1,1
14.1850,sweep,5,+up,0.24281,1.10800,0.82952,-0.50717,-0.18673,0.18292,-0.00324,-0.0073,-0.0024,-0.0073,0.0073,0.1538,0.0073,-0.0073,-0.1299,-5.6547,9.4154,1.6435,-0.0317,-0.0415,-0.0171,1,1,1,1,1,1,1
14.2249,sweep,5,+up,0.24281,1.10800,0.82952,-0.50755,-0.17567,0.18292,-0.00324,-0.0024,-0.0024,-0.0024,-0.0073,0.2711,-0.0220,-0.0073,-0.1299,-5.6273,9.3744,1.6484,0.0073,-0.0366,-0.0171,1,1,1,1,1,1,1
14.2651,sweep,5,+up,0.24281,1.10800,0.82952,-0.50755,-0.17567,0.18292,-0.00324,-0.0024,-0.0024,-0.0024,-0.0073,0.2711,-0.0220,-0.0073,-0.1299,-5.6273,9.3744,1.6484,0.0073,-0.0366,-0.0171,1,1,1,1,1,1,1
14.3049,sweep,5,+up,0.24281,1.10800,0.82952,-0.50755,-0.17567,0.18292,-0.00324,-0.0024,-0.0024,-0.0024,-0.0073,0.2711,-0.0220,-0.0073,-0.1299,-5.6273,9.3744,1.6484,0.0073,-0.0366,-0.0171,1,1,1,1,1,1,1
14.3450,sweep,5,+up,0.24281,1.10800,0.82952,-0.50717,-0.15889,0.18292,-0.00324,-0.0073,-0.0024,-0.0024,-0.0073,0.1392,-0.0220,0.0073,-0.1436,-5.6410,9.3744,1.6435,0.0366,-0.0366,-0.0220,1,1,1,1,1,1,1
14.3850,sweep,5,+up,0.24281,1.10800,0.82952,-0.50717,-0.15889,0.18292,-0.00324,-0.0073,-0.0024,-0.0024,-0.0073,0.1392,-0.0220,0.0073,-0.1436,-5.6410,9.3744,1.6435,0.0366,-0.0366,-0.0220,1,1,1,1,1,1,1
14.4252,sweep,5,+up,0.24281,1.10800,0.82952,-0.50755,-0.14744,0.18292,-0.00324,-0.0024,-0.0024,-0.0024,-0.0073,0.1099,-0.0073,-0.0073,-0.1436,-5.6410,9.3470,1.6435,0.0464,-0.0366,-0.0171,1,1,1,1,1,1,1
14.4650,sweep,5,+up,0.24281,1.10800,0.82952,-0.50755,-0.14744,0.18292,-0.00324,-0.0024,-0.0024,-0.0024,-0.0073,0.1099,-0.0073,-0.0073,-0.1436,-5.6410,9.3470,1.6435,0.0464,-0.0366,-0.0171,1,1,1,1,1,1,1
14.5053,sweep,5,+up,0.24281,1.10800,0.82952,-0.50755,-0.14744,0.18292,-0.00324,-0.0024,-0.0024,-0.0024,-0.0073,0.1099,-0.0073,-0.0073,-0.1436,-5.6410,9.3470,1.6435,0.0464,-0.0366,-0.0171,1,1,1,1,1,1,1
14.5457,sweep,5,+up,0.24281,1.10800,0.82952,-0.50755,-0.12913,0.18292,-0.00362,-0.0024,-0.0024,-0.0024,-0.0073,0.0513,-0.0220,-0.0073,-0.1436,-5.6410,9.3060,1.6484,0.0513,-0.0317,-0.0220,1,1,1,1,1,1,1
14.5850,sweep,5,+up,0.24281,1.10800,0.82952,-0.50755,-0.12913,0.18292,-0.00362,-0.0024,-0.0024,-0.0024,-0.0073,0.0513,-0.0220,-0.0073,-0.1436,-5.6410,9.3060,1.6484,0.0513,-0.0317,-0.0220,1,1,1,1,1,1,1
14.6255,sweep,5,+up,0.24281,1.10800,0.82952,-0.50717,-0.11578,0.18292,-0.00324,-0.0024,-0.0024,-0.0024,-0.0073,0.2418,-0.0073,-0.0073,-0.1436,-5.6273,9.2923,1.6532,0.0171,-0.0220,-0.0220,1,1,1,1,1,1,1
14.6649,sweep,5,+up,0.24281,1.10800,0.82952,-0.50717,-0.11578,0.18292,-0.00324,-0.0024,-0.0024,-0.0024,-0.0073,0.2418,-0.0073,-0.0073,-0.1436,-5.6273,9.2923,1.6532,0.0171,-0.0220,-0.0220,1,1,1,1,1,1,1
14.7051,sweep,5,+up,0.24281,1.10800,0.82952,-0.50717,-0.11578,0.18292,-0.00324,-0.0024,-0.0024,-0.0024,-0.0073,0.2418,-0.0073,-0.0073,-0.1436,-5.6273,9.2923,1.6532,0.0171,-0.0220,-0.0220,1,1,1,1,1,1,1
14.7454,sweep,5,+up,0.24281,1.10800,0.82952,-0.50717,-0.10090,0.18292,-0.00324,-0.0024,-0.0024,-0.0024,-0.0073,0.1538,0.0073,-0.0073,-0.1436,-5.6684,9.3060,1.6630,0.1197,-0.0220,-0.0220,1,1,1,1,1,1,1
14.7852,sweep,5,+up,0.24281,1.10800,0.82952,-0.50717,-0.10090,0.18292,-0.00324,-0.0024,-0.0024,-0.0024,-0.0073,0.1538,0.0073,-0.0073,-0.1436,-5.6684,9.3060,1.6630,0.1197,-0.0220,-0.0220,1,1,1,1,1,1,1
14.8250,sweep,5,+up,0.24281,1.10800,0.82952,-0.50717,-0.08755,0.18292,-0.00324,-0.0024,0.0024,-0.0024,-0.0073,0.1538,-0.0220,0.0073,-0.1573,-5.6547,9.2923,1.6630,0.0513,-0.0220,-0.0220,1,1,1,1,1,1,1
14.8654,sweep,5,+up,0.24281,1.10800,0.82952,-0.50717,-0.08755,0.18292,-0.00324,-0.0024,0.0024,-0.0024,-0.0073,0.1538,-0.0220,0.0073,-0.1573,-5.6547,9.2923,1.6630,0.0513,-0.0220,-0.0220,1,1,1,1,1,1,1
14.9054,sweep,5,+up,0.24281,1.10800,0.82952,-0.50717,-0.08755,0.18292,-0.00324,-0.0024,0.0024,-0.0024,-0.0073,0.1538,-0.0220,0.0073,-0.1573,-5.6547,9.2923,1.6630,0.0513,-0.0220,-0.0220,1,1,1,1,1,1,1
14.9452,sweep,5,+up,0.24281,1.10800,0.82952,-0.50717,-0.06962,0.18330,-0.00324,-0.0024,-0.0024,-0.0024,-0.0073,0.1392,0.0073,-0.0073,-0.1436,-5.6957,9.2786,1.6581,0.0611,-0.0220,-0.0269,1,1,1,1,1,1,1
14.9851,sweep,5,+up,0.24281,1.10800,0.82952,-0.50717,-0.06962,0.18330,-0.00324,-0.0024,-0.0024,-0.0024,-0.0073,0.1392,0.0073,-0.0073,-0.1436,-5.6957,9.2786,1.6581,0.0611,-0.0220,-0.0269,1,1,1,1,1,1,1
15.0251,sweep,5,+up,0.24281,1.10800,0.82952,-0.50717,-0.05703,0.18292,-0.00362,-0.0024,-0.0024,-0.0073,0.0073,0.0806,-0.0220,-0.0220,-0.1299,-5.6957,9.2376,1.6484,0.0366,-0.0171,-0.0269,1,1,1,1,1,1,1
15.0653,sweep,5,+up,0.24281,1.10800,0.82952,-0.50717,-0.05703,0.18292,-0.00362,-0.0024,-0.0024,-0.0073,0.0073,0.0806,-0.0220,-0.0220,-0.1299,-5.6957,9.2376,1.6484,0.0366,-0.0171,-0.0269,1,1,1,1,1,1,1
15.1051,sweep,5,+up,0.24281,1.10800,0.82952,-0.50717,-0.05703,0.18292,-0.00362,-0.0024,-0.0024,-0.0073,0.0073,0.0806,-0.0220,-0.0220,-0.1299,-5.6957,9.2376,1.6484,0.0366,-0.0171,-0.0269,1,1,1,1,1,1,1
15.1452,sweep,5,+up,0.24281,1.10800,0.82952,-0.50717,-0.04063,0.18292,-0.00324,-0.0024,-0.0024,-0.0024,-0.0220,0.1685,-0.0366,-0.0073,-0.1299,-5.6821,9.1829,1.6532,0.1197,-0.0171,-0.0269,1,1,1,1,1,1,1
15.1849,sweep,5,+up,0.24281,1.10800,0.82952,-0.50717,-0.04063,0.18292,-0.00324,-0.0024,-0.0024,-0.0024,-0.0220,0.1685,-0.0366,-0.0073,-0.1299,-5.6821,9.1829,1.6532,0.1197,-0.0171,-0.0269,1,1,1,1,1,1,1
15.2253,sweep,5,+up,0.24281,1.10800,0.82952,-0.50717,-0.02880,0.18292,-0.00324,-0.0024,-0.0024,-0.0024,-0.0073,0.1392,-0.0220,-0.0073,-0.1436,-5.6684,9.1966,1.6581,0.1148,-0.0171,-0.0269,1,1,1,1,1,1,1
15.2649,sweep,5,+up,0.24281,1.10800,0.82952,-0.50717,-0.02880,0.18292,-0.00324,-0.0024,-0.0024,-0.0024,-0.0073,0.1392,-0.0220,-0.0073,-0.1436,-5.6684,9.1966,1.6581,0.1148,-0.0171,-0.0269,1,1,1,1,1,1,1
15.3050,sweep,5,+up,0.24281,1.10800,0.82952,-0.50717,-0.02880,0.18292,-0.00324,-0.0024,-0.0024,-0.0024,-0.0073,0.1392,-0.0220,-0.0073,-0.1436,-5.6684,9.1966,1.6581,0.1148,-0.0171,-0.0269,1,1,1,1,1,1,1
15.3448,sweep,5,+up,0.24281,1.10800,0.82952,-0.50717,-0.00973,0.18330,-0.00324,-0.0024,-0.0024,-0.0024,0.0073,0.0952,-0.0073,-0.0073,-0.1573,-5.6821,9.1966,1.6532,0.0659,-0.0122,-0.0269,1,1,1,1,1,1,1
15.3850,sweep,5,+up,0.24281,1.10800,0.82952,-0.50717,-0.00973,0.18330,-0.00324,-0.0024,-0.0024,-0.0024,0.0073,0.0952,-0.0073,-0.0073,-0.1573,-5.6821,9.1966,1.6532,0.0659,-0.0122,-0.0269,1,1,1,1,1,1,1
15.4249,sweep,5,+up,0.24281,1.10800,0.82952,-0.50717,0.00134,0.18292,-0.00324,-0.0024,-0.0024,-0.0024,0.0073,0.0806,-0.0073,-0.0073,-0.1573,-5.7094,9.1966,1.6581,0.1294,-0.0122,-0.0317,1,1,1,1,1,1,1
15.4650,sweep,5,+up,0.24281,1.10800,0.82952,-0.50717,0.00134,0.18292,-0.00324,-0.0024,-0.0024,-0.0024,0.0073,0.0806,-0.0073,-0.0073,-0.1573,-5.7094,9.1966,1.6581,0.1294,-0.0122,-0.0317,1,1,1,1,1,1,1
15.5051,sweep,5,+up,0.24281,1.10800,0.82952,-0.50717,0.00134,0.18292,-0.00324,-0.0024,-0.0024,-0.0024,0.0073,0.0806,-0.0073,-0.0073,-0.1573,-5.7094,9.1966,1.6581,0.1294,-0.0122,-0.0317,1,1,1,1,1,1,1
15.5451,sweep,5,+up,0.24281,1.10800,0.82952,-0.50717,0.01888,0.18330,-0.00362,-0.0024,-0.0024,0.0024,-0.0073,0.1099,0.0220,-0.0073,-0.1846,-5.6957,9.1145,1.6532,0.1538,-0.0073,-0.0269,1,1,1,1,1,1,1
15.5852,sweep,5,+up,0.24281,1.10800,0.82952,-0.50717,0.01888,0.18330,-0.00362,-0.0024,-0.0024,0.0024,-0.0073,0.1099,0.0220,-0.0073,-0.1846,-5.6957,9.1145,1.6532,0.1538,-0.0073,-0.0269,1,1,1,1,1,1,1
15.6249,sweep,5,+up,0.24281,1.10800,0.82952,-0.50717,0.03109,0.18330,-0.00324,-0.0024,-0.0024,-0.0024,0.0073,0.1685,-0.0073,-0.0073,-0.1983,-5.6821,9.0872,1.6484,0.1490,-0.0073,-0.0220,1,1,1,1,1,1,1
15.6650,sweep,5,+up,0.24281,1.10800,0.82952,-0.50717,0.03109,0.18330,-0.00324,-0.0024,-0.0024,-0.0024,0.0073,0.1685,-0.0073,-0.0073,-0.1983,-5.6821,9.0872,1.6484,0.1490,-0.0073,-0.0220,1,1,1,1,1,1,1
15.7051,sweep,5,+up,0.24281,1.10800,0.82952,-0.50717,0.03109,0.18330,-0.00324,-0.0024,-0.0024,-0.0024,0.0073,0.1685,-0.0073,-0.0073,-0.1983,-5.6821,9.0872,1.6484,0.1490,-0.0073,-0.0220,1,1,1,1,1,1,1
15.7452,sweep,5,+up,0.24281,1.10800,0.82952,-0.50717,0.04978,0.18330,-0.00324,-0.0024,-0.0073,-0.0024,-0.0073,0.1538,-0.0073,-0.0073,-0.1846,-5.6821,9.0872,1.6484,0.1099,-0.0122,-0.0269,1,1,1,1,1,1,1
15.7850,sweep,5,+up,0.24281,1.10800,0.82952,-0.50717,0.04978,0.18330,-0.00324,-0.0024,-0.0073,-0.0024,-0.0073,0.1538,-0.0073,-0.0073,-0.1846,-5.6821,9.0872,1.6484,0.1099,-0.0122,-0.0269,1,1,1,1,1,1,1
15.8250,sweep,5,+up,0.24281,1.10800,0.82952,-0.50717,0.06123,0.18330,-0.00362,-0.0024,-0.0024,-0.0024,-0.0073,0.0952,-0.0073,-0.0220,-0.1983,-5.7094,9.1145,1.6581,0.1392,-0.0122,-0.0269,1,1,1,1,1,1,1
15.8653,sweep,5,+up,0.24281,1.10800,0.82952,-0.50717,0.06123,0.18330,-0.00362,-0.0024,-0.0024,-0.0024,-0.0073,0.0952,-0.0073,-0.0220,-0.1983,-5.7094,9.1145,1.6581,0.1392,-0.0122,-0.0269,1,1,1,1,1,1,1
15.9050,sweep,5,+up,0.24281,1.10800,0.82952,-0.50717,0.06123,0.18330,-0.00362,-0.0024,-0.0024,-0.0024,-0.0073,0.0952,-0.0073,-0.0220,-0.1983,-5.7094,9.1145,1.6581,0.1392,-0.0122,-0.0269,1,1,1,1,1,1,1
15.9450,sweep,5,+up,0.24243,1.10800,0.82952,-0.50717,0.07877,0.18330,-0.00324,-0.0073,-0.0024,-0.0024,-0.0073,0.1245,0.0073,-0.0073,-0.1846,-5.6957,9.0735,1.6532,0.1636,-0.0171,-0.0269,1,1,1,1,1,1,1
15.9851,sweep,5,+up,0.24243,1.10800,0.82952,-0.50717,0.07877,0.18330,-0.00324,-0.0073,-0.0024,-0.0024,-0.0073,0.1245,0.0073,-0.0073,-0.1846,-5.6957,9.0735,1.6532,0.1636,-0.0171,-0.0269,1,1,1,1,1,1,1
16.0251,sweep,5,+up,0.24281,1.10800,0.82952,-0.50755,0.09022,0.18330,-0.00324,0.0024,-0.0024,-0.0073,-0.0073,0.1538,0.0073,-0.0073,-0.1709,-5.6957,9.0872,1.6630,0.1978,-0.0073,-0.0269,1,1,1,1,1,1,1
16.0651,sweep,5,+up,0.24281,1.10800,0.82952,-0.50755,0.09022,0.18330,-0.00324,0.0024,-0.0024,-0.0073,-0.0073,0.1538,0.0073,-0.0073,-0.1709,-5.6957,9.0872,1.6630,0.1978,-0.0073,-0.0269,1,1,1,1,1,1,1
16.1049,sweep,5,+up,0.24281,1.10800,0.82952,-0.50755,0.09022,0.18330,-0.00324,0.0024,-0.0024,-0.0073,-0.0073,0.1538,0.0073,-0.0073,-0.1709,-5.6957,9.0872,1.6630,0.1978,-0.0073,-0.0269,1,1,1,1,1,1,1
16.1450,sweep,5,+up,0.24281,1.10761,0.82952,-0.50755,0.10777,0.18330,-0.00324,-0.0073,-0.0024,-0.0024,-0.0073,0.1538,0.0073,-0.0220,-0.1846,-5.7231,9.0598,1.6630,0.2418,-0.0024,-0.0269,1,1,1,1,1,1,1
16.1851,sweep,5,+up,0.24281,1.10761,0.82952,-0.50755,0.10777,0.18330,-0.00324,-0.0073,-0.0024,-0.0024,-0.0073,0.1538,0.0073,-0.0220,-0.1846,-5.7231,9.0598,1.6630,0.2418,-0.0024,-0.0269,1,1,1,1,1,1,1
16.2249,sweep,5,+up,0.24281,1.10800,0.82952,-0.50717,0.12188,0.18330,-0.00362,-0.0024,-0.0024,-0.0024,-0.0073,0.1245,-0.0073,-0.0220,-0.1846,-5.7231,9.0325,1.6679,0.1001,-0.0073,-0.0269,1,1,1,1,1,1,1
16.2651,sweep,5,+up,0.24281,1.10800,0.82952,-0.50717,0.12188,0.18330,-0.00362,-0.0024,-0.0024,-0.0024,-0.0073,0.1245,-0.0073,-0.0220,-0.1846,-5.7231,9.0325,1.6679,0.1001,-0.0073,-0.0269,1,1,1,1,1,1,1
16.3050,sweep,5,+up,0.24281,1.10800,0.82952,-0.50717,0.12188,0.18330,-0.00362,-0.0024,-0.0024,-0.0024,-0.0073,0.1245,-0.0073,-0.0220,-0.1846,-5.7231,9.0325,1.6679,0.1001,-0.0073,-0.0269,1,1,1,1,1,1,1
16.3450,sweep,5,+up,0.24281,1.10800,0.82952,-0.50717,0.13867,0.18330,-0.00324,-0.0073,-0.0024,-0.0073,0.0073,0.1831,0.0073,-0.0073,-0.1846,-5.6957,9.0462,1.6679,0.1978,-0.0073,-0.0269,1,1,1,1,1,1,1
16.3849,sweep,5,+up,0.24281,1.10800,0.82952,-0.50717,0.13867,0.18330,-0.00324,-0.0073,-0.0024,-0.0073,0.0073,0.1831,0.0073,-0.0073,-0.1846,-5.6957,9.0462,1.6679,0.1978,-0.0073,-0.0269,1,1,1,1,1,1,1
16.4250,sweep,5,+up,0.24281,1.10800,0.82952,-0.50717,0.15011,0.18330,-0.00324,-0.0024,-0.0024,-0.0024,0.0073,0.1099,-0.0073,-0.0073,-0.1846,-5.6547,9.0325,1.6728,0.2125,-0.0073,-0.0269,1,1,1,1,1,1,1
16.4651,sweep,5,+up,0.24281,1.10800,0.82952,-0.50717,0.15011,0.18330,-0.00324,-0.0024,-0.0024,-0.0024,0.0073,0.1099,-0.0073,-0.0073,-0.1846,-5.6547,9.0325,1.6728,0.2125,-0.0073,-0.0269,1,1,1,1,1,1,1
16.5051,sweep,5,+up,0.24281,1.10800,0.82952,-0.50717,0.15011,0.18330,-0.00324,-0.0024,-0.0024,-0.0024,0.0073,0.1099,-0.0073,-0.0073,-0.1846,-5.6547,9.0325,1.6728,0.2125,-0.0073,-0.0269,1,1,1,1,1,1,1
16.5450,sweep,5,+up,0.24243,1.10800,0.82952,-0.50717,0.16766,0.18330,-0.00362,-0.0073,-0.0024,-0.0024,-0.0220,0.1099,0.0073,-0.0220,-0.2120,-5.6410,9.0051,1.6679,0.2564,-0.0073,-0.0317,1,1,1,1,1,1,1
16.5849,sweep,5,+up,0.24243,1.10800,0.82952,-0.50717,0.16766,0.18330,-0.00362,-0.0073,-0.0024,-0.0024,-0.0220,0.1099,0.0073,-0.0220,-0.2120,-5.6410,9.0051,1.6679,0.2564,-0.0073,-0.0317,1,1,1,1,1,1,1
16.6250,sweep,5,+up,0.24281,1.10800,0.82952,-0.50717,0.18063,0.18330,-0.00324,-0.0024,-0.0024,-0.0024,-0.0073,0.1685,0.0073,-0.0220,-0.2120,-5.6684,9.0325,1.6630,0.1734,-0.0073,-0.0317,1,1,1,1,1,1,1
16.6649,sweep,5,+up,0.24281,1.10800,0.82952,-0.50717,0.18063,0.18330,-0.00324,-0.0024,-0.0024,-0.0024,-0.0073,0.1685,0.0073,-0.0220,-0.2120,-5.6684,9.0325,1.6630,0.1734,-0.0073,-0.0317,1,1,1,1,1,1,1
16.7049,sweep,5,+up,0.24281,1.10800,0.82952,-0.50717,0.18063,0.18330,-0.00324,-0.0024,-0.0024,-0.0024,-0.0073,0.1685,0.0073,-0.0220,-0.2120,-5.6684,9.0325,1.6630,0.1734,-0.0073,-0.0317,1,1,1,1,1,1,1
16.7451,sweep,5,+up,0.24243,1.10800,0.82952,-0.50717,0.19818,0.18292,-0.00324,0.0024,-0.0024,-0.0024,-0.0073,0.1978,-0.0220,-0.0073,-0.2256,-5.6821,9.0598,1.6630,0.2125,-0.0024,-0.0269,1,1,1,1,1,1,1
16.7849,sweep,5,+up,0.24243,1.10800,0.82952,-0.50717,0.19818,0.18292,-0.00324,0.0024,-0.0024,-0.0024,-0.0073,0.1978,-0.0220,-0.0073,-0.2256,-5.6821,9.0598,1.6630,0.2125,-0.0024,-0.0269,1,1,1,1,1,1,1
16.8250,sweep,5,+up,0.24281,1.10800,0.82952,-0.50717,0.21000,0.18330,-0.00324,-0.0024,-0.0024,-0.0024,-0.0220,0.0659,0.0220,-0.0220,-0.2120,-5.7368,9.0188,1.6630,0.2125,-0.0073,-0.0269,1,1,1,1,1,1,1
16.8651,sweep,5,+up,0.24281,1.10800,0.82952,-0.50717,0.21000,0.18330,-0.00324,-0.0024,-0.0024,-0.0024,-0.0220,0.0659,0.0220,-0.0220,-0.2120,-5.7368,9.0188,1.6630,0.2125,-0.0073,-0.0269,1,1,1,1,1,1,1
16.9049,sweep,5,+up,0.24281,1.10800,0.82952,-0.50717,0.21000,0.18330,-0.00324,-0.0024,-0.0024,-0.0024,-0.0220,0.0659,0.0220,-0.0220,-0.2120,-5.7368,9.0188,1.6630,0.2125,-0.0073,-0.0269,1,1,1,1,1,1,1
16.9452,sweep,5,+up,0.24243,1.10761,0.82952,-0.50717,0.22831,0.18330,-0.00324,-0.0073,-0.0073,-0.0024,-0.0220,0.1099,0.0073,-0.0073,-0.2120,-5.7504,9.0051,1.6581,0.2125,-0.0024,-0.0269,1,1,1,1,1,1,1
16.9850,sweep,5,+up,0.24243,1.10761,0.82952,-0.50717,0.22831,0.18330,-0.00324,-0.0073,-0.0073,-0.0024,-0.0220,0.1099,0.0073,-0.0073,-0.2120,-5.7504,9.0051,1.6581,0.2125,-0.0024,-0.0269,1,1,1,1,1,1,1
17.0256,sweep,5,+up,0.24243,1.10800,0.82952,-0.50717,0.23938,0.18330,-0.00362,-0.0073,-0.0024,-0.0024,-0.0220,0.1685,0.0073,-0.0220,-0.2120,-5.7504,9.0051,1.6630,0.2857,-0.0024,-0.0269,1,1,1,1,1,1,1
17.0649,sweep,5,+up,0.24243,1.10800,0.82952,-0.50717,0.23938,0.18330,-0.00362,-0.0073,-0.0024,-0.0024,-0.0220,0.1685,0.0073,-0.0220,-0.2120,-5.7504,9.0051,1.6630,0.2857,-0.0024,-0.0269,1,1,1,1,1,1,1
17.1054,sweep,5,+up,0.24243,1.10800,0.82952,-0.50717,0.23938,0.18330,-0.00362,-0.0073,-0.0024,-0.0024,-0.0220,0.1685,0.0073,-0.0220,-0.2120,-5.7504,9.0051,1.6630,0.2857,-0.0024,-0.0269,1,1,1,1,1,1,1
17.1449,sweep,5,+up,0.24243,1.10800,0.82952,-0.50717,0.25769,0.18330,-0.00324,-0.0024,-0.0024,-0.0024,-0.0220,0.1831,-0.0073,-0.0073,-0.2120,-5.7504,9.0188,1.6484,0.2662,-0.0024,-0.0317,1,1,1,1,1,1,1
17.1850,sweep,5,+up,0.24243,1.10800,0.82952,-0.50717,0.25769,0.18330,-0.00324,-0.0024,-0.0024,-0.0024,-0.0220,0.1831,-0.0073,-0.0073,-0.2120,-5.7504,9.0188,1.6484,0.2662,-0.0024,-0.0317,1,1,1,1,1,1,1
17.2249,sweep,5,+up,0.24281,1.10800,0.82952,-0.50717,0.26989,0.18330,-0.00324,-0.0073,-0.0024,0.0024,-0.0073,0.2271,-0.0073,-0.0073,-0.1983,-5.7368,8.9915,1.6435,0.2320,0.0024,-0.0366,1,1,1,1,1,1,1
17.2651,sweep,5,+up,0.24281,1.10800,0.82952,-0.50717,0.26989,0.18330,-0.00324,-0.0073,-0.0024,0.0024,-0.0073,0.2271,-0.0073,-0.0073,-0.1983,-5.7368,8.9915,1.6435,0.2320,0.0024,-0.0366,1,1,1,1,1,1,1
17.3050,sweep,5,+up,0.24281,1.10800,0.82952,-0.50717,0.26989,0.18330,-0.00324,-0.0073,-0.0024,0.0024,-0.0073,0.2271,-0.0073,-0.0073,-0.1983,-5.7368,8.9915,1.6435,0.2320,0.0024,-0.0366,1,1,1,1,1,1,1
17.3450,sweep,5,+up,0.24243,1.10761,0.82952,-0.50717,0.28744,0.18330,-0.00324,-0.0024,-0.0024,-0.0024,-0.0073,0.1245,0.0220,-0.0073,-0.2393,-5.6957,8.9778,1.6386,0.2662,-0.0024,-0.0317,1,1,1,1,1,1,1
17.3849,sweep,5,+up,0.24243,1.10761,0.82952,-0.50717,0.28744,0.18330,-0.00324,-0.0024,-0.0024,-0.0024,-0.0073,0.1245,0.0220,-0.0073,-0.2393,-5.6957,8.9778,1.6386,0.2662,-0.0024,-0.0317,1,1,1,1,1,1,1
17.4250,sweep,5,+up,0.24243,1.10800,0.82952,-0.50717,0.29889,0.18330,-0.00362,-0.0024,-0.0024,-0.0024,-0.0073,0.1538,0.0073,-0.0073,-0.2393,-5.6821,8.9778,1.6337,0.3150,0.0024,-0.0366,1,1,1,1,1,1,1
17.4651,sweep,5,+up,0.24243,1.10800,0.82952,-0.50717,0.29889,0.18330,-0.00362,-0.0024,-0.0024,-0.0024,-0.0073,0.1538,0.0073,-0.0073,-0.2393,-5.6821,8.9778,1.6337,0.3150,0.0024,-0.0366,1,1,1,1,1,1,1
17.5050,sweep,5,+up,0.24243,1.10800,0.82952,-0.50717,0.29889,0.18330,-0.00362,-0.0024,-0.0024,-0.0024,-0.0073,0.1538,0.0073,-0.0073,-0.2393,-5.6821,8.9778,1.6337,0.3150,0.0024,-0.0366,1,1,1,1,1,1,1
17.5451,sweep,5,+up,0.24243,1.10761,0.82952,-0.50717,0.31643,0.18330,-0.00362,-0.0024,-0.0024,-0.0024,0.0073,0.0952,0.0073,-0.0073,-0.2256,-5.6957,8.9368,1.6239,0.3736,-0.0024,-0.0366,1,1,1,1,1,1,1
17.5850,sweep,5,+up,0.24243,1.10761,0.82952,-0.50717,0.31643,0.18330,-0.00362,-0.0024,-0.0024,-0.0024,0.0073,0.0952,0.0073,-0.0073,-0.2256,-5.6957,8.9368,1.6239,0.3736,-0.0024,-0.0366,1,1,1,1,1,1,1
17.6249,sweep,5,+up,0.24243,1.10761,0.82952,-0.50717,0.32979,0.18330,-0.00324,-0.0073,-0.0024,-0.0073,-0.0220,0.2125,-0.0073,-0.0073,-0.2256,-5.7094,8.9504,1.6239,0.2369,-0.0024,-0.0366,1,1,1,1,1,1,1
17.6653,sweep,5,+up,0.24243,1.10761,0.82952,-0.50717,0.32979,0.18330,-0.00324,-0.0073,-0.0024,-0.0073,-0.0220,0.2125,-0.0073,-0.0073,-0.2256,-5.7094,8.9504,1.6239,0.2369,-0.0024,-0.0366,1,1,1,1,1,1,1
17.7053,sweep,5,+up,0.24243,1.10761,0.82952,-0.50717,0.32979,0.18330,-0.00324,-0.0073,-0.0024,-0.0073,-0.0220,0.2125,-0.0073,-0.0073,-0.2256,-5.7094,8.9504,1.6239,0.2369,-0.0024,-0.0366,1,1,1,1,1,1,1
17.7453,sweep,5,+up,0.24243,1.10800,0.82914,-0.50717,0.34733,0.18330,-0.00324,-0.0024,-0.0024,-0.0073,-0.0073,0.1685,-0.0073,-0.0073,-0.2120,-5.7368,8.9094,1.6190,0.2808,-0.0024,-0.0366,1,1,1,1,1,1,1
17.7851,sweep,5,+up,0.24243,1.10800,0.82914,-0.50717,0.34733,0.18330,-0.00324,-0.0024,-0.0024,-0.0073,-0.0073,0.1685,-0.0073,-0.0073,-0.2120,-5.7368,8.9094,1.6190,0.2808,-0.0024,-0.0366,1,1,1,1,1,1,1
17.8249,sweep,5,+up,0.24243,1.10761,0.82914,-0.50717,0.35878,0.18330,-0.00324,0.0024,-0.0024,-0.0024,-0.0366,0.1245,0.0220,-0.0073,-0.2393,-5.7368,8.9504,1.6190,0.3101,-0.0073,-0.0366,1,1,1,1,1,1,1
17.8651,sweep,5,+up,0.24243,1.10761,0.82914,-0.50717,0.35878,0.18330,-0.00324,0.0024,-0.0024,-0.0024,-0.0366,0.1245,0.0220,-0.0073,-0.2393,-5.7368,8.9504,1.6190,0.3101,-0.0073,-0.0366,1,1,1,1,1,1,1
17.9052,sweep,5,+up,0.24243,1.10761,0.82914,-0.50717,0.35878,0.18330,-0.00324,0.0024,-0.0024,-0.0024,-0.0366,0.1245,0.0220,-0.0073,-0.2393,-5.7368,8.9504,1.6190,0.3101,-0.0073,-0.0366,1,1,1,1,1,1,1
17.9455,sweep,5,+up,0.24243,1.10761,0.82952,-0.50717,0.37594,0.18330,-0.00362,0.0024,-0.0024,-0.0024,-0.0073,0.0513,-0.0073,-0.0073,-0.2256,-5.7094,8.9778,1.6142,0.3980,-0.0073,-0.0366,1,1,1,1,1,1,1
17.9849,sweep,5,+up,0.24243,1.10761,0.82952,-0.50717,0.37594,0.18330,-0.00362,0.0024,-0.0024,-0.0024,-0.0073,0.0513,-0.0073,-0.0073,-0.2256,-5.7094,8.9778,1.6142,0.3980,-0.0073,-0.0366,1,1,1,1,1,1,1
18.0249,sweep,5,+up,0.24243,1.10761,0.82914,-0.50717,0.38930,0.18330,-0.00324,-0.0024,-0.0073,-0.0024,-0.0220,0.1978,-0.0073,-0.0073,-0.2393,-5.6957,8.9778,1.5995,0.2906,-0.0024,-0.0366,1,1,1,1,1,1,1
18.0649,sweep,5,+up,0.24243,1.10761,0.82914,-0.50717,0.38930,0.18330,-0.00324,-0.0024,-0.0073,-0.0024,-0.0220,0.1978,-0.0073,-0.0073,-0.2393,-5.6957,8.9778,1.5995,0.2906,-0.0024,-0.0366,1,1,1,1,1,1,1
18.1050,sweep,5,+up,0.24243,1.10761,0.82914,-0.50717,0.38930,0.18330,-0.00324,-0.0024,-0.0073,-0.0024,-0.0220,0.1978,-0.0073,-0.0073,-0.2393,-5.6957,8.9778,1.5995,0.2906,-0.0024,-0.0366,1,1,1,1,1,1,1
18.1452,sweep,5,+up,0.24243,1.10761,0.82914,-0.50717,0.40646,0.18292,-0.00362,0.0024,-0.0024,-0.0024,-0.0073,0.1685,-0.0073,-0.0073,-0.2393,-5.7231,8.9504,1.5946,0.3346,-0.0073,-0.0366,1,1,1,1,1,1,1
18.1851,sweep,5,+up,0.24243,1.10761,0.82914,-0.50717,0.40646,0.18292,-0.00362,0.0024,-0.0024,-0.0024,-0.0073,0.1685,-0.0073,-0.0073,-0.2393,-5.7231,8.9504,1.5946,0.3346,-0.0073,-0.0366,1,1,1,1,1,1,1
18.2250,sweep,5,+up,0.24243,1.10761,0.82952,-0.50717,0.41867,0.18292,-0.00362,0.0024,-0.0024,-0.0024,-0.0073,0.1685,-0.0220,-0.0073,-0.2393,-5.7231,8.9641,1.5849,0.3199,-0.0122,-0.0366,1,1,1,1,1,1,1
18.2651,sweep,5,+up,0.24243,1.10761,0.82952,-0.50717,0.41867,0.18292,-0.00362,0.0024,-0.0024,-0.0024,-0.0073,0.1685,-0.0220,-0.0073,-0.2393,-5.7231,8.9641,1.5849,0.3199,-0.0122,-0.0366,1,1,1,1,1,1,1
18.3051,sweep,5,+up,0.24243,1.10761,0.82952,-0.50717,0.41867,0.18292,-0.00362,0.0024,-0.0024,-0.0024,-0.0073,0.1685,-0.0220,-0.0073,-0.2393,-5.7231,8.9641,1.5849,0.3199,-0.0122,-0.0366,1,1,1,1,1,1,1
18.3450,sweep,5,+up,0.24243,1.10761,0.82952,-0.50717,0.43660,0.18292,-0.00362,-0.0024,-0.0024,-0.0024,-0.0220,0.1099,-0.0220,-0.0073,-0.2393,-5.7368,8.9504,1.5946,0.3248,-0.0024,-0.0415,1,1,1,1,1,1,1
18.3850,sweep,5,+up,0.24243,1.10761,0.82952,-0.50717,0.43660,0.18292,-0.00362,-0.0024,-0.0024,-0.0024,-0.0220,0.1099,-0.0220,-0.0073,-0.2393,-5.7368,8.9504,1.5946,0.3248,-0.0024,-0.0415,1,1,1,1,1,1,1
18.4250,sweep,5,+up,0.24243,1.10761,0.82952,-0.50717,0.44804,0.18292,-0.00324,-0.0024,-0.0024,-0.0024,0.0073,0.1685,-0.0073,-0.0073,-0.2256,-5.7368,8.9368,1.5946,0.4078,0.0024,-0.0366,1,1,1,1,1,1,1
18.4650,sweep,5,+up,0.24243,1.10761,0.82952,-0.50717,0.44804,0.18292,-0.00324,-0.0024,-0.0024,-0.0024,0.0073,0.1685,-0.0073,-0.0073,-0.2256,-5.7368,8.9368,1.5946,0.4078,0.0024,-0.0366,1,1,1,1,1,1,1
18.5050,sweep,5,+up,0.24243,1.10761,0.82952,-0.50717,0.44804,0.18292,-0.00324,-0.0024,-0.0024,-0.0024,0.0073,0.1685,-0.0073,-0.0073,-0.2256,-5.7368,8.9368,1.5946,0.4078,0.0024,-0.0366,1,1,1,1,1,1,1
18.5448,sweep,5,+up,0.24243,1.10761,0.82952,-0.50717,0.46559,0.18292,-0.00324,-0.0073,-0.0024,-0.0024,0.0073,0.1245,-0.0220,-0.0073,-0.2256,-5.7504,8.9641,1.6044,0.3980,-0.0024,-0.0415,1,1,1,1,1,1,1
18.5850,sweep,5,+up,0.24243,1.10761,0.82952,-0.50717,0.46559,0.18292,-0.00324,-0.0073,-0.0024,-0.0024,0.0073,0.1245,-0.0220,-0.0073,-0.2256,-5.7504,8.9641,1.6044,0.3980,-0.0024,-0.0415,1,1,1,1,1,1,1
18.6249,sweep,5,+up,0.24243,1.10761,0.82914,-0.50717,0.47818,0.18292,-0.00324,-0.0024,-0.0024,-0.0073,-0.0073,0.2564,-0.0220,-0.0073,-0.2256,-5.7094,8.9368,1.6044,0.3834,-0.0024,-0.0366,1,1,1,1,1,1,1
18.6650,sweep,5,+up,0.24243,1.10761,0.82914,-0.50717,0.47818,0.18292,-0.00324,-0.0024,-0.0024,-0.0073,-0.0073,0.2564,-0.0220,-0.0073,-0.2256,-5.7094,8.9368,1.6044,0.3834,-0.0024,-0.0366,1,1,1,1,1,1,1
18.7050,sweep,5,+up,0.24243,1.10761,0.82914,-0.50717,0.47818,0.18292,-0.00324,-0.0024,-0.0024,-0.0073,-0.0073,0.2564,-0.0220,-0.0073,-0.2256,-5.7094,8.9368,1.6044,0.3834,-0.0024,-0.0366,1,1,1,1,1,1,1
18.7449,sweep,5,+up,0.24243,1.10761,0.82952,-0.50717,0.49611,0.18292,-0.00324,0.0024,-0.0024,-0.0024,0.0220,0.1245,-0.0220,-0.0220,-0.2120,-5.7641,8.9094,1.6093,0.3736,-0.0024,-0.0366,1,1,1,1,1,1,1
18.7849,sweep,5,+up,0.24243,1.10761,0.82952,-0.50717,0.49611,0.18292,-0.00324,0.0024,-0.0024,-0.0024,0.0220,0.1245,-0.0220,-0.0220,-0.2120,-5.7641,8.9094,1.6093,0.3736,-0.0024,-0.0366,1,1,1,1,1,1,1
18.8249,sweep,5,+up,0.24243,1.10761,0.82952,-0.50717,0.50717,0.18292,-0.00324,-0.0024,-0.0024,-0.0024,-0.0073,0.1245,-0.0073,-0.0073,-0.2120,-5.6957,8.9231,1.5995,0.4274,-0.0024,-0.0366,1,1,1,1,1,1,1
18.8650,sweep,5,+up,0.24243,1.10761,0.82952,-0.50717,0.50717,0.18292,-0.00324,-0.0024,-0.0024,-0.0024,-0.0073,0.1245,-0.0073,-0.0073,-0.2120,-5.6957,8.9231,1.5995,0.4274,-0.0024,-0.0366,1,1,1,1,1,1,1
18.9050,sweep,5,+up,0.24243,1.10761,0.82952,-0.50717,0.50717,0.18292,-0.00324,-0.0024,-0.0024,-0.0024,-0.0073,0.1245,-0.0073,-0.0073,-0.2120,-5.6957,8.9231,1.5995,0.4274,-0.0024,-0.0366,1,1,1,1,1,1,1
18.9450,sweep,5,+up,0.24243,1.10761,0.82952,-0.50717,0.52472,0.18292,-0.00362,-0.0024,-0.0024,-0.0073,-0.0073,0.0659,-0.0073,-0.0073,-0.2256,-5.6957,8.9641,1.5946,0.4762,-0.0024,-0.0415,1,1,1,1,1,1,1
18.9850,sweep,5,+up,0.24243,1.10761,0.82952,-0.50717,0.52472,0.18292,-0.00362,-0.0024,-0.0024,-0.0073,-0.0073,0.0659,-0.0073,-0.0073,-0.2256,-5.6957,8.9641,1.5946,0.4762,-0.0024,-0.0415,1,1,1,1,1,1,1
19.0252,sweep,5,+up,0.24243,1.10761,0.82952,-0.50717,0.53655,0.18292,-0.00362,-0.0024,-0.0024,-0.0024,-0.0073,0.1978,-0.0073,-0.0073,-0.2256,-5.7231,8.9641,1.5849,0.4811,-0.0024,-0.0415,1,1,1,1,1,1,1
19.0655,sweep,5,+up,0.24243,1.10761,0.82952,-0.50717,0.53655,0.18292,-0.00362,-0.0024,-0.0024,-0.0024,-0.0073,0.1978,-0.0073,-0.0073,-0.2256,-5.7231,8.9641,1.5849,0.4811,-0.0024,-0.0415,1,1,1,1,1,1,1
19.1051,sweep,5,+up,0.24243,1.10761,0.82952,-0.50717,0.53655,0.18292,-0.00362,-0.0024,-0.0024,-0.0024,-0.0073,0.1978,-0.0073,-0.0073,-0.2256,-5.7231,8.9641,1.5849,0.4811,-0.0024,-0.0415,1,1,1,1,1,1,1
19.1451,sweep,5,+up,0.24243,1.10761,0.82952,-0.50717,0.55486,0.18292,-0.00324,-0.0024,-0.0024,-0.0024,-0.0073,0.1538,-0.0073,-0.0073,-0.2120,-5.6957,9.0188,1.5800,0.4713,-0.0073,-0.0415,1,1,1,1,1,1,1
19.1850,sweep,5,+up,0.24243,1.10761,0.82952,-0.50717,0.55486,0.18292,-0.00324,-0.0024,-0.0024,-0.0024,-0.0073,0.1538,-0.0073,-0.0073,-0.2120,-5.6957,9.0188,1.5800,0.4713,-0.0073,-0.0415,1,1,1,1,1,1,1
19.2252,sweep,5,+up,0.24243,1.10761,0.82952,-0.50717,0.56821,0.18292,-0.00362,0.0024,-0.0024,-0.0024,0.0073,0.1245,0.0073,-0.0073,-0.2120,-5.6821,9.0872,1.5751,0.3687,-0.0073,-0.0415,1,1,1,1,1,1,1
19.2650,sweep,5,+up,0.24243,1.10761,0.82952,-0.50717,0.56821,0.18292,-0.00362,0.0024,-0.0024,-0.0024,0.0073,0.1245,0.0073,-0.0073,-0.2120,-5.6821,9.0872,1.5751,0.3687,-0.0073,-0.0415,1,1,1,1,1,1,1
19.3050,sweep,5,+up,0.24243,1.10761,0.82952,-0.50717,0.56821,0.18292,-0.00362,0.0024,-0.0024,-0.0024,0.0073,0.1245,0.0073,-0.0073,-0.2120,-5.6821,9.0872,1.5751,0.3687,-0.0073,-0.0415,1,1,1,1,1,1,1
19.3451,sweep,5,+up,0.24243,1.10761,0.82952,-0.50717,0.58537,0.18292,-0.00362,0.0024,-0.0024,-0.0024,-0.0220,0.1392,-0.0220,-0.0073,-0.2393,-5.7094,9.0872,1.5800,0.4225,-0.0024,-0.0366,1,1,1,1,1,1,1
19.3851,sweep,5,+up,0.24243,1.10761,0.82952,-0.50717,0.58537,0.18292,-0.00362,0.0024,-0.0024,-0.0024,-0.0220,0.1392,-0.0220,-0.0073,-0.2393,-5.7094,9.0872,1.5800,0.4225,-0.0024,-0.0366,1,1,1,1,1,1,1
19.4251,sweep,5,+up,0.24281,1.10761,0.82952,-0.50717,0.59682,0.18292,-0.00362,0.0024,-0.0024,0.0024,-0.0073,0.1685,-0.0073,-0.0073,-0.2256,-5.6957,9.0598,1.5800,0.4762,-0.0073,-0.0366,1,1,1,1,1,1,1
19.4652,sweep,5,+up,0.24281,1.10761,0.82952,-0.50717,0.59682,0.18292,-0.00362,0.0024,-0.0024,0.0024,-0.0073,0.1685,-0.0073,-0.0073,-0.2256,-5.6957,9.0598,1.5800,0.4762,-0.0073,-0.0366,1,1,1,1,1,1,1
19.5050,sweep,5,+up,0.24281,1.10761,0.82952,-0.50717,0.59682,0.18292,-0.00362,0.0024,-0.0024,0.0024,-0.0073,0.1685,-0.0073,-0.0073,-0.2256,-5.6957,9.0598,1.5800,0.4762,-0.0073,-0.0366,1,1,1,1,1,1,1
19.5451,sweep,5,+up,0.24243,1.10761,0.82952,-0.50717,0.61475,0.18292,-0.00324,0.0024,-0.0024,-0.0024,0.0073,0.1538,-0.0220,0.0073,-0.2530,-5.7094,9.0325,1.5751,0.4664,-0.0073,-0.0366,1,1,1,1,1,1,1
19.5849,sweep,5,+up,0.24243,1.10761,0.82952,-0.50717,0.61475,0.18292,-0.00324,0.0024,-0.0024,-0.0024,0.0073,0.1538,-0.0220,0.0073,-0.2530,-5.7094,9.0325,1.5751,0.4664,-0.0073,-0.0366,1,1,1,1,1,1,1
19.6249,sweep,5,+up,0.24243,1.10761,0.82952,-0.50717,0.62772,0.18292,-0.00324,-0.0024,-0.0024,-0.0073,-0.0073,0.1978,-0.0366,-0.0073,-0.2530,-5.7094,9.0051,1.5751,0.4127,-0.0024,-0.0366,1,1,1,1,1,1,1
19.6655,sweep,5,+up,0.24243,1.10761,0.82952,-0.50717,0.62772,0.18292,-0.00324,-0.0024,-0.0024,-0.0073,-0.0073,0.1978,-0.0366,-0.0073,-0.2530,-5.7094,9.0051,1.5751,0.4127,-0.0024,-0.0366,1,1,1,1,1,1,1
19.7056,sweep,5,+up,0.24243,1.10761,0.82952,-0.50717,0.62772,0.18292,-0.00324,-0.0024,-0.0024,-0.0073,-0.0073,0.1978,-0.0366,-0.0073,-0.2530,-5.7094,9.0051,1.5751,0.4127,-0.0024,-0.0366,1,1,1,1,1,1,1
19.7450,sweep,5,+up,0.24243,1.10761,0.82952,-0.50717,0.64527,0.18292,-0.00362,0.0024,-0.0024,-0.0024,-0.0073,0.1099,-0.0220,-0.0073,-0.2530,-5.6684,8.9641,1.5702,0.4274,0.0024,-0.0366,1,1,1,1,1,1,1
19.7853,sweep,5,+up,0.24243,1.10761,0.82952,-0.50717,0.64527,0.18292,-0.00362,0.0024,-0.0024,-0.0024,-0.0073,0.1099,-0.0220,-0.0073,-0.2530,-5.6684,8.9641,1.5702,0.4274,0.0024,-0.0366,1,1,1,1,1,1,1
19.8252,sweep,5,+up,0.24243,1.10761,0.82952,-0.50717,0.65633,0.18292,-0.00324,-0.0024,-0.0024,-0.0024,-0.0220,0.1392,-0.0220,-0.0073,-0.2530,-5.7231,8.9504,1.5702,0.5348,0.0024,-0.0415,1,1,1,1,1,1,1
19.8652,sweep,5,+up,0.24243,1.10761,0.82952,-0.50717,0.65633,0.18292,-0.00324,-0.0024,-0.0024,-0.0024,-0.0220,0.1392,-0.0220,-0.0073,-0.2530,-5.7231,8.9504,1.5702,0.5348,0.0024,-0.0415,1,1,1,1,1,1,1
19.9051,sweep,5,+up,0.24243,1.10761,0.82952,-0.50717,0.65633,0.18292,-0.00324,-0.0024,-0.0024,-0.0024,-0.0220,0.1392,-0.0220,-0.0073,-0.2530,-5.7231,8.9504,1.5702,0.5348,0.0024,-0.0415,1,1,1,1,1,1,1
19.9449,sweep,5,+up,0.24243,1.10761,0.82952,-0.50717,0.67464,0.18292,-0.00362,-0.0073,0.0024,0.0024,0.0073,0.0952,-0.0073,-0.0073,-0.2803,-5.7368,8.9778,1.5702,0.4908,0.0024,-0.0415,1,1,1,1,1,1,1
19.9849,sweep,5,+up,0.24243,1.10761,0.82952,-0.50717,0.67464,0.18292,-0.00362,-0.0073,0.0024,0.0024,0.0073,0.0952,-0.0073,-0.0073,-0.2803,-5.7368,8.9778,1.5702,0.4908,0.0024,-0.0415,1,1,1,1,1,1,1
20.0252,sweep,5,+up,0.24243,1.10761,0.82952,-0.50717,0.68685,0.18292,-0.00362,0.0024,-0.0024,-0.0024,-0.0073,0.2271,-0.0073,0.0073,-0.2803,-5.7231,8.9915,1.5653,0.4811,-0.0024,-0.0415,1,1,1,1,1,1,1
