peipl15/reBot_Arm/outputs/gravity_calib_20260621_230229.csv
t_s,phase,swept_joint,direction,q1,q2,q3,q4,q5,q6,q7,v1,v2,v3,v4,v5,v6,v7,tau1,tau2,tau3,tau4,tau5,tau6,tau7,st1,st2,st3,st4,st5,st6,st7
0.0023,approach,2,to_lo,-0.00668,-0.00019,0.00019,-0.00515,0.00019,0.01163,-0.00057,-0.0024,-0.0024,-0.0073,-0.0073,-0.0073,-0.0073,-0.0073,0.0068,0.0342,-0.0205,0.0122,-0.0073,-0.0073,-0.0024,1,1,1,1,1,1,1
0.0424,approach,2,to_lo,-0.00668,-0.00019,0.00019,-0.00515,0.00019,0.01163,-0.00057,-0.0024,-0.0024,-0.0073,-0.0073,-0.0073,-0.0073,-0.0073,0.0068,0.0342,-0.0205,0.0122,-0.0073,-0.0073,-0.0024,1,1,1,1,1,1,1
0.0826,approach,2,to_lo,-0.00668,-0.00019,0.00019,-0.00515,0.00019,0.01163,-0.00057,-0.0024,-0.0024,-0.0073,-0.0073,-0.0073,-0.0073,-0.0073,0.0068,0.0342,-0.0205,0.0122,-0.0073,-0.0073,-0.0024,1,1,1,1,1,1,1
0.1227,approach,2,to_lo,-0.00668,-0.00019,0.00019,-0.00515,0.00019,0.01163,-0.00057,0.0024,0.0024,-0.0073,-0.0073,-0.0073,0.0073,-0.0073,-0.0342,0.0205,-0.0205,0.0073,-0.0024,-0.0171,-0.0073,1,1,1,1,1,1,1
0.1624,approach,2,to_lo,-0.00668,-0.00019,0.00019,-0.00515,0.00019,0.01163,-0.00057,0.0024,0.0024,-0.0073,-0.0073,-0.0073,0.0073,-0.0073,-0.0342,0.0205,-0.0205,0.0073,-0.0024,-0.0171,-0.0073,1,1,1,1,1,1,1
0.2023,approach,2,to_lo,-0.00668,0.02041,0.00019,-0.00515,0.00019,0.01163,-0.00057,-0.0024,0.1392,-0.0024,-0.0073,0.0073,-0.0073,-0.0073,-0.0615,2.7009,-0.0205,-0.0073,-0.0122,-0.0171,-0.0122,1,1,1,1,1,1,1
0.2423,approach,2,to_lo,-0.00668,0.02041,0.00019,-0.00515,0.00019,0.01163,-0.00057,-0.0024,0.1392,-0.0024,-0.0073,0.0073,-0.0073,-0.0073,-0.0615,2.7009,-0.0205,-0.0073,-0.0122,-0.0171,-0.0122,1,1,1,1,1,1,1
0.2824,approach,2,to_lo,-0.00668,0.02041,0.00019,-0.00515,0.00019,0.01163,-0.00057,-0.0024,0.1392,-0.0024,-0.0073,0.0073,-0.0073,-0.0073,-0.0615,2.7009,-0.0205,-0.0073,-0.0122,-0.0171,-0.0122,1,1,1,1,1,1,1
0.3223,approach,2,to_lo,-0.00668,0.03529,0.00019,-0.00515,0.00019,0.01163,-0.00057,0.0024,0.1099,-0.0073,-0.0220,0.0073,-0.0073,-0.0073,-0.1026,2.8376,-0.0342,-0.0024,-0.0220,-0.0220,-0.0122,1,1,1,1,1,1,1
0.3623,approach,2,to_lo,-0.00668,0.03529,0.00019,-0.00515,0.00019,0.01163,-0.00057,0.0024,0.1099,-0.0073,-0.0220,0.0073,-0.0073,-0.0073,-0.1026,2.8376,-0.0342,-0.0024,-0.0220,-0.0220,-0.0122,1,1,1,1,1,1,1
0.4023,approach,2,to_lo,-0.00668,0.04368,0.00019,-0.00515,0.00019,0.01163,-0.00057,-0.0073,0.0806,-0.0024,-0.0073,0.0073,0.0073,-0.0073,-0.1162,2.7419,-0.0479,-0.0073,-0.0220,-0.0220,-0.0171,1,1,1,1,1,1,1
0.4423,approach,2,to_lo,-0.00668,0.04368,0.00019,-0.00515,0.00019,0.01163,-0.00057,-0.0073,0.0806,-0.0024,-0.0073,0.0073,0.0073,-0.0073,-0.1162,2.7419,-0.0479,-0.0073,-0.0220,-0.0220,-0.0171,1,1,1,1,1,1,1
0.4824,approach,2,to_lo,-0.00668,0.04368,0.00019,-0.00515,0.00019,0.01163,-0.00057,-0.0073,0.0806,-0.0024,-0.0073,0.0073,0.0073,-0.0073,-0.1162,2.7419,-0.0479,-0.0073,-0.0220,-0.0220,-0.0171,1,1,1,1,1,1,1
0.5224,approach,2,to_lo,-0.00668,0.05550,0.00019,-0.00515,0.00019,0.01163,-0.00057,-0.0024,0.0855,0.0024,-0.0073,-0.0073,-0.0073,-0.0220,-0.1436,2.6735,-0.0479,-0.0171,-0.0269,-0.0171,-0.0171,1,1,1,1,1,1,1
0.5624,approach,2,to_lo,-0.00668,0.05550,0.00019,-0.00515,0.00019,0.01163,-0.00057,-0.0024,0.0855,0.0024,-0.0073,-0.0073,-0.0073,-0.0220,-0.1436,2.6735,-0.0479,-0.0171,-0.0269,-0.0171,-0.0171,1,1,1,1,1,1,1
0.6027,approach,2,to_lo,-0.00668,0.06199,0.00019,-0.00515,0.00019,0.01163,-0.00057,-0.0024,0.0659,-0.0073,-0.0073,-0.0220,-0.0073,0.0073,-0.1573,2.6872,-0.0615,-0.0171,-0.0317,-0.0220,-0.0171,1,1,1,1,1,1,1
0.6427,approach,2,to_lo,-0.00668,0.06199,0.00019,-0.00515,0.00019,0.01163,-0.00057,-0.0024,0.0659,-0.0073,-0.0073,-0.0220,-0.0073,0.0073,-0.1573,2.6872,-0.0615,-0.0171,-0.0317,-0.0220,-0.0171,1,1,1,1,1,1,1
0.6824,approach,2,to_lo,-0.00668,0.06199,0.00019,-0.00515,0.00019,0.01163,-0.00057,-0.0024,0.0659,-0.0073,-0.0073,-0.0220,-0.0073,0.0073,-0.1573,2.6872,-0.0615,-0.0171,-0.0317,-0.0220,-0.0171,1,1,1,1,1,1,1
0.7224,approach,2,to_lo,-0.00668,0.07076,0.00019,-0.00515,0.00019,0.01125,-0.00057,-0.0073,0.0562,-0.0073,-0.0073,-0.0073,-0.0073,-0.0073,-0.1709,2.8103,-0.0752,-0.0220,-0.0366,-0.0171,-0.0220,1,1,1,1,1,1,1
0.7623,approach,2,to_lo,-0.00668,0.07076,0.00019,-0.00515,0.00019,0.01125,-0.00057,-0.0073,0.0562,-0.0073,-0.0073,-0.0073,-0.0073,-0.0073,-0.1709,2.8103,-0.0752,-0.0220,-0.0366,-0.0171,-0.0220,1,1,1,1,1,1,1
0.8024,approach,2,to_lo,-0.00668,0.07572,0.00019,-0.00515,0.00019,0.01125,-0.00057,-0.0024,0.0659,-0.0024,-0.0073,-0.0220,-0.0073,-0.0073,-0.1709,2.5094,-0.0615,-0.0220,-0.0366,-0.0220,-0.0220,1,1,1,1,1,1,1
0.8423,approach,2,to_lo,-0.00668,0.07572,0.00019,-0.00515,0.00019,0.01125,-0.00057,-0.0024,0.0659,-0.0024,-0.0073,-0.0220,-0.0073,-0.0073,-0.1709,2.5094,-0.0615,-0.0220,-0.0366,-0.0220,-0.0220,1,1,1,1,1,1,1
0.8825,approach,2,to_lo,-0.00668,0.07572,0.00019,-0.00515,0.00019,0.01125,-0.00057,-0.0024,0.0659,-0.0024,-0.0073,-0.0220,-0.0073,-0.0073,-0.1709,2.5094,-0.0615,-0.0220,-0.0366,-0.0220,-0.0220,1,1,1,1,1,1,1
0.9227,approach,2,to_lo,-0.00668,0.08259,0.00019,-0.00515,0.00019,0.01163,-0.00057,-0.0073,0.0464,0.0024,-0.0073,-0.0220,0.0073,-0.0220,-0.2120,2.4821,-0.0752,-0.0269,-0.0464,-0.0171,-0.0220,1,1,1,1,1,1,1
0.9625,approach,2,to_lo,-0.00668,0.08259,0.00019,-0.00515,0.00019,0.01163,-0.00057,-0.0073,0.0464,0.0024,-0.0073,-0.0220,0.0073,-0.0220,-0.2120,2.4821,-0.0752,-0.0269,-0.0464,-0.0171,-0.0220,1,1,1,1,1,1,1
1.0023,approach,2,to_lo,-0.00668,0.08640,0.00019,-0.00515,0.00019,0.01125,-0.00057,-0.0024,0.0513,-0.0024,-0.0073,-0.0073,-0.0220,-0.0073,-0.2256,2.5094,-0.0889,-0.0317,-0.0513,-0.0171,-0.0220,1,1,1,1,1,1,1
1.0427,approach,2,to_lo,-0.00668,0.08640,0.00019,-0.00515,0.00019,0.01125,-0.00057,-0.0024,0.0513,-0.0024,-0.0073,-0.0073,-0.0220,-0.0073,-0.2256,2.5094,-0.0889,-0.0317,-0.0513,-0.0171,-0.0220,1,1,1,1,1,1,1
1.0823,approach,2,to_lo,-0.00668,0.08640,0.00019,-0.00515,0.00019,0.01125,-0.00057,-0.0024,0.0513,-0.0024,-0.0073,-0.0073,-0.0220,-0.0073,-0.2256,2.5094,-0.0889,-0.0317,-0.0513,-0.0171,-0.0220,1,1,1,1,1,1,1
1.1225,approach,2,to_lo,-0.00668,0.09136,0.00019,-0.00515,0.00019,0.01125,-0.00057,-0.0024,0.0464,-0.0024,-0.0220,-0.0073,-0.0073,-0.0073,-0.2667,2.5915,-0.1162,-0.0317,-0.0562,-0.0171,-0.0220,1,1,1,1,1,1,1
1.1624,approach,2,to_lo,-0.00668,0.09136,0.00019,-0.00515,0.00019,0.01125,-0.00057,-0.0024,0.0464,-0.0024,-0.0220,-0.0073,-0.0073,-0.0073,-0.2667,2.5915,-0.1162,-0.0317,-0.0562,-0.0171,-0.0220,1,1,1,1,1,1,1
1.2024,approach,2,to_lo,-0.00668,0.09556,0.00019,-0.00515,0.00019,0.01125,-0.00095,-0.0024,0.0220,-0.0024,-0.0073,-0.0073,-0.0073,-0.0073,-0.2940,2.6325,-0.1162,-0.0317,-0.0562,-0.0171,-0.0220,1,1,1,1,1,1,1
1.2424,approach,2,to_lo,-0.00668,0.09556,0.00019,-0.00515,0.00019,0.01125,-0.00095,-0.0024,0.0220,-0.0024,-0.0073,-0.0073,-0.0073,-0.0073,-0.2940,2.6325,-0.1162,-0.0317,-0.0562,-0.0171,-0.0220,1,1,1,1,1,1,1
1.2825,approach,2,to_lo,-0.00668,0.09556,0.00019,-0.00515,0.00019,0.01125,-0.00095,-0.0024,0.0220,-0.0024,-0.0073,-0.0073,-0.0073,-0.0073,-0.2940,2.6325,-0.1162,-0.0317,-0.0562,-0.0171,-0.0220,1,1,1,1,1,1,1
1.3223,approach,2,to_lo,-0.00668,0.09823,0.00019,-0.00515,0.00019,0.01163,-0.00095,-0.0024,0.0220,-0.0024,-0.0073,-0.0220,-0.0073,-0.0073,-0.2940,2.5778,-0.1162,-0.0317,-0.0611,-0.0122,-0.0269,1,1,1,1,1,1,1
1.3627,approach,2,to_lo,-0.00668,0.09823,0.00019,-0.00515,0.00019,0.01163,-0.00095,-0.0024,0.0220,-0.0024,-0.0073,-0.0220,-0.0073,-0.0073,-0.2940,2.5778,-0.1162,-0.0317,-0.0611,-0.0122,-0.0269,1,1,1,1,1,1,1
1.4023,approach,2,to_lo,-0.00668,0.10128,0.00019,-0.00515,0.00019,0.01125,-0.00095,0.0024,0.0122,-0.0024,-0.0073,-0.0073,-0.0073,-0.0073,-0.3487,2.7282,-0.1162,-0.0317,-0.0562,-0.0122,-0.0220,1,1,1,1,1,1,1
1.9048,sweep,2,+up,-0.00668,0.10128,0.00019,-0.00515,0.00019,0.01125,-0.00095,-0.0024,0.0122,-0.0024,-0.0073,-0.0073,-0.0220,-0.0073,-0.3487,2.7419,-0.1162,-0.0317,-0.0611,-0.0122,-0.0220,1,1,1,1,1,1,1
1.9449,sweep,2,+up,-0.00668,0.10128,0.00019,-0.00515,0.00019,0.01125,-0.00095,-0.0024,0.0122,-0.0024,-0.0073,-0.0073,-0.0220,-0.0073,-0.3487,2.7419,-0.1162,-0.0317,-0.0611,-0.0122,-0.0220,1,1,1,1,1,1,1
1.9852,sweep,2,+up,-0.00668,0.10128,0.00019,-0.00515,0.00019,0.01125,-0.00095,-0.0024,0.0122,-0.0024,-0.0073,-0.0073,-0.0220,-0.0073,-0.3487,2.7419,-0.1162,-0.0317,-0.0611,-0.0122,-0.0220,1,1,1,1,1,1,1
2.0249,sweep,2,+up,-0.00668,0.12531,0.00019,-0.00515,0.00019,0.01125,-0.00095,-0.0024,0.2027,0.0024,-0.0220,0.0073,-0.0073,-0.0073,-0.5128,2.9197,-0.1573,-0.0317,-0.0708,-0.0122,-0.0122,1,1,1,1,1,1,1
2.0649,sweep,2,+up,-0.00668,0.12531,0.00019,-0.00515,0.00019,0.01125,-0.00095,-0.0024,0.2027,0.0024,-0.0220,0.0073,-0.0073,-0.0073,-0.5128,2.9197,-0.1573,-0.0317,-0.0708,-0.0122,-0.0122,1,1,1,1,1,1,1
2.1052,sweep,2,+up,-0.00668,0.14172,0.00019,-0.00515,0.00019,0.01163,-0.00095,-0.0024,0.1880,-0.0024,-0.0073,-0.0073,0.0073,-0.0073,-0.5128,1.9897,-0.1573,-0.0366,-0.0708,-0.0122,-0.0122,1,1,1,1,1,1,1
2.1453,sweep,2,+up,-0.00668,0.14172,0.00019,-0.00515,0.00019,0.01163,-0.00095,-0.0024,0.1880,-0.0024,-0.0073,-0.0073,0.0073,-0.0073,-0.5128,1.9897,-0.1573,-0.0366,-0.0708,-0.0122,-0.0122,1,1,1,1,1,1,1
2.1849,sweep,2,+up,-0.00668,0.14172,0.00019,-0.00515,0.00019,0.01163,-0.00095,-0.0024,0.1880,-0.0024,-0.0073,-0.0073,0.0073,-0.0073,-0.5128,1.9897,-0.1573,-0.0366,-0.0708,-0.0122,-0.0122,1,1,1,1,1,1,1
2.2251,sweep,2,+up,-0.00668,0.16575,0.00019,-0.00515,0.00019,0.01125,-0.00095,-0.0024,0.2173,-0.0073,-0.0073,0.0073,-0.0073,-0.0073,-0.5538,2.1402,-0.1709,-0.0415,-0.0708,-0.0122,-0.0122,1,1,1,1,1,1,1
2.2649,sweep,2,+up,-0.00668,0.16575,0.00019,-0.00515,0.00019,0.01125,-0.00095,-0.0024,0.2173,-0.0073,-0.0073,0.0073,-0.0073,-0.0073,-0.5538,2.1402,-0.1709,-0.0415,-0.0708,-0.0122,-0.0122,1,1,1,1,1,1,1
2.3052,sweep,2,+up,-0.00668,0.18139,0.00019,-0.00553,0.00019,0.01125,-0.00095,-0.0024,0.1832,-0.0024,-0.0073,-0.0220,-0.0073,-0.0073,-0.5675,2.4957,-0.1573,-0.0415,-0.0757,-0.0122,-0.0122,1,1,1,1,1,1,1
2.3453,sweep,2,+up,-0.00668,0.18139,0.00019,-0.00553,0.00019,0.01125,-0.00095,-0.0024,0.1832,-0.0024,-0.0073,-0.0220,-0.0073,-0.0073,-0.5675,2.4957,-0.1573,-0.0415,-0.0757,-0.0122,-0.0122,1,1,1,1,1,1,1
2.3852,sweep,2,+up,-0.00668,0.18139,0.00019,-0.00553,0.00019,0.01125,-0.00095,-0.0024,0.1832,-0.0024,-0.0073,-0.0220,-0.0073,-0.0073,-0.5675,2.4957,-0.1573,-0.0415,-0.0757,-0.0122,-0.0122,1,1,1,1,1,1,1
2.4251,sweep,2,+up,-0.00668,0.20581,0.00019,-0.00515,0.00019,0.01125,-0.00095,-0.0073,0.2076,-0.0024,-0.0073,-0.0073,-0.0073,0.0073,-0.5949,2.1812,-0.1573,-0.0415,-0.0855,-0.0122,-0.0073,1,1,1,1,1,1,1
2.4650,sweep,2,+up,-0.00668,0.20581,0.00019,-0.00515,0.00019,0.01125,-0.00095,-0.0073,0.2076,-0.0024,-0.0073,-0.0073,-0.0073,0.0073,-0.5949,2.1812,-0.1573,-0.0415,-0.0855,-0.0122,-0.0073,1,1,1,1,1,1,1
2.5050,sweep,2,+up,-0.00668,0.22183,0.00019,-0.00515,0.00019,0.01125,-0.00095,-0.0024,0.1978,-0.0024,-0.0073,-0.0220,-0.0073,-0.0220,-0.5949,2.0444,-0.1573,-0.0366,-0.0904,-0.0073,-0.0122,1,1,1,1,1,1,1
2.5452,sweep,2,+up,-0.00668,0.22183,0.00019,-0.00515,0.00019,0.01125,-0.00095,-0.0024,0.1978,-0.0024,-0.0073,-0.0220,-0.0073,-0.0220,-0.5949,2.0444,-0.1573,-0.0366,-0.0904,-0.0073,-0.0122,1,1,1,1,1,1,1
2.5850,sweep,2,+up,-0.00668,0.22183,0.00019,-0.00515,0.00019,0.01125,-0.00095,-0.0024,0.1978,-0.0024,-0.0073,-0.0220,-0.0073,-0.0220,-0.5949,2.0444,-0.1573,-0.0366,-0.0904,-0.0073,-0.0122,1,1,1,1,1,1,1
2.6249,sweep,2,+up,-0.00668,0.24586,0.00019,-0.00553,0.00019,0.01125,-0.00095,-0.0073,0.2027,-0.0024,-0.0220,-0.0073,-0.0073,-0.0073,-0.6222,1.9350,-0.1436,-0.0366,-0.0904,-0.0024,-0.0073,1,1,1,1,1,1,1
2.6652,sweep,2,+up,-0.00668,0.24586,0.00019,-0.00553,0.00019,0.01125,-0.00095,-0.0073,0.2027,-0.0024,-0.0220,-0.0073,-0.0073,-0.0073,-0.6222,1.9350,-0.1436,-0.0366,-0.0904,-0.0024,-0.0073,1,1,1,1,1,1,1
2.7050,sweep,2,+up,-0.00668,0.26188,0.00019,-0.00515,0.00019,0.01125,-0.00095,-0.0073,0.1880,-0.0024,-0.0073,0.0073,-0.0073,0.0073,-0.6085,2.2632,-0.1709,-0.0366,-0.0904,-0.0073,-0.0073,1,1,1,1,1,1,1
2.7451,sweep,2,+up,-0.00668,0.26188,0.00019,-0.00515,0.00019,0.01125,-0.00095,-0.0073,0.1880,-0.0024,-0.0073,0.0073,-0.0073,0.0073,-0.6085,2.2632,-0.1709,-0.0366,-0.0904,-0.0073,-0.0073,1,1,1,1,1,1,1
2.7849,sweep,2,+up,-0.00668,0.26188,0.00019,-0.00515,0.00019,0.01125,-0.00095,-0.0073,0.1880,-0.0024,-0.0073,0.0073,-0.0073,0.0073,-0.6085,2.2632,-0.1709,-0.0366,-0.0904,-0.0073,-0.0073,1,1,1,1,1,1,1
2.8252,sweep,2,+up,-0.00668,0.28592,0.00019,-0.00515,0.00019,0.01125,-0.00095,0.0024,0.1880,-0.0024,-0.0073,-0.0073,-0.0220,0.0073,-0.6222,1.8530,-0.1709,-0.0366,-0.0904,-0.0024,-0.0073,1,1,1,1,1,1,1
2.8654,sweep,2,+up,-0.00668,0.28592,0.00019,-0.00515,0.00019,0.01125,-0.00095,0.0024,0.1880,-0.0024,-0.0073,-0.0073,-0.0220,0.0073,-0.6222,1.8530,-0.1709,-0.0366,-0.0904,-0.0024,-0.0073,1,1,1,1,1,1,1
2.9052,sweep,2,+up,-0.00668,0.30995,0.00019,-0.00553,0.00019,0.01125,-0.00095,-0.0073,0.2173,-0.0024,-0.0073,-0.0073,-0.0073,-0.0073,-0.6359,1.7983,-0.1709,-0.0366,-0.0904,-0.0024,-0.0024,1,1,1,1,1,1,1
2.9452,sweep,2,+up,-0.00668,0.30995,0.00019,-0.00553,0.00019,0.01125,-0.00095,-0.0073,0.2173,-0.0024,-0.0073,-0.0073,-0.0073,-0.0073,-0.6359,1.7983,-0.1709,-0.0366,-0.0904,-0.0024,-0.0024,1,1,1,1,1,1,1
2.9854,sweep,2,+up,-0.00668,0.30995,0.00019,-0.00553,0.00019,0.01125,-0.00095,-0.0073,0.2173,-0.0024,-0.0073,-0.0073,-0.0073,-0.0073,-0.6359,1.7983,-0.1709,-0.0366,-0.0904,-0.0024,-0.0024,1,1,1,1,1,1,1
3.0251,sweep,2,+up,-0.00668,0.32597,0.00019,-0.00553,0.00019,0.01125,-0.00057,-0.0024,0.1880,-0.0024,-0.0073,-0.0073,-0.0073,0.0073,-0.6496,1.9350,-0.1709,-0.0415,-0.0952,-0.0024,-0.0073,1,1,1,1,1,1,1
3.0652,sweep,2,+up,-0.00668,0.32597,0.00019,-0.00553,0.00019,0.01125,-0.00057,-0.0024,0.1880,-0.0024,-0.0073,-0.0073,-0.0073,0.0073,-0.6496,1.9350,-0.1709,-0.0415,-0.0952,-0.0024,-0.0073,1,1,1,1,1,1,1
3.1052,sweep,2,+up,-0.00668,0.35000,0.00019,-0.00553,0.00019,0.01125,-0.00095,-0.0024,0.2076,0.0024,-0.0073,-0.0073,-0.0073,-0.0220,-0.6769,1.6615,-0.1573,-0.0415,-0.1050,-0.0024,-0.0024,1,1,1,1,1,1,1
3.1461,sweep,2,+up,-0.00668,0.35000,0.00019,-0.00553,0.00019,0.01125,-0.00095,-0.0024,0.2076,0.0024,-0.0073,-0.0073,-0.0073,-0.0220,-0.6769,1.6615,-0.1573,-0.0415,-0.1050,-0.0024,-0.0024,1,1,1,1,1,1,1
3.1852,sweep,2,+up,-0.00668,0.35000,0.00019,-0.00553,0.00019,0.01125,-0.00095,-0.0024,0.2076,0.0024,-0.0073,-0.0073,-0.0073,-0.0220,-0.6769,1.6615,-0.1573,-0.0415,-0.1050,-0.0024,-0.0024,1,1,1,1,1,1,1
3.2251,sweep,2,+up,-0.00668,0.36603,0.00019,-0.00553,0.00019,0.01125,-0.00057,-0.0024,0.1929,-0.0024,-0.0073,0.0073,-0.0073,-0.0073,-0.6906,1.8120,-0.1573,-0.0415,-0.1050,-0.0024,0.0024,1,1,1,1,1,1,1
3.2650,sweep,2,+up,-0.00668,0.36603,0.00019,-0.00553,0.00019,0.01125,-0.00057,-0.0024,0.1929,-0.0024,-0.0073,0.0073,-0.0073,-0.0073,-0.6906,1.8120,-0.1573,-0.0415,-0.1050,-0.0024,0.0024,1,1,1,1,1,1,1
3.3051,sweep,2,+up,-0.00668,0.38205,0.00019,-0.00553,0.00019,0.01125,-0.00095,0.0024,0.2125,-0.0024,0.0073,-0.0220,-0.0073,-0.0073,-0.6906,1.5521,-0.1573,-0.0366,-0.1099,0.0024,0.0024,1,1,1,1,1,1,1
3.3458,sweep,2,+up,-0.00668,0.38205,0.00019,-0.00553,0.00019,0.01125,-0.00095,0.0024,0.2125,-0.0024,0.0073,-0.0220,-0.0073,-0.0073,-0.6906,1.5521,-0.1573,-0.0366,-0.1099,0.0024,0.0024,1,1,1,1,1,1,1
3.3851,sweep,2,+up,-0.00668,0.38205,0.00019,-0.00553,0.00019,0.01125,-0.00095,0.0024,0.2125,-0.0024,0.0073,-0.0220,-0.0073,-0.0073,-0.6906,1.5521,-0.1573,-0.0366,-0.1099,0.0024,0.0024,1,1,1,1,1,1,1
3.4250,sweep,2,+up,-0.00668,0.40608,0.00019,-0.00553,0.00019,0.01125,-0.00095,-0.0024,0.2027,0.0024,-0.0073,-0.0073,-0.0073,-0.0220,-0.6906,1.6752,-0.1573,-0.0415,-0.1050,0.0024,0.0024,1,1,1,1,1,1,1
3.4651,sweep,2,+up,-0.00668,0.40608,0.00019,-0.00553,0.00019,0.01125,-0.00095,-0.0024,0.2027,0.0024,-0.0073,-0.0073,-0.0073,-0.0220,-0.6906,1.6752,-0.1573,-0.0415,-0.1050,0.0024,0.0024,1,1,1,1,1,1,1
3.5051,sweep,2,+up,-0.00668,0.40608,0.00019,-0.00553,0.00019,0.01125,-0.00095,-0.0024,0.2027,0.0024,-0.0073,-0.0220,-0.0073,-0.0073,-0.6906,1.6752,-0.1573,-0.0366,-0.1099,0.0024,0.0024,1,1,1,1,1,1,1
3.5453,sweep,2,+up,-0.00668,0.43011,0.00019,-0.00553,0.00019,0.01125,-0.00095,0.0024,0.1978,-0.0073,-0.0073,-0.0220,-0.0073,-0.0073,-0.6769,1.5111,-0.1573,-0.0366,-0.1099,0.0024,0.0024,1,1,1,1,1,1,1
3.5850,sweep,2,+up,-0.00668,0.43011,0.00019,-0.00553,0.00019,0.01125,-0.00095,0.0024,0.1978,-0.0073,-0.0073,-0.0220,-0.0073,-0.0073,-0.6769,1.5111,-0.1573,-0.0366,-0.1099,0.0024,0.0024,1,1,1,1,1,1,1
3.6251,sweep,2,+up,-0.00668,0.44614,0.00019,-0.00553,0.00019,0.01125,-0.00095,-0.0073,0.2027,-0.0024,-0.0073,-0.0073,-0.0073,-0.0073,-0.6906,1.5932,-0.1709,-0.0317,-0.1099,0.0024,0.0024,1,1,1,1,1,1,1
3.6652,sweep,2,+up,-0.00668,0.44614,0.00019,-0.00553,0.00019,0.01125,-0.00095,-0.0073,0.2027,-0.0024,-0.0073,-0.0073,-0.0073,-0.0073,-0.6906,1.5932,-0.1709,-0.0317,-0.1099,0.0024,0.0024,1,1,1,1,1,1,1
3.7052,sweep,2,+up,-0.00668,0.44614,0.00019,-0.00553,0.00019,0.01125,-0.00057,-0.0073,0.2027,-0.0024,-0.0073,-0.0073,-0.0073,-0.0073,-0.6906,1.5932,-0.1709,-0.0366,-0.1099,0.0024,0.0024,1,1,1,1,1,1,1
3.7451,sweep,2,+up,-0.00668,0.47017,0.00019,-0.00553,0.00019,0.01125,-0.00057,-0.0024,0.1880,-0.0024,-0.0073,-0.0073,-0.0073,-0.0073,-0.6906,1.5521,-0.1573,-0.0366,-0.1099,0.0024,0.0024,1,1,1,1,1,1,1
3.7851,sweep,2,+up,-0.00668,0.47017,0.00019,-0.00553,0.00019,0.01125,-0.00057,-0.0024,0.1880,-0.0024,-0.0073,-0.0073,-0.0073,-0.0073,-0.6906,1.5521,-0.1573,-0.0366,-0.1099,0.0024,0.0024,1,1,1,1,1,1,1
3.8254,sweep,2,+up,-0.00668,0.48657,0.00019,-0.00553,0.00019,0.01125,-0.00095,-0.0073,0.2222,-0.0073,-0.0073,0.0073,-0.0073,-0.0073,-0.6769,1.1966,-0.1573,-0.0317,-0.1148,0.0073,0.0024,1,1,1,1,1,1,1
3.8652,sweep,2,+up,-0.00668,0.48657,0.00019,-0.00553,0.00019,0.01125,-0.00095,-0.0073,0.2222,-0.0073,-0.0073,0.0073,-0.0073,-0.0073,-0.6769,1.1966,-0.1573,-0.0317,-0.1148,0.0073,0.0024,1,1,1,1,1,1,1
3.9051,sweep,2,+up,-0.00668,0.48657,0.00019,-0.00553,0.00019,0.01125,-0.00095,-0.0073,0.2222,-0.0073,-0.0073,0.0073,-0.0073,-0.0073,-0.6769,1.1966,-0.1573,-0.0317,-0.1148,0.0073,0.0024,1,1,1,1,1,1,1
3.9449,sweep,2,+up,-0.00668,0.49458,0.00019,-0.00553,0.00019,0.01125,-0.00057,-0.0073,0.1880,-0.0024,-0.0073,-0.0073,-0.0073,-0.0073,-0.6632,1.3197,-0.1573,-0.0269,-0.1245,0.0073,0.0073,1,1,1,1,1,1,1
3.9852,sweep,2,+up,-0.00668,0.49458,0.00019,-0.00553,0.00019,0.01125,-0.00057,-0.0073,0.1880,-0.0024,-0.0073,-0.0073,-0.0073,-0.0073,-0.6632,1.3197,-0.1573,-0.0269,-0.1245,0.0073,0.0073,1,1,1,1,1,1,1
4.0252,sweep,2,+up,-0.00668,0.52663,0.00019,-0.00553,0.00019,0.01163,-0.00057,-0.0073,0.1978,0.0024,-0.0220,-0.0073,-0.0073,0.0073,-0.6769,1.2103,-0.1573,-0.0269,-0.1245,0.0122,0.0024,1,1,1,1,1,1,1
4.0650,sweep,2,+up,-0.00668,0.52663,0.00019,-0.00553,0.00019,0.01163,-0.00057,-0.0073,0.1978,0.0024,-0.0220,-0.0073,-0.0073,0.0073,-0.6769,1.2103,-0.1573,-0.0269,-0.1245,0.0122,0.0024,1,1,1,1,1,1,1
4.1052,sweep,2,+up,-0.00668,0.52663,0.00019,-0.00553,0.00019,0.01163,-0.00057,-0.0073,0.1978,0.0024,-0.0220,-0.0073,-0.0073,0.0073,-0.6769,1.2103,-0.1573,-0.0269,-0.1245,0.0122,0.0024,1,1,1,1,1,1,1
4.1450,sweep,2,+up,-0.00668,0.55066,0.00019,-0.00553,0.00019,0.01125,-0.00095,-0.0024,0.1978,-0.0024,0.0073,-0.0073,-0.0220,-0.0220,-0.7179,1.1419,-0.1436,-0.0269,-0.1245,0.0171,0.0073,1,1,1,1,1,1,1
4.1854,sweep,2,+up,-0.00668,0.55066,0.00019,-0.00553,0.00019,0.01125,-0.00095,-0.0024,0.1978,-0.0024,0.0073,-0.0073,-0.0220,-0.0220,-0.7179,1.1419,-0.1436,-0.0269,-0.1245,0.0171,0.0073,1,1,1,1,1,1,1
4.2252,sweep,2,+up,-0.00668,0.56668,0.00019,-0.00553,-0.00019,0.01125,-0.00057,-0.0073,0.1832,-0.0024,-0.0073,0.0073,0.0073,0.0073,-0.7043,1.1145,-0.1573,-0.0220,-0.1148,0.0122,0.0073,1,1,1,1,1,1,1
4.2650,sweep,2,+up,-0.00668,0.56668,0.00019,-0.00553,-0.00019,0.01125,-0.00057,-0.0073,0.1832,-0.0024,-0.0073,0.0073,0.0073,0.0073,-0.7043,1.1145,-0.1573,-0.0220,-0.1148,0.0122,0.0073,1,1,1,1,1,1,1
4.3050,sweep,2,+up,-0.00668,0.56668,0.00019,-0.00553,-0.00019,0.01125,-0.00057,-0.0073,0.1832,-0.0024,-0.0073,0.0073,0.0073,0.0073,-0.7043,1.1145,-0.1573,-0.0220,-0.1148,0.0122,0.0073,1,1,1,1,1,1,1
4.3452,sweep,2,+up,-0.00668,0.59071,0.00019,-0.00553,-0.00019,0.01125,-0.00057,-0.0024,0.2027,-0.0024,-0.0073,0.0073,-0.0073,-0.0073,-0.7043,1.0188,-0.1436,-0.0122,-0.1197,0.0122,0.0073,1,1,1,1,1,1,1
4.3850,sweep,2,+up,-0.00668,0.59071,0.00019,-0.00553,-0.00019,0.01125,-0.00057,-0.0024,0.2027,-0.0024,-0.0073,0.0073,-0.0073,-0.0073,-0.7043,1.0188,-0.1436,-0.0122,-0.1197,0.0122,0.0073,1,1,1,1,1,1,1
4.4251,sweep,2,+up,-0.00668,0.60674,0.00019,-0.00553,-0.00019,0.01125,-0.00095,-0.0024,0.1929,-0.0024,-0.0073,-0.0073,-0.0073,-0.0220,-0.6906,1.0188,-0.1573,-0.0073,-0.1148,0.0171,0.0073,1,1,1,1,1,1,1
4.4654,sweep,2,+up,-0.00668,0.60674,0.00019,-0.00553,-0.00019,0.01125,-0.00095,-0.0024,0.1929,-0.0024,-0.0073,-0.0073,-0.0073,-0.0220,-0.6906,1.0188,-0.1573,-0.0073,-0.1148,0.0171,0.0073,1,1,1,1,1,1,1
4.5049,sweep,2,+up,-0.00668,0.60674,0.00019,-0.00553,-0.00019,0.01125,-0.00095,-0.0024,0.1929,-0.0024,-0.0073,-0.0073,-0.0073,-0.0220,-0.6906,1.0188,-0.1573,-0.0073,-0.1148,0.0171,0.0073,1,1,1,1,1,1,1
4.5452,sweep,2,+up,-0.00668,0.63077,0.00019,-0.00553,-0.00019,0.01125,-0.00057,-0.0024,0.2173,-0.0024,-0.0073,-0.0073,-0.0073,0.0073,-0.7043,0.7863,-0.1436,-0.0024,-0.1148,0.0171,0.0073,1,1,1,1,1,1,1
4.5850,sweep,2,+up,-0.00668,0.63077,0.00019,-0.00553,-0.00019,0.01125,-0.00057,-0.0024,0.2173,-0.0024,-0.0073,-0.0073,-0.0073,0.0073,-0.7043,0.7863,-0.1436,-0.0024,-0.1148,0.0171,0.0073,1,1,1,1,1,1,1
4.6252,sweep,2,+up,-0.00668,0.64679,0.00019,-0.00591,-0.00019,0.01125,-0.00095,-0.0024,0.1734,-0.0024,-0.0073,-0.0073,-0.0073,0.0073,-0.6769,0.9231,-0.1436,0.0024,-0.1050,0.0171,0.0073,1,1,1,1,1,1,1
4.6648,sweep,2,+up,-0.00668,0.64679,0.00019,-0.00591,-0.00019,0.01125,-0.00095,-0.0024,0.1734,-0.0024,-0.0073,-0.0073,-0.0073,0.0073,-0.6769,0.9231,-0.1436,0.0024,-0.1050,0.0171,0.0073,1,1,1,1,1,1,1
4.7050,sweep,2,+up,-0.00668,0.64679,0.00019,-0.00591,-0.00019,0.01125,-0.00095,-0.0024,0.1734,-0.0024,-0.0073,-0.0073,-0.0073,0.0073,-0.6769,0.9231,-0.1436,0.0024,-0.1050,0.0171,0.0073,1,1,1,1,1,1,1
4.7451,sweep,2,+up,-0.00706,0.67006,0.00019,-0.00553,-0.00019,0.01125,-0.00057,-0.0024,0.1929,-0.0024,-0.0073,-0.0073,-0.0220,-0.0073,-0.6906,0.5812,-0.1573,0.0122,-0.1001,0.0171,0.0073,1,1,1,1,1,1,1
4.7850,sweep,2,+up,-0.00706,0.67006,0.00019,-0.00553,-0.00019,0.01125,-0.00057,-0.0024,0.1929,-0.0024,-0.0073,-0.0073,-0.0220,-0.0073,-0.6906,0.5812,-0.1573,0.0122,-0.1001,0.0171,0.0073,1,1,1,1,1,1,1
4.8251,sweep,2,+up,-0.00668,0.68341,0.00019,-0.00553,-0.00019,0.01125,-0.00057,-0.0024,0.1636,-0.0024,0.0073,-0.0073,-0.0073,-0.0073,-0.6906,0.6085,-0.1436,0.0171,-0.0952,0.0171,0.0073,1,1,1,1,1,1,1
4.8650,sweep,2,+up,-0.00668,0.68341,0.00019,-0.00553,-0.00019,0.01125,-0.00057,-0.0024,0.1636,-0.0024,0.0073,-0.0073,-0.0073,-0.0073,-0.6906,0.6085,-0.1436,0.0171,-0.0952,0.0171,0.0073,1,1,1,1,1,1,1
4.9051,sweep,2,+up,-0.00668,0.68341,0.00019,-0.00553,-0.00019,0.01125,-0.00057,-0.0024,0.1636,-0.0024,0.0073,-0.0073,-0.0073,-0.0073,-0.6906,0.6085,-0.1436,0.0171,-0.0952,0.0171,0.0073,1,1,1,1,1,1,1
4.9449,sweep,2,+up,-0.00706,0.70096,0.00019,-0.00553,-0.00019,0.01125,-0.00095,-0.0024,0.1343,-0.0024,-0.0220,0.0073,-0.0073,0.0073,-0.6906,0.6085,-0.1436,0.0269,-0.1001,0.0171,0.0024,1,1,1,1,1,1,1
4.9851,sweep,2,+up,-0.00706,0.70096,0.00019,-0.00553,-0.00019,0.01125,-0.00095,-0.0024,0.1343,-0.0024,-0.0220,0.0073,-0.0073,0.0073,-0.6906,0.6085,-0.1436,0.0269,-0.1001,0.0171,0.0024,1,1,1,1,1,1,1
5.0251,sweep,2,+up,-0.00668,0.71088,0.00019,-0.00553,-0.00019,0.01125,-0.00095,-0.0024,0.1197,-0.0024,-0.0073,-0.0220,-0.0220,-0.0073,-0.7043,0.5812,-0.1436,0.0317,-0.1001,0.0220,0.0024,1,1,1,1,1,1,1
5.0650,sweep,2,+up,-0.00668,0.71088,0.00019,-0.00553,-0.00019,0.01125,-0.00095,-0.0024,0.1197,-0.0024,-0.0073,-0.0220,-0.0220,-0.0073,-0.7043,0.5812,-0.1436,0.0317,-0.1001,0.0220,0.0024,1,1,1,1,1,1,1
5.1051,sweep,2,+up,-0.00668,0.71088,0.00019,-0.00553,-0.00019,0.01125,-0.00095,-0.0024,0.1197,-0.0024,-0.0073,-0.0220,-0.0220,-0.0073,-0.7043,0.5812,-0.1436,0.0317,-0.1001,0.0220,0.0024,1,1,1,1,1,1,1
5.1450,sweep,2,+up,-0.00668,0.72423,0.00019,-0.00553,-0.00019,0.01125,-0.00095,-0.0024,0.0904,-0.0024,-0.0073,-0.0073,-0.0073,0.0073,-0.7179,0.6496,-0.1573,0.0366,-0.1001,0.0220,0.0024,1,1,1,1,1,1,1
5.1851,sweep,2,+up,-0.00668,0.72423,0.00019,-0.00553,-0.00019,0.01125,-0.00095,-0.0024,0.0904,-0.0024,-0.0073,-0.0073,-0.0073,0.0073,-0.7179,0.6496,-0.1573,0.0366,-0.1001,0.0220,0.0024,1,1,1,1,1,1,1
5.2250,sweep,2,+up,-0.00706,0.73224,0.00019,-0.00553,-0.00019,0.01125,-0.00095,-0.0073,0.0904,-0.0024,-0.0073,-0.0073,-0.0073,-0.0073,-0.7316,0.5949,-0.1573,0.0415,-0.0952,0.0220,-0.0024,1,1,1,1,1,1,1
5.2650,sweep,2,+up,-0.00706,0.73224,0.00019,-0.00553,-0.00019,0.01125,-0.00095,-0.0073,0.0904,-0.0024,-0.0073,-0.0073,-0.0073,-0.0073,-0.7316,0.5949,-0.1573,0.0415,-0.0952,0.0220,-0.0024,1,1,1,1,1,1,1
5.3049,sweep,2,+up,-0.00706,0.73224,0.00019,-0.00553,-0.00019,0.01125,-0.00095,-0.0073,0.0904,-0.0024,-0.0073,-0.0073,-0.0073,-0.0073,-0.7316,0.5949,-0.1573,0.0415,-0.0952,0.0220,-0.0024,1,1,1,1,1,1,1
5.3450,sweep,2,+up,-0.00706,0.74254,0.00019,-0.00553,-0.00019,0.01125,-0.00057,-0.0024,0.0659,-0.0024,0.0073,-0.0073,-0.0073,-0.0073,-0.7043,0.5402,-0.1436,0.0415,-0.0904,0.0269,0.0024,1,1,1,1,1,1,1
5.3849,sweep,2,+up,-0.00706,0.74254,0.00019,-0.00553,-0.00019,0.01125,-0.00057,-0.0024,0.0659,-0.0024,0.0073,-0.0073,-0.0073,-0.0073,-0.7043,0.5402,-0.1436,0.0415,-0.0904,0.0269,0.0024,1,1,1,1,1,1,1
5.4250,sweep,2,+up,-0.00706,0.74826,0.00019,-0.00553,-0.00019,0.01125,-0.00095,-0.0024,0.0464,-0.0024,-0.0073,-0.0073,-0.0073,-0.0073,-0.6906,0.4444,-0.1436,0.0464,-0.0855,0.0269,-0.0024,1,1,1,1,1,1,1
5.4650,sweep,2,+up,-0.00706,0.74826,0.00019,-0.00553,-0.00019,0.01125,-0.00095,-0.0024,0.0464,-0.0024,-0.0073,-0.0073,-0.0073,-0.0073,-0.6906,0.4444,-0.1436,0.0464,-0.0855,0.0269,-0.0024,1,1,1,1,1,1,1
5.5051,sweep,2,+up,-0.00706,0.74826,0.00019,-0.00553,-0.00019,0.01125,-0.00095,-0.0024,0.0464,-0.0024,-0.0073,-0.0073,-0.0073,-0.0073,-0.6906,0.4444,-0.1436,0.0464,-0.0855,0.0269,-0.0024,1,1,1,1,1,1,1
5.5449,sweep,2,+up,-0.00706,0.75589,0.00019,-0.00553,0.00019,0.01125,-0.00057,-0.0073,0.0317,-0.0024,-0.0073,-0.0073,-0.0073,-0.0073,-0.6769,0.6222,-0.1573,0.0464,-0.0806,0.0269,-0.0024,1,1,1,1,1,1,1
5.5851,sweep,2,+up,-0.00706,0.75589,0.00019,-0.00553,0.00019,0.01125,-0.00057,-0.0073,0.0317,-0.0024,-0.0073,-0.0073,-0.0073,-0.0073,-0.6769,0.6222,-0.1573,0.0464,-0.0806,0.0269,-0.0024,1,1,1,1,1,1,1
5.6252,sweep,2,+up,-0.00706,0.75971,0.00019,-0.00553,-0.00019,0.01125,-0.00095,-0.0024,0.0415,-0.0024,-0.0073,-0.0073,-0.0073,-0.0073,-0.6632,1.5248,-0.1573,0.0464,-0.0806,0.0269,-0.0024,1,1,1,1,1,1,1
5.6654,sweep,2,+up,-0.00706,0.75971,0.00019,-0.00553,-0.00019,0.01125,-0.00095,-0.0024,0.0415,-0.0024,-0.0073,-0.0073,-0.0073,-0.0073,-0.6632,1.5248,-0.1573,0.0464,-0.0806,0.0269,-0.0024,1,1,1,1,1,1,1
5.7054,sweep,2,+up,-0.00706,0.75971,0.00019,-0.00553,-0.00019,0.01125,-0.00095,-0.0024,0.0415,-0.0024,-0.0073,-0.0073,-0.0073,-0.0073,-0.6632,1.5248,-0.1573,0.0464,-0.0806,0.0269,-0.0024,1,1,1,1,1,1,1
5.7449,sweep,2,+up,-0.00706,0.76505,0.00019,-0.00515,-0.00019,0.01125,-0.00095,-0.0024,0.0317,-0.0024,0.0073,-0.0073,-0.0073,-0.0073,-0.6359,2.1949,-0.1709,0.0464,-0.0757,0.0269,-0.0024,1,1,1,1,1,1,1
5.7850,sweep,2,+up,-0.00706,0.76505,0.00019,-0.00515,-0.00019,0.01125,-0.00095,-0.0024,0.0317,-0.0024,0.0073,-0.0073,-0.0073,-0.0073,-0.6359,2.1949,-0.1709,0.0464,-0.0757,0.0269,-0.0024,1,1,1,1,1,1,1
5.8252,sweep,2,+up,-0.00706,0.76848,0.00019,-0.00515,-0.00019,0.01125,-0.00057,-0.0024,0.0366,-0.0024,-0.0073,-0.0073,-0.0220,0.0073,-0.6085,2.7009,-0.1709,0.0464,-0.0708,0.0269,0.0024,1,1,1,1,1,1,1
5.8650,sweep,2,+up,-0.00706,0.76848,0.00019,-0.00515,-0.00019,0.01125,-0.00057,-0.0024,0.0366,-0.0024,-0.0073,-0.0073,-0.0220,0.0073,-0.6085,2.7009,-0.1709,0.0464,-0.0708,0.0269,0.0024,1,1,1,1,1,1,1
5.9048,sweep,2,+up,-0.00706,0.76848,0.00019,-0.00515,-0.00019,0.01125,-0.00057,-0.0024,0.0366,-0.0024,-0.0073,-0.0073,-0.0220,0.0073,-0.6085,2.7009,-0.1709,0.0464,-0.0708,0.0269,0.0024,1,1,1,1,1,1,1
5.9452,sweep,2,+up,-0.00706,0.77306,0.00019,-0.00477,-0.00019,0.01125,-0.00057,0.0024,0.0415,-0.0024,-0.0073,-0.0073,-0.0073,-0.0073,-0.6085,2.9880,-0.1846,0.0317,-0.0708,0.0269,0.0024,1,1,1,1,1,1,1
5.9853,sweep,2,+up,-0.00706,0.77306,0.00019,-0.00477,-0.00019,0.01125,-0.00057,0.0024,0.0415,-0.0024,-0.0073,-0.0073,-0.0073,-0.0073,-0.6085,2.9880,-0.1846,0.0317,-0.0708,0.0269,0.0024,1,1,1,1,1,1,1
6.0250,sweep,2,+up,-0.00706,0.77573,0.00019,-0.00439,-0.00019,0.01125,-0.00095,-0.0024,0.0366,0.0024,0.0073,-0.0220,-0.0073,-0.0073,-0.6222,2.9607,-0.1846,0.0220,-0.0659,0.0269,0.0024,1,1,1,1,1,1,1
6.0650,sweep,2,+up,-0.00706,0.77573,0.00019,-0.00439,-0.00019,0.01125,-0.00095,-0.0024,0.0366,0.0024,0.0073,-0.0220,-0.0073,-0.0073,-0.6222,2.9607,-0.1846,0.0220,-0.0659,0.0269,0.0024,1,1,1,1,1,1,1
6.1048,sweep,2,+up,-0.00706,0.77573,0.00019,-0.00439,-0.00019,0.01125,-0.00095,-0.0024,0.0366,0.0024,0.0073,-0.0220,-0.0073,-0.0073,-0.6222,2.9607,-0.1846,0.0220,-0.0659,0.0269,0.0024,1,1,1,1,1,1,1
6.1452,sweep,2,+up,-0.00706,0.77916,0.00019,-0.00439,-0.00019,0.01125,-0.00095,-0.0024,0.0220,0.0024,-0.0073,0.0073,-0.0073,-0.0073,-0.6222,2.9607,-0.1846,0.0024,-0.0659,0.0269,0.0024,1,1,1,1,1,1,1
6.1851,sweep,2,+up,-0.00706,0.77916,0.00019,-0.00439,-0.00019,0.01125,-0.00095,-0.0024,0.0220,0.0024,-0.0073,0.0073,-0.0073,-0.0073,-0.6222,2.9607,-0.1846,0.0024,-0.0659,0.0269,0.0024,1,1,1,1,1,1,1
6.2249,sweep,2,+up,-0.00706,0.78107,0.00019,-0.00477,-0.00019,0.01125,-0.00095,-0.0024,0.0220,-0.0024,-0.0073,0.0073,-0.0073,-0.0073,-0.6222,3.1521,-0.1709,-0.0073,-0.0659,0.0317,0.0024,1,1,1,1,1,1,1
6.7274,sweep,2,-down,-0.00706,0.78222,-0.00019,-0.00477,-0.00019,0.01125,-0.00095,0.0024,0.0220,-0.0024,-0.0073,-0.0073,-0.0073,-0.0220,-0.6222,3.2205,-0.1846,-0.0073,-0.0611,0.0269,-0.0024,1,1,1,1,1,1,1
6.7675,sweep,2,-down,-0.00706,0.78222,-0.00019,-0.00477,-0.00019,0.01125,-0.00095,0.0024,0.0220,-0.0024,-0.0073,-0.0073,-0.0073,-0.0220,-0.6222,3.2205,-0.1846,-0.0073,-0.0611,0.0269,-0.0024,1,1,1,1,1,1,1
6.8074,sweep,2,-down,-0.00706,0.78222,-0.00019,-0.00477,-0.00019,0.01125,-0.00095,0.0024,0.0220,-0.0024,-0.0073,-0.0073,-0.0073,-0.0220,-0.6222,3.2205,-0.1846,-0.0073,-0.0611,0.0269,-0.0024,1,1,1,1,1,1,1
6.8477,sweep,2,-down,-0.00706,0.77764,0.00019,-0.00515,-0.00019,0.01125,-0.00095,0.0024,-0.1929,-0.0024,-0.0073,-0.0220,-0.0220,-0.0073,-0.6085,1.3333,-0.1983,-0.0317,-0.0611,0.0415,0.0073,1,1,1,1,1,1,1
6.8876,sweep,2,-down,-0.00706,0.77764,0.00019,-0.00515,-0.00019,0.01125,-0.00095,0.0024,-0.1929,-0.0024,-0.0073,-0.0220,-0.0220,-0.0073,-0.6085,1.3333,-0.1983,-0.0317,-0.0611,0.0415,0.0073,1,1,1,1,1,1,1
6.9275,sweep,2,-down,-0.00706,0.76238,0.00019,-0.00553,-0.00019,0.01125,-0.00057,-0.0024,-0.2027,-0.0024,-0.0220,-0.0220,-0.0073,-0.0073,-0.5812,0.4991,-0.1846,-0.0269,-0.0562,0.0415,0.0073,1,1,1,1,1,1,1
6.9677,sweep,2,-down,-0.00706,0.76238,0.00019,-0.00553,-0.00019,0.01125,-0.00057,-0.0024,-0.2027,-0.0024,-0.0220,-0.0220,-0.0073,-0.0073,-0.5812,0.4991,-0.1846,-0.0269,-0.0562,0.0415,0.0073,1,1,1,1,1,1,1
7.0073,sweep,2,-down,-0.00706,0.76238,0.00019,-0.00553,-0.00019,0.01125,-0.00057,-0.0024,-0.2027,-0.0024,-0.0220,-0.0220,-0.0073,-0.0073,-0.5812,0.4991,-0.1846,-0.0269,-0.0562,0.0415,0.0073,1,1,1,1,1,1,1
7.0477,sweep,2,-down,-0.00706,0.73987,0.00019,-0.00591,-0.00019,0.01125,-0.00095,-0.0073,-0.1783,-0.0024,-0.0073,-0.0073,-0.0073,-0.0073,-0.5812,-0.5949,-0.1983,-0.0024,-0.0562,0.0415,0.0073,1,1,1,1,1,1,1
7.0874,sweep,2,-down,-0.00706,0.73987,0.00019,-0.00591,-0.00019,0.01125,-0.00095,-0.0073,-0.1783,-0.0024,-0.0073,-0.0073,-0.0073,-0.0073,-0.5812,-0.5949,-0.1983,-0.0024,-0.0562,0.0415,0.0073,1,1,1,1,1,1,1
7.1274,sweep,2,-down,-0.00706,0.72385,0.00019,-0.00591,-0.00019,0.01163,-0.00057,-0.0122,-0.2173,-0.0024,-0.0073,0.0073,-0.0073,-0.0073,-0.5812,-0.4444,-0.1846,0.0073,-0.0513,0.0366,0.0024,1,1,1,1,1,1,1
7.1673,sweep,2,-down,-0.00706,0.72385,0.00019,-0.00591,-0.00019,0.01163,-0.00057,-0.0122,-0.2173,-0.0024,-0.0073,0.0073,-0.0073,-0.0073,-0.5812,-0.4444,-0.1846,0.0073,-0.0513,0.0366,0.0024,1,1,1,1,1,1,1
7.2077,sweep,2,-down,-0.00706,0.72385,0.00019,-0.00591,-0.00019,0.01163,-0.00057,-0.0122,-0.2173,-0.0024,-0.0073,0.0073,-0.0073,-0.0073,-0.5812,-0.4444,-0.1846,0.0073,-0.0513,0.0366,0.0024,1,1,1,1,1,1,1
7.2474,sweep,2,-down,-0.00706,0.69944,-0.00019,-0.00591,-0.00019,0.01163,-0.00095,-0.0024,-0.1880,-0.0024,-0.0073,-0.0073,-0.0073,-0.0073,-0.5812,-0.2256,-0.1983,0.0171,-0.0464,0.0317,0.0024,1,1,1,1,1,1,1
7.2876,sweep,2,-down,-0.00706,0.69944,-0.00019,-0.00591,-0.00019,0.01163,-0.00095,-0.0024,-0.1880,-0.0024,-0.0073,-0.0073,-0.0073,-0.0073,-0.5812,-0.2256,-0.1983,0.0171,-0.0464,0.0317,0.0024,1,1,1,1,1,1,1
7.3274,sweep,2,-down,-0.00706,0.68341,0.00019,-0.00591,-0.00019,0.01163,-0.00057,-0.0024,-0.2271,0.0024,-0.0220,0.0073,0.0073,0.0073,-0.5812,-0.2120,-0.1983,0.0269,-0.0415,0.0317,0.0024,1,1,1,1,1,1,1
7.3677,sweep,2,-down,-0.00706,0.68341,0.00019,-0.00591,-0.00019,0.01163,-0.00057,-0.0024,-0.2271,0.0024,-0.0220,0.0073,0.0073,0.0073,-0.5812,-0.2120,-0.1983,0.0269,-0.0415,0.0317,0.0024,1,1,1,1,1,1,1
7.4075,sweep,2,-down,-0.00706,0.68341,0.00019,-0.00591,-0.00019,0.01163,-0.00057,-0.0024,-0.2271,0.0024,-0.0220,0.0073,0.0073,0.0073,-0.5812,-0.2120,-0.1983,0.0269,-0.0415,0.0317,0.0024,1,1,1,1,1,1,1
7.4475,sweep,2,-down,-0.00706,0.65938,-0.00019,-0.00591,-0.00019,0.01163,-0.00095,-0.0024,-0.1978,-0.0024,0.0073,0.0073,-0.0073,-0.0073,-0.5949,-0.1436,-0.1983,0.0366,-0.0415,0.0269,-0.0024,1,1,1,1,1,1,1
7.4875,sweep,2,-down,-0.00706,0.65938,-0.00019,-0.00591,-0.00019,0.01163,-0.00095,-0.0024,-0.1978,-0.0024,0.0073,0.0073,-0.0073,-0.0073,-0.5949,-0.1436,-0.1983,0.0366,-0.0415,0.0269,-0.0024,1,1,1,1,1,1,1
7.5274,sweep,2,-down,-0.00706,0.64336,-0.00019,-0.00591,-0.00019,0.01163,-0.00095,-0.0073,-0.2173,-0.0024,-0.0073,-0.0220,-0.0073,-0.0073,-0.5949,-0.1299,-0.1983,0.0464,-0.0366,0.0269,0.0024,1,1,1,1,1,1,1
7.5674,sweep,2,-down,-0.00706,0.64336,-0.00019,-0.00591,-0.00019,0.01163,-0.00095,-0.0073,-0.2173,-0.0024,-0.0073,-0.0220,-0.0073,-0.0073,-0.5949,-0.1299,-0.1983,0.0464,-0.0366,0.0269,0.0024,1,1,1,1,1,1,1
7.6074,sweep,2,-down,-0.00706,0.64336,-0.00019,-0.00591,-0.00019,0.01163,-0.00095,-0.0073,-0.2173,-0.0024,-0.0073,-0.0220,-0.0073,-0.0073,-0.5949,-0.1299,-0.1983,0.0464,-0.0366,0.0269,0.0024,1,1,1,1,1,1,1
7.6474,sweep,2,-down,-0.00706,0.61933,0.00019,-0.00591,-0.00019,0.01163,-0.00057,-0.0073,-0.1978,0.0024,-0.0073,-0.0073,-0.0073,-0.0073,-0.5812,-0.0889,-0.1983,0.0562,-0.0366,0.0269,0.0024,1,1,1,1,1,1,1
7.6876,sweep,2,-down,-0.00706,0.61933,0.00019,-0.00591,-0.00019,0.01163,-0.00057,-0.0073,-0.1978,0.0024,-0.0073,-0.0073,-0.0073,-0.0073,-0.5812,-0.0889,-0.1983,0.0562,-0.0366,0.0269,0.0024,1,1,1,1,1,1,1
7.7274,sweep,2,-down,-0.00706,0.60292,0.00019,-0.00591,-0.00019,0.01163,-0.00095,-0.0073,-0.2173,-0.0024,-0.0220,-0.0073,-0.0073,-0.0073,-0.5538,0.0205,-0.1983,0.0611,-0.0415,0.0220,-0.0024,1,1,1,1,1,1,1
7.7675,sweep,2,-down,-0.00706,0.60292,0.00019,-0.00591,-0.00019,0.01163,-0.00095,-0.0073,-0.2173,-0.0024,-0.0220,-0.0073,-0.0073,-0.0073,-0.5538,0.0205,-0.1983,0.0611,-0.0415,0.0220,-0.0024,1,1,1,1,1,1,1
7.8074,sweep,2,-down,-0.00706,0.60292,0.00019,-0.00591,-0.00019,0.01163,-0.00095,-0.0073,-0.2173,-0.0024,-0.0220,-0.0073,-0.0073,-0.0073,-0.5538,0.0205,-0.1983,0.0611,-0.0415,0.0220,-0.0024,1,1,1,1,1,1,1
7.8474,sweep,2,-down,-0.00706,0.57889,-0.00019,-0.00591,-0.00019,0.01163,-0.00095,-0.0024,-0.2076,-0.0024,0.0073,-0.0220,-0.0220,-0.0220,-0.5402,0.1026,-0.1846,0.0757,-0.0366,0.0171,0.0024,1,1,1,1,1,1,1
7.8875,sweep,2,-down,-0.00706,0.57889,-0.00019,-0.00591,-0.00019,0.01163,-0.00095,-0.0024,-0.2076,-0.0024,0.0073,-0.0220,-0.0220,-0.0220,-0.5402,0.1026,-0.1846,0.0757,-0.0366,0.0171,0.0024,1,1,1,1,1,1,1
7.9274,sweep,2,-down,-0.00706,0.56287,0.00019,-0.00591,-0.00019,0.01163,-0.00057,-0.0024,-0.1880,-0.0024,-0.0220,-0.0220,-0.0073,-0.0073,-0.5402,0.0615,-0.1846,0.0757,-0.0366,0.0171,-0.0024,1,1,1,1,1,1,1
7.9673,sweep,2,-down,-0.00706,0.56287,0.00019,-0.00591,-0.00019,0.01163,-0.00057,-0.0024,-0.1880,-0.0024,-0.0220,-0.0220,-0.0073,-0.0073,-0.5402,0.0615,-0.1846,0.0757,-0.0366,0.0171,-0.0024,1,1,1,1,1,1,1
8.0075,sweep,2,-down,-0.00706,0.56287,0.00019,-0.00591,-0.00019,0.01163,-0.00057,-0.0024,-0.1880,-0.0024,-0.0220,-0.0220,-0.0073,-0.0073,-0.5402,0.0615,-0.1846,0.0757,-0.0366,0.0171,-0.0024,1,1,1,1,1,1,1
8.0474,sweep,2,-down,-0.00706,0.53845,-0.00019,-0.00591,-0.00019,0.01163,-0.00095,-0.0024,-0.2076,-0.0024,-0.0073,-0.0073,-0.0073,-0.0073,-0.5265,0.1846,-0.1983,0.0904,-0.0366,0.0122,-0.0024,1,1,1,1,1,1,1
8.0874,sweep,2,-down,-0.00706,0.53845,-0.00019,-0.00591,-0.00019,0.01163,-0.00095,-0.0024,-0.2076,-0.0024,-0.0073,-0.0073,-0.0073,-0.0073,-0.5265,0.1846,-0.1983,0.0904,-0.0366,0.0122,-0.0024,1,1,1,1,1,1,1
8.1276,sweep,2,-down,-0.00706,0.52243,-0.00019,-0.00591,-0.00019,0.01163,-0.00095,-0.0024,-0.1880,-0.0024,-0.0073,0.0073,-0.0073,-0.0073,-0.5265,0.1436,-0.1983,0.0952,-0.0366,0.0122,0.0024,1,1,1,1,1,1,1
8.1676,sweep,2,-down,-0.00706,0.52243,-0.00019,-0.00591,-0.00019,0.01163,-0.00095,-0.0024,-0.1880,-0.0024,-0.0073,0.0073,-0.0073,-0.0073,-0.5265,0.1436,-0.1983,0.0952,-0.0366,0.0122,0.0024,1,1,1,1,1,1,1
8.2074,sweep,2,-down,-0.00706,0.52243,-0.00019,-0.00591,-0.00019,0.01163,-0.00095,-0.0024,-0.1880,-0.0024,-0.0073,0.0073,-0.0073,-0.0073,-0.5265,0.1436,-0.1983,0.0952,-0.0366,0.0122,0.0024,1,1,1,1,1,1,1
8.2476,sweep,2,-down,-0.00706,0.49840,0.00019,-0.00591,-0.00019,0.01163,-0.00057,-0.0024,-0.2173,0.0024,-0.0073,-0.0220,-0.0073,-0.0073,-0.5265,0.3487,-0.1983,0.1099,-0.0366,0.0073,0.0024,1,1,1,1,1,1,1
8.2875,sweep,2,-down,-0.00706,0.49840,0.00019,-0.00591,-0.00019,0.01163,-0.00057,-0.0024,-0.2173,0.0024,-0.0073,-0.0220,-0.0073,-0.0073,-0.5265,0.3487,-0.1983,0.1099,-0.0366,0.0073,0.0024,1,1,1,1,1,1,1
8.3274,sweep,2,-down,-0.00706,0.48238,-0.00019,-0.00553,-0.00019,0.01163,-0.00095,-0.0024,-0.2027,-0.0073,-0.0073,-0.0073,-0.0073,-0.0073,-0.5402,0.2530,-0.1983,0.1099,-0.0366,0.0024,0.0024,1,1,1,1,1,1,1
8.3674,sweep,2,-down,-0.00706,0.48238,-0.00019,-0.00553,-0.00019,0.01163,-0.00095,-0.0024,-0.2027,-0.0073,-0.0073,-0.0073,-0.0073,-0.0073,-0.5402,0.2530,-0.1983,0.1099,-0.0366,0.0024,0.0024,1,1,1,1,1,1,1
8.4074,sweep,2,-down,-0.00706,0.48238,-0.00019,-0.00553,-0.00019,0.01163,-0.00095,-0.0024,-0.2027,-0.0073,-0.0073,-0.0073,-0.0073,-0.0073,-0.5402,0.2530,-0.1983,0.1099,-0.0366,0.0024,0.0024,1,1,1,1,1,1,1
8.4477,sweep,2,-down,-0.00706,0.45834,-0.00019,-0.00553,-0.00019,0.01163,-0.00095,-0.0024,-0.1978,-0.0024,-0.0073,0.0073,0.0073,-0.0073,-0.5538,0.4034,-0.1983,0.1197,-0.0317,0.0024,0.0024,1,1,1,1,1,1,1
8.4875,sweep,2,-down,-0.00706,0.45834,-0.00019,-0.00553,-0.00019,0.01163,-0.00095,-0.0024,-0.1978,-0.0024,-0.0073,0.0073,0.0073,-0.0073,-0.5538,0.4034,-0.1983,0.1197,-0.0317,0.0024,0.0024,1,1,1,1,1,1,1
8.5275,sweep,2,-down,-0.00706,0.44232,-0.00019,-0.00553,-0.00019,0.01163,-0.00095,0.0024,-0.2076,-0.0024,-0.0073,-0.0073,-0.0073,-0.0220,-0.5402,0.3624,-0.1846,0.1343,-0.0366,-0.0024,0.0024,1,1,1,1,1,1,1
8.5674,sweep,2,-down,-0.00706,0.44232,-0.00019,-0.00553,-0.00019,0.01163,-0.00095,0.0024,-0.2076,-0.0024,-0.0073,-0.0073,-0.0073,-0.0220,-0.5402,0.3624,-0.1846,0.1343,-0.0366,-0.0024,0.0024,1,1,1,1,1,1,1
8.6077,sweep,2,-down,-0.00706,0.44232,-0.00019,-0.00553,-0.00019,0.01163,-0.00095,0.0024,-0.2076,-0.0024,-0.0073,-0.0073,-0.0073,-0.0220,-0.5402,0.3624,-0.1846,0.1343,-0.0366,-0.0024,0.0024,1,1,1,1,1,1,1
8.6478,sweep,2,-down,-0.00706,0.41829,-0.00019,-0.00553,-0.00019,0.01163,-0.00095,-0.0024,-0.1832,-0.0024,0.0073,0.0073,-0.0073,-0.0073,-0.5402,0.4034,-0.1983,0.1392,-0.0317,-0.0073,0.0024,1,1,1,1,1,1,1
8.6874,sweep,2,-down,-0.00706,0.41829,-0.00019,-0.00553,-0.00019,0.01163,-0.00095,-0.0024,-0.1832,-0.0024,0.0073,0.0073,-0.0073,-0.0073,-0.5402,0.4034,-0.1983,0.1392,-0.0317,-0.0073,0.0024,1,1,1,1,1,1,1
8.7273,sweep,2,-down,-0.00706,0.40188,-0.00019,-0.00553,-0.00019,0.01163,-0.00095,-0.0073,-0.2222,-0.0024,-0.0220,-0.0220,-0.0073,-0.0073,-0.5538,0.5949,-0.1983,0.1441,-0.0366,-0.0122,0.0024,1,1,1,1,1,1,1
8.7674,sweep,2,-down,-0.00706,0.40188,-0.00019,-0.00553,-0.00019,0.01163,-0.00095,-0.0073,-0.2222,-0.0024,-0.0220,-0.0220,-0.0073,-0.0073,-0.5538,0.5949,-0.1983,0.1441,-0.0366,-0.0122,0.0024,1,1,1,1,1,1,1
8.8075,sweep,2,-down,-0.00706,0.40188,-0.00019,-0.00553,-0.00019,0.01163,-0.00095,-0.0073,-0.2222,-0.0024,-0.0220,-0.0220,-0.0073,-0.0073,-0.5538,0.5949,-0.1983,0.1441,-0.0366,-0.0122,0.0024,1,1,1,1,1,1,1
8.8474,sweep,2,-down,-0.00706,0.37823,-0.00019,-0.00553,-0.00019,0.01163,-0.00095,-0.0024,-0.2027,-0.0024,-0.0073,-0.0073,-0.0073,-0.0073,-0.5265,0.5402,-0.1709,0.1490,-0.0317,-0.0122,-0.0024,1,1,1,1,1,1,1
8.8873,sweep,2,-down,-0.00706,0.37823,-0.00019,-0.00553,-0.00019,0.01163,-0.00095,-0.0024,-0.2027,-0.0024,-0.0073,-0.0073,-0.0073,-0.0073,-0.5265,0.5402,-0.1709,0.1490,-0.0317,-0.0122,-0.0024,1,1,1,1,1,1,1
8.9274,sweep,2,-down,-0.00706,0.36183,-0.00019,-0.00553,-0.00019,0.01163,-0.00095,-0.0073,-0.2173,-0.0024,-0.0220,-0.0073,-0.0073,-0.0073,-0.5538,0.6769,-0.1709,0.1587,-0.0317,-0.0171,-0.0024,1,1,1,1,1,1,1
8.9674,sweep,2,-down,-0.00706,0.36183,-0.00019,-0.00553,-0.00019,0.01163,-0.00095,-0.0073,-0.2173,-0.0024,-0.0220,-0.0073,-0.0073,-0.0073,-0.5538,0.6769,-0.1709,0.1587,-0.0317,-0.0171,-0.0024,1,1,1,1,1,1,1
9.0074,sweep,2,-down,-0.00706,0.36183,-0.00019,-0.00553,-0.00019,0.01163,-0.00095,-0.0073,-0.2173,-0.0024,-0.0220,-0.0073,-0.0073,-0.0073,-0.5538,0.6769,-0.1709,0.1587,-0.0317,-0.0171,-0.0024,1,1,1,1,1,1,1
9.0475,sweep,2,-down,-0.00706,0.33818,-0.00019,-0.00553,-0.00019,0.01163,-0.00095,-0.0024,-0.2027,-0.0024,-0.0073,-0.0220,-0.0220,0.0073,-0.5538,0.6222,-0.1709,0.1636,-0.0317,-0.0171,-0.0024,1,1,1,1,1,1,1
9.0877,sweep,2,-down,-0.00706,0.33818,-0.00019,-0.00553,-0.00019,0.01163,-0.00095,-0.0024,-0.2027,-0.0024,-0.0073,-0.0220,-0.0220,0.0073,-0.5538,0.6222,-0.1709,0.1636,-0.0317,-0.0171,-0.0024,1,1,1,1,1,1,1
9.1276,sweep,2,-down,-0.00706,0.32177,-0.00019,-0.00553,-0.00019,0.01163,-0.00095,-0.0073,-0.2173,-0.0024,-0.0073,-0.0073,0.0073,-0.0073,-0.5538,0.8957,-0.1846,0.1734,-0.0269,-0.0171,0.0024,1,1,1,1,1,1,1
9.1677,sweep,2,-down,-0.00706,0.32177,-0.00019,-0.00553,-0.00019,0.01163,-0.00095,-0.0073,-0.2173,-0.0024,-0.0073,-0.0073,0.0073,-0.0073,-0.5538,0.8957,-0.1846,0.1734,-0.0269,-0.0171,0.0024,1,1,1,1,1,1,1
9.2074,sweep,2,-down,-0.00706,0.32177,-0.00019,-0.00553,-0.00019,0.01163,-0.00095,-0.0073,-0.2173,-0.0024,-0.0073,-0.0073,0.0073,-0.0073,-0.5538,0.8957,-0.1846,0.1734,-0.0269,-0.0171,0.0024,1,1,1,1,1,1,1
9.2475,sweep,2,-down,-0.00706,0.29812,-0.00019,-0.00553,-0.00019,0.01163,-0.00095,-0.0073,-0.2076,-0.0024,0.0073,0.0073,-0.0073,0.0073,-0.5402,0.7453,-0.1573,0.1880,-0.0269,-0.0220,0.0024,1,1,1,1,1,1,1
9.2875,sweep,2,-down,-0.00706,0.29812,-0.00019,-0.00553,-0.00019,0.01163,-0.00095,-0.0073,-0.2076,-0.0024,0.0073,0.0073,-0.0073,0.0073,-0.5402,0.7453,-0.1573,0.1880,-0.0269,-0.0220,0.0024,1,1,1,1,1,1,1
9.3275,sweep,2,-down,-0.00706,0.28172,-0.00019,-0.00553,-0.00019,0.01163,-0.00095,-0.0024,-0.1978,-0.0073,-0.0366,-0.0220,-0.0220,0.0073,-0.5402,0.8410,-0.1573,0.1929,-0.0220,-0.0220,-0.0024,1,1,1,1,1,1,1
9.3675,sweep,2,-down,-0.00706,0.28172,-0.00019,-0.00553,-0.00019,0.01163,-0.00095,-0.0024,-0.1978,-0.0073,-0.0366,-0.0220,-0.0220,0.0073,-0.5402,0.8410,-0.1573,0.1929,-0.0220,-0.0220,-0.0024,1,1,1,1,1,1,1
9.4077,sweep,2,-down,-0.00706,0.28172,-0.00019,-0.00553,-0.00019,0.01163,-0.00095,-0.0024,-0.1978,-0.0073,-0.0366,-0.0220,-0.0220,0.0073,-0.5402,0.8410,-0.1573,0.1929,-0.0220,-0.0220,-0.0024,1,1,1,1,1,1,1
9.4473,sweep,2,-down,-0.00706,0.25807,-0.00019,-0.00553,-0.00019,0.01163,-0.00095,-0.0024,-0.2076,-0.0024,-0.0220,-0.0073,-0.0073,-0.0220,-0.5128,0.9641,-0.1709,0.1929,-0.0220,-0.0220,-0.0073,1,1,1,1,1,1,1
9.4874,sweep,2,-down,-0.00706,0.25807,-0.00019,-0.00553,-0.00019,0.01163,-0.00095,-0.0024,-0.2076,-0.0024,-0.0220,-0.0073,-0.0073,-0.0220,-0.5128,0.9641,-0.1709,0.1929,-0.0220,-0.0220,-0.0073,1,1,1,1,1,1,1
9.5274,sweep,2,-down,-0.00706,0.24357,-0.00019,-0.00553,-0.00019,0.01163,-0.00095,-0.0024,-0.1832,-0.0024,-0.0220,0.0073,-0.0073,-0.0073,-0.5265,1.2103,-0.1846,0.2027,-0.0220,-0.0269,-0.0024,1,1,1,1,1,1,1
9.5674,sweep,2,-down,-0.00706,0.24357,-0.00019,-0.00553,-0.00019,0.01163,-0.00095,-0.0024,-0.1832,-0.0024,-0.0220,0.0073,-0.0073,-0.0073,-0.5265,1.2103,-0.1846,0.2027,-0.0220,-0.0269,-0.0024,1,1,1,1,1,1,1
9.6074,sweep,2,-down,-0.00706,0.24357,-0.00019,-0.00553,-0.00019,0.01163,-0.00095,-0.0024,-0.1832,-0.0024,-0.0220,0.0073,-0.0073,-0.0073,-0.5265,1.2103,-0.1846,0.2027,-0.0220,-0.0269,-0.0024,1,1,1,1,1,1,1
9.6475,sweep,2,-down,-0.00706,0.22488,-0.00019,-0.00553,-0.00019,0.01163,-0.00095,-0.0024,-0.1538,-0.0024,-0.0073,-0.0073,-0.0073,-0.0073,-0.5128,1.1282,-0.1573,0.2125,-0.0220,-0.0269,-0.0024,1,1,1,1,1,1,1
9.6878,sweep,2,-down,-0.00706,0.22488,-0.00019,-0.00553,-0.00019,0.01163,-0.00095,-0.0024,-0.1538,-0.0024,-0.0073,-0.0073,-0.0073,-0.0073,-0.5128,1.1282,-0.1573,0.2125,-0.0220,-0.0269,-0.0024,1,1,1,1,1,1,1
9.7274,sweep,2,-down,-0.00706,0.21420,0.00019,-0.00515,-0.00019,0.01163,-0.00095,-0.0024,-0.1343,0.0024,-0.0073,-0.0073,-0.0073,-0.0220,-0.5265,0.9504,-0.1846,0.2222,-0.0171,-0.0317,-0.0073,1,1,1,1,1,1,1
9.7674,sweep,2,-down,-0.00706,0.21420,0.00019,-0.00515,-0.00019,0.01163,-0.00095,-0.0024,-0.1343,0.0024,-0.0073,-0.0073,-0.0073,-0.0220,-0.5265,0.9504,-0.1846,0.2222,-0.0171,-0.0317,-0.0073,1,1,1,1,1,1,1
9.8077,sweep,2,-down,-0.00706,0.21420,0.00019,-0.00515,-0.00019,0.01163,-0.00095,-0.0024,-0.1343,0.0024,-0.0073,-0.0073,-0.0073,-0.0220,-0.5265,0.9504,-0.1846,0.2222,-0.0171,-0.0317,-0.0073,1,1,1,1,1,1,1
9.8474,sweep,2,-down,-0.00706,0.19970,-0.00019,-0.00515,-0.00019,0.01163,-0.00095,-0.0024,-0.1245,-0.0024,-0.0073,-0.0073,-0.0073,-0.0073,-0.5265,1.2786,-0.1846,0.2125,-0.0122,-0.0317,-0.0024,1,1,1,1,1,1,1
9.8877,sweep,2,-down,-0.00706,0.19970,-0.00019,-0.00515,-0.00019,0.01163,-0.00095,-0.0024,-0.1245,-0.0024,-0.0073,-0.0073,-0.0073,-0.0073,-0.5265,1.2786,-0.1846,0.2125,-0.0122,-0.0317,-0.0024,1,1,1,1,1,1,1
9.9274,sweep,2,-down,-0.00706,0.19169,-0.00019,-0.00515,-0.00019,0.01163,-0.00095,-0.0024,-0.1099,-0.0024,-0.0073,-0.0073,0.0073,-0.0073,-0.5402,1.1966,-0.1846,0.2173,-0.0122,-0.0317,-0.0024,1,1,1,1,1,1,1
9.9674,sweep,2,-down,-0.00706,0.19169,-0.00019,-0.00515,-0.00019,0.01163,-0.00095,-0.0024,-0.1099,-0.0024,-0.0073,-0.0073,0.0073,-0.0073,-0.5402,1.1966,-0.1846,0.2173,-0.0122,-0.0317,-0.0024,1,1,1,1,1,1,1
10.0075,sweep,2,-down,-0.00706,0.19169,-0.00019,-0.00515,-0.00019,0.01163,-0.00095,-0.0024,-0.1099,-0.0024,-0.0073,-0.0073,0.0073,-0.0073,-0.5402,1.1966,-0.1846,0.2173,-0.0122,-0.0317,-0.0024,1,1,1,1,1,1,1
10.0475,sweep,2,-down,-0.00706,0.18063,-0.00019,-0.00515,-0.00019,0.01163,-0.00057,-0.0024,-0.1050,-0.0024,-0.0073,-0.0073,-0.0073,-0.0073,-0.5949,1.2376,-0.1846,0.2076,-0.0122,-0.0366,-0.0024,1,1,1,1,1,1,1
10.0876,sweep,2,-down,-0.00706,0.18063,-0.00019,-0.00515,-0.00019,0.01163,-0.00057,-0.0024,-0.1050,-0.0024,-0.0073,-0.0073,-0.0073,-0.0073,-0.5949,1.2376,-0.1846,0.2076,-0.0122,-0.0366,-0.0024,1,1,1,1,1,1,1
10.1276,sweep,2,-down,-0.00706,0.17453,-0.00019,-0.00515,-0.00019,0.01163,-0.00095,0.0024,-0.0904,-0.0073,-0.0220,-0.0220,-0.0220,-0.0220,-0.5675,1.1419,-0.1846,0.2027,-0.0073,-0.0366,-0.0024,1,1,1,1,1,1,1
10.1676,sweep,2,-down,-0.00706,0.17453,-0.00019,-0.00515,-0.00019,0.01163,-0.00095,0.0024,-0.0904,-0.0073,-0.0220,-0.0220,-0.0220,-0.0220,-0.5675,1.1419,-0.1846,0.2027,-0.0073,-0.0366,-0.0024,1,1,1,1,1,1,1
10.2073,sweep,2,-down,-0.00706,0.17453,-0.00019,-0.00515,-0.00019,0.01163,-0.00095,0.0024,-0.0904,-0.0073,-0.0220,-0.0220,-0.0220,-0.0220,-0.5675,1.1419,-0.1846,0.2027,-0.0073,-0.0366,-0.0024,1,1,1,1,1,1,1
10.2473,sweep,2,-down,-0.00706,0.16613,-0.00019,-0.00515,-0.00019,0.01163,-0.00057,-0.0024,-0.0757,-0.0024,0.0073,-0.0073,-0.0073,0.0073,-0.5402,1.2376,-0.1983,0.2076,-0.0024,-0.0366,0.0024,1,1,1,1,1,1,1
10.2874,sweep,2,-down,-0.00706,0.16613,-0.00019,-0.00515,-0.00019,0.01163,-0.00057,-0.0024,-0.0757,-0.0024,0.0073,-0.0073,-0.0073,0.0073,-0.5402,1.2376,-0.1983,0.2076,-0.0024,-0.0366,0.0024,1,1,1,1,1,1,1
10.3274,sweep,2,-down,-0.00706,0.16156,-0.00019,-0.00553,-0.00019,0.01163,-0.00095,0.0024,-0.0611,-0.0024,-0.0073,-0.0073,0.0073,-0.0073,-0.5675,0.9094,-0.1983,0.2076,-0.0024,-0.0366,0.0024,1,1,1,1,1,1,1
10.3673,sweep,2,-down,-0.00706,0.16156,-0.00019,-0.00553,-0.00019,0.01163,-0.00095,0.0024,-0.0611,-0.0024,-0.0073,-0.0073,0.0073,-0.0073,-0.5675,0.9094,-0.1983,0.2076,-0.0024,-0.0366,0.0024,1,1,1,1,1,1,1
10.4074,sweep,2,-down,-0.00706,0.16156,-0.00019,-0.00553,-0.00019,0.01163,-0.00095,0.0024,-0.0611,-0.0024,-0.0073,-0.0073,0.0073,-0.0073,-0.5675,0.9094,-0.1983,0.2076,-0.0024,-0.0366,0.0024,1,1,1,1,1,1,1
10.4473,sweep,2,-down,-0.00706,0.15545,-0.00019,-0.00553,0.00019,0.01163,-0.00095,-0.0024,-0.0415,-0.0024,-0.0073,-0.0220,0.0073,-0.0220,-0.5538,0.8957,-0.1846,0.2125,-0.0073,-0.0366,0.0024,1,1,1,1,1,1,1
10.4873,sweep,2,-down,-0.00706,0.15545,-0.00019,-0.00553,0.00019,0.01163,-0.00095,-0.0024,-0.0415,-0.0024,-0.0073,-0.0220,0.0073,-0.0220,-0.5538,0.8957,-0.1846,0.2125,-0.0073,-0.0366,0.0024,1,1,1,1,1,1,1
10.5274,sweep,2,-down,-0.00706,0.15164,-0.00019,-0.00515,0.00019,0.01163,-0.00095,-0.0024,-0.0366,-0.0024,-0.0073,-0.0073,-0.0073,-0.0073,-0.5675,1.0051,-0.1983,0.2027,-0.0073,-0.0415,0.0073,1,1,1,1,1,1,1
10.5674,sweep,2,-down,-0.00706,0.15164,-0.00019,-0.00515,0.00019,0.01163,-0.00095,-0.0024,-0.0366,-0.0024,-0.0073,-0.0073,-0.0073,-0.0073,-0.5675,1.0051,-0.1983,0.2027,-0.0073,-0.0415,0.0073,1,1,1,1,1,1,1
10.6074,sweep,2,-down,-0.00706,0.15164,-0.00019,-0.00515,0.00019,0.01163,-0.00095,-0.0024,-0.0366,-0.0024,-0.0073,-0.0073,-0.0073,-0.0073,-0.5675,1.0051,-0.1983,0.2027,-0.0073,-0.0415,0.0073,1,1,1,1,1,1,1
10.6474,sweep,2,-down,-0.00706,0.14668,0.00019,-0.00515,-0.00019,0.01163,-0.00095,-0.0024,-0.0464,-0.0024,-0.0073,-0.0073,-0.0073,-0.0073,-0.5538,1.0598,-0.1983,0.2076,0.0024,-0.0415,0.0024,1,1,1,1,1,1,1
10.6874,sweep,2,-down,-0.00706,0.14668,0.00019,-0.00515,-0.00019,0.01163,-0.00095,-0.0024,-0.0464,-0.0024,-0.0073,-0.0073,-0.0073,-0.0073,-0.5538,1.0598,-0.1983,0.2076,0.0024,-0.0415,0.0024,1,1,1,1,1,1,1
10.7274,sweep,2,-down,-0.00706,0.14439,0.00019,-0.00515,-0.00019,0.01163,-0.00095,-0.0073,-0.0317,-0.0024,-0.0073,-0.0073,-0.0220,-0.0073,-0.5538,0.6906,-0.1846,0.2027,-0.0024,-0.0415,0.0024,1,1,1,1,1,1,1
10.7673,sweep,2,-down,-0.00706,0.14439,0.00019,-0.00515,-0.00019,0.01163,-0.00095,-0.0073,-0.0317,-0.0024,-0.0073,-0.0073,-0.0220,-0.0073,-0.5538,0.6906,-0.1846,0.2027,-0.0024,-0.0415,0.0024,1,1,1,1,1,1,1
10.8074,sweep,2,-down,-0.00706,0.14439,0.00019,-0.00515,-0.00019,0.01163,-0.00095,-0.0073,-0.0317,-0.0024,-0.0073,-0.0073,-0.0220,-0.0073,-0.5538,0.6906,-0.1846,0.2027,-0.0024,-0.0415,0.0024,1,1,1,1,1,1,1
10.8474,sweep,2,-down,-0.00706,0.14057,0.00019,-0.00515,0.00019,0.01163,-0.00095,0.0024,-0.0269,0.0024,-0.0073,-0.0073,-0.0073,-0.0073,-0.5402,1.0598,-0.1846,0.2076,-0.0024,-0.0464,0.0024,1,1,1,1,1,1,1
10.8874,sweep,2,-down,-0.00706,0.14057,0.00019,-0.00515,0.00019,0.01163,-0.00095,0.0024,-0.0269,0.0024,-0.0073,-0.0073,-0.0073,-0.0073,-0.5402,1.0598,-0.1846,0.2076,-0.0024,-0.0464,0.0024,1,1,1,1,1,1,1
10.9274,sweep,2,-down,-0.00706,0.13867,0.00019,-0.00515,-0.00019,0.01163,-0.00095,-0.0024,-0.0269,0.0024,-0.0073,-0.0073,-0.0073,-0.0073,-0.5402,0.8274,-0.1846,0.2125,-0.0024,-0.0464,0.0024,1,1,1,1,1,1,1
11.4298,sweep,2,+up,-0.00706,0.13752,0.00019,-0.00515,-0.00019,0.01163,-0.00095,-0.0024,-0.0317,-0.0024,-0.0073,-0.0073,-0.0220,-0.0220,-0.5675,0.7316,-0.1846,0.2125,-0.0024,-0.0513,0.0024,1,1,1,1,1,1,1
11.4699,sweep,2,+up,-0.00706,0.13752,0.00019,-0.00515,-0.00019,0.01163,-0.00095,-0.0024,-0.0317,-0.0024,-0.0073,-0.0073,-0.0220,-0.0220,-0.5675,0.7316,-0.1846,0.2125,-0.0024,-0.0513,0.0024,1,1,1,1,1,1,1
11.5098,sweep,2,+up,-0.00706,0.13752,0.00019,-0.00515,-0.00019,0.01163,-0.00095,-0.0024,-0.0317,-0.0024,-0.0073,-0.0073,-0.0220,-0.0220,-0.5675,0.7316,-0.1846,0.2125,-0.0024,-0.0513,0.0024,1,1,1,1,1,1,1
11.5498,sweep,2,+up,-0.00706,0.14210,-0.00019,-0.00515,-0.00019,0.01163,-0.00095,-0.0073,0.2027,0.0024,-0.0073,0.0073,-0.0220,-0.0073,-0.5812,2.8103,-0.1846,0.1978,0.0073,-0.0562,-0.0024,1,1,1,1,1,1,1
11.5900,sweep,2,+up,-0.00706,0.14210,-0.00019,-0.00515,-0.00019,0.01163,-0.00095,-0.0073,0.2027,0.0024,-0.0073,0.0073,-0.0220,-0.0073,-0.5812,2.8103,-0.1846,0.1978,0.0073,-0.0562,-0.0024,1,1,1,1,1,1,1
11.6300,sweep,2,+up,-0.00706,0.15927,-0.00019,-0.00553,0.00019,0.01125,-0.00095,-0.0073,0.2125,-0.0073,-0.0220,0.0073,-0.0073,0.0073,-0.5675,1.6479,-0.1846,0.1880,0.0073,-0.0513,-0.0024,1,1,1,1,1,1,1
11.6699,sweep,2,+up,-0.00706,0.15927,-0.00019,-0.00553,0.00019,0.01125,-0.00095,-0.0073,0.2125,-0.0073,-0.0220,0.0073,-0.0073,0.0073,-0.5675,1.6479,-0.1846,0.1880,0.0073,-0.0513,-0.0024,1,1,1,1,1,1,1
11.7099,sweep,2,+up,-0.00706,0.15927,-0.00019,-0.00553,0.00019,0.01125,-0.00095,-0.0073,0.2125,-0.0073,-0.0220,0.0073,-0.0073,0.0073,-0.5675,1.6479,-0.1846,0.1880,0.0073,-0.0513,-0.0024,1,1,1,1,1,1,1
11.7498,sweep,2,+up,-0.00706,0.18254,-0.00019,-0.00515,0.00019,0.01125,-0.00057,-0.0024,0.2027,-0.0024,0.0073,-0.0073,-0.0073,-0.0073,-0.5675,2.3316,-0.1709,0.2027,0.0073,-0.0464,0.0024,1,1,1,1,1,1,1
11.7899,sweep,2,+up,-0.00706,0.18254,-0.00019,-0.00515,0.00019,0.01125,-0.00057,-0.0024,0.2027,-0.0024,0.0073,-0.0073,-0.0073,-0.0073,-0.5675,2.3316,-0.1709,0.2027,0.0073,-0.0464,0.0024,1,1,1,1,1,1,1
11.8300,sweep,2,+up,-0.00706,0.19856,-0.00019,-0.00515,-0.00019,0.01125,-0.00095,0.0024,0.2076,-0.0024,0.0073,-0.0073,-0.0073,-0.0073,-0.5675,2.3453,-0.1709,0.1929,-0.0024,-0.0464,-0.0024,1,1,1,1,1,1,1
11.8700,sweep,2,+up,-0.00706,0.19856,-0.00019,-0.00515,-0.00019,0.01125,-0.00095,0.0024,0.2076,-0.0024,0.0073,-0.0073,-0.0073,-0.0073,-0.5675,2.3453,-0.1709,0.1929,-0.0024,-0.0464,-0.0024,1,1,1,1,1,1,1
11.9098,sweep,2,+up,-0.00706,0.19856,-0.00019,-0.00515,-0.00019,0.01125,-0.00095,0.0024,0.2076,-0.0024,0.0073,-0.0073,-0.0073,-0.0073,-0.5675,2.3453,-0.1709,0.1929,-0.0024,-0.0464,-0.0024,1,1,1,1,1,1,1
11.9499,sweep,2,+up,-0.00706,0.22259,-0.00019,-0.00515,-0.00019,0.01125,-0.00095,-0.0024,0.1929,-0.0024,-0.0073,-0.0073,-0.0073,-0.0073,-0.5675,2.1402,-0.1709,0.2027,-0.0024,-0.0464,-0.0024,1,1,1,1,1,1,1
11.9900,sweep,2,+up,-0.00706,0.22259,-0.00019,-0.00515,-0.00019,0.01125,-0.00095,-0.0024,0.1929,-0.0024,-0.0073,-0.0073,-0.0073,-0.0073,-0.5675,2.1402,-0.1709,0.2027,-0.0024,-0.0464,-0.0024,1,1,1,1,1,1,1
12.0299,sweep,2,+up,-0.00706,0.23899,-0.00019,-0.00515,-0.00019,0.01125,-0.00095,-0.0024,0.2076,-0.0024,-0.0073,-0.0073,-0.0073,0.0073,-0.5812,1.9487,-0.1709,0.2027,-0.0024,-0.0415,-0.0024,1,1,1,1,1,1,1
12.0700,sweep,2,+up,-0.00706,0.23899,-0.00019,-0.00515,-0.00019,0.01125,-0.00095,-0.0024,0.2076,-0.0024,-0.0073,-0.0073,-0.0073,0.0073,-0.5812,1.9487,-0.1709,0.2027,-0.0024,-0.0415,-0.0024,1,1,1,1,1,1,1
12.1100,sweep,2,+up,-0.00706,0.23899,-0.00019,-0.00515,-0.00019,0.01125,-0.00095,-0.0024,0.2076,-0.0024,-0.0073,-0.0073,-0.0073,0.0073,-0.5812,1.9487,-0.1709,0.2027,-0.0024,-0.0415,-0.0024,1,1,1,1,1,1,1
12.1504,sweep,2,+up,-0.00706,0.26265,0.00019,-0.00553,-0.00019,0.01125,-0.00095,-0.0024,0.1978,0.0024,-0.0366,-0.0073,-0.0073,-0.0073,-0.5675,2.1402,-0.1709,0.1929,-0.0024,-0.0415,-0.0024,1,1,1,1,1,1,1
12.1902,sweep,2,+up,-0.00706,0.26265,0.00019,-0.00553,-0.00019,0.01125,-0.00095,-0.0024,0.1978,0.0024,-0.0366,-0.0073,-0.0073,-0.0073,-0.5675,2.1402,-0.1709,0.1929,-0.0024,-0.0415,-0.0024,1,1,1,1,1,1,1
12.2299,sweep,2,+up,-0.00706,0.27867,-0.00019,-0.00553,-0.00019,0.01125,-0.00095,-0.0024,0.1880,-0.0024,-0.0073,0.0073,-0.0073,-0.0073,-0.5675,2.0034,-0.1709,0.1978,-0.0024,-0.0415,0.0024,1,1,1,1,1,1,1
12.2700,sweep,2,+up,-0.00706,0.27867,-0.00019,-0.00553,-0.00019,0.01125,-0.00095,-0.0024,0.1880,-0.0024,-0.0073,0.0073,-0.0073,-0.0073,-0.5675,2.0034,-0.1709,0.1978,-0.0024,-0.0415,0.0024,1,1,1,1,1,1,1
12.3100,sweep,2,+up,-0.00706,0.27867,-0.00019,-0.00553,-0.00019,0.01125,-0.00095,-0.0024,0.1880,-0.0024,-0.0073,0.0073,-0.0073,-0.0073,-0.5675,2.0034,-0.1709,0.1978,-0.0024,-0.0415,0.0024,1,1,1,1,1,1,1
12.3498,sweep,2,+up,-0.00706,0.30308,0.00019,-0.00515,-0.00019,0.01125,-0.00057,0.0024,0.2125,-0.0024,-0.0220,-0.0073,0.0073,0.0073,-0.5538,1.7162,-0.1709,0.1929,-0.0073,-0.0366,-0.0024,1,1,1,1,1,1,1
12.3900,sweep,2,+up,-0.00706,0.30308,0.00019,-0.00515,-0.00019,0.01125,-0.00057,0.0024,0.2125,-0.0024,-0.0220,-0.0073,0.0073,0.0073,-0.5538,1.7162,-0.1709,0.1929,-0.0073,-0.0366,-0.0024,1,1,1,1,1,1,1
12.4299,sweep,2,+up,-0.00706,0.31872,-0.00019,-0.00515,-0.00019,0.01125,-0.00095,-0.0024,0.1978,-0.0024,-0.0073,-0.0073,-0.0073,0.0073,-0.5812,1.9077,-0.1709,0.1929,-0.0024,-0.0366,0.0024,1,1,1,1,1,1,1
12.4699,sweep,2,+up,-0.00706,0.31872,-0.00019,-0.00515,-0.00019,0.01125,-0.00095,-0.0024,0.1978,-0.0024,-0.0073,-0.0073,-0.0073,0.0073,-0.5812,1.9077,-0.1709,0.1929,-0.0024,-0.0366,0.0024,1,1,1,1,1,1,1
12.5098,sweep,2,+up,-0.00706,0.31872,-0.00019,-0.00515,-0.00019,0.01125,-0.00095,-0.0024,0.1978,-0.0024,-0.0073,-0.0073,-0.0073,0.0073,-0.5812,1.9077,-0.1709,0.1929,-0.0024,-0.0366,0.0024,1,1,1,1,1,1,1
12.5498,sweep,2,+up,-0.00706,0.34276,-0.00019,-0.00515,0.00019,0.01125,-0.00095,-0.0024,0.2027,-0.0073,-0.0073,-0.0073,-0.0073,-0.0073,-0.5538,1.6752,-0.1709,0.1880,-0.0024,-0.0317,0.0024,1,1,1,1,1,1,1
12.5900,sweep,2,+up,-0.00706,0.34276,-0.00019,-0.00515,0.00019,0.01125,-0.00095,-0.0024,0.2027,-0.0073,-0.0073,-0.0073,-0.0073,-0.0073,-0.5538,1.6752,-0.1709,0.1880,-0.0024,-0.0317,0.0024,1,1,1,1,1,1,1
12.6303,sweep,2,+up,-0.00706,0.35878,-0.00019,-0.00515,-0.00019,0.01125,-0.00095,-0.0024,0.1832,-0.0024,-0.0073,-0.0073,-0.0073,-0.0073,-0.5538,1.7846,-0.1709,0.1929,0.0024,-0.0269,-0.0024,1,1,1,1,1,1,1
12.6701,sweep,2,+up,-0.00706,0.35878,-0.00019,-0.00515,-0.00019,0.01125,-0.00095,-0.0024,0.1832,-0.0024,-0.0073,-0.0073,-0.0073,-0.0073,-0.5538,1.7846,-0.1709,0.1929,0.0024,-0.0269,-0.0024,1,1,1,1,1,1,1
12.7101,sweep,2,+up,-0.00706,0.35878,-0.00019,-0.00515,-0.00019,0.01125,-0.00095,-0.0024,0.1832,-0.0024,-0.0073,-0.0073,-0.0073,-0.0073,-0.5538,1.7846,-0.1709,0.1929,0.0024,-0.0269,-0.0024,1,1,1,1,1,1,1
12.7502,sweep,2,+up,-0.00706,0.38319,0.00019,-0.00515,-0.00019,0.01125,-0.00095,-0.0024,0.1978,0.0024,-0.0073,-0.0073,-0.0073,0.0073,-0.5538,1.6068,-0.1709,0.1978,0.0073,-0.0269,0.0024,1,1,1,1,1,1,1
12.7903,sweep,2,+up,-0.00706,0.38319,0.00019,-0.00515,-0.00019,0.01125,-0.00095,-0.0024,0.1978,0.0024,-0.0073,-0.0073,-0.0073,0.0073,-0.5538,1.6068,-0.1709,0.1978,0.0073,-0.0269,0.0024,1,1,1,1,1,1,1
12.8298,sweep,2,+up,-0.00706,0.39921,-0.00019,-0.00515,-0.00019,0.01125,-0.00057,-0.0024,0.1978,-0.0073,-0.0073,-0.0073,0.0073,-0.0073,-0.5538,1.5795,-0.1709,0.1978,0.0122,-0.0220,-0.0024,1,1,1,1,1,1,1
12.8700,sweep,2,+up,-0.00706,0.39921,-0.00019,-0.00515,-0.00019,0.01125,-0.00057,-0.0024,0.1978,-0.0073,-0.0073,-0.0073,0.0073,-0.0073,-0.5538,1.5795,-0.1709,0.1978,0.0122,-0.0220,-0.0024,1,1,1,1,1,1,1
12.9099,sweep,2,+up,-0.00706,0.39921,-0.00019,-0.00515,-0.00019,0.01125,-0.00057,-0.0024,0.1978,-0.0073,-0.0073,-0.0073,0.0073,-0.0073,-0.5538,1.5795,-0.1709,0.1978,0.0122,-0.0220,-0.0024,1,1,1,1,1,1,1
12.9500,sweep,2,+up,-0.00706,0.42325,-0.00019,-0.00515,0.00019,0.01125,-0.00095,-0.0024,0.2027,-0.0024,-0.0073,0.0073,-0.0073,-0.0073,-0.5675,1.5248,-0.1573,0.1978,0.0073,-0.0220,-0.0024,1,1,1,1,1,1,1
12.9899,sweep,2,+up,-0.00706,0.42325,-0.00019,-0.00515,0.00019,0.01125,-0.00095,-0.0024,0.2027,-0.0024,-0.0073,0.0073,-0.0073,-0.0073,-0.5675,1.5248,-0.1573,0.1978,0.0073,-0.0220,-0.0024,1,1,1,1,1,1,1
13.0298,sweep,2,+up,-0.00706,0.43927,0.00019,-0.00515,-0.00019,0.01125,-0.00095,0.0024,0.1978,-0.0024,0.0073,-0.0220,-0.0073,-0.0073,-0.5675,1.5385,-0.1709,0.2076,0.0122,-0.0171,-0.0024,1,1,1,1,1,1,1
13.0703,sweep,2,+up,-0.00706,0.43927,0.00019,-0.00515,-0.00019,0.01125,-0.00095,0.0024,0.1978,-0.0024,0.0073,-0.0220,-0.0073,-0.0073,-0.5675,1.5385,-0.1709,0.2076,0.0122,-0.0171,-0.0024,1,1,1,1,1,1,1
13.1102,sweep,2,+up,-0.00706,0.43927,0.00019,-0.00515,-0.00019,0.01125,-0.00095,0.0024,0.1978,-0.0024,0.0073,-0.0220,-0.0073,-0.0073,-0.5675,1.5385,-0.1709,0.2076,0.0122,-0.0171,-0.0024,1,1,1,1,1,1,1
13.1501,sweep,2,+up,-0.00706,0.46330,-0.00019,-0.00553,0.00019,0.01125,-0.00095,-0.0024,0.1880,-0.0024,-0.0073,0.0073,-0.0073,-0.0220,-0.5675,1.4974,-0.1436,0.2027,0.0073,-0.0073,-0.0024,1,1,1,1,1,1,1
13.1903,sweep,2,+up,-0.00706,0.46330,-0.00019,-0.00553,0.00019,0.01125,-0.00095,-0.0024,0.1880,-0.0024,-0.0073,0.0073,-0.0073,-0.0220,-0.5675,1.4974,-0.1436,0.2027,0.0073,-0.0073,-0.0024,1,1,1,1,1,1,1
13.2301,sweep,2,+up,-0.00706,0.47932,0.00019,-0.00515,-0.00019,0.01125,-0.00095,0.0024,0.2076,-0.0024,-0.0073,-0.0073,0.0073,-0.0073,-0.5675,1.3744,-0.1436,0.2027,0.0122,-0.0073,-0.0024,1,1,1,1,1,1,1
13.2698,sweep,2,+up,-0.00706,0.47932,0.00019,-0.00515,-0.00019,0.01125,-0.00095,0.0024,0.2076,-0.0024,-0.0073,-0.0073,0.0073,-0.0073,-0.5675,1.3744,-0.1436,0.2027,0.0122,-0.0073,-0.0024,1,1,1,1,1,1,1
13.3098,sweep,2,+up,-0.00706,0.47932,0.00019,-0.00515,-0.00019,0.01125,-0.00095,0.0024,0.2076,-0.0024,-0.0073,-0.0073,0.0073,-0.0073,-0.5675,1.3744,-0.1436,0.2027,0.0122,-0.0073,-0.0024,1,1,1,1,1,1,1
13.3499,sweep,2,+up,-0.00706,0.50336,0.00019,-0.00515,0.00019,0.01125,-0.00095,-0.0024,0.1832,-0.0024,-0.0073,-0.0220,-0.0073,-0.0073,-0.5538,1.3607,-0.1299,0.2076,0.0073,0.0024,-0.0024,1,1,1,1,1,1,1
13.3902,sweep,2,+up,-0.00706,0.50336,0.00019,-0.00515,0.00019,0.01125,-0.00095,-0.0024,0.1832,-0.0024,-0.0073,-0.0220,-0.0073,-0.0073,-0.5538,1.3607,-0.1299,0.2076,0.0073,0.0024,-0.0024,1,1,1,1,1,1,1
13.4298,sweep,2,+up,-0.00706,0.51938,-0.00019,-0.00515,-0.00019,0.01125,-0.00095,-0.0024,0.2222,-0.0024,-0.0073,-0.0220,-0.0220,0.0073,-0.5812,1.1145,-0.1299,0.2173,0.0073,0.0024,-0.0024,1,1,1,1,1,1,1
13.4701,sweep,2,+up,-0.00706,0.51938,-0.00019,-0.00515,-0.00019,0.01125,-0.00095,-0.0024,0.2222,-0.0024,-0.0073,-0.0220,-0.0220,0.0073,-0.5812,1.1145,-0.1299,0.2173,0.0073,0.0024,-0.0024,1,1,1,1,1,1,1
13.5099,sweep,2,+up,-0.00706,0.51938,-0.00019,-0.00515,-0.00019,0.01125,-0.00095,-0.0024,0.2222,-0.0024,-0.0073,-0.0220,-0.0220,0.0073,-0.5812,1.1145,-0.1299,0.2173,0.0073,0.0024,-0.0024,1,1,1,1,1,1,1
13.5500,sweep,2,+up,-0.00706,0.54341,0.00019,-0.00515,0.00019,0.01125,-0.00095,-0.0073,0.2027,-0.0024,-0.0073,-0.0073,-0.0220,-0.0073,-0.5675,1.1692,-0.1436,0.2125,0.0024,0.0073,0.0024,1,1,1,1,1,1,1
13.5899,sweep,2,+up,-0.00706,0.54341,0.00019,-0.00515,0.00019,0.01125,-0.00095,-0.0073,0.2027,-0.0024,-0.0073,-0.0073,-0.0220,-0.0073,-0.5675,1.1692,-0.1436,0.2125,0.0024,0.0073,0.0024,1,1,1,1,1,1,1
13.6302,sweep,2,+up,-0.00706,0.55943,0.00019,-0.00515,0.00019,0.01125,-0.00095,-0.0073,0.1929,-0.0024,-0.0073,-0.0073,-0.0073,-0.0073,-0.5675,1.1009,-0.1436,0.2173,0.0024,0.0073,0.0024,1,1,1,1,1,1,1
13.6701,sweep,2,+up,-0.00706,0.55943,0.00019,-0.00515,0.00019,0.01125,-0.00095,-0.0073,0.1929,-0.0024,-0.0073,-0.0073,-0.0073,-0.0073,-0.5675,1.1009,-0.1436,0.2173,0.0024,0.0073,0.0024,1,1,1,1,1,1,1
13.7101,sweep,2,+up,-0.00706,0.55943,0.00019,-0.00515,0.00019,0.01125,-0.00095,-0.0073,0.1929,-0.0024,-0.0073,-0.0073,-0.0073,-0.0073,-0.5675,1.1009,-0.1436,0.2173,0.0024,0.0073,0.0024,1,1,1,1,1,1,1
13.7501,sweep,2,+up,-0.00706,0.58347,-0.00019,-0.00515,-0.00019,0.01125,-0.00095,-0.0024,0.1978,-0.0024,-0.0073,-0.0073,-0.0073,-0.0073,-0.5675,1.0462,-0.1436,0.2222,-0.0024,0.0073,0.0024,1,1,1,1,1,1,1
13.7902,sweep,2,+up,-0.00706,0.58347,-0.00019,-0.00515,-0.00019,0.01125,-0.00095,-0.0024,0.1978,-0.0024,-0.0073,-0.0073,-0.0073,-0.0073,-0.5675,1.0462,-0.1436,0.2222,-0.0024,0.0073,0.0024,1,1,1,1,1,1,1
13.8300,sweep,2,+up,-0.00706,0.59949,-0.00019,-0.00553,-0.00019,0.01125,-0.00095,-0.0024,0.1880,-0.0024,-0.0073,-0.0073,-0.0220,-0.0073,-0.5675,0.9094,-0.1299,0.2173,-0.0024,0.0073,0.0024,1,1,1,1,1,1,1
13.8699,sweep,2,+up,-0.00706,0.59949,-0.00019,-0.00553,-0.00019,0.01125,-0.00095,-0.0024,0.1880,-0.0024,-0.0073,-0.0073,-0.0220,-0.0073,-0.5675,0.9094,-0.1299,0.2173,-0.0024,0.0073,0.0024,1,1,1,1,1,1,1
13.9100,sweep,2,+up,-0.00706,0.59949,-0.00019,-0.00553,-0.00019,0.01125,-0.00095,-0.0024,0.1880,-0.0024,-0.0073,-0.0073,-0.0220,-0.0073,-0.5675,0.9094,-0.1299,0.2173,-0.0024,0.0073,0.0024,1,1,1,1,1,1,1
13.9500,sweep,2,+up,-0.00706,0.62390,0.00019,-0.00515,0.00019,0.01125,-0.00095,-0.0024,0.2125,-0.0024,-0.0073,-0.0073,0.0073,-0.0073,-0.5675,0.7863,-0.1299,0.2222,-0.0024,0.0171,0.0024,1,1,1,1,1,1,1
13.9901,sweep,2,+up,-0.00706,0.62390,0.00019,-0.00515,0.00019,0.01125,-0.00095,-0.0024,0.2125,-0.0024,-0.0073,-0.0073,0.0073,-0.0073,-0.5675,0.7863,-0.1299,0.2222,-0.0024,0.0171,0.0024,1,1,1,1,1,1,1
14.0299,sweep,2,+up,-0.00706,0.63954,0.00019,-0.00515,-0.00019,0.01125,-0.00095,0.0024,0.1929,-0.0024,-0.0220,-0.0073,-0.0220,-0.0073,-0.5538,0.9231,-0.1436,0.2125,0.0024,0.0171,0.0024,1,1,1,1,1,1,1
14.0700,sweep,2,+up,-0.00706,0.63954,0.00019,-0.00515,-0.00019,0.01125,-0.00095,0.0024,0.1929,-0.0024,-0.0220,-0.0073,-0.0220,-0.0073,-0.5538,0.9231,-0.1436,0.2125,0.0024,0.0171,0.0024,1,1,1,1,1,1,1
14.1099,sweep,2,+up,-0.00706,0.63954,0.00019,-0.00515,-0.00019,0.01125,-0.00095,0.0024,0.1929,-0.0024,-0.0220,-0.0073,-0.0220,-0.0073,-0.5538,0.9231,-0.1436,0.2125,0.0024,0.0171,0.0024,1,1,1,1,1,1,1
14.1499,sweep,2,+up,-0.00706,0.66358,-0.00019,-0.00515,-0.00019,0.01125,-0.00095,-0.0024,0.2076,-0.0024,-0.0220,-0.0073,-0.0073,0.0073,-0.5402,0.6359,-0.1436,0.2027,0.0024,0.0171,0.0024,1,1,1,1,1,1,1
14.1900,sweep,2,+up,-0.00706,0.66358,-0.00019,-0.00515,-0.00019,0.01125,-0.00095,-0.0024,0.2076,-0.0024,-0.0220,-0.0073,-0.0073,0.0073,-0.5402,0.6359,-0.1436,0.2027,0.0024,0.0171,0.0024,1,1,1,1,1,1,1
14.2300,sweep,2,+up,-0.00706,0.67769,-0.00019,-0.00515,-0.00019,0.01125,-0.00057,-0.0024,0.1636,-0.0024,-0.0073,-0.0073,-0.0073,-0.0073,-0.5402,0.5812,-0.1436,0.1978,0.0024,0.0171,0.0024,1,1,1,1,1,1,1
14.2698,sweep,2,+up,-0.00706,0.67769,-0.00019,-0.00515,-0.00019,0.01125,-0.00057,-0.0024,0.1636,-0.0024,-0.0073,-0.0073,-0.0073,-0.0073,-0.5402,0.5812,-0.1436,0.1978,0.0024,0.0171,0.0024,1,1,1,1,1,1,1
14.3098,sweep,2,+up,-0.00706,0.67769,-0.00019,-0.00515,-0.00019,0.01125,-0.00057,-0.0024,0.1636,-0.0024,-0.0073,-0.0073,-0.0073,-0.0073,-0.5402,0.5812,-0.1436,0.1978,0.0024,0.0171,0.0024,1,1,1,1,1,1,1
14.3498,sweep,2,+up,-0.00706,0.69600,0.00019,-0.00515,-0.00019,0.01125,-0.00057,-0.0073,0.1587,0.0024,-0.0073,-0.0073,0.0073,-0.0073,-0.5402,0.4718,-0.1573,0.1929,0.0024,0.0220,0.0024,1,1,1,1,1,1,1
