peipl15/reBot_Arm/outputs/gravity_calib_20260621_233129.csv
t_s,phase,swept_joint,direction,q1,q2,q3,q4,q5,q6,q7,v1,v2,v3,v4,v5,v6,v7,tau1,tau2,tau3,tau4,tau5,tau6,tau7,st1,st2,st3,st4,st5,st6,st7
0.0027,approach,4,to_lo,0.02041,-0.00782,1.44217,-2.21542,-0.01850,0.00477,-0.00324,-0.0073,-0.0024,-0.0024,-0.0073,-0.0220,-0.0073,-0.0073,-0.0068,-0.0342,0.0068,0.0024,-0.0073,-0.0171,0.0073,1,1,1,1,1,1,1
0.0425,approach,4,to_lo,0.02041,-0.00782,1.44217,-2.21542,-0.01850,0.00477,-0.00324,-0.0073,-0.0024,-0.0024,-0.0073,-0.0220,-0.0073,-0.0073,-0.0068,-0.0342,0.0068,0.0024,-0.0073,-0.0171,0.0073,1,1,1,1,1,1,1
0.0826,approach,4,to_lo,0.02041,-0.00782,1.44217,-2.21389,-0.01850,0.00515,-0.00362,-0.0073,-0.0024,-0.0024,0.0659,-0.0220,-0.0220,-0.0073,-0.0615,0.1436,0.0068,0.2759,-0.0073,-0.0122,-0.0073,1,1,1,1,1,1,1
0.1223,approach,4,to_lo,0.02041,-0.00782,1.44217,-2.21389,-0.01850,0.00515,-0.00362,-0.0073,-0.0024,-0.0024,0.0659,-0.0220,-0.0220,-0.0073,-0.0615,0.1436,0.0068,0.2759,-0.0073,-0.0122,-0.0073,1,1,1,1,1,1,1
0.1627,approach,4,to_lo,0.02041,-0.00782,1.44217,-2.21389,-0.01850,0.00515,-0.00362,-0.0073,-0.0024,-0.0024,0.0659,-0.0220,-0.0220,-0.0073,-0.0615,0.1436,0.0068,0.2759,-0.0073,-0.0122,-0.0073,1,1,1,1,1,1,1
0.2025,approach,4,to_lo,0.02041,-0.00744,1.44217,-2.19482,-0.01926,0.00515,-0.00324,0.0024,0.0024,-0.0024,0.1831,-0.0073,-0.0220,-0.0073,-0.0615,0.9094,-0.0205,0.6813,0.0171,-0.0073,-0.0073,1,1,1,1,1,1,1
0.2426,approach,4,to_lo,0.02041,-0.00744,1.44217,-2.19482,-0.01926,0.00515,-0.00324,0.0024,0.0024,-0.0024,0.1831,-0.0073,-0.0220,-0.0073,-0.0615,0.9094,-0.0205,0.6813,0.0171,-0.0073,-0.0073,1,1,1,1,1,1,1
0.2826,approach,4,to_lo,0.02041,-0.00706,1.44217,-2.18605,-0.01965,0.00515,-0.00324,0.0024,0.0073,-0.0024,0.0513,-0.0073,-0.0220,-0.0073,-0.1026,1.2376,-0.0068,1.2381,0.0415,-0.0073,-0.0073,1,1,1,1,1,1,1
0.3224,approach,4,to_lo,0.02041,-0.00706,1.44217,-2.18605,-0.01965,0.00515,-0.00324,0.0024,0.0073,-0.0024,0.0513,-0.0073,-0.0220,-0.0073,-0.1026,1.2376,-0.0068,1.2381,0.0415,-0.0073,-0.0073,1,1,1,1,1,1,1
0.3624,approach,4,to_lo,0.02041,-0.00706,1.44217,-2.18605,-0.01965,0.00515,-0.00324,0.0024,0.0073,-0.0024,0.0513,-0.0073,-0.0220,-0.0073,-0.1026,1.2376,-0.0068,1.2381,0.0415,-0.0073,-0.0073,1,1,1,1,1,1,1
0.4024,approach,4,to_lo,0.02041,-0.00629,1.44217,-2.17498,-0.01926,0.00515,-0.00362,-0.0024,0.0073,-0.0024,0.1392,-0.0073,-0.0073,-0.0220,-0.1299,1.6889,-0.0068,2.2491,0.0366,0.0024,-0.0073,1,1,1,1,1,1,1
0.4424,approach,4,to_lo,0.02041,-0.00629,1.44217,-2.17498,-0.01926,0.00515,-0.00362,-0.0024,0.0073,-0.0024,0.1392,-0.0073,-0.0073,-0.0220,-0.1299,1.6889,-0.0068,2.2491,0.0366,0.0024,-0.0073,1,1,1,1,1,1,1
0.4823,approach,4,to_lo,0.02041,-0.00553,1.44217,-2.15591,-0.01926,0.00515,-0.00324,-0.0073,0.0024,-0.0073,0.1099,-0.0073,-0.0073,0.0073,-0.1299,1.8530,-0.0068,2.0342,0.0415,-0.0024,-0.0073,1,1,1,1,1,1,1
0.5225,approach,4,to_lo,0.02041,-0.00553,1.44217,-2.15591,-0.01926,0.00515,-0.00324,-0.0073,0.0024,-0.0073,0.1099,-0.0073,-0.0073,0.0073,-0.1299,1.8530,-0.0068,2.0342,0.0415,-0.0024,-0.0073,1,1,1,1,1,1,1
0.5626,approach,4,to_lo,0.02041,-0.00553,1.44217,-2.15591,-0.01926,0.00515,-0.00324,-0.0073,0.0024,-0.0073,0.1099,-0.0073,-0.0073,0.0073,-0.1299,1.8530,-0.0068,2.0342,0.0415,-0.0024,-0.0073,1,1,1,1,1,1,1
0.6026,approach,4,to_lo,0.02041,-0.00515,1.44217,-2.13264,-0.01888,0.00515,-0.00324,-0.0024,0.0024,-0.0024,0.1978,0.0073,-0.0073,-0.0073,-0.1436,2.2085,-0.0068,2.0635,0.0415,-0.0024,-0.0122,1,1,1,1,1,1,1
0.6427,approach,4,to_lo,0.02041,-0.00515,1.44217,-2.13264,-0.01888,0.00515,-0.00324,-0.0024,0.0024,-0.0024,0.1978,0.0073,-0.0073,-0.0073,-0.1436,2.2085,-0.0068,2.0635,0.0415,-0.0024,-0.0122,1,1,1,1,1,1,1
0.6826,approach,4,to_lo,0.02041,-0.00477,1.44217,-2.11967,-0.01888,0.00515,-0.00324,-0.0024,0.0024,-0.0073,0.1978,-0.0073,-0.0073,-0.0220,-0.1573,2.4274,0.0205,2.3272,0.0464,-0.0024,-0.0073,1,1,1,1,1,1,1
0.7223,approach,4,to_lo,0.02041,-0.00477,1.44217,-2.11967,-0.01888,0.00515,-0.00324,-0.0024,0.0024,-0.0073,0.1978,-0.0073,-0.0073,-0.0220,-0.1573,2.4274,0.0205,2.3272,0.0464,-0.0024,-0.0073,1,1,1,1,1,1,1
0.7623,approach,4,to_lo,0.02041,-0.00477,1.44217,-2.11967,-0.01888,0.00515,-0.00324,-0.0024,0.0024,-0.0073,0.1978,-0.0073,-0.0073,-0.0220,-0.1573,2.4274,0.0205,2.3272,0.0464,-0.0024,-0.0073,1,1,1,1,1,1,1
0.8025,approach,4,to_lo,0.02041,-0.00439,1.44217,-2.09602,-0.01888,0.00515,-0.00324,-0.0024,0.0024,-0.0024,0.0806,-0.0073,-0.0073,-0.0073,-0.1709,2.6872,0.0205,2.3370,0.0562,0.0024,-0.0073,1,1,1,1,1,1,1
0.8429,approach,4,to_lo,0.02041,-0.00439,1.44217,-2.09602,-0.01888,0.00515,-0.00324,-0.0024,0.0024,-0.0024,0.0806,-0.0073,-0.0073,-0.0073,-0.1709,2.6872,0.0205,2.3370,0.0562,0.0024,-0.0073,1,1,1,1,1,1,1
0.8824,approach,4,to_lo,0.02041,-0.00401,1.44217,-2.07771,-0.01888,0.00515,-0.00324,-0.0024,0.0073,-0.0024,0.2418,0.0073,0.0073,-0.0073,-0.1709,2.7829,-0.0068,2.1416,0.0562,-0.0024,-0.0073,1,1,1,1,1,1,1
0.9244,approach,4,to_lo,0.02041,-0.00401,1.44217,-2.07771,-0.01888,0.00515,-0.00324,-0.0024,0.0073,-0.0024,0.2418,0.0073,0.0073,-0.0073,-0.1709,2.7829,-0.0068,2.1416,0.0562,-0.0024,-0.0073,1,1,1,1,1,1,1
0.9628,approach,4,to_lo,0.02041,-0.00401,1.44217,-2.07771,-0.01888,0.00515,-0.00324,-0.0024,0.0073,-0.0024,0.2418,0.0073,0.0073,-0.0073,-0.1709,2.7829,-0.0068,2.1416,0.0562,-0.0024,-0.0073,1,1,1,1,1,1,1
1.0024,approach,4,to_lo,0.02041,-0.00362,1.44217,-2.05367,-0.01888,0.00515,-0.00324,-0.0024,-0.0024,0.0024,0.3150,-0.0366,-0.0220,-0.0073,-0.2120,3.0838,-0.0068,2.1074,0.0611,-0.0024,-0.0073,1,1,1,1,1,1,1
1.0425,approach,4,to_lo,0.02041,-0.00362,1.44217,-2.05367,-0.01888,0.00515,-0.00324,-0.0024,-0.0024,0.0024,0.3150,-0.0366,-0.0220,-0.0073,-0.2120,3.0838,-0.0068,2.1074,0.0611,-0.0024,-0.0073,1,1,1,1,1,1,1
1.0826,approach,4,to_lo,0.02041,-0.00324,1.44217,-2.04032,-0.01888,0.00515,-0.00324,0.0024,0.0073,-0.0024,0.1538,0.0073,-0.0073,-0.0073,-0.2120,3.0701,0.0205,2.3419,0.0611,-0.0024,-0.0024,1,1,1,1,1,1,1
1.1224,approach,4,to_lo,0.02041,-0.00324,1.44217,-2.04032,-0.01888,0.00515,-0.00324,0.0024,0.0073,-0.0024,0.1538,0.0073,-0.0073,-0.0073,-0.2120,3.0701,0.0205,2.3419,0.0611,-0.0024,-0.0024,1,1,1,1,1,1,1
1.1624,approach,4,to_lo,0.02041,-0.00324,1.44217,-2.04032,-0.01888,0.00515,-0.00324,0.0024,0.0073,-0.0024,0.1538,0.0073,-0.0073,-0.0073,-0.2120,3.0701,0.0205,2.3419,0.0611,-0.0024,-0.0024,1,1,1,1,1,1,1
1.2023,approach,4,to_lo,0.02041,-0.00286,1.44217,-2.01820,-0.01888,0.00515,-0.00362,-0.0024,0.0024,0.0024,0.1685,-0.0073,0.0073,-0.0220,-0.2530,3.1521,-0.0068,2.4689,0.0659,-0.0073,-0.0024,1,1,1,1,1,1,1
1.2424,approach,4,to_lo,0.02041,-0.00286,1.44217,-2.01820,-0.01888,0.00515,-0.00362,-0.0024,0.0024,0.0024,0.1685,-0.0073,0.0073,-0.0220,-0.2530,3.1521,-0.0068,2.4689,0.0659,-0.0073,-0.0024,1,1,1,1,1,1,1
1.2825,approach,4,to_lo,0.02041,-0.00286,1.44217,-1.99836,-0.01888,0.00515,-0.00324,-0.0024,0.0024,-0.0024,0.1978,-0.0073,-0.0220,0.0073,-0.2530,3.3299,-0.0342,2.1758,0.0708,-0.0073,0.0024,1,1,1,1,1,1,1
1.3228,approach,4,to_lo,0.02041,-0.00286,1.44217,-1.99836,-0.01888,0.00515,-0.00324,-0.0024,0.0024,-0.0024,0.1978,-0.0073,-0.0220,0.0073,-0.2530,3.3299,-0.0342,2.1758,0.0708,-0.0073,0.0024,1,1,1,1,1,1,1
1.3628,approach,4,to_lo,0.02041,-0.00286,1.44217,-1.99836,-0.01888,0.00515,-0.00324,-0.0024,0.0024,-0.0024,0.1978,-0.0073,-0.0220,0.0073,-0.2530,3.3299,-0.0342,2.1758,0.0708,-0.0073,0.0024,1,1,1,1,1,1,1
1.4027,approach,4,to_lo,0.02041,-0.00210,1.44217,-1.97623,-0.01888,0.00477,-0.00324,-0.0024,-0.0024,-0.0024,0.1831,-0.0220,-0.0073,-0.0073,-0.2940,3.3162,-0.0342,2.3272,0.0708,-0.0024,-0.0024,1,1,1,1,1,1,1
1.4427,approach,4,to_lo,0.02041,-0.00210,1.44217,-1.97623,-0.01888,0.00477,-0.00324,-0.0024,-0.0024,-0.0024,0.1831,-0.0220,-0.0073,-0.0073,-0.2940,3.3162,-0.0342,2.3272,0.0708,-0.0024,-0.0024,1,1,1,1,1,1,1
1.4827,approach,4,to_lo,0.02041,-0.00210,1.44217,-1.96212,-0.01888,0.00515,-0.00324,-0.0024,-0.0024,-0.0073,0.1831,0.0073,0.0073,0.0073,-0.2803,3.3709,-0.0342,2.4640,0.0757,-0.0024,-0.0024,1,1,1,1,1,1,1
1.5225,approach,4,to_lo,0.02041,-0.00210,1.44217,-1.96212,-0.01888,0.00515,-0.00324,-0.0024,-0.0024,-0.0073,0.1831,0.0073,0.0073,0.0073,-0.2803,3.3709,-0.0342,2.4640,0.0757,-0.0024,-0.0024,1,1,1,1,1,1,1
1.5628,approach,4,to_lo,0.02041,-0.00210,1.44217,-1.96212,-0.01888,0.00515,-0.00324,-0.0024,-0.0024,-0.0073,0.1831,0.0073,0.0073,0.0073,-0.2803,3.3709,-0.0342,2.4640,0.0757,-0.0024,-0.0024,1,1,1,1,1,1,1
1.6027,approach,4,to_lo,0.02041,-0.00210,1.44217,-1.93771,-0.01888,0.00515,-0.00324,-0.0024,-0.0024,-0.0024,0.1392,-0.0073,-0.0073,-0.0073,-0.3214,3.5487,-0.0342,2.4444,0.0806,-0.0024,-0.0024,1,1,1,1,1,1,1
1.6428,approach,4,to_lo,0.02041,-0.00210,1.44217,-1.93771,-0.01888,0.00515,-0.00324,-0.0024,-0.0024,-0.0024,0.1392,-0.0073,-0.0073,-0.0073,-0.3214,3.5487,-0.0342,2.4444,0.0806,-0.0024,-0.0024,1,1,1,1,1,1,1
1.6829,approach,4,to_lo,0.02041,-0.00172,1.44217,-1.91978,-0.01888,0.00515,-0.00324,-0.0024,0.0024,-0.0024,0.1538,-0.0220,-0.0073,0.0073,-0.3077,3.6444,-0.0479,2.2833,0.0806,-0.0024,-0.0024,1,1,1,1,1,1,1
1.7226,approach,4,to_lo,0.02041,-0.00172,1.44217,-1.91978,-0.01888,0.00515,-0.00324,-0.0024,0.0024,-0.0024,0.1538,-0.0220,-0.0073,0.0073,-0.3077,3.6444,-0.0479,2.2833,0.0806,-0.0024,-0.0024,1,1,1,1,1,1,1
1.7625,approach,4,to_lo,0.02041,-0.00172,1.44217,-1.91978,-0.01888,0.00515,-0.00324,-0.0024,0.0024,-0.0024,0.1538,-0.0220,-0.0073,0.0073,-0.3077,3.6444,-0.0479,2.2833,0.0806,-0.0024,-0.0024,1,1,1,1,1,1,1
1.8029,approach,4,to_lo,0.02041,-0.00172,1.44217,-1.89612,-0.01888,0.00515,-0.00324,-0.0024,-0.0024,-0.0024,0.2711,-0.0220,-0.0073,0.0073,-0.3487,3.7675,-0.0615,2.3370,0.0806,-0.0024,-0.0024,1,1,1,1,1,1,1
1.8425,approach,4,to_lo,0.02041,-0.00172,1.44217,-1.89612,-0.01888,0.00515,-0.00324,-0.0024,-0.0024,-0.0024,0.2711,-0.0220,-0.0073,0.0073,-0.3487,3.7675,-0.0615,2.3370,0.0806,-0.0024,-0.0024,1,1,1,1,1,1,1
1.8825,approach,4,to_lo,0.02041,-0.00134,1.44217,-1.88354,-0.01888,0.00515,-0.00362,-0.0024,-0.0024,-0.0024,0.1978,-0.0220,-0.0073,-0.0073,-0.3624,3.4256,-0.0342,2.5910,0.0806,-0.0024,-0.0024,1,1,1,1,1,1,1
1.9225,approach,4,to_lo,0.02041,-0.00134,1.44217,-1.88354,-0.01888,0.00515,-0.00362,-0.0024,-0.0024,-0.0024,0.1978,-0.0220,-0.0073,-0.0073,-0.3624,3.4256,-0.0342,2.5910,0.0806,-0.0024,-0.0024,1,1,1,1,1,1,1
1.9626,approach,4,to_lo,0.02041,-0.00134,1.44217,-1.88354,-0.01888,0.00515,-0.00362,-0.0024,-0.0024,-0.0024,0.1978,-0.0220,-0.0073,-0.0073,-0.3624,3.4256,-0.0342,2.5910,0.0806,-0.0024,-0.0024,1,1,1,1,1,1,1
2.0025,approach,4,to_lo,0.02041,-0.00095,1.44217,-1.85988,-0.01850,0.00515,-0.00324,0.0024,0.0024,-0.0024,0.1099,-0.0073,0.0073,0.0073,-0.4171,3.3846,-0.0479,2.6300,0.0757,-0.0122,-0.0073,1,1,1,1,1,1,1
2.0427,approach,4,to_lo,0.02041,-0.00095,1.44217,-1.85988,-0.01850,0.00515,-0.00324,0.0024,0.0024,-0.0024,0.1099,-0.0073,0.0073,0.0073,-0.4171,3.3846,-0.0479,2.6300,0.0757,-0.0122,-0.0073,1,1,1,1,1,1,1
2.0825,approach,4,to_lo,0.02041,-0.00095,1.44217,-1.84119,-0.01888,0.00515,-0.00324,-0.0024,-0.0024,0.0024,0.1978,0.0073,-0.0073,-0.0073,-0.4581,3.4120,-0.0615,2.3858,0.0757,-0.0171,-0.0024,1,1,1,1,1,1,1
2.1224,approach,4,to_lo,0.02041,-0.00095,1.44217,-1.84119,-0.01888,0.00515,-0.00324,-0.0024,-0.0024,0.0024,0.1978,0.0073,-0.0073,-0.0073,-0.4581,3.4120,-0.0615,2.3858,0.0757,-0.0171,-0.0024,1,1,1,1,1,1,1
2.1625,approach,4,to_lo,0.02041,-0.00095,1.44217,-1.84119,-0.01888,0.00515,-0.00324,-0.0024,-0.0024,0.0024,0.1978,0.0073,-0.0073,-0.0073,-0.4581,3.4120,-0.0615,2.3858,0.0757,-0.0171,-0.0024,1,1,1,1,1,1,1
2.2024,approach,4,to_lo,0.02041,-0.00095,1.44217,-1.81678,-0.01888,0.00515,-0.00324,-0.0024,-0.0024,-0.0024,0.2564,-0.0220,-0.0073,-0.0073,-0.4444,3.5897,-0.0615,2.3712,0.0806,-0.0171,-0.0073,1,1,1,1,1,1,1
2.2424,approach,4,to_lo,0.02041,-0.00095,1.44217,-1.81678,-0.01888,0.00515,-0.00324,-0.0024,-0.0024,-0.0024,0.2564,-0.0220,-0.0073,-0.0073,-0.4444,3.5897,-0.0615,2.3712,0.0806,-0.0171,-0.0073,1,1,1,1,1,1,1
2.2823,approach,4,to_lo,0.02041,-0.00095,1.44217,-1.80419,-0.01850,0.00515,-0.00324,-0.0024,-0.0024,-0.0024,0.1538,-0.0073,0.0073,-0.0073,-0.4171,3.5350,-0.0615,2.6545,0.0757,-0.0122,-0.0073,1,1,1,1,1,1,1
2.3226,approach,4,to_lo,0.02041,-0.00095,1.44217,-1.80419,-0.01850,0.00515,-0.00324,-0.0024,-0.0024,-0.0024,0.1538,-0.0073,0.0073,-0.0073,-0.4171,3.5350,-0.0615,2.6545,0.0757,-0.0122,-0.0073,1,1,1,1,1,1,1
2.3623,approach,4,to_lo,0.02041,-0.00095,1.44217,-1.80419,-0.01850,0.00515,-0.00324,-0.0024,-0.0024,-0.0024,0.1538,-0.0073,0.0073,-0.0073,-0.4171,3.5350,-0.0615,2.6545,0.0757,-0.0122,-0.0073,1,1,1,1,1,1,1
2.4024,approach,4,to_lo,0.02041,-0.00095,1.44217,-1.77977,-0.01850,0.00515,-0.00324,-0.0073,-0.0024,-0.0024,0.1392,-0.0073,-0.0073,-0.0220,-0.4444,3.5350,-0.0479,2.5910,0.0806,-0.0122,-0.0073,1,1,1,1,1,1,1
2.4425,approach,4,to_lo,0.02041,-0.00095,1.44217,-1.77977,-0.01850,0.00515,-0.00324,-0.0073,-0.0024,-0.0024,0.1392,-0.0073,-0.0073,-0.0220,-0.4444,3.5350,-0.0479,2.5910,0.0806,-0.0122,-0.0073,1,1,1,1,1,1,1
2.4824,approach,4,to_lo,0.02041,-0.00057,1.44217,-1.76108,-0.01850,0.00515,-0.00324,-0.0024,0.0024,-0.0024,0.2271,-0.0073,-0.0073,-0.0073,-0.4581,3.5350,-0.0479,2.3907,0.0806,-0.0073,-0.0073,1,1,1,1,1,1,1
2.5226,approach,4,to_lo,0.02041,-0.00057,1.44217,-1.76108,-0.01850,0.00515,-0.00324,-0.0024,0.0024,-0.0024,0.2271,-0.0073,-0.0073,-0.0073,-0.4581,3.5350,-0.0479,2.3907,0.0806,-0.0073,-0.0073,1,1,1,1,1,1,1
2.5624,approach,4,to_lo,0.02041,-0.00057,1.44217,-1.76108,-0.01850,0.00515,-0.00324,-0.0024,0.0024,-0.0024,0.2271,-0.0073,-0.0073,-0.0073,-0.4581,3.5350,-0.0479,2.3907,0.0806,-0.0073,-0.0073,1,1,1,1,1,1,1
2.6026,approach,4,to_lo,0.02041,-0.00057,1.44217,-1.73896,-0.01850,0.00515,-0.00324,-0.0073,0.0024,-0.0024,0.2125,-0.0073,-0.0073,-0.0073,-0.4444,3.5624,-0.0479,2.5275,0.0806,-0.0171,-0.0122,1,1,1,1,1,1,1
2.6425,approach,4,to_lo,0.02041,-0.00057,1.44217,-1.73896,-0.01850,0.00515,-0.00324,-0.0073,0.0024,-0.0024,0.2125,-0.0073,-0.0073,-0.0073,-0.4444,3.5624,-0.0479,2.5275,0.0806,-0.0171,-0.0122,1,1,1,1,1,1,1
2.6826,approach,4,to_lo,0.02041,-0.00057,1.44217,-1.72484,-0.01850,0.00515,-0.00324,-0.0024,-0.0024,-0.0024,0.1978,-0.0073,-0.0220,-0.0073,-0.4581,3.5897,-0.0479,2.6740,0.0757,-0.0122,-0.0122,1,1,1,1,1,1,1
2.7224,approach,4,to_lo,0.02041,-0.00057,1.44217,-1.72484,-0.01850,0.00515,-0.00324,-0.0024,-0.0024,-0.0024,0.1978,-0.0073,-0.0220,-0.0073,-0.4581,3.5897,-0.0479,2.6740,0.0757,-0.0122,-0.0122,1,1,1,1,1,1,1
2.7624,approach,4,to_lo,0.02041,-0.00057,1.44217,-1.72484,-0.01850,0.00515,-0.00324,-0.0024,-0.0024,-0.0024,0.1978,-0.0073,-0.0220,-0.0073,-0.4581,3.5897,-0.0479,2.6740,0.0757,-0.0122,-0.0122,1,1,1,1,1,1,1
2.8024,approach,4,to_lo,0.02041,-0.00057,1.44217,-1.69966,-0.01850,0.00515,-0.00324,-0.0024,-0.0024,-0.0024,0.1831,-0.0073,-0.0073,0.0073,-0.4581,3.5761,-0.0479,2.5714,0.0757,-0.0171,-0.0073,1,1,1,1,1,1,1
2.8425,approach,4,to_lo,0.02041,-0.00057,1.44217,-1.69966,-0.01850,0.00515,-0.00324,-0.0024,-0.0024,-0.0024,0.1831,-0.0073,-0.0073,0.0073,-0.4581,3.5761,-0.0479,2.5714,0.0757,-0.0171,-0.0073,1,1,1,1,1,1,1
2.8825,approach,4,to_lo,0.02041,-0.00057,1.44217,-1.68364,-0.01850,0.00515,-0.00324,-0.0024,-0.0024,-0.0024,0.1685,-0.0073,-0.0073,-0.0220,-0.4718,3.5624,-0.0479,2.5763,0.0708,-0.0122,-0.0122,1,1,1,1,1,1,1
2.9224,approach,4,to_lo,0.02041,-0.00057,1.44217,-1.68364,-0.01850,0.00515,-0.00324,-0.0024,-0.0024,-0.0024,0.1685,-0.0073,-0.0073,-0.0220,-0.4718,3.5624,-0.0479,2.5763,0.0708,-0.0122,-0.0122,1,1,1,1,1,1,1
2.9624,approach,4,to_lo,0.02041,-0.00057,1.44217,-1.68364,-0.01850,0.00515,-0.00324,-0.0024,-0.0024,-0.0024,0.1685,-0.0073,-0.0073,-0.0220,-0.4718,3.5624,-0.0479,2.5763,0.0708,-0.0122,-0.0122,1,1,1,1,1,1,1
3.0025,approach,4,to_lo,0.02041,-0.00057,1.44217,-1.65847,-0.01850,0.00515,-0.00324,-0.0024,-0.0024,-0.0024,0.2418,0.0073,-0.0073,-0.0073,-0.4444,3.5487,-0.0479,2.4884,0.0757,-0.0171,-0.0024,1,1,1,1,1,1,1
3.0423,approach,4,to_lo,0.02041,-0.00057,1.44217,-1.65847,-0.01850,0.00515,-0.00324,-0.0024,-0.0024,-0.0024,0.2418,0.0073,-0.0073,-0.0073,-0.4444,3.5487,-0.0479,2.4884,0.0757,-0.0171,-0.0024,1,1,1,1,1,1,1
3.0824,approach,4,to_lo,0.02041,-0.00057,1.44217,-1.64397,-0.01888,0.00515,-0.00324,-0.0024,-0.0024,-0.0024,0.2271,-0.0220,-0.0220,-0.0073,-0.4444,3.5487,-0.0342,2.5958,0.0708,-0.0122,-0.0073,1,1,1,1,1,1,1
3.1223,approach,4,to_lo,0.02041,-0.00057,1.44217,-1.64397,-0.01888,0.00515,-0.00324,-0.0024,-0.0024,-0.0024,0.2271,-0.0220,-0.0220,-0.0073,-0.4444,3.5487,-0.0342,2.5958,0.0708,-0.0122,-0.0073,1,1,1,1,1,1,1
3.1626,approach,4,to_lo,0.02041,-0.00057,1.44217,-1.64397,-0.01888,0.00515,-0.00324,-0.0024,-0.0024,-0.0024,0.2271,-0.0220,-0.0220,-0.0073,-0.4444,3.5487,-0.0342,2.5958,0.0708,-0.0122,-0.0073,1,1,1,1,1,1,1
3.2023,approach,4,to_lo,0.02041,-0.00019,1.44217,-1.62222,-0.01888,0.00515,-0.00324,0.0024,-0.0024,-0.0024,0.1685,-0.0073,-0.0073,-0.0073,-0.4581,3.4940,-0.0479,2.8059,0.0708,-0.0171,-0.0122,1,1,1,1,1,1,1
3.2424,approach,4,to_lo,0.02041,-0.00019,1.44217,-1.62222,-0.01888,0.00515,-0.00324,0.0024,-0.0024,-0.0024,0.1685,-0.0073,-0.0073,-0.0073,-0.4581,3.4940,-0.0479,2.8059,0.0708,-0.0171,-0.0122,1,1,1,1,1,1,1
3.2824,approach,4,to_lo,0.02041,-0.00019,1.44217,-1.60239,-0.01850,0.00515,-0.00362,-0.0024,0.0024,-0.0024,0.1978,-0.0073,-0.0073,-0.0220,-0.4855,3.5077,-0.0479,2.4737,0.0757,-0.0220,-0.0122,1,1,1,1,1,1,1
3.3223,approach,4,to_lo,0.02041,-0.00019,1.44217,-1.60239,-0.01850,0.00515,-0.00362,-0.0024,0.0024,-0.0024,0.1978,-0.0073,-0.0073,-0.0220,-0.4855,3.5077,-0.0479,2.4737,0.0757,-0.0220,-0.0122,1,1,1,1,1,1,1
3.3625,approach,4,to_lo,0.02041,-0.00019,1.44217,-1.60239,-0.01850,0.00515,-0.00362,-0.0024,0.0024,-0.0024,0.1978,-0.0073,-0.0073,-0.0220,-0.4855,3.5077,-0.0479,2.4737,0.0757,-0.0220,-0.0122,1,1,1,1,1,1,1
3.4025,approach,4,to_lo,0.02041,-0.00019,1.44217,-1.57835,-0.01850,0.00515,-0.00324,-0.0024,-0.0024,-0.0024,0.1831,-0.0073,-0.0073,-0.0073,-0.4991,3.5077,-0.0479,2.4933,0.0708,-0.0220,-0.0122,1,1,1,1,1,1,1
3.4427,approach,4,to_lo,0.02041,-0.00019,1.44217,-1.57835,-0.01850,0.00515,-0.00324,-0.0024,-0.0024,-0.0024,0.1831,-0.0073,-0.0073,-0.0073,-0.4991,3.5077,-0.0479,2.4933,0.0708,-0.0220,-0.0122,1,1,1,1,1,1,1
3.4825,approach,4,to_lo,0.02041,-0.00019,1.44217,-1.56538,-0.01850,0.00515,-0.00362,0.0024,-0.0024,-0.0024,0.2418,-0.0073,-0.0220,-0.0073,-0.4718,3.4803,-0.0205,2.7326,0.0708,-0.0269,-0.0122,1,1,1,1,1,1,1
3.5227,approach,4,to_lo,0.02041,-0.00019,1.44217,-1.56538,-0.01850,0.00515,-0.00362,0.0024,-0.0024,-0.0024,0.2418,-0.0073,-0.0220,-0.0073,-0.4718,3.4803,-0.0205,2.7326,0.0708,-0.0269,-0.0122,1,1,1,1,1,1,1
3.5627,approach,4,to_lo,0.02041,-0.00019,1.44217,-1.56538,-0.01850,0.00515,-0.00362,0.0024,-0.0024,-0.0024,0.2418,-0.0073,-0.0220,-0.0073,-0.4718,3.4803,-0.0205,2.7326,0.0708,-0.0269,-0.0122,1,1,1,1,1,1,1
3.6032,approach,4,to_lo,0.02041,-0.00019,1.44217,-1.54021,-0.01850,0.00515,-0.00324,0.0024,-0.0073,-0.0073,0.1978,-0.0220,-0.0073,-0.0073,-0.4718,3.4667,-0.0342,2.6349,0.0708,-0.0317,-0.0122,1,1,1,1,1,1,1
3.6426,approach,4,to_lo,0.02041,-0.00019,1.44217,-1.54021,-0.01850,0.00515,-0.00324,0.0024,-0.0073,-0.0073,0.1978,-0.0220,-0.0073,-0.0073,-0.4718,3.4667,-0.0342,2.6349,0.0708,-0.0317,-0.0122,1,1,1,1,1,1,1
3.6826,approach,4,to_lo,0.02041,-0.00019,1.44217,-1.52304,-0.01850,0.00515,-0.00324,-0.0024,-0.0024,-0.0024,0.1685,0.0073,-0.0073,-0.0073,-0.4581,3.4940,-0.0342,2.5324,0.0708,-0.0317,-0.0122,1,1,1,1,1,1,1
3.7231,approach,4,to_lo,0.02041,-0.00019,1.44217,-1.52304,-0.01850,0.00515,-0.00324,-0.0024,-0.0024,-0.0024,0.1685,0.0073,-0.0073,-0.0073,-0.4581,3.4940,-0.0342,2.5324,0.0708,-0.0317,-0.0122,1,1,1,1,1,1,1
3.7629,approach,4,to_lo,0.02041,-0.00019,1.44217,-1.52304,-0.01850,0.00515,-0.00324,-0.0024,-0.0024,-0.0024,0.1685,0.0073,-0.0073,-0.0073,-0.4581,3.4940,-0.0342,2.5324,0.0708,-0.0317,-0.0122,1,1,1,1,1,1,1
3.8024,approach,4,to_lo,0.02041,-0.00019,1.44217,-1.50015,-0.01850,0.00515,-0.00324,-0.0073,0.0024,-0.0024,0.1978,-0.0073,-0.0073,-0.0073,-0.4855,3.5350,-0.0342,2.6300,0.0708,-0.0366,-0.0073,1,1,1,1,1,1,1
3.8426,approach,4,to_lo,0.02041,-0.00019,1.44217,-1.50015,-0.01850,0.00515,-0.00324,-0.0073,0.0024,-0.0024,0.1978,-0.0073,-0.0073,-0.0073,-0.4855,3.5350,-0.0342,2.6300,0.0708,-0.0366,-0.0073,1,1,1,1,1,1,1
3.8825,approach,4,to_lo,0.02041,-0.00019,1.44217,-1.48489,-0.01850,0.00515,-0.00362,-0.0024,-0.0024,-0.0024,0.2271,-0.0073,-0.0073,-0.0220,-0.4991,3.5077,-0.0205,2.6789,0.0708,-0.0317,-0.0073,1,1,1,1,1,1,1
3.9224,approach,4,to_lo,0.02041,-0.00019,1.44217,-1.48489,-0.01850,0.00515,-0.00362,-0.0024,-0.0024,-0.0024,0.2271,-0.0073,-0.0073,-0.0220,-0.4991,3.5077,-0.0205,2.6789,0.0708,-0.0317,-0.0073,1,1,1,1,1,1,1
3.9624,approach,4,to_lo,0.02041,-0.00019,1.44217,-1.48489,-0.01850,0.00515,-0.00362,-0.0024,-0.0024,-0.0024,0.2271,-0.0073,-0.0073,-0.0220,-0.4991,3.5077,-0.0205,2.6789,0.0708,-0.0317,-0.0073,1,1,1,1,1,1,1
4.0023,approach,4,to_lo,0.02041,-0.00019,1.44217,-1.46048,-0.01850,0.00515,-0.00324,-0.0024,0.0024,-0.0024,0.1538,-0.0073,-0.0073,0.0073,-0.5265,3.5350,-0.0068,2.6300,0.0708,-0.0366,-0.0073,1,1,1,1,1,1,1
4.0424,approach,4,to_lo,0.02041,-0.00019,1.44217,-1.46048,-0.01850,0.00515,-0.00324,-0.0024,0.0024,-0.0024,0.1538,-0.0073,-0.0073,0.0073,-0.5265,3.5350,-0.0068,2.6300,0.0708,-0.0366,-0.0073,1,1,1,1,1,1,1
4.0822,approach,4,to_lo,0.02041,-0.00019,1.44217,-1.44446,-0.01850,0.00515,-0.00324,-0.0024,-0.0024,-0.0024,0.1538,0.0073,-0.0220,-0.0073,-0.4991,3.5077,-0.0205,2.6447,0.0708,-0.0366,-0.0073,1,1,1,1,1,1,1
4.1227,approach,4,to_lo,0.02041,-0.00019,1.44217,-1.44446,-0.01850,0.00515,-0.00324,-0.0024,-0.0024,-0.0024,0.1538,0.0073,-0.0220,-0.0073,-0.4991,3.5077,-0.0205,2.6447,0.0708,-0.0366,-0.0073,1,1,1,1,1,1,1
4.1628,approach,4,to_lo,0.02041,-0.00019,1.44217,-1.44446,-0.01850,0.00515,-0.00324,-0.0024,-0.0024,-0.0024,0.1538,0.0073,-0.0220,-0.0073,-0.4991,3.5077,-0.0205,2.6447,0.0708,-0.0366,-0.0073,1,1,1,1,1,1,1
4.2022,approach,4,to_lo,0.02041,-0.00019,1.44217,-1.43759,-0.01850,0.00515,-0.00362,-0.0024,-0.0024,-0.0024,0.1831,-0.0073,-0.0220,-0.0073,-0.5538,3.5350,-0.0068,2.7131,0.0708,-0.0366,-0.0073,1,1,1,1,1,1,1
4.2423,approach,4,to_lo,0.02041,-0.00019,1.44217,-1.43759,-0.01850,0.00515,-0.00362,-0.0024,-0.0024,-0.0024,0.1831,-0.0073,-0.0220,-0.0073,-0.5538,3.5350,-0.0068,2.7131,0.0708,-0.0366,-0.0073,1,1,1,1,1,1,1
4.2826,approach,4,to_lo,0.02041,-0.00019,1.44217,-1.39601,-0.01850,0.00515,-0.00324,-0.0024,0.0024,-0.0024,0.1538,0.0073,-0.0220,-0.0073,-0.5265,3.6034,-0.0068,2.6056,0.0659,-0.0415,-0.0073,1,1,1,1,1,1,1
4.3224,approach,4,to_lo,0.02041,-0.00019,1.44217,-1.39601,-0.01850,0.00515,-0.00324,-0.0024,0.0024,-0.0024,0.1538,0.0073,-0.0220,-0.0073,-0.5265,3.6034,-0.0068,2.6056,0.0659,-0.0415,-0.0073,1,1,1,1,1,1,1
4.3626,approach,4,to_lo,0.02041,-0.00019,1.44217,-1.39601,-0.01850,0.00515,-0.00324,-0.0024,0.0024,-0.0024,0.1538,0.0073,-0.0220,-0.0073,-0.5265,3.6034,-0.0068,2.6056,0.0659,-0.0415,-0.0073,1,1,1,1,1,1,1
4.4025,approach,4,to_lo,0.02041,-0.00019,1.44217,-1.38037,-0.01850,0.00515,-0.00324,-0.0073,0.0024,-0.0073,0.2418,-0.0073,-0.0220,-0.0073,-0.4991,3.6171,-0.0205,2.6154,0.0659,-0.0415,-0.0122,1,1,1,1,1,1,1
4.4424,approach,4,to_lo,0.02041,-0.00019,1.44217,-1.38037,-0.01850,0.00515,-0.00324,-0.0073,0.0024,-0.0073,0.2418,-0.0073,-0.0220,-0.0073,-0.4991,3.6171,-0.0205,2.6154,0.0659,-0.0415,-0.0122,1,1,1,1,1,1,1
4.4824,approach,4,to_lo,0.02041,-0.00019,1.44217,-1.38037,-0.01850,0.00515,-0.00324,-0.0073,0.0024,-0.0073,0.2418,-0.0073,-0.0073,-0.0073,-0.4991,3.6171,-0.0205,2.6154,0.0611,-0.0415,-0.0073,1,1,1,1,1,1,1
4.5222,approach,4,to_lo,0.02041,-0.00019,1.44217,-1.35634,-0.01850,0.00515,-0.00324,-0.0024,-0.0073,-0.0024,0.2418,-0.0073,-0.0073,-0.0073,-0.5128,3.6444,0.0068,2.6252,0.0611,-0.0415,-0.0073,1,1,1,1,1,1,1
4.5623,approach,4,to_lo,0.02041,-0.00019,1.44217,-1.35634,-0.01850,0.00515,-0.00324,-0.0024,-0.0073,-0.0024,0.2418,-0.0073,-0.0073,-0.0073,-0.5128,3.6444,0.0068,2.6252,0.0611,-0.0415,-0.0073,1,1,1,1,1,1,1
4.6024,approach,4,to_lo,0.02041,-0.00019,1.44217,-1.33841,-0.01850,0.00515,-0.00324,-0.0024,-0.0024,-0.0024,0.1538,-0.0073,-0.0220,-0.0073,-0.4991,3.6308,-0.0068,2.4982,0.0611,-0.0464,-0.0122,1,1,1,1,1,1,1
4.6425,approach,4,to_lo,0.02041,-0.00019,1.44217,-1.33841,-0.01850,0.00515,-0.00324,-0.0024,-0.0024,-0.0024,0.1538,-0.0073,-0.0220,-0.0073,-0.4991,3.6308,-0.0068,2.4982,0.0611,-0.0464,-0.0122,1,1,1,1,1,1,1
4.6824,approach,4,to_lo,0.02041,-0.00019,1.44217,-1.33841,-0.01850,0.00515,-0.00324,-0.0024,-0.0024,-0.0024,0.1538,-0.0073,-0.0073,-0.0073,-0.4991,3.6308,-0.0068,2.4982,0.0611,-0.0464,-0.0122,1,1,1,1,1,1,1
4.7223,approach,4,to_lo,0.02041,-0.00019,1.44217,-1.31437,-0.01850,0.00515,-0.00324,-0.0024,-0.0024,-0.0024,0.2418,-0.0073,-0.0073,-0.0073,-0.5265,3.6308,-0.0068,2.4542,0.0611,-0.0464,-0.0122,1,1,1,1,1,1,1
4.7624,approach,4,to_lo,0.02041,-0.00019,1.44217,-1.31437,-0.01850,0.00515,-0.00324,-0.0024,-0.0024,-0.0024,0.2418,-0.0073,-0.0073,-0.0073,-0.5265,3.6308,-0.0068,2.4542,0.0611,-0.0464,-0.0122,1,1,1,1,1,1,1
4.8025,approach,4,to_lo,0.02041,-0.00019,1.44217,-1.30102,-0.01850,0.00515,-0.00324,-0.0024,-0.0024,-0.0024,0.1978,-0.0220,-0.0220,-0.0073,-0.5538,3.6171,-0.0068,2.5031,0.0562,-0.0415,-0.0122,1,1,1,1,1,1,1
4.8425,approach,4,to_lo,0.02041,-0.00019,1.44217,-1.30102,-0.01850,0.00515,-0.00324,-0.0024,-0.0024,-0.0024,0.1978,-0.0220,-0.0220,-0.0073,-0.5538,3.6171,-0.0068,2.5031,0.0562,-0.0415,-0.0122,1,1,1,1,1,1,1
4.8823,approach,4,to_lo,0.02041,-0.00019,1.44217,-1.30102,-0.01850,0.00515,-0.00324,-0.0024,-0.0024,-0.0024,0.1978,-0.0220,-0.0220,-0.0073,-0.5538,3.6171,-0.0068,2.5031,0.0562,-0.0415,-0.0122,1,1,1,1,1,1,1
4.9225,approach,4,to_lo,0.02041,-0.00019,1.44217,-1.28958,-0.01850,0.00515,-0.00324,0.0024,-0.0024,0.0024,0.0659,-0.0220,-0.0073,-0.0073,-0.5402,3.5624,0.0068,2.5421,0.0562,-0.0464,-0.0073,1,1,1,1,1,1,1
5.4250,sweep,4,+up,0.02041,-0.00019,1.44217,-1.28729,-0.01850,0.00515,-0.00324,0.0024,0.0024,0.0024,0.0366,-0.0073,-0.0220,-0.0073,-0.5402,3.5761,-0.0068,2.5470,0.0562,-0.0464,-0.0073,1,1,1,1,1,1,1
5.4650,sweep,4,+up,0.02041,-0.00019,1.44217,-1.28729,-0.01850,0.00515,-0.00324,0.0024,0.0024,0.0024,0.0366,-0.0073,-0.0220,-0.0073,-0.5402,3.5761,-0.0068,2.5470,0.0562,-0.0464,-0.0073,1,1,1,1,1,1,1
5.5050,sweep,4,+up,0.02003,-0.00019,1.44217,-1.27851,-0.01850,0.00515,-0.00362,-0.0073,-0.0024,0.0024,-0.0952,-0.0220,-0.0073,-0.0220,-0.4991,3.4940,0.0205,1.9951,0.0464,-0.0611,-0.0122,1,1,1,1,1,1,1
5.5453,sweep,4,+up,0.02003,-0.00019,1.44217,-1.27851,-0.01850,0.00515,-0.00362,-0.0073,-0.0024,0.0024,-0.0952,-0.0220,-0.0073,-0.0220,-0.4991,3.4940,0.0205,1.9951,0.0464,-0.0611,-0.0122,1,1,1,1,1,1,1
5.5854,sweep,4,+up,0.02003,-0.00019,1.44217,-1.29797,-0.01850,0.00477,-0.00324,-0.0024,-0.0073,-0.0024,-0.2271,-0.0220,-0.0073,-0.0073,-0.5265,3.4530,0.0068,2.2784,0.0415,-0.0562,-0.0122,1,1,1,1,1,1,1
5.6251,sweep,4,+up,0.02003,-0.00019,1.44217,-1.29797,-0.01850,0.00477,-0.00324,-0.0024,-0.0073,-0.0024,-0.2271,-0.0220,-0.0073,-0.0073,-0.5265,3.4530,0.0068,2.2784,0.0415,-0.0562,-0.0122,1,1,1,1,1,1,1
5.6651,sweep,4,+up,0.02003,-0.00019,1.44217,-1.29797,-0.01850,0.00477,-0.00324,-0.0024,-0.0073,-0.0024,-0.2271,-0.0220,-0.0073,-0.0073,-0.5265,3.4530,0.0068,2.2784,0.0415,-0.0562,-0.0122,1,1,1,1,1,1,1
5.7051,sweep,4,+up,0.02003,-0.00019,1.44179,-1.32086,-0.01850,0.00477,-0.00362,-0.0073,-0.0024,-0.0073,-0.2418,0.0073,-0.0073,-0.0220,-0.4991,3.4530,0.0205,2.2002,0.0415,-0.0513,-0.0122,1,1,1,1,1,1,1
5.7459,sweep,4,+up,0.02003,-0.00019,1.44179,-1.32086,-0.01850,0.00477,-0.00362,-0.0073,-0.0024,-0.0073,-0.2418,0.0073,-0.0073,-0.0220,-0.4991,3.4530,0.0205,2.2002,0.0415,-0.0513,-0.0122,1,1,1,1,1,1,1
5.7851,sweep,4,+up,0.02003,-0.00019,1.44217,-1.34337,-0.01850,0.00515,-0.00324,-0.0073,-0.0024,-0.0024,-0.2418,-0.0220,-0.0073,-0.0073,-0.4991,3.4530,0.0068,2.1270,0.0415,-0.0562,-0.0122,1,1,1,1,1,1,1
5.8252,sweep,4,+up,0.02003,-0.00019,1.44217,-1.34337,-0.01850,0.00515,-0.00324,-0.0024,-0.0024,-0.0024,-0.2418,-0.0220,-0.0073,-0.0073,-0.5128,3.4530,0.0068,2.1270,0.0415,-0.0562,-0.0122,1,1,1,1,1,1,1
5.8656,sweep,4,+up,0.02003,-0.00019,1.44217,-1.34337,-0.01850,0.00515,-0.00324,-0.0024,-0.0024,-0.0024,-0.2418,-0.0220,-0.0073,-0.0073,-0.5128,3.4530,0.0068,2.1270,0.0415,-0.0562,-0.0122,1,1,1,1,1,1,1
5.9052,sweep,4,+up,0.02003,-0.00019,1.44217,-1.36015,-0.01850,0.00515,-0.00324,-0.0024,-0.0073,-0.0024,-0.1538,-0.0073,0.0073,-0.0073,-0.5128,3.4120,0.0068,2.1465,0.0415,-0.0513,-0.0122,1,1,1,1,1,1,1
5.9450,sweep,4,+up,0.02003,-0.00019,1.44217,-1.36015,-0.01850,0.00515,-0.00324,-0.0024,-0.0073,-0.0024,-0.1538,-0.0073,0.0073,-0.0073,-0.5128,3.4120,0.0068,2.1465,0.0415,-0.0513,-0.0122,1,1,1,1,1,1,1
5.9851,sweep,4,+up,0.02003,-0.00019,1.44217,-1.36015,-0.01850,0.00515,-0.00324,-0.0024,-0.0073,-0.0024,-0.1538,-0.0073,-0.0073,-0.0073,-0.5128,3.4120,0.0068,2.1465,0.0415,-0.0513,-0.0122,1,1,1,1,1,1,1
6.0251,sweep,4,+up,0.02003,-0.00019,1.44179,-1.36778,-0.01850,0.00515,-0.00324,-0.0073,-0.0024,0.0024,-0.2125,-0.0073,-0.0073,-0.0073,-0.5402,3.4803,0.0068,2.1856,0.0415,-0.0513,-0.0122,1,1,1,1,1,1,1
6.0650,sweep,4,+up,0.02003,-0.00019,1.44179,-1.36778,-0.01850,0.00515,-0.00324,-0.0073,-0.0024,0.0024,-0.2125,-0.0073,-0.0073,-0.0073,-0.5402,3.4803,0.0068,2.1856,0.0415,-0.0513,-0.0122,1,1,1,1,1,1,1
6.1051,sweep,4,+up,0.02003,-0.00019,1.44179,-1.38266,-0.01888,0.00515,-0.00324,-0.0024,0.0024,-0.0024,-0.0806,-0.0073,-0.0073,-0.0073,-0.5265,3.4393,-0.0068,2.0293,0.0415,-0.0513,-0.0122,1,1,1,1,1,1,1
6.1452,sweep,4,+up,0.02003,-0.00019,1.44179,-1.38266,-0.01888,0.00515,-0.00324,-0.0024,0.0024,-0.0024,-0.0806,-0.0073,-0.0073,-0.0073,-0.5265,3.4393,-0.0068,2.0293,0.0415,-0.0513,-0.0122,1,1,1,1,1,1,1
6.1852,sweep,4,+up,0.02003,-0.00019,1.44179,-1.38266,-0.01888,0.00515,-0.00324,-0.0024,0.0024,-0.0024,-0.0806,-0.0073,-0.0073,-0.0073,-0.5265,3.4393,-0.0068,2.0293,0.0415,-0.0513,-0.0122,1,1,1,1,1,1,1
6.2250,sweep,4,+up,0.02041,-0.00019,1.44179,-1.38991,-0.01850,0.00515,-0.00324,0.0024,-0.0024,-0.0024,-0.0220,-0.0073,-0.0073,0.0073,-0.5538,3.3983,-0.0068,2.1123,0.0415,-0.0513,-0.0122,1,1,1,1,1,1,1
6.2653,sweep,4,+up,0.02041,-0.00019,1.44179,-1.38991,-0.01850,0.00515,-0.00324,0.0024,-0.0024,-0.0024,-0.0220,-0.0073,-0.0073,0.0073,-0.5538,3.3983,-0.0068,2.1123,0.0415,-0.0513,-0.0122,1,1,1,1,1,1,1
6.3051,sweep,4,+up,0.02003,-0.00019,1.44179,-1.39410,-0.01850,0.00515,-0.00324,-0.0073,-0.0024,-0.0024,-0.0513,-0.0073,-0.0073,-0.0073,-0.5812,3.4120,-0.0068,2.2833,0.0415,-0.0562,-0.0073,1,1,1,1,1,1,1
6.3453,sweep,4,+up,0.02003,-0.00019,1.44179,-1.39410,-0.01850,0.00515,-0.00324,-0.0073,-0.0024,-0.0024,-0.0513,-0.0073,-0.0073,-0.0073,-0.5812,3.4120,-0.0068,2.2833,0.0415,-0.0562,-0.0073,1,1,1,1,1,1,1
6.3850,sweep,4,+up,0.02003,-0.00019,1.44179,-1.39410,-0.01850,0.00515,-0.00324,-0.0073,-0.0024,-0.0024,-0.0513,-0.0073,-0.0073,-0.0073,-0.5812,3.4120,-0.0068,2.2833,0.0415,-0.0562,-0.0073,1,1,1,1,1,1,1
6.4252,sweep,4,+up,0.02003,-0.00019,1.44217,-1.39410,-0.01850,0.00515,-0.00362,-0.0073,-0.0024,-0.0024,-0.0073,-0.0073,-0.0073,-0.0220,-0.6359,3.4530,0.0205,2.2051,0.0415,-0.0562,-0.0073,1,1,1,1,1,1,1
6.4655,sweep,4,+up,0.02003,-0.00019,1.44217,-1.39410,-0.01850,0.00515,-0.00362,-0.0073,-0.0024,-0.0024,-0.0073,-0.0073,-0.0073,-0.0220,-0.6359,3.4530,0.0205,2.2051,0.0415,-0.0562,-0.0073,1,1,1,1,1,1,1
6.5050,sweep,4,+up,0.02003,-0.00019,1.44217,-1.39448,-0.01850,0.00477,-0.00324,0.0024,-0.0073,-0.0024,-0.0220,-0.0073,-0.0073,-0.0073,-0.5812,3.3709,0.0205,2.1661,0.0366,-0.0562,-0.0073,1,1,1,1,1,1,1
6.5450,sweep,4,+up,0.02003,-0.00019,1.44217,-1.39448,-0.01850,0.00477,-0.00324,0.0024,-0.0073,-0.0024,-0.0220,-0.0073,-0.0073,-0.0073,-0.5812,3.3709,0.0205,2.1661,0.0366,-0.0562,-0.0073,1,1,1,1,1,1,1
6.5851,sweep,4,+up,0.02003,-0.00019,1.44217,-1.39448,-0.01850,0.00477,-0.00324,0.0024,-0.0073,-0.0024,-0.0220,-0.0073,-0.0073,-0.0073,-0.5812,3.3709,0.0205,2.1661,0.0366,-0.0562,-0.0073,1,1,1,1,1,1,1
6.6250,sweep,4,+up,0.02003,-0.00019,1.44179,-1.39525,-0.01850,0.00477,-0.00362,-0.0024,0.0024,-0.0073,-0.0073,0.0073,-0.0073,-0.0073,-0.6085,3.4120,0.0205,2.1563,0.0366,-0.0611,-0.0122,1,1,1,1,1,1,1
6.6650,sweep,4,+up,0.02003,-0.00019,1.44179,-1.39525,-0.01850,0.00477,-0.00362,-0.0024,0.0024,-0.0073,-0.0073,0.0073,-0.0073,-0.0073,-0.6085,3.4120,0.0205,2.1563,0.0366,-0.0611,-0.0122,1,1,1,1,1,1,1
6.7051,sweep,4,+up,0.02003,-0.00019,1.44217,-1.39563,-0.01850,0.00477,-0.00324,0.0024,-0.0024,-0.0024,-0.0073,-0.0073,-0.0073,0.0073,-0.6085,3.3846,-0.0068,2.1661,0.0366,-0.0611,-0.0122,1,1,1,1,1,1,1
7.2078,sweep,4,-down,0.02003,-0.00019,1.44179,-1.39563,-0.01850,0.00477,-0.00362,-0.0024,-0.0024,-0.0024,-0.0220,-0.0073,-0.0073,-0.0073,-0.5949,3.3846,0.0068,2.1661,0.0366,-0.0611,-0.0073,1,1,1,1,1,1,1
7.2479,sweep,4,-down,0.02003,-0.00019,1.44179,-1.39563,-0.01850,0.00477,-0.00362,-0.0024,-0.0024,-0.0024,-0.0220,-0.0073,-0.0073,-0.0073,-0.5949,3.3846,0.0068,2.1661,0.0366,-0.0611,-0.0073,1,1,1,1,1,1,1
7.2876,sweep,4,-down,0.02003,-0.00019,1.44179,-1.38724,-0.01888,0.00477,-0.00324,-0.0024,-0.0024,-0.0024,0.2418,-0.0220,-0.0073,-0.0073,-0.5949,3.3846,0.0205,2.6935,0.0317,-0.0659,-0.0122,1,1,1,1,1,1,1
7.3278,sweep,4,-down,0.02003,-0.00019,1.44179,-1.38724,-0.01888,0.00477,-0.00324,-0.0024,-0.0024,-0.0024,0.2418,-0.0220,-0.0073,-0.0073,-0.5402,3.3573,0.0205,2.6935,0.0317,-0.0659,-0.0122,1,1,1,1,1,1,1
7.3680,sweep,4,-down,0.02003,-0.00019,1.44179,-1.38724,-0.01888,0.00477,-0.00324,-0.0024,-0.0024,-0.0024,0.2418,-0.0220,-0.0073,-0.0073,-0.5402,3.3573,0.0205,2.6935,0.0317,-0.0659,-0.0122,1,1,1,1,1,1,1
7.4080,sweep,4,-down,0.02003,-0.00019,1.44179,-1.36778,-0.01850,0.00477,-0.00324,-0.0024,-0.0024,-0.0024,0.1831,0.0073,-0.0073,-0.0220,-0.5402,3.3299,0.0342,2.4542,0.0366,-0.0708,-0.0122,1,1,1,1,1,1,1
7.4476,sweep,4,-down,0.02003,-0.00019,1.44179,-1.36778,-0.01850,0.00477,-0.00324,-0.0024,-0.0024,-0.0024,0.1831,0.0073,-0.0073,-0.0220,-0.5402,3.3299,0.0342,2.4542,0.0366,-0.0708,-0.0122,1,1,1,1,1,1,1
7.4877,sweep,4,-down,0.02003,-0.00019,1.44179,-1.34337,-0.01850,0.00477,-0.00324,-0.0024,-0.0024,-0.0024,0.2418,-0.0073,-0.0220,-0.0073,-0.5402,3.3299,0.0342,2.4005,0.0366,-0.0659,-0.0122,1,1,1,1,1,1,1
7.5279,sweep,4,-down,0.02003,-0.00019,1.44179,-1.34337,-0.01850,0.00477,-0.00324,-0.0024,-0.0073,0.0024,0.2418,-0.0073,-0.0220,-0.0073,-0.5675,3.3026,0.0342,2.4005,0.0366,-0.0659,-0.0122,1,1,1,1,1,1,1
7.5681,sweep,4,-down,0.02003,-0.00019,1.44179,-1.34337,-0.01850,0.00477,-0.00324,-0.0024,-0.0073,0.0024,0.2418,-0.0073,-0.0220,-0.0073,-0.5675,3.3026,0.0342,2.4005,0.0366,-0.0659,-0.0122,1,1,1,1,1,1,1
7.6081,sweep,4,-down,0.02003,-0.00019,1.44179,-1.33078,-0.01850,0.00477,-0.00324,-0.0024,-0.0024,0.0024,0.1831,-0.0073,-0.0073,0.0073,-0.5402,3.3026,0.0479,2.6593,0.0366,-0.0659,-0.0073,1,1,1,1,1,1,1
7.6476,sweep,4,-down,0.02003,-0.00019,1.44179,-1.33078,-0.01850,0.00477,-0.00324,-0.0024,-0.0024,0.0024,0.1831,-0.0073,-0.0073,0.0073,-0.5402,3.3026,0.0479,2.6593,0.0366,-0.0659,-0.0073,1,1,1,1,1,1,1
7.6885,sweep,4,-down,0.02003,-0.00019,1.44179,-1.30636,-0.01850,0.00477,-0.00324,-0.0024,-0.0024,-0.0024,0.1538,-0.0073,0.0073,-0.0073,-0.5402,3.2752,0.0615,2.5910,0.0366,-0.0611,-0.0073,1,1,1,1,1,1,1
7.7281,sweep,4,-down,0.02003,-0.00019,1.44179,-1.30636,-0.01850,0.00477,-0.00324,-0.0024,-0.0024,-0.0024,0.1538,-0.0073,0.0073,-0.0073,-0.5128,3.2752,0.0615,2.5910,0.0366,-0.0611,-0.0073,1,1,1,1,1,1,1
7.7678,sweep,4,-down,0.02003,-0.00019,1.44179,-1.30636,-0.01850,0.00477,-0.00324,-0.0024,-0.0024,-0.0024,0.1538,-0.0073,0.0073,-0.0073,-0.5128,3.2752,0.0615,2.5910,0.0366,-0.0611,-0.0073,1,1,1,1,1,1,1
7.8078,sweep,4,-down,0.02003,-0.00019,1.44179,-1.29339,-0.01850,0.00515,-0.00362,-0.0024,-0.0024,-0.0024,0.0659,-0.0073,0.0073,-0.0073,-0.5128,3.2889,0.0342,2.3663,0.0366,-0.0611,-0.0024,1,1,1,1,1,1,1
8.3108,sweep,4,+up,0.02003,-0.00019,1.44179,-1.29149,-0.01850,0.00477,-0.00324,0.0024,-0.0024,-0.0024,0.0073,0.0073,-0.0220,-0.0073,-0.5265,3.3026,0.0479,2.5177,0.0366,-0.0659,-0.0073,1,1,1,1,1,1,1
8.3510,sweep,4,+up,0.02003,-0.00019,1.44179,-1.29149,-0.01850,0.00477,-0.00324,0.0024,-0.0024,-0.0024,0.0073,0.0073,-0.0220,-0.0073,-0.5265,3.3026,0.0479,2.5177,0.0366,-0.0659,-0.0073,1,1,1,1,1,1,1
8.3908,sweep,4,+up,0.02003,-0.00019,1.44179,-1.27890,-0.01888,0.00477,-0.00324,-0.0024,-0.0024,-0.0024,-0.1099,-0.0073,-0.0073,-0.0073,-0.4581,3.2342,0.0068,2.0000,0.0317,-0.0659,-0.0073,1,1,1,1,1,1,1
8.4306,sweep,4,+up,0.02003,-0.00019,1.44179,-1.27890,-0.01888,0.00477,-0.00324,-0.0024,-0.0024,-0.0024,-0.1099,-0.0073,-0.0073,-0.0073,-0.4581,3.2342,0.0068,2.0000,0.0317,-0.0659,-0.0073,1,1,1,1,1,1,1
8.4709,sweep,4,+up,0.02003,-0.00019,1.44179,-1.27890,-0.01888,0.00477,-0.00324,-0.0024,-0.0024,-0.0024,-0.1099,-0.0073,-0.0073,-0.0073,-0.4581,3.2342,0.0068,2.0000,0.0317,-0.0659,-0.0073,1,1,1,1,1,1,1
8.5109,sweep,4,+up,0.02003,-0.00019,1.44179,-1.30484,-0.01850,0.00477,-0.00324,-0.0024,0.0024,0.0024,-0.1245,-0.0073,-0.0073,-0.0073,-0.4444,3.2889,0.0342,2.1856,0.0317,-0.0659,-0.0024,1,1,1,1,1,1,1
8.5507,sweep,4,+up,0.02003,-0.00019,1.44179,-1.30484,-0.01850,0.00477,-0.00324,-0.0024,0.0024,0.0024,-0.1245,-0.0073,-0.0073,-0.0073,-0.4444,3.2889,0.0342,2.1856,0.0317,-0.0659,-0.0024,1,1,1,1,1,1,1
8.5907,sweep,4,+up,0.02003,-0.00019,1.44179,-1.32086,-0.01888,0.00477,-0.00362,-0.0024,-0.0024,-0.0024,-0.2271,-0.0220,-0.0073,-0.0073,-0.4581,3.2752,0.0479,2.2002,0.0269,-0.0659,-0.0073,1,1,1,1,1,1,1
8.6305,sweep,4,+up,0.02003,-0.00019,1.44179,-1.32086,-0.01888,0.00477,-0.00362,-0.0024,-0.0024,-0.0024,-0.2271,-0.0220,-0.0073,-0.0073,-0.4581,3.2752,0.0479,2.2002,0.0269,-0.0659,-0.0073,1,1,1,1,1,1,1
8.6710,sweep,4,+up,0.02003,-0.00019,1.44179,-1.32086,-0.01888,0.00477,-0.00362,-0.0024,-0.0024,-0.0024,-0.2271,-0.0220,-0.0073,-0.0073,-0.4581,3.2752,0.0479,2.2002,0.0269,-0.0659,-0.0073,1,1,1,1,1,1,1
8.7107,sweep,4,+up,0.02003,-0.00019,1.44179,-1.34413,-0.01888,0.00477,-0.00324,-0.0024,0.0024,-0.0073,-0.2418,-0.0220,0.0073,-0.0073,-0.4308,3.1932,0.0342,2.1465,0.0317,-0.0611,-0.0073,1,1,1,1,1,1,1
8.7514,sweep,4,+up,0.02003,-0.00019,1.44179,-1.34413,-0.01888,0.00477,-0.00324,-0.0024,0.0024,-0.0073,-0.2418,-0.0220,0.0073,-0.0073,-0.4308,3.1932,0.0342,2.1465,0.0317,-0.0611,-0.0073,1,1,1,1,1,1,1
8.7906,sweep,4,+up,0.02003,-0.00019,1.44179,-1.36053,-0.01850,0.00477,-0.00362,-0.0024,-0.0073,-0.0024,-0.1831,0.0073,-0.0073,-0.0220,-0.4581,3.2068,0.0342,2.1709,0.0317,-0.0611,-0.0073,1,1,1,1,1,1,1
8.8308,sweep,4,+up,0.02003,-0.00019,1.44179,-1.36053,-0.01850,0.00477,-0.00362,-0.0024,-0.0073,-0.0024,-0.1831,0.0073,-0.0073,-0.0220,-0.4581,3.2068,0.0342,2.1709,0.0317,-0.0611,-0.0073,1,1,1,1,1,1,1
8.8706,sweep,4,+up,0.02003,-0.00019,1.44179,-1.36053,-0.01850,0.00477,-0.00362,-0.0024,-0.0073,-0.0024,-0.1831,0.0073,-0.0073,-0.0220,-0.4581,3.2068,0.0342,2.1709,0.0317,-0.0611,-0.0073,1,1,1,1,1,1,1
8.9107,sweep,4,+up,0.02003,-0.00019,1.44179,-1.37808,-0.01850,0.00477,-0.00362,-0.0024,-0.0073,-0.0024,-0.0952,-0.0073,-0.0073,-0.0220,-0.4308,3.1521,0.0479,2.2100,0.0317,-0.0611,-0.0073,1,1,1,1,1,1,1
8.9509,sweep,4,+up,0.02003,-0.00019,1.44179,-1.37808,-0.01850,0.00477,-0.00362,-0.0024,-0.0073,-0.0024,-0.0952,-0.0073,-0.0073,-0.0220,-0.4308,3.1521,0.0479,2.2100,0.0317,-0.0611,-0.0073,1,1,1,1,1,1,1
8.9914,sweep,4,+up,0.02003,-0.00019,1.44179,-1.38304,-0.01888,0.00477,-0.00324,0.0024,-0.0073,-0.0024,-0.0806,-0.0220,-0.0073,-0.0073,-0.4308,3.1248,0.0615,2.0488,0.0269,-0.0562,-0.0073,1,1,1,1,1,1,1
9.0310,sweep,4,+up,0.02003,-0.00019,1.44179,-1.38304,-0.01888,0.00477,-0.00324,0.0024,-0.0073,-0.0024,-0.0806,-0.0220,-0.0073,-0.0073,-0.4308,3.1248,0.0615,2.0488,0.0269,-0.0562,-0.0073,1,1,1,1,1,1,1
9.0705,sweep,4,+up,0.02003,-0.00019,1.44179,-1.38304,-0.01888,0.00477,-0.00324,0.0024,-0.0073,-0.0024,-0.0806,-0.0220,-0.0073,-0.0073,-0.4308,3.1248,0.0615,2.0488,0.0269,-0.0562,-0.0073,1,1,1,1,1,1,1
9.1107,sweep,4,+up,0.02003,-0.00019,1.44179,-1.38991,-0.01850,0.00477,-0.00324,-0.0024,0.0024,-0.0073,-0.0366,-0.0073,0.0073,-0.0073,-0.4034,3.1385,0.0752,2.1123,0.0269,-0.0611,-0.0073,1,1,1,1,1,1,1
9.1507,sweep,4,+up,0.02003,-0.00019,1.44179,-1.38991,-0.01850,0.00477,-0.00324,-0.0024,0.0024,-0.0073,-0.0366,-0.0073,0.0073,-0.0073,-0.4034,3.1385,0.0752,2.1123,0.0269,-0.0611,-0.0073,1,1,1,1,1,1,1
9.1905,sweep,4,+up,0.02003,-0.00019,1.44179,-1.39410,-0.01850,0.00477,-0.00324,-0.0024,-0.0024,-0.0073,-0.0513,0.0073,-0.0073,-0.0073,-0.4171,3.1248,0.0615,2.2882,0.0269,-0.0562,-0.0024,1,1,1,1,1,1,1
9.2304,sweep,4,+up,0.02003,-0.00019,1.44179,-1.39410,-0.01850,0.00477,-0.00324,-0.0024,-0.0024,-0.0073,-0.0513,0.0073,-0.0073,-0.0073,-0.4171,3.1248,0.0615,2.2882,0.0269,-0.0562,-0.0024,1,1,1,1,1,1,1
9.2710,sweep,4,+up,0.02003,-0.00019,1.44179,-1.39410,-0.01850,0.00477,-0.00324,-0.0024,-0.0024,-0.0073,-0.0513,0.0073,-0.0073,-0.0073,-0.4171,3.1248,0.0615,2.2882,0.0269,-0.0562,-0.0024,1,1,1,1,1,1,1
9.3105,sweep,4,+up,0.02003,-0.00019,1.44179,-1.39410,-0.01850,0.00477,-0.00324,-0.0024,-0.0024,-0.0024,-0.0220,-0.0220,-0.0220,0.0073,-0.4171,3.1111,0.0889,2.2100,0.0269,-0.0611,-0.0073,1,1,1,1,1,1,1
9.3507,sweep,4,+up,0.02003,-0.00019,1.44179,-1.39410,-0.01850,0.00477,-0.00324,-0.0024,-0.0024,-0.0024,-0.0220,-0.0220,-0.0220,0.0073,-0.4171,3.1111,0.0889,2.2100,0.0269,-0.0611,-0.0073,1,1,1,1,1,1,1
9.3905,sweep,4,+up,0.02003,-0.00019,1.44179,-1.39487,-0.01850,0.00477,-0.00362,-0.0024,-0.0024,-0.0024,-0.0220,-0.0220,0.0073,-0.0220,-0.4444,3.0974,0.0752,2.1661,0.0269,-0.0611,-0.0073,1,1,1,1,1,1,1
9.4307,sweep,4,+up,0.02003,-0.00019,1.44179,-1.39487,-0.01850,0.00477,-0.00362,-0.0024,-0.0024,-0.0024,-0.0220,-0.0220,0.0073,-0.0220,-0.4444,3.0974,0.0752,2.1661,0.0269,-0.0611,-0.0073,1,1,1,1,1,1,1
9.4706,sweep,4,+up,0.02003,-0.00019,1.44179,-1.39487,-0.01850,0.00477,-0.00362,-0.0024,-0.0024,-0.0024,-0.0220,-0.0220,0.0073,-0.0220,-0.4444,3.0974,0.0752,2.1661,0.0269,-0.0611,-0.0073,1,1,1,1,1,1,1
9.5106,sweep,4,+up,0.02003,-0.00019,1.44179,-1.39487,-0.01850,0.00477,-0.00324,-0.0024,0.0073,-0.0024,0.0220,0.0220,-0.0073,-0.0073,-0.4034,3.1521,0.0615,2.1661,0.0269,-0.0562,-0.0073,1,1,1,1,1,1,1
9.5503,sweep,4,+up,0.02003,-0.00019,1.44179,-1.39487,-0.01850,0.00477,-0.00324,-0.0024,0.0073,-0.0024,0.0220,0.0220,-0.0073,-0.0073,-0.4034,3.1521,0.0615,2.1661,0.0269,-0.0562,-0.0073,1,1,1,1,1,1,1
9.5904,sweep,4,+up,0.02003,-0.00019,1.44179,-1.39563,-0.01888,0.00477,-0.00324,-0.0024,0.0073,-0.0024,-0.0073,-0.0073,0.0073,-0.0073,-0.4034,3.1521,0.0752,2.1661,0.0269,-0.0562,-0.0122,1,1,1,1,1,1,1
10.0933,sweep,4,-down,0.02003,-0.00019,1.44179,-1.39563,-0.01888,0.00477,-0.00324,-0.0073,-0.0024,-0.0024,-0.0073,-0.0073,-0.0073,-0.0073,-0.4171,3.1111,0.0615,2.1661,0.0269,-0.0513,-0.0122,1,1,1,1,1,1,1
10.1329,sweep,4,-down,0.02003,-0.00019,1.44179,-1.39563,-0.01888,0.00477,-0.00324,-0.0073,-0.0024,-0.0024,-0.0073,-0.0073,-0.0073,-0.0073,-0.4171,3.1111,0.0615,2.1661,0.0269,-0.0513,-0.0122,1,1,1,1,1,1,1
10.1728,sweep,4,-down,0.02003,-0.00019,1.44179,-1.39563,-0.01888,0.00477,-0.00324,-0.0073,-0.0024,-0.0024,-0.0073,-0.0073,-0.0073,-0.0073,-0.4171,3.1111,0.0615,2.1661,0.0269,-0.0513,-0.0122,1,1,1,1,1,1,1
10.2143,sweep,4,-down,0.02003,-0.00019,1.44179,-1.38724,-0.01888,0.00515,-0.00324,-0.0024,-0.0024,-0.0073,0.2271,-0.0220,-0.0073,-0.0220,-0.4991,3.1111,0.0889,2.6886,0.0220,-0.0562,-0.0171,1,1,1,1,1,1,1
10.2529,sweep,4,-down,0.02003,-0.00019,1.44179,-1.38724,-0.01888,0.00515,-0.00324,-0.0024,-0.0024,-0.0073,0.2271,-0.0220,-0.0073,-0.0220,-0.4991,3.1111,0.0889,2.6886,0.0220,-0.0562,-0.0171,1,1,1,1,1,1,1
10.2928,sweep,4,-down,0.02003,-0.00019,1.44179,-1.36854,-0.01850,0.00515,-0.00324,-0.0024,-0.0024,-0.0024,0.1831,-0.0073,0.0073,-0.0073,-0.5402,3.1385,0.0889,2.4640,0.0220,-0.0562,-0.0171,1,1,1,1,1,1,1
10.3329,sweep,4,-down,0.02003,-0.00019,1.44179,-1.36854,-0.01850,0.00515,-0.00324,-0.0024,-0.0024,-0.0024,0.1831,-0.0073,0.0073,-0.0073,-0.5402,3.1385,0.0889,2.4640,0.0220,-0.0562,-0.0171,1,1,1,1,1,1,1
10.3728,sweep,4,-down,0.02003,-0.00019,1.44179,-1.36854,-0.01850,0.00515,-0.00324,-0.0024,-0.0024,-0.0024,0.1831,-0.0073,0.0073,-0.0073,-0.5402,3.1385,0.0889,2.4640,0.0220,-0.0562,-0.0171,1,1,1,1,1,1,1
10.4130,sweep,4,-down,0.02003,-0.00019,1.44179,-1.34375,-0.01850,0.00477,-0.00324,-0.0024,-0.0024,-0.0024,0.2271,-0.0073,-0.0220,-0.0073,-0.4855,3.0974,0.0889,2.4054,0.0269,-0.0611,-0.0122,1,1,1,1,1,1,1
10.4528,sweep,4,-down,0.02003,-0.00019,1.44179,-1.34375,-0.01850,0.00477,-0.00324,-0.0024,-0.0024,-0.0024,0.2271,-0.0073,-0.0220,-0.0073,-0.4855,3.0974,0.0889,2.4054,0.0269,-0.0611,-0.0122,1,1,1,1,1,1,1
10.4929,sweep,4,-down,0.02003,-0.00019,1.44179,-1.33116,-0.01850,0.00477,-0.00324,-0.0024,-0.0024,-0.0024,0.1831,-0.0073,-0.0220,-0.0073,-0.4718,3.0974,0.1026,2.6740,0.0269,-0.0611,-0.0122,1,1,1,1,1,1,1
10.5329,sweep,4,-down,0.02003,-0.00019,1.44179,-1.33116,-0.01850,0.00477,-0.00324,-0.0024,-0.0024,-0.0024,0.1831,-0.0073,-0.0220,-0.0073,-0.4718,3.0974,0.1026,2.6740,0.0269,-0.0611,-0.0122,1,1,1,1,1,1,1
10.5728,sweep,4,-down,0.02003,-0.00019,1.44179,-1.33116,-0.01850,0.00477,-0.00324,-0.0024,-0.0024,-0.0024,0.1831,-0.0073,-0.0220,-0.0073,-0.4718,3.0974,0.1026,2.6740,0.0269,-0.0611,-0.0122,1,1,1,1,1,1,1
10.6129,sweep,4,-down,0.02003,-0.00019,1.44179,-1.30636,-0.01850,0.00477,-0.00324,-0.0073,-0.0024,-0.0073,0.1392,0.0073,-0.0220,0.0073,-0.4581,3.0974,0.0889,2.5861,0.0220,-0.0659,-0.0122,1,1,1,1,1,1,1
10.6528,sweep,4,-down,0.02003,-0.00019,1.44179,-1.30636,-0.01850,0.00477,-0.00324,-0.0073,-0.0024,-0.0073,0.1392,0.0073,-0.0220,0.0073,-0.4581,3.0974,0.0889,2.5861,0.0220,-0.0659,-0.0122,1,1,1,1,1,1,1
10.6931,sweep,4,-down,0.02003,-0.00019,1.44179,-1.29339,-0.01888,0.00477,-0.00324,-0.0024,-0.0073,-0.0024,0.0659,-0.0073,-0.0073,-0.0073,-0.4444,2.9880,0.0752,2.3565,0.0269,-0.0562,-0.0122,1,1,1,1,1,1,1
11.1954,approach,4,return,0.02003,-0.00019,1.44179,-1.29110,-0.01850,0.00477,-0.00324,-0.0024,-0.0024,-0.0024,0.0073,-0.0073,-0.0073,-0.0073,-0.4444,3.0017,0.0889,2.4737,0.0220,-0.0611,-0.0073,1,1,1,1,1,1,1
11.2357,approach,4,return,0.02003,-0.00019,1.44179,-1.29110,-0.01850,0.00477,-0.00324,-0.0024,-0.0024,-0.0024,0.0073,-0.0073,-0.0073,-0.0073,-0.4444,3.0017,0.0889,2.4737,0.0220,-0.0611,-0.0073,1,1,1,1,1,1,1
11.2757,approach,4,return,0.02003,-0.00019,1.44179,-1.29110,-0.01850,0.00477,-0.00324,-0.0024,-0.0024,-0.0024,0.0073,-0.0073,-0.0073,-0.0073,-0.4444,3.0017,0.0889,2.4737,0.0220,-0.0611,-0.0073,1,1,1,1,1,1,1
11.3159,approach,4,return,0.02003,-0.00019,1.44179,-1.28691,-0.01888,0.00515,-0.00324,-0.0024,-0.0024,-0.0024,-0.2564,-0.0220,-0.0073,-0.0073,-0.3761,2.8923,0.1026,2.0440,0.0269,-0.0611,-0.0122,1,1,1,1,1,1,1
11.3555,approach,4,return,0.02003,-0.00019,1.44179,-1.28691,-0.01888,0.00515,-0.00324,-0.0024,-0.0024,-0.0024,-0.2564,-0.0220,-0.0073,-0.0073,-0.3761,2.8923,0.1026,2.0440,0.0269,-0.0611,-0.0122,1,1,1,1,1,1,1
11.3956,approach,4,return,0.02003,-0.00019,1.44179,-1.30484,-0.01850,0.00515,-0.00324,-0.0024,-0.0024,-0.0024,-0.1392,-0.0073,-0.0073,-0.0073,-0.3761,2.8239,0.1026,2.2002,0.0269,-0.0562,-0.0122,1,1,1,1,1,1,1
11.4358,approach,4,return,0.02003,-0.00019,1.44179,-1.30484,-0.01850,0.00515,-0.00324,-0.0024,-0.0024,-0.0024,-0.1392,-0.0073,-0.0073,-0.0073,-0.3761,2.8239,0.1026,2.2002,0.0269,-0.0562,-0.0122,1,1,1,1,1,1,1
11.4756,approach,4,return,0.02003,-0.00019,1.44179,-1.30484,-0.01850,0.00515,-0.00324,-0.0024,-0.0024,-0.0024,-0.1392,-0.0073,-0.0073,-0.0073,-0.3761,2.8239,0.1026,2.2002,0.0269,-0.0562,-0.0122,1,1,1,1,1,1,1
11.5158,approach,4,return,0.02003,-0.00019,1.44179,-1.32811,-0.01850,0.00515,-0.00362,-0.0024,0.0024,-0.0024,-0.1538,-0.0073,-0.0073,-0.0220,-0.3897,2.7829,0.1026,2.1221,0.0269,-0.0562,-0.0073,1,1,1,1,1,1,1
11.5555,approach,4,return,0.02003,-0.00019,1.44179,-1.32811,-0.01850,0.00515,-0.00362,-0.0024,0.0024,-0.0024,-0.1538,-0.0073,-0.0073,-0.0220,-0.3897,2.7829,0.1026,2.1221,0.0269,-0.0562,-0.0073,1,1,1,1,1,1,1
11.5956,approach,4,return,0.02003,-0.00019,1.44179,-1.34413,-0.01888,0.00477,-0.00324,-0.0024,-0.0024,-0.0073,-0.2564,-0.0073,-0.0073,0.0073,-0.3761,2.7556,0.1162,2.1563,0.0220,-0.0513,-0.0122,1,1,1,1,1,1,1
11.6358,approach,4,return,0.02003,-0.00019,1.44179,-1.34413,-0.01888,0.00477,-0.00324,-0.0024,-0.0024,-0.0073,-0.2564,-0.0073,-0.0073,0.0073,-0.3761,2.7556,0.1162,2.1563,0.0220,-0.0513,-0.0122,1,1,1,1,1,1,1
11.6756,approach,4,return,0.02003,-0.00019,1.44179,-1.34413,-0.01888,0.00477,-0.00324,-0.0024,-0.0024,-0.0073,-0.2564,-0.0073,-0.0073,0.0073,-0.3761,2.7556,0.1162,2.1563,0.0220,-0.0513,-0.0122,1,1,1,1,1,1,1
11.7156,approach,4,return,0.02003,-0.00019,1.44179,-1.36778,-0.01850,0.00477,-0.00324,0.0024,-0.0024,0.0024,-0.2125,0.0073,-0.0073,-0.0073,-0.3897,2.7282,0.1299,2.1954,0.0220,-0.0562,-0.0122,1,1,1,1,1,1,1
11.7555,approach,4,return,0.02003,-0.00019,1.44179,-1.36778,-0.01850,0.00477,-0.00324,0.0024,-0.0024,0.0024,-0.2125,0.0073,-0.0073,-0.0073,-0.3897,2.7282,0.1299,2.1954,0.0220,-0.0562,-0.0122,1,1,1,1,1,1,1
11.7956,approach,4,return,0.02003,-0.00019,1.44179,-1.37846,-0.01888,0.00477,-0.00362,-0.0073,-0.0024,-0.0024,-0.0952,-0.0073,-0.0073,-0.0073,-0.4171,2.7145,0.1299,2.2198,0.0220,-0.0513,-0.0122,1,1,1,1,1,1,1
11.8356,approach,4,return,0.02003,-0.00019,1.44179,-1.37846,-0.01888,0.00477,-0.00362,-0.0073,-0.0024,-0.0024,-0.0952,-0.0073,-0.0073,-0.0073,-0.4171,2.7145,0.1299,2.2198,0.0220,-0.0513,-0.0122,1,1,1,1,1,1,1
11.8756,approach,4,return,0.02003,-0.00019,1.44179,-1.37846,-0.01888,0.00477,-0.00362,-0.0073,-0.0024,-0.0024,-0.0952,-0.0073,-0.0073,-0.0073,-0.4171,2.7145,0.1299,2.2198,0.0220,-0.0513,-0.0122,1,1,1,1,1,1,1
11.9157,approach,4,return,0.02003,-0.00019,1.44179,-1.38685,-0.01888,0.00515,-0.00324,0.0024,-0.0024,-0.0024,-0.1099,-0.0220,-0.0220,-0.0073,-0.3487,2.7145,0.1436,2.1563,0.0269,-0.0513,-0.0122,1,1,1,1,1,1,1
11.9560,approach,4,return,0.02003,-0.00019,1.44179,-1.38685,-0.01888,0.00515,-0.00324,0.0024,-0.0024,-0.0024,-0.1099,-0.0220,-0.0220,-0.0073,-0.3487,2.7145,0.1436,2.1563,0.0269,-0.0513,-0.0122,1,1,1,1,1,1,1
11.9962,approach,4,return,0.02003,-0.00019,1.44179,-1.38991,-0.01850,0.00477,-0.00324,-0.0024,-0.0024,0.0024,-0.0366,0.0073,0.0073,-0.0073,-0.3897,2.6598,0.1573,2.1074,0.0269,-0.0562,-0.0122,1,1,1,1,1,1,1
12.0356,approach,4,return,0.02003,-0.00019,1.44179,-1.38991,-0.01850,0.00477,-0.00324,-0.0024,-0.0024,0.0024,-0.0366,0.0073,0.0073,-0.0073,-0.3897,2.6598,0.1573,2.1074,0.0269,-0.0562,-0.0122,1,1,1,1,1,1,1
12.0757,approach,4,return,0.02003,-0.00019,1.44179,-1.38991,-0.01850,0.00477,-0.00324,-0.0024,-0.0024,0.0024,-0.0366,0.0073,0.0073,-0.0073,-0.3897,2.6598,0.1573,2.1074,0.0269,-0.0562,-0.0122,1,1,1,1,1,1,1
12.1157,approach,4,return,0.02003,-0.00019,1.44179,-1.39410,-0.01850,0.00515,-0.00324,-0.0073,-0.0073,-0.0024,-0.0073,0.0073,-0.0073,-0.0073,-0.4171,2.6735,0.1573,2.2540,0.0269,-0.0513,-0.0171,1,1,1,1,1,1,1
12.1561,approach,4,return,0.02003,-0.00019,1.44179,-1.39410,-0.01850,0.00515,-0.00324,-0.0073,-0.0073,-0.0024,-0.0073,0.0073,-0.0073,-0.0073,-0.4171,2.6735,0.1573,2.2540,0.0269,-0.0513,-0.0171,1,1,1,1,1,1,1
12.1955,approach,4,return,0.02003,-0.00019,1.44179,-1.39410,-0.01888,0.00515,-0.00362,-0.0073,0.0024,-0.0024,-0.0220,-0.0073,0.0073,-0.0073,-0.4308,2.6325,0.1573,2.2051,0.0220,-0.0513,-0.0171,1,1,1,1,1,1,1
12.2357,approach,4,return,0.02003,-0.00019,1.44179,-1.39410,-0.01888,0.00515,-0.00362,-0.0073,0.0024,-0.0024,-0.0220,-0.0073,0.0073,-0.0073,-0.4308,2.6325,0.1573,2.2051,0.0220,-0.0513,-0.0171,1,1,1,1,1,1,1
12.2756,approach,4,return,0.02003,-0.00019,1.44179,-1.39410,-0.01888,0.00515,-0.00362,-0.0073,0.0024,-0.0024,-0.0220,-0.0073,0.0073,-0.0073,-0.4308,2.6325,0.1573,2.2051,0.0220,-0.0513,-0.0171,1,1,1,1,1,1,1
12.3159,approach,4,return,0.02003,-0.00019,1.44179,-1.39487,-0.01888,0.00477,-0.00324,-0.0073,-0.0024,-0.0073,-0.0220,-0.0220,-0.0073,-0.0073,-0.3897,2.6188,0.1573,2.1709,0.0220,-0.0513,-0.0171,1,1,1,1,1,1,1
12.3560,approach,4,return,0.02003,-0.00019,1.44179,-1.39487,-0.01888,0.00477,-0.00324,-0.0073,-0.0024,-0.0073,-0.0220,-0.0220,-0.0073,-0.0073,-0.3897,2.6188,0.1573,2.1709,0.0220,-0.0513,-0.0171,1,1,1,1,1,1,1
12.3964,approach,4,return,0.02003,-0.00019,1.44179,-1.39525,-0.01850,0.00515,-0.00324,-0.0024,-0.0024,-0.0024,-0.0220,-0.0073,0.0073,0.0073,-0.3487,2.6188,0.1573,2.1563,0.0269,-0.0513,-0.0171,1,1,1,1,1,1,1
12.4356,approach,4,return,0.02003,-0.00019,1.44179,-1.39525,-0.01850,0.00515,-0.00324,-0.0024,-0.0024,-0.0024,-0.0220,-0.0073,0.0073,0.0073,-0.3487,2.6188,0.1573,2.1563,0.0269,-0.0513,-0.0171,1,1,1,1,1,1,1
12.4757,approach,4,return,0.02003,-0.00019,1.44179,-1.39525,-0.01850,0.00515,-0.00324,-0.0024,-0.0024,-0.0024,-0.0220,-0.0073,0.0073,0.0073,-0.3487,2.6188,0.1573,2.1563,0.0269,-0.0513,-0.0171,1,1,1,1,1,1,1
12.5164,approach,4,return,0.02003,-0.00019,1.44179,-1.39563,-0.01888,0.00515,-0.00324,0.0024,-0.0024,-0.0024,-0.0073,-0.0073,-0.0073,-0.0073,-0.3350,2.5915,0.1709,2.1758,0.0269,-0.0562,-0.0122,1,1,1,1,1,1,1
12.5559,approach,4,return,0.02003,-0.00019,1.44179,-1.39563,-0.01888,0.00515,-0.00324,0.0024,-0.0024,-0.0024,-0.0073,-0.0073,-0.0073,-0.0073,-0.3350,2.5915,0.1709,2.1758,0.0269,-0.0562,-0.0122,1,1,1,1,1,1,1
12.5958,approach,4,return,0.02003,-0.00019,1.44179,-1.39601,-0.01888,0.00477,-0.00324,-0.0024,-0.0024,-0.0024,0.0073,0.0073,-0.0073,-0.0073,-0.3350,2.5368,0.1709,2.1954,0.0269,-0.0562,-0.0122,1,1,1,1,1,1,1
12.6356,approach,4,return,0.02003,-0.00019,1.44179,-1.39601,-0.01888,0.00477,-0.00324,-0.0024,-0.0024,-0.0024,0.0073,0.0073,-0.0073,-0.0073,-0.3350,2.5368,0.1709,2.1954,0.0269,-0.0562,-0.0122,1,1,1,1,1,1,1
12.6755,approach,4,return,0.02003,-0.00019,1.44179,-1.39601,-0.01888,0.00477,-0.00324,-0.0024,-0.0024,-0.0024,0.0073,0.0073,-0.0073,-0.0073,-0.3350,2.5368,0.1709,2.1954,0.0269,-0.0562,-0.0122,1,1,1,1,1,1,1
12.7157,approach,4,return,0.02003,-0.00019,1.44179,-1.39639,-0.01850,0.00477,-0.00324,-0.0024,-0.0073,-0.0024,-0.0073,-0.0073,-0.0073,-0.0073,-0.3761,2.4957,0.1709,2.1954,0.0269,-0.0562,-0.0122,1,1,1,1,1,1,1
12.7555,approach,4,return,0.02003,-0.00019,1.44179,-1.39639,-0.01850,0.00477,-0.00324,-0.0024,-0.0073,-0.0024,-0.0073,-0.0073,-0.0073,-0.0073,-0.3761,2.4957,0.1709,2.1954,0.0269,-0.0562,-0.0122,1,1,1,1,1,1,1
12.7956,approach,4,return,0.02003,-0.00019,1.44179,-1.39639,-0.01850,0.00515,-0.00362,-0.0024,-0.0073,-0.0024,-0.0073,-0.0073,-0.0220,-0.0073,-0.3761,2.4957,0.1709,2.1954,0.0269,-0.0513,-0.0122,1,1,1,1,1,1,1
12.8355,approach,4,return,0.02003,-0.00019,1.44179,-1.39639,-0.01888,0.00515,-0.00362,-0.0073,-0.0024,-0.0024,-0.0073,-0.0073,-0.0220,-0.0073,-0.3897,2.4821,0.1983,2.2149,0.0269,-0.0513,-0.0122,1,1,1,1,1,1,1
12.8755,approach,4,return,0.02003,-0.00019,1.44179,-1.39639,-0.01888,0.00515,-0.00362,-0.0073,-0.0024,-0.0024,-0.0073,-0.0073,-0.0220,-0.0073,-0.3897,2.4821,0.1983,2.2149,0.0269,-0.0513,-0.0122,1,1,1,1,1,1,1
12.9157,approach,4,return,0.02003,-0.00019,1.44179,-1.39639,-0.01850,0.00515,-0.00324,-0.0024,-0.0024,-0.0024,-0.0073,-0.0073,0.0220,-0.0073,-0.3624,2.4410,0.1846,2.2198,0.0269,-0.0562,-0.0073,1,1,1,1,1,1,1
12.9557,approach,4,return,0.02003,-0.00019,1.44179,-1.39639,-0.01850,0.00515,-0.00324,-0.0024,-0.0024,-0.0024,-0.0073,-0.0073,0.0220,-0.0073,-0.3624,2.4410,0.1846,2.2198,0.0269,-0.0562,-0.0073,1,1,1,1,1,1,1
12.9955,approach,4,return,0.02003,-0.00019,1.44179,-1.39639,-0.01850,0.00515,-0.00324,-0.0024,-0.0024,-0.0024,-0.0073,-0.0073,0.0220,-0.0073,-0.3624,2.4410,0.1846,2.2198,0.0269,-0.0562,-0.0073,1,1,1,1,1,1,1
13.0358,approach,4,return,0.02003,-0.00019,1.44179,-1.39677,-0.01850,0.00477,-0.00362,-0.0024,-0.0024,-0.0073,-0.0220,-0.0073,-0.0073,-0.0073,-0.3624,2.4274,0.1983,2.2393,0.0317,-0.0562,-0.0073,1,1,1,1,1,1,1
13.0754,approach,4,return,0.02003,-0.00019,1.44179,-1.39677,-0.01850,0.00477,-0.00362,-0.0024,-0.0024,-0.0073,-0.0220,-0.0073,-0.0073,-0.0073,-0.3624,2.4274,0.1983,2.2393,0.0317,-0.0562,-0.0073,1,1,1,1,1,1,1
13.1157,approach,4,return,0.02003,-0.00019,1.44179,-1.39639,-0.01850,0.00477,-0.00324,-0.0024,-0.0024,-0.0024,-0.0073,-0.0073,-0.0073,-0.0220,-0.3487,2.4274,0.1846,2.2637,0.0269,-0.0611,-0.0122,1,1,1,1,1,1,1
13.1556,approach,4,return,0.02003,-0.00019,1.44179,-1.39639,-0.01850,0.00477,-0.00324,-0.0024,-0.0024,-0.0024,-0.0073,-0.0073,-0.0073,-0.0220,-0.3487,2.4274,0.1846,2.2637,0.0269,-0.0611,-0.0122,1,1,1,1,1,1,1
13.1956,approach,4,return,0.02003,-0.00019,1.44179,-1.39639,-0.01850,0.00477,-0.00324,-0.0024,-0.0024,-0.0024,-0.0073,-0.0073,-0.0073,-0.0220,-0.3487,2.4274,0.1846,2.2637,0.0269,-0.0611,-0.0122,1,1,1,1,1,1,1
13.2354,approach,4,return,0.02003,-0.00019,1.44179,-1.39639,-0.01888,0.00477,-0.00362,-0.0024,-0.0073,0.0024,-0.0073,-0.0073,-0.0073,-0.0073,-0.3624,2.4137,0.1983,2.2686,0.0317,-0.0562,-0.0073,1,1,1,1,1,1,1
13.2755,approach,4,return,0.02003,-0.00019,1.44179,-1.39639,-0.01888,0.00477,-0.00362,-0.0024,-0.0073,0.0024,-0.0073,-0.0073,-0.0073,-0.0073,-0.3624,2.4137,0.1983,2.2686,0.0317,-0.0562,-0.0073,1,1,1,1,1,1,1
13.3157,approach,4,return,0.02003,-0.00019,1.44179,-1.39639,-0.01888,0.00477,-0.00324,-0.0024,0.0024,-0.0024,-0.0073,-0.0220,-0.0073,-0.0220,-0.3897,2.4410,0.2120,2.2833,0.0317,-0.0611,-0.0073,1,1,1,1,1,1,1
13.3560,approach,4,return,0.02003,-0.00019,1.44179,-1.39639,-0.01888,0.00477,-0.00324,-0.0024,0.0024,-0.0024,-0.0073,-0.0220,-0.0073,-0.0220,-0.3897,2.4410,0.2120,2.2833,0.0317,-0.0611,-0.0073,1,1,1,1,1,1,1
13.3964,approach,4,return,0.02003,-0.00019,1.44179,-1.39639,-0.01888,0.00515,-0.00324,-0.0024,0.0024,-0.0024,-0.0073,-0.0220,-0.0073,0.0073,-0.3897,2.4410,0.2120,2.2833,0.0317,-0.0562,-0.0073,1,1,1,1,1,1,1
13.4355,approach,4,return,0.02003,-0.00019,1.44179,-1.39639,-0.01850,0.00515,-0.00324,-0.0073,0.0024,-0.0073,0.0220,-0.0073,-0.0073,0.0073,-0.3761,2.4684,0.2120,2.2979,0.0317,-0.0562,-0.0073,1,1,1,1,1,1,1
13.4755,approach,4,return,0.02003,-0.00019,1.44179,-1.39639,-0.01850,0.00515,-0.00324,-0.0073,0.0024,-0.0073,0.0220,-0.0073,-0.0073,0.0073,-0.3761,2.4684,0.2120,2.2979,0.0317,-0.0562,-0.0073,1,1,1,1,1,1,1
13.5157,approach,4,return,0.02041,-0.00019,1.44179,-1.39639,-0.01888,0.00477,-0.00324,-0.0024,-0.0024,-0.0024,-0.0073,-0.0073,-0.0220,-0.0073,-0.4171,2.4547,0.2256,2.3077,0.0317,-0.0562,-0.0073,1,1,1,1,1,1,1
13.5558,approach,4,return,0.02041,-0.00019,1.44179,-1.39639,-0.01888,0.00477,-0.00324,-0.0024,-0.0024,-0.0024,-0.0073,-0.0073,-0.0220,-0.0073,-0.4171,2.4547,0.2256,2.3077,0.0317,-0.0562,-0.0073,1,1,1,1,1,1,1
13.5955,approach,4,return,0.02041,-0.00019,1.44179,-1.39639,-0.01888,0.00477,-0.00324,-0.0024,-0.0024,-0.0024,-0.0073,-0.0073,-0.0220,-0.0073,-0.4171,2.4547,0.2256,2.3077,0.0317,-0.0562,-0.0073,1,1,1,1,1,1,1
13.6358,approach,4,return,0.02003,-0.00019,1.44179,-1.39639,-0.01850,0.00515,-0.00362,0.0024,-0.0024,-0.0024,-0.0073,-0.0073,-0.0073,-0.0073,-0.4034,2.4274,0.2120,2.3223,0.0269,-0.0562,-0.0073,1,1,1,1,1,1,1
13.6759,approach,4,return,0.02003,-0.00019,1.44179,-1.39639,-0.01850,0.00515,-0.00362,0.0024,-0.0024,-0.0024,-0.0073,-0.0073,-0.0073,-0.0073,-0.4034,2.4274,0.2120,2.3223,0.0269,-0.0562,-0.0073,1,1,1,1,1,1,1
13.7160,approach,4,return,0.02003,-0.00019,1.44179,-1.39639,-0.01888,0.00515,-0.00324,-0.0024,-0.0024,-0.0024,-0.0073,-0.0073,0.0220,-0.0073,-0.4171,2.4137,0.2120,2.3223,0.0269,-0.0562,-0.0073,1,1,1,1,1,1,1
13.7557,approach,4,return,0.02003,-0.00019,1.44179,-1.39639,-0.01888,0.00515,-0.00324,-0.0024,-0.0024,-0.0024,-0.0073,-0.0073,0.0220,-0.0073,-0.4171,2.4137,0.2120,2.3223,0.0269,-0.0562,-0.0073,1,1,1,1,1,1,1
13.7955,approach,4,return,0.02003,-0.00019,1.44179,-1.39639,-0.01888,0.00515,-0.00324,-0.0024,-0.0024,-0.0024,-0.0073,-0.0073,0.0220,-0.0073,-0.4171,2.4137,0.2120,2.3223,0.0269,-0.0562,-0.0073,1,1,1,1,1,1,1
13.8356,approach,4,return,0.02003,-0.00019,1.44179,-1.39639,-0.01850,0.00477,-0.00324,-0.0024,0.0024,-0.0024,0.0073,-0.0073,0.0073,-0.0073,-0.4034,2.3863,0.2120,2.3419,0.0269,-0.0611,-0.0073,1,1,1,1,1,1,1
13.8755,approach,4,return,0.02003,-0.00019,1.44179,-1.39639,-0.01850,0.00477,-0.00324,-0.0024,0.0024,-0.0024,0.0073,-0.0073,0.0073,-0.0073,-0.4034,2.3863,0.2120,2.3419,0.0269,-0.0611,-0.0073,1,1,1,1,1,1,1
13.9160,approach,4,return,0.02003,-0.00019,1.44179,-1.39639,-0.01850,0.00515,-0.00324,-0.0024,-0.0073,-0.0024,-0.0073,-0.0220,0.0073,-0.0073,-0.3897,2.3727,0.2256,2.3419,0.0269,-0.0611,-0.0073,1,1,1,1,1,1,1
13.9564,approach,4,return,0.02003,-0.00019,1.44179,-1.39639,-0.01850,0.00515,-0.00324,-0.0024,-0.0073,-0.0024,-0.0073,-0.0220,0.0073,-0.0073,-0.3897,2.3727,0.2256,2.3419,0.0269,-0.0611,-0.0073,1,1,1,1,1,1,1
13.9956,approach,4,return,0.02003,-0.00019,1.44179,-1.39639,-0.01850,0.00515,-0.00324,-0.0024,-0.0073,-0.0024,-0.0073,-0.0220,0.0073,-0.0073,-0.3897,2.3727,0.2256,2.3419,0.0269,-0.0611,-0.0073,1,1,1,1,1,1,1
14.0356,approach,4,return,0.02003,-0.00019,1.44179,-1.39639,-0.01888,0.00515,-0.00324,-0.0024,-0.0024,-0.0024,-0.0073,0.0073,-0.0073,-0.0073,-0.3761,2.3453,0.2256,2.3321,0.0269,-0.0562,-0.0073,1,1,1,1,1,1,1
14.0756,approach,4,return,0.02003,-0.00019,1.44179,-1.39639,-0.01888,0.00515,-0.00324,-0.0024,-0.0024,-0.0024,-0.0073,0.0073,-0.0073,-0.0073,-0.3761,2.3453,0.2256,2.3321,0.0269,-0.0562,-0.0073,1,1,1,1,1,1,1
14.1152,approach,4,return,0.02003,-0.00019,1.44179,-1.39639,-0.01850,0.00477,-0.00324,0.0024,-0.0024,-0.0024,-0.0073,0.0073,-0.0073,-0.0073,-0.4171,2.3316,0.2256,2.3419,0.0269,-0.0562,-0.0073,1,1,1,1,1,1,1
14.1556,approach,4,return,0.02003,-0.00019,1.44179,-1.39639,-0.01850,0.00477,-0.00324,0.0024,-0.0024,-0.0024,-0.0073,0.0073,-0.0073,-0.0073,-0.4171,2.3316,0.2256,2.3419,0.0269,-0.0562,-0.0073,1,1,1,1,1,1,1
14.1956,approach,4,return,0.02003,-0.00019,1.44179,-1.39639,-0.01850,0.00477,-0.00324,0.0024,-0.0024,-0.0024,-0.0073,0.0073,-0.0073,-0.0073,-0.4171,2.3316,0.2256,2.3419,0.0269,-0.0562,-0.0073,1,1,1,1,1,1,1
14.2358,approach,4,return,0.02003,-0.00019,1.44179,-1.39639,-0.01850,0.00477,-0.00324,-0.0024,0.0024,-0.0024,-0.0073,0.0073,-0.0073,-0.0073,-0.4308,2.3179,0.2530,2.3565,0.0269,-0.0611,-0.0073,1,1,1,1,1,1,1
14.2755,approach,4,return,0.02003,-0.00019,1.44179,-1.39639,-0.01850,0.00477,-0.00324,-0.0024,0.0024,-0.0024,-0.0073,0.0073,-0.0073,-0.0073,-0.4308,2.3179,0.2530,2.3565,0.0269,-0.0611,-0.0073,1,1,1,1,1,1,1
14.3155,approach,4,return,0.02003,-0.00019,1.44179,-1.39639,-0.01888,0.00515,-0.00324,-0.0024,-0.0024,-0.0024,-0.0073,0.0073,0.0073,-0.0073,-0.4308,2.3316,0.2530,2.3663,0.0269,-0.0611,-0.0073,1,1,1,1,1,1,1
14.3556,approach,4,return,0.02003,-0.00019,1.44179,-1.39639,-0.01888,0.00515,-0.00324,-0.0024,-0.0024,-0.0024,-0.0073,0.0073,0.0073,-0.0073,-0.4308,2.3316,0.2530,2.3663,0.0269,-0.0611,-0.0073,1,1,1,1,1,1,1
14.3961,approach,4,return,0.02003,-0.00019,1.44179,-1.39639,-0.01888,0.00515,-0.00324,-0.0024,-0.0024,-0.0024,-0.0073,0.0073,0.0073,-0.0073,-0.4308,2.3316,0.2530,2.3663,0.0269,-0.0611,-0.0073,1,1,1,1,1,1,1
14.4357,approach,4,return,0.02003,-0.00019,1.44179,-1.39639,-0.01850,0.00477,-0.00324,-0.0122,-0.0024,-0.0024,-0.0073,-0.0073,-0.0073,-0.0073,-0.3761,2.3453,0.2667,2.3761,0.0269,-0.0611,-0.0024,1,1,1,1,1,1,1
14.4758,approach,4,return,0.02003,-0.00019,1.44179,-1.39639,-0.01850,0.00477,-0.00324,-0.0122,-0.0024,-0.0024,-0.0073,-0.0073,-0.0073,-0.0073,-0.3761,2.3453,0.2667,2.3761,0.0269,-0.0611,-0.0024,1,1,1,1,1,1,1
14.5157,approach,4,return,0.02003,-0.00019,1.44179,-1.39639,-0.01888,0.00477,-0.00324,0.0024,0.0024,-0.0024,0.0073,-0.0073,-0.0073,0.0073,-0.3761,2.3043,0.2667,2.3907,0.0269,-0.0562,-0.0024,1,1,1,1,1,1,1
14.5556,approach,4,return,0.02003,-0.00019,1.44179,-1.39639,-0.01888,0.00477,-0.00324,0.0024,0.0024,-0.0024,0.0073,-0.0073,-0.0073,0.0073,-0.3761,2.3043,0.2667,2.3907,0.0269,-0.0562,-0.0024,1,1,1,1,1,1,1
14.5957,approach,4,return,0.02003,-0.00019,1.44179,-1.39639,-0.01888,0.00477,-0.00324,0.0024,0.0024,-0.0024,0.0073,-0.0073,-0.0073,0.0073,-0.3761,2.3043,0.2667,2.3907,0.0269,-0.0562,-0.0024,1,1,1,1,1,1,1
14.6356,approach,4,return,0.02003,-0.00019,1.44179,-1.39639,-0.01850,0.00477,-0.00324,-0.0024,-0.0024,-0.0024,-0.0073,0.0073,-0.0073,-0.0073,-0.3350,2.2496,0.2667,2.3907,0.0220,-0.0562,-0.0122,1,1,1,1,1,1,1
14.6762,approach,4,return,0.02003,-0.00019,1.44179,-1.39639,-0.01850,0.00477,-0.00324,-0.0024,-0.0024,-0.0024,-0.0073,0.0073,-0.0073,-0.0073,-0.3350,2.2496,0.2667,2.3907,0.0220,-0.0562,-0.0122,1,1,1,1,1,1,1
14.7156,approach,4,return,0.02003,-0.00019,1.44179,-1.39639,-0.01850,0.00477,-0.00324,-0.0024,-0.0024,-0.0024,-0.0073,-0.0073,-0.0220,0.0073,-0.3487,2.2769,0.2940,2.3956,0.0220,-0.0611,-0.0122,1,1,1,1,1,1,1
14.7555,approach,4,return,0.02003,-0.00019,1.44179,-1.39639,-0.01850,0.00477,-0.00324,-0.0024,-0.0024,-0.0024,-0.0073,-0.0073,-0.0220,0.0073,-0.3487,2.2769,0.2940,2.3956,0.0220,-0.0611,-0.0122,1,1,1,1,1,1,1
14.7955,approach,4,return,0.02003,-0.00019,1.44179,-1.39639,-0.01850,0.00477,-0.00324,-0.0024,-0.0024,-0.0024,-0.0073,-0.0073,-0.0220,0.0073,-0.3487,2.2769,0.2940,2.3956,0.0220,-0.0611,-0.0122,1,1,1,1,1,1,1
14.8356,approach,4,return,0.02003,-0.00019,1.44179,-1.39601,-0.01850,0.00477,-0.00324,-0.0024,0.0024,0.0024,-0.0073,-0.0073,-0.0073,-0.0073,-0.2940,2.2222,0.2940,2.3956,0.0220,-0.0611,-0.0122,1,1,1,1,1,1,1
14.8757,approach,4,return,0.02003,-0.00019,1.44179,-1.39601,-0.01850,0.00477,-0.00324,-0.0024,0.0024,0.0024,-0.0073,-0.0073,-0.0073,-0.0073,-0.2940,2.2222,0.2940,2.3956,0.0220,-0.0611,-0.0122,1,1,1,1,1,1,1
14.9158,approach,4,return,0.02003,-0.00019,1.44179,-1.39601,-0.01850,0.00515,-0.00324,-0.0024,-0.0024,-0.0024,-0.0073,-0.0073,0.0073,-0.0073,-0.3077,2.2085,0.2940,2.4054,0.0220,-0.0611,-0.0220,1,1,1,1,1,1,1
14.9556,approach,4,return,0.02003,-0.00019,1.44179,-1.39601,-0.01850,0.00515,-0.00324,-0.0024,-0.0024,-0.0024,-0.0073,-0.0073,0.0073,-0.0073,-0.3077,2.2085,0.2940,2.4054,0.0220,-0.0611,-0.0220,1,1,1,1,1,1,1
14.9956,approach,4,return,0.02003,-0.00019,1.44179,-1.39601,-0.01850,0.00515,-0.00324,-0.0024,-0.0024,-0.0024,-0.0073,-0.0073,0.0073,-0.0073,-0.3077,2.2085,0.2940,2.4054,0.0220,-0.0611,-0.0220,1,1,1,1,1,1,1
15.0355,approach,4,return,0.02003,-0.00019,1.44179,-1.39601,-0.01888,0.00477,-0.00362,-0.0024,0.0024,-0.0024,-0.0073,-0.0220,-0.0220,-0.0220,-0.3077,2.1812,0.2940,2.4005,0.0220,-0.0611,-0.0220,1,1,1,1,1,1,1
15.0757,approach,4,return,0.02003,-0.00019,1.44179,-1.39601,-0.01888,0.00477,-0.00362,-0.0024,0.0024,-0.0024,-0.0073,-0.0220,-0.0220,-0.0220,-0.3077,2.1812,0.2940,2.4005,0.0220,-0.0611,-0.0220,1,1,1,1,1,1,1
15.1155,approach,4,return,0.02003,-0.00019,1.44179,-1.39601,-0.01888,0.00477,-0.00362,-0.0024,-0.0024,-0.0024,-0.0073,-0.0073,-0.0073,-0.0073,-0.2803,2.1402,0.2940,2.4005,0.0220,-0.0562,-0.0220,1,1,1,1,1,1,1
15.1555,approach,4,return,0.02003,-0.00019,1.44179,-1.39601,-0.01888,0.00477,-0.00362,-0.0024,-0.0024,-0.0024,-0.0073,-0.0073,-0.0073,-0.0073,-0.2803,2.1402,0.2940,2.4005,0.0220,-0.0562,-0.0220,1,1,1,1,1,1,1
15.1957,approach,4,return,0.02003,-0.00019,1.44179,-1.39601,-0.01888,0.00477,-0.00362,-0.0024,-0.0024,-0.0024,-0.0073,-0.0073,-0.0073,-0.0073,-0.2803,2.1402,0.2940,2.4005,0.0220,-0.0562,-0.0220,1,1,1,1,1,1,1
15.2358,approach,4,return,0.02003,-0.00019,1.44179,-1.39601,-0.01850,0.00477,-0.00324,-0.0024,-0.0073,-0.0024,0.0073,-0.0073,-0.0073,-0.0073,-0.2940,2.1812,0.2940,2.4005,0.0269,-0.0513,-0.0220,1,1,1,1,1,1,1
15.2758,approach,4,return,0.02003,-0.00019,1.44179,-1.39601,-0.01850,0.00477,-0.00324,-0.0024,-0.0073,-0.0024,0.0073,-0.0073,-0.0073,-0.0073,-0.2940,2.1812,0.2940,2.4005,0.0269,-0.0513,-0.0220,1,1,1,1,1,1,1
15.3156,approach,4,return,0.02003,-0.00019,1.44179,-1.39601,-0.01888,0.00515,-0.00362,0.0024,-0.0073,-0.0024,-0.0073,-0.0073,0.0073,-0.0220,-0.2803,2.1265,0.2940,2.4103,0.0269,-0.0562,-0.0171,1,1,1,1,1,1,1
15.3555,approach,4,return,0.02003,-0.00019,1.44179,-1.39601,-0.01888,0.00515,-0.00362,0.0024,-0.0073,-0.0024,-0.0073,-0.0073,0.0073,-0.0220,-0.2803,2.1265,0.2940,2.4103,0.0269,-0.0562,-0.0171,1,1,1,1,1,1,1
15.3955,approach,4,return,0.02003,-0.00019,1.44179,-1.39601,-0.01888,0.00515,-0.00362,0.0024,-0.0073,-0.0024,-0.0073,-0.0073,0.0073,-0.0220,-0.2803,2.1265,0.2940,2.4103,0.0269,-0.0562,-0.0171,1,1,1,1,1,1,1
15.4356,approach,4,return,0.02003,-0.00019,1.44179,-1.39601,-0.01850,0.00477,-0.00324,0.0024,0.0024,-0.0024,-0.0073,0.0073,-0.0073,0.0073,-0.2940,2.1402,0.3214,2.4005,0.0269,-0.0562,-0.0171,1,1,1,1,1,1,1
15.4756,approach,4,return,0.02003,-0.00019,1.44179,-1.39601,-0.01850,0.00477,-0.00324,0.0024,0.0024,-0.0024,-0.0073,0.0073,-0.0073,0.0073,-0.2940,2.1402,0.3214,2.4005,0.0269,-0.0562,-0.0171,1,1,1,1,1,1,1
15.5158,approach,4,return,0.02041,-0.00019,1.44179,-1.39601,-0.01888,0.00477,-0.00324,0.0024,-0.0073,-0.0024,-0.0073,-0.0220,-0.0220,-0.0073,-0.3350,2.0991,0.3214,2.4005,0.0269,-0.0562,-0.0171,1,1,1,1,1,1,1
15.5556,approach,4,return,0.02041,-0.00019,1.44179,-1.39601,-0.01888,0.00477,-0.00324,0.0024,-0.0073,-0.0024,-0.0073,-0.0220,-0.0220,-0.0073,-0.3350,2.0991,0.3214,2.4005,0.0269,-0.0562,-0.0171,1,1,1,1,1,1,1
15.5954,approach,4,return,0.02041,-0.00019,1.44179,-1.39601,-0.01888,0.00477,-0.00324,0.0024,-0.0073,-0.0024,-0.0073,-0.0220,-0.0220,-0.0073,-0.3350,2.0991,0.3214,2.4005,0.0269,-0.0562,-0.0171,1,1,1,1,1,1,1
15.6357,approach,4,return,0.02041,-0.00019,1.44179,-1.39601,-0.01888,0.00477,-0.00324,-0.0024,0.0024,0.0024,-0.0220,-0.0073,-0.0220,-0.0073,-0.3350,2.0991,0.3077,2.3907,0.0269,-0.0562,-0.0122,1,1,1,1,1,1,1
15.6757,approach,4,return,0.02041,-0.00019,1.44179,-1.39601,-0.01888,0.00477,-0.00324,-0.0024,0.0024,0.0024,-0.0220,-0.0073,-0.0220,-0.0073,-0.3350,2.0991,0.3077,2.3907,0.0269,-0.0562,-0.0122,1,1,1,1,1,1,1
15.7155,approach,4,return,0.02041,-0.00019,1.44179,-1.39601,-0.01888,0.00477,-0.00324,0.0024,-0.0024,-0.0024,-0.0073,0.0073,-0.0073,-0.0073,-0.3350,2.0991,0.3077,2.3956,0.0269,-0.0513,-0.0122,1,1,1,1,1,1,1
15.7556,approach,4,return,0.02041,-0.00019,1.44179,-1.39601,-0.01888,0.00477,-0.00324,0.0024,-0.0024,-0.0024,-0.0073,0.0073,-0.0073,-0.0073,-0.3350,2.0991,0.3077,2.3956,0.0269,-0.0513,-0.0122,1,1,1,1,1,1,1
15.7954,approach,4,return,0.02041,-0.00019,1.44179,-1.39601,-0.01888,0.00477,-0.00324,0.0024,-0.0024,-0.0024,-0.0073,0.0073,-0.0073,-0.0073,-0.3350,2.0991,0.3077,2.3956,0.0269,-0.0513,-0.0122,1,1,1,1,1,1,1
15.8357,approach,4,return,0.02041,-0.00019,1.44179,-1.39601,-0.01850,0.00477,-0.00362,-0.0024,-0.0024,-0.0024,-0.0073,-0.0073,-0.0073,-0.0073,-0.3077,2.1265,0.3077,2.3858,0.0269,-0.0513,-0.0171,1,1,1,1,1,1,1
15.8755,approach,4,return,0.02041,-0.00019,1.44179,-1.39601,-0.01850,0.00477,-0.00362,-0.0024,-0.0024,-0.0024,-0.0073,-0.0073,-0.0073,-0.0073,-0.3077,2.1265,0.3077,2.3858,0.0269,-0.0513,-0.0171,1,1,1,1,1,1,1
15.9159,approach,4,return,0.02041,-0.00019,1.44179,-1.39601,-0.01888,0.00477,-0.00324,-0.0024,-0.0024,-0.0073,-0.0073,-0.0073,-0.0073,-0.0073,-0.3077,2.0855,0.3214,2.3810,0.0269,-0.0513,-0.0171,1,1,1,1,1,1,1
15.9560,approach,4,return,0.02041,-0.00019,1.44179,-1.39601,-0.01888,0.00477,-0.00324,-0.0024,-0.0024,-0.0073,-0.0073,-0.0073,-0.0073,-0.0073,-0.3077,2.0855,0.3214,2.3810,0.0269,-0.0513,-0.0171,1,1,1,1,1,1,1
15.9957,approach,4,return,0.02041,-0.00019,1.44179,-1.39601,-0.01888,0.00477,-0.00324,-0.0024,-0.0024,-0.0073,-0.0073,-0.0073,-0.0073,-0.0073,-0.3077,2.0855,0.3214,2.3810,0.0269,-0.0513,-0.0171,1,1,1,1,1,1,1
16.0355,approach,4,return,0.02041,-0.00019,1.44179,-1.39601,-0.01888,0.00477,-0.00324,-0.0073,-0.0024,-0.0024,-0.0220,-0.0073,-0.0073,-0.0073,-0.3077,2.1265,0.3350,2.3761,0.0269,-0.0464,-0.0171,1,1,1,1,1,1,1
16.0755,approach,4,return,0.02041,-0.00019,1.44179,-1.39601,-0.01888,0.00477,-0.00324,-0.0073,-0.0024,-0.0024,-0.0220,-0.0073,-0.0073,-0.0073,-0.3077,2.1265,0.3350,2.3761,0.0269,-0.0464,-0.0171,1,1,1,1,1,1,1
16.1153,approach,4,return,0.02041,-0.00019,1.44179,-1.39601,-0.01888,0.00515,-0.00324,-0.0024,-0.0073,-0.0024,-0.0073,-0.0073,0.0073,0.0073,-0.3077,2.1675,0.3487,2.3761,0.0269,-0.0464,-0.0171,1,1,1,1,1,1,1
16.1556,approach,4,return,0.02041,-0.00019,1.44179,-1.39601,-0.01888,0.00515,-0.00324,-0.0024,-0.0073,-0.0024,-0.0073,-0.0073,0.0073,0.0073,-0.3077,2.1675,0.3487,2.3761,0.0269,-0.0464,-0.0171,1,1,1,1,1,1,1
16.1961,approach,4,return,0.02041,-0.00019,1.44179,-1.39601,-0.01888,0.00515,-0.00324,-0.0024,-0.0073,-0.0024,-0.0073,-0.0073,0.0073,0.0073,-0.3077,2.1675,0.3487,2.3761,0.0269,-0.0464,-0.0171,1,1,1,1,1,1,1
16.2356,approach,4,return,0.02041,-0.00019,1.44179,-1.39601,-0.01850,0.00477,-0.00324,-0.0024,-0.0024,-0.0024,-0.0073,-0.0073,-0.0073,-0.0073,-0.3077,2.1402,0.3624,2.3614,0.0220,-0.0464,-0.0171,1,1,1,1,1,1,1
16.2755,approach,4,return,0.02041,-0.00019,1.44179,-1.39601,-0.01850,0.00477,-0.00324,-0.0024,-0.0024,-0.0024,-0.0073,-0.0073,-0.0073,-0.0073,-0.3077,2.1402,0.3624,2.3614,0.0220,-0.0464,-0.0171,1,1,1,1,1,1,1
16.3161,approach,4,return,0.02041,-0.00019,1.44179,-1.39601,-0.01850,0.00515,-0.00324,-0.0024,-0.0073,-0.0024,-0.0073,0.0073,-0.0073,-0.0073,-0.3350,2.0581,0.3624,2.3663,0.0269,-0.0415,-0.0220,1,1,1,1,1,1,1
16.3554,approach,4,return,0.02041,-0.00019,1.44179,-1.39601,-0.01850,0.00515,-0.00324,-0.0024,-0.0073,-0.0024,-0.0073,0.0073,-0.0073,-0.0073,-0.3350,2.0581,0.3624,2.3663,0.0269,-0.0415,-0.0220,1,1,1,1,1,1,1
16.3958,approach,4,return,0.02041,-0.00019,1.44179,-1.39601,-0.01850,0.00515,-0.00324,-0.0024,-0.0073,-0.0024,-0.0073,0.0073,-0.0073,-0.0073,-0.3350,2.0581,0.3624,2.3663,0.0269,-0.0415,-0.0220,1,1,1,1,1,1,1
16.4357,approach,4,return,0.02003,-0.00019,1.44179,-1.39601,-0.01888,0.00515,-0.00362,-0.0024,-0.0024,-0.0024,-0.0073,-0.0073,0.0073,-0.0073,-0.3487,2.0855,0.3761,2.3565,0.0269,-0.0464,-0.0171,1,1,1,1,1,1,1
16.4757,approach,4,return,0.02003,-0.00019,1.44179,-1.39601,-0.01888,0.00515,-0.00362,-0.0024,-0.0024,-0.0024,-0.0073,-0.0073,0.0073,-0.0073,-0.3487,2.0855,0.3761,2.3565,0.0269,-0.0464,-0.0171,1,1,1,1,1,1,1
16.5154,approach,4,return,0.02003,-0.00019,1.44179,-1.39601,-0.01850,0.00515,-0.00324,-0.0024,0.0024,-0.0024,-0.0073,-0.0073,-0.0073,-0.0073,-0.3761,2.1265,0.3761,2.3565,0.0269,-0.0415,-0.0122,1,1,1,1,1,1,1
16.5556,approach,4,return,0.02003,-0.00019,1.44179,-1.39601,-0.01850,0.00515,-0.00324,-0.0024,0.0024,-0.0024,-0.0073,-0.0073,-0.0073,-0.0073,-0.3761,2.1265,0.3761,2.3565,0.0269,-0.0415,-0.0122,1,1,1,1,1,1,1
16.5956,approach,4,return,0.02003,-0.00019,1.44179,-1.39601,-0.01850,0.00515,-0.00324,-0.0024,0.0024,-0.0024,-0.0073,-0.0073,-0.0073,-0.0073,-0.3761,2.1265,0.3761,2.3565,0.0269,-0.0415,-0.0122,1,1,1,1,1,1,1
16.6361,approach,4,return,0.02003,-0.00019,1.44179,-1.39601,-0.01850,0.00477,-0.00324,-0.0024,-0.0024,-0.0073,-0.0073,0.0073,-0.0220,-0.0073,-0.3897,2.1128,0.3897,2.3565,0.0269,-0.0415,-0.0122,1,1,1,1,1,1,1
16.6758,approach,4,return,0.02003,-0.00019,1.44179,-1.39601,-0.01850,0.00477,-0.00324,-0.0024,-0.0024,-0.0073,-0.0073,0.0073,-0.0220,-0.0073,-0.3897,2.1128,0.3897,2.3565,0.0269,-0.0415,-0.0122,1,1,1,1,1,1,1
16.7158,approach,4,return,0.02041,-0.00019,1.44179,-1.39601,-0.01888,0.00477,-0.00324,-0.0024,-0.0024,-0.0024,-0.0073,-0.0073,-0.0073,-0.0073,-0.3897,2.1402,0.3761,2.3468,0.0269,-0.0366,-0.0171,1,1,1,1,1,1,1
16.7555,approach,4,return,0.02041,-0.00019,1.44179,-1.39601,-0.01888,0.00477,-0.00324,-0.0024,-0.0024,-0.0024,-0.0073,-0.0073,-0.0073,-0.0073,-0.3897,2.1402,0.3761,2.3468,0.0269,-0.0366,-0.0171,1,1,1,1,1,1,1
16.7955,approach,4,return,0.02041,-0.00019,1.44179,-1.39601,-0.01888,0.00477,-0.00324,-0.0024,-0.0024,-0.0024,-0.0073,-0.0073,-0.0073,-0.0073,-0.3897,2.1402,0.3761,2.3468,0.0269,-0.0366,-0.0171,1,1,1,1,1,1,1
16.8356,approach,4,return,0.02003,-0.00019,1.44179,-1.39601,-0.01888,0.00515,-0.00362,-0.0024,-0.0024,-0.0024,-0.0220,-0.0073,0.0073,-0.0073,-0.4308,2.0991,0.3624,2.3370,0.0269,-0.0415,-0.0122,1,1,1,1,1,1,1
16.8758,approach,4,return,0.02003,-0.00019,1.44179,-1.39601,-0.01888,0.00515,-0.00362,-0.0024,-0.0024,-0.0024,-0.0220,-0.0073,0.0073,-0.0073,-0.4308,2.0991,0.3624,2.3370,0.0269,-0.0415,-0.0122,1,1,1,1,1,1,1
16.9155,approach,4,return,0.02003,-0.00019,1.44179,-1.39601,-0.01850,0.00515,-0.00362,-0.0024,-0.0024,-0.0024,-0.0073,-0.0073,-0.0073,-0.0073,-0.3897,2.0855,0.3624,2.3419,0.0220,-0.0366,-0.0122,1,1,1,1,1,1,1
16.9557,approach,4,return,0.02003,-0.00019,1.44179,-1.39601,-0.01850,0.00515,-0.00362,-0.0024,-0.0024,-0.0024,-0.0073,-0.0073,-0.0073,-0.0073,-0.3897,2.0855,0.3624,2.3419,0.0220,-0.0366,-0.0122,1,1,1,1,1,1,1
16.9958,approach,4,return,0.02003,-0.00019,1.44179,-1.39601,-0.01850,0.00515,-0.00362,-0.0024,-0.0024,-0.0024,-0.0073,-0.0073,-0.0073,-0.0073,-0.3897,2.0855,0.3624,2.3419,0.0220,-0.0366,-0.0122,1,1,1,1,1,1,1
17.0356,approach,4,return,0.02003,-0.00019,1.44179,-1.39601,-0.01850,0.00515,-0.00324,-0.0024,-0.0073,-0.0073,-0.0073,0.0073,0.0073,-0.0073,-0.3761,2.0855,0.3761,2.3516,0.0220,-0.0366,-0.0122,1,1,1,1,1,1,1
17.0756,approach,4,return,0.02003,-0.00019,1.44179,-1.39601,-0.01850,0.00515,-0.00324,-0.0024,-0.0073,-0.0073,-0.0073,0.0073,0.0073,-0.0073,-0.3761,2.0855,0.3761,2.3516,0.0220,-0.0366,-0.0122,1,1,1,1,1,1,1
17.1155,approach,4,return,0.02003,-0.00019,1.44179,-1.39601,-0.01888,0.00515,-0.00362,-0.0024,-0.0073,-0.0073,-0.0073,-0.0073,-0.0220,-0.0073,-0.3897,2.0581,0.3761,2.3565,0.0220,-0.0366,-0.0122,1,1,1,1,1,1,1
17.1556,approach,4,return,0.02003,-0.00019,1.44179,-1.39601,-0.01888,0.00515,-0.00362,-0.0024,-0.0073,-0.0073,-0.0073,-0.0073,-0.0220,-0.0073,-0.3897,2.0581,0.3761,2.3565,0.0220,-0.0366,-0.0122,1,1,1,1,1,1,1
17.1955,approach,4,return,0.02003,-0.00019,1.44179,-1.39601,-0.01888,0.00515,-0.00362,-0.0024,-0.0073,-0.0073,-0.0073,-0.0073,-0.0220,-0.0073,-0.3897,2.0581,0.3761,2.3565,0.0220,-0.0366,-0.0122,1,1,1,1,1,1,1
17.2356,approach,4,return,0.02003,-0.00019,1.44179,-1.39601,-0.01888,0.00477,-0.00362,-0.0024,-0.0024,-0.0024,0.0073,-0.0220,-0.0220,0.0073,-0.4171,2.0991,0.4034,2.3565,0.0220,-0.0366,-0.0122,1,1,1,1,1,1,1
17.2754,approach,4,return,0.02003,-0.00019,1.44179,-1.39601,-0.01888,0.00477,-0.00362,-0.0024,-0.0024,-0.0024,0.0073,-0.0220,-0.0220,0.0073,-0.4171,2.0991,0.4034,2.3565,0.0220,-0.0366,-0.0122,1,1,1,1,1,1,1
17.3152,approach,4,return,0.02003,-0.00019,1.44179,-1.39639,-0.01888,0.00515,-0.00362,-0.0024,-0.0024,-0.0024,-0.0220,-0.0220,0.0073,-0.0220,-0.4034,2.0718,0.3761,2.3663,0.0171,-0.0366,-0.0171,1,1,1,1,1,1,1
17.3556,approach,4,return,0.02003,-0.00019,1.44179,-1.39639,-0.01888,0.00515,-0.00362,-0.0024,-0.0024,-0.0024,-0.0220,-0.0220,0.0073,-0.0220,-0.4034,2.0718,0.3761,2.3663,0.0171,-0.0366,-0.0171,1,1,1,1,1,1,1
17.3955,approach,4,return,0.02003,-0.00019,1.44179,-1.39639,-0.01888,0.00515,-0.00362,-0.0024,-0.0024,-0.0024,-0.0220,-0.0220,0.0073,-0.0220,-0.4034,2.0718,0.3761,2.3663,0.0171,-0.0366,-0.0171,1,1,1,1,1,1,1
17.4356,approach,4,return,0.02003,-0.00019,1.44179,-1.39601,-0.01888,0.00515,-0.00324,-0.0024,-0.0024,-0.0024,-0.0073,0.0073,-0.0073,-0.0073,-0.4171,2.0581,0.3897,2.3614,0.0220,-0.0317,-0.0122,1,1,1,1,1,1,1
17.4756,approach,4,return,0.02003,-0.00019,1.44179,-1.39601,-0.01888,0.00515,-0.00324,-0.0024,-0.0024,-0.0024,-0.0073,0.0073,-0.0073,-0.0073,-0.4171,2.0581,0.3897,2.3614,0.0220,-0.0317,-0.0122,1,1,1,1,1,1,1
17.5157,approach,4,return,0.02003,-0.00019,1.44179,-1.39601,-0.01888,0.00515,-0.00324,-0.0024,-0.0024,-0.0024,0.0073,-0.0220,-0.0073,-0.0073,-0.4171,2.0581,0.4034,2.3614,0.0220,-0.0317,-0.0122,1,1,1,1,1,1,1
17.5554,approach,4,return,0.02003,-0.00019,1.44179,-1.39601,-0.01888,0.00515,-0.00324,-0.0024,-0.0024,-0.0024,0.0073,-0.0220,-0.0073,-0.0073,-0.4171,2.0581,0.4034,2.3614,0.0220,-0.0317,-0.0122,1,1,1,1,1,1,1
17.5959,approach,4,return,0.02003,-0.00019,1.44179,-1.39601,-0.01888,0.00515,-0.00324,-0.0024,-0.0024,-0.0024,0.0073,-0.0220,-0.0073,-0.0073,-0.4171,2.0581,0.4034,2.3614,0.0220,-0.0317,-0.0122,1,1,1,1,1,1,1
17.6363,approach,4,return,0.02003,-0.00019,1.44179,-1.39601,-0.01888,0.00477,-0.00324,0.0024,0.0024,-0.0024,-0.0073,-0.0220,-0.0220,-0.0073,-0.4034,2.0718,0.4171,2.3565,0.0220,-0.0366,-0.0122,1,1,1,1,1,1,1
17.6761,approach,4,return,0.02003,-0.00019,1.44179,-1.39601,-0.01888,0.00477,-0.00324,0.0024,0.0024,-0.0024,-0.0073,-0.0220,-0.0220,-0.0073,-0.4034,2.0718,0.4171,2.3565,0.0220,-0.0366,-0.0122,1,1,1,1,1,1,1
17.7158,approach,4,return,0.02003,-0.00019,1.44179,-1.39601,-0.01888,0.00515,-0.00324,-0.0024,-0.0024,-0.0024,-0.0073,-0.0073,0.0073,-0.0073,-0.3897,2.1128,0.4581,2.3516,0.0269,-0.0317,-0.0073,1,1,1,1,1,1,1
17.7554,approach,4,return,0.02003,-0.00019,1.44179,-1.39601,-0.01888,0.00515,-0.00324,-0.0024,-0.0024,-0.0024,-0.0073,-0.0073,0.0073,-0.0073,-0.3897,2.1128,0.4581,2.3516,0.0269,-0.0317,-0.0073,1,1,1,1,1,1,1
17.7955,approach,4,return,0.02003,-0.00019,1.44179,-1.39601,-0.01888,0.00515,-0.00324,-0.0024,-0.0024,-0.0024,-0.0073,-0.0073,0.0073,-0.0073,-0.3897,2.1128,0.4581,2.3516,0.0269,-0.0317,-0.0073,1,1,1,1,1,1,1
17.8356,approach,4,return,0.02003,-0.00019,1.44179,-1.39639,-0.01888,0.00515,-0.00362,-0.0073,-0.0122,-0.0024,-0.0073,-0.0073,0.0073,-0.0073,-0.3624,2.0581,0.5128,2.3468,0.0269,-0.0366,-0.0122,1,1,1,1,1,1,1
17.8758,approach,4,return,0.02003,-0.00019,1.44179,-1.39639,-0.01888,0.00515,-0.00362,-0.0073,-0.0122,-0.0024,-0.0073,-0.0073,0.0073,-0.0073,-0.3624,2.0581,0.5128,2.3468,0.0269,-0.0366,-0.0122,1,1,1,1,1,1,1
17.9157,approach,4,return,0.02003,-0.00019,1.44179,-1.39639,-0.01888,0.00515,-0.00324,-0.0024,-0.0024,-0.0024,-0.0073,-0.0220,-0.0073,-0.0073,-0.3350,2.0581,0.6085,2.3468,0.0269,-0.0366,-0.0073,1,1,1,1,1,1,1
17.9560,approach,4,return,0.02003,-0.00019,1.44179,-1.39639,-0.01888,0.00515,-0.00324,-0.0024,-0.0024,-0.0024,-0.0073,-0.0220,-0.0073,-0.0073,-0.3350,2.0581,0.6085,2.3468,0.0269,-0.0366,-0.0073,1,1,1,1,1,1,1
17.9958,approach,4,return,0.02003,-0.00019,1.44179,-1.39639,-0.01888,0.00515,-0.00324,-0.0024,-0.0024,-0.0024,-0.0073,-0.0220,-0.0073,-0.0073,-0.3350,2.0581,0.6085,2.3468,0.0269,-0.0366,-0.0073,1,1,1,1,1,1,1
18.0357,approach,4,return,0.02003,-0.00019,1.44179,-1.39601,-0.01888,0.00515,-0.00324,-0.0024,-0.0024,-0.0024,0.0073,0.0073,0.0073,-0.0073,-0.3214,2.1128,0.5675,2.3468,0.0269,-0.0415,-0.0122,1,1,1,1,1,1,1
18.0757,approach,4,return,0.02003,-0.00019,1.44179,-1.39601,-0.01888,0.00515,-0.00324,-0.0024,-0.0024,-0.0024,0.0073,0.0073,0.0073,-0.0073,-0.3214,2.1128,0.5675,2.3468,0.0269,-0.0415,-0.0122,1,1,1,1,1,1,1
18.1156,approach,4,return,0.02003,-0.00019,1.44179,-1.39601,-0.01850,0.00515,-0.00324,-0.0024,-0.0073,-0.0024,0.0073,-0.0073,0.0073,-0.0220,-0.3077,2.1538,0.6632,2.3516,0.0269,-0.0415,-0.0073,1,1,1,1,1,1,1
18.1556,approach,4,return,0.02003,-0.00019,1.44179,-1.39601,-0.01850,0.00515,-0.00324,-0.0024,-0.0073,-0.0024,0.0073,-0.0073,0.0073,-0.0220,-0.3077,2.1538,0.6632,2.3516,0.0269,-0.0415,-0.0073,1,1,1,1,1,1,1
18.1960,approach,4,return,0.02003,-0.00019,1.44179,-1.39601,-0.01850,0.00515,-0.00324,-0.0024,-0.0073,-0.0024,0.0073,-0.0073,0.0073,-0.0220,-0.3077,2.1538,0.6632,2.3516,0.0269,-0.0415,-0.0073,1,1,1,1,1,1,1
18.2355,approach,4,return,0.02003,-0.00019,1.44179,-1.39601,-0.01850,0.00477,-0.00324,-0.0024,0.0024,-0.0073,-0.0073,-0.0073,-0.0073,-0.0073,-0.3350,2.2085,0.6769,2.3468,0.0220,-0.0415,-0.0073,1,1,1,1,1,1,1
18.2758,approach,4,return,0.02003,-0.00019,1.44179,-1.39601,-0.01850,0.00477,-0.00324,-0.0024,0.0024,-0.0073,-0.0073,-0.0073,-0.0073,-0.0073,-0.3350,2.2085,0.6769,2.3468,0.0220,-0.0415,-0.0073,1,1,1,1,1,1,1
18.3155,approach,4,return,0.02003,-0.00019,1.44179,-1.39601,-0.01850,0.00515,-0.00324,-0.0024,-0.0024,-0.0024,-0.0073,0.0073,-0.0073,-0.0073,-0.2940,2.1949,0.6906,2.3468,0.0269,-0.0415,-0.0073,1,1,1,1,1,1,1
18.3556,approach,4,return,0.02003,-0.00019,1.44179,-1.39601,-0.01850,0.00515,-0.00324,-0.0024,-0.0024,-0.0024,-0.0073,0.0073,-0.0073,-0.0073,-0.2940,2.1949,0.6906,2.3468,0.0269,-0.0415,-0.0073,1,1,1,1,1,1,1
18.3973,approach,4,return,0.02003,-0.00019,1.44179,-1.39601,-0.01850,0.00515,-0.00324,-0.0024,-0.0024,-0.0024,-0.0073,0.0073,-0.0073,-0.0073,-0.2940,2.1949,0.6906,2.3468,0.0269,-0.0415,-0.0073,1,1,1,1,1,1,1
18.4365,approach,4,return,0.02003,-0.00019,1.44179,-1.39639,-0.01850,0.00515,-0.00324,0.0024,-0.0024,-0.0024,-0.0073,0.0073,0.0073,-0.0073,-0.2940,2.2085,0.7043,2.3468,0.0269,-0.0366,-0.0073,1,1,1,1,1,1,1
18.4758,approach,4,return,0.02003,-0.00019,1.44179,-1.39639,-0.01850,0.00515,-0.00324,0.0024,-0.0024,-0.0024,-0.0073,0.0073,0.0073,-0.0073,-0.2940,2.2085,0.7043,2.3468,0.0269,-0.0366,-0.0073,1,1,1,1,1,1,1
18.5156,approach,4,return,0.02003,-0.00019,1.44179,-1.39639,-0.01888,0.00515,-0.00324,-0.0024,-0.0073,-0.0024,-0.0220,-0.0073,-0.0073,0.0073,-0.2803,2.1265,0.7316,2.3614,0.0269,-0.0415,-0.0073,1,1,1,1,1,1,1
18.5562,approach,4,return,0.02003,-0.00019,1.44179,-1.39639,-0.01888,0.00515,-0.00324,-0.0024,-0.0073,-0.0024,-0.0220,-0.0073,-0.0073,0.0073,-0.2803,2.1265,0.7316,2.3614,0.0269,-0.0415,-0.0073,1,1,1,1,1,1,1
18.5961,approach,4,return,0.02003,-0.00019,1.44179,-1.39639,-0.01888,0.00515,-0.00324,-0.0024,-0.0073,-0.0024,-0.0220,-0.0073,-0.0073,0.0073,-0.2803,2.1265,0.7316,2.3614,0.0269,-0.0415,-0.0073,1,1,1,1,1,1,1
18.6359,approach,4,return,0.02003,-0.00019,1.44179,-1.39601,-0.01850,0.00515,-0.00324,-0.0024,-0.0024,-0.0073,-0.0073,-0.0073,0.0073,0.0073,-0.2530,2.0171,0.9094,2.3712,0.0269,-0.0415,-0.0073,1,1,1,1,1,1,1
18.6755,approach,4,return,0.02003,-0.00019,1.44179,-1.39601,-0.01850,0.00515,-0.00324,-0.0024,-0.0024,-0.0073,-0.0073,-0.0073,0.0073,0.0073,-0.2530,2.0171,0.9094,2.3712,0.0269,-0.0415,-0.0073,1,1,1,1,1,1,1
18.7158,approach,4,return,0.02003,-0.00019,1.44179,-1.39601,-0.01850,0.00515,-0.00324,0.0024,-0.0024,0.0024,-0.0220,-0.0073,0.0073,0.0073,-0.2393,2.0034,0.9915,2.3761,0.0269,-0.0366,-0.0073,1,1,1,1,1,1,1
18.7555,approach,4,return,0.02003,-0.00019,1.44179,-1.39601,-0.01850,0.00515,-0.00324,0.0024,-0.0024,0.0024,-0.0220,-0.0073,0.0073,0.0073,-0.2393,2.0034,0.9915,2.3761,0.0269,-0.0366,-0.0073,1,1,1,1,1,1,1
18.7958,approach,4,return,0.02003,-0.00019,1.44179,-1.39601,-0.01850,0.00515,-0.00324,0.0024,-0.0024,0.0024,-0.0220,-0.0073,0.0073,0.0073,-0.2393,2.0034,0.9915,2.3761,0.0269,-0.0366,-0.0073,1,1,1,1,1,1,1
18.8355,approach,4,return,0.02003,-0.00019,1.44179,-1.39601,-0.01888,0.00477,-0.00324,-0.0024,-0.0073,-0.0024,-0.0073,-0.0220,-0.0220,-0.0073,-0.2120,1.9487,1.1009,2.3810,0.0269,-0.0464,-0.0073,1,1,1,1,1,1,1
18.8759,approach,4,return,0.02003,-0.00019,1.44179,-1.39601,-0.01888,0.00477,-0.00324,-0.0024,-0.0073,-0.0024,-0.0073,-0.0220,-0.0220,-0.0073,-0.2120,1.9487,1.1009,2.3810,0.0269,-0.0464,-0.0073,1,1,1,1,1,1,1
18.9156,approach,4,return,0.02003,-0.00019,1.44179,-1.39639,-0.01850,0.00477,-0.00362,-0.0024,-0.0024,-0.0024,-0.0220,-0.0073,-0.0220,-0.0220,-0.2256,1.9214,1.1282,2.3810,0.0317,-0.0366,-0.0122,1,1,1,1,1,1,1
18.9555,approach,4,return,0.02003,-0.00019,1.44179,-1.39639,-0.01850,0.00477,-0.00362,-0.0024,-0.0024,-0.0024,-0.0220,-0.0073,-0.0220,-0.0220,-0.2256,1.9214,1.1282,2.3810,0.0317,-0.0366,-0.0122,1,1,1,1,1,1,1
18.9958,approach,4,return,0.02003,-0.00019,1.44179,-1.39639,-0.01850,0.00477,-0.00362,-0.0024,-0.0024,-0.0024,-0.0220,-0.0073,-0.0220,-0.0220,-0.2256,1.9214,1.1282,2.3810,0.0317,-0.0366,-0.0122,1,1,1,1,1,1,1
19.0355,approach,4,return,0.02003,-0.00019,1.44179,-1.39601,-0.01850,0.00515,-0.00324,-0.0024,-0.0024,-0.0024,-0.0073,-0.0073,0.0073,-0.0073,-0.2530,1.9077,1.2376,2.3663,0.0317,-0.0366,-0.0122,1,1,1,1,1,1,1
19.0754,approach,4,return,0.02003,-0.00019,1.44179,-1.39601,-0.01850,0.00515,-0.00324,-0.0024,-0.0024,-0.0024,-0.0073,-0.0073,0.0073,-0.0073,-0.2530,1.9077,1.2376,2.3663,0.0317,-0.0366,-0.0122,1,1,1,1,1,1,1
19.1158,approach,4,return,0.02003,-0.00019,1.44179,-1.39601,-0.01850,0.00515,-0.00324,-0.0024,-0.0073,-0.0024,0.0073,0.0073,-0.0073,-0.0073,-0.2393,1.9077,1.3197,2.3712,0.0317,-0.0366,-0.0122,1,1,1,1,1,1,1
19.1560,approach,4,return,0.02003,-0.00019,1.44179,-1.39601,-0.01850,0.00515,-0.00324,-0.0024,-0.0073,-0.0024,0.0073,0.0073,-0.0073,-0.0073,-0.2393,1.9077,1.3197,2.3712,0.0317,-0.0366,-0.0122,1,1,1,1,1,1,1
19.1960,approach,4,return,0.02003,-0.00019,1.44179,-1.39601,-0.01850,0.00515,-0.00324,-0.0024,-0.0073,-0.0024,0.0073,0.0073,-0.0073,-0.0073,-0.2393,1.9077,1.3197,2.3712,0.0317,-0.0366,-0.0122,1,1,1,1,1,1,1
19.2358,approach,4,return,0.02003,-0.00019,1.44179,-1.39601,-0.01850,0.00477,-0.00324,-0.0024,-0.0024,-0.0024,0.0073,0.0073,-0.0220,-0.0073,-0.2667,1.8667,1.3607,2.3663,0.0317,-0.0366,-0.0122,1,1,1,1,1,1,1
19.2755,approach,4,return,0.02003,-0.00019,1.44179,-1.39601,-0.01850,0.00477,-0.00324,-0.0024,-0.0024,-0.0024,0.0073,0.0073,-0.0220,-0.0073,-0.2667,1.8667,1.3607,2.3663,0.0317,-0.0366,-0.0122,1,1,1,1,1,1,1
19.3161,approach,4,return,0.02041,-0.00019,1.44179,-1.39601,-0.01850,0.00515,-0.00324,-0.0024,-0.0073,-0.0024,0.0073,-0.0073,-0.0073,-0.0073,-0.2803,1.8530,1.4154,2.3761,0.0317,-0.0366,-0.0122,1,1,1,1,1,1,1
19.3559,approach,4,return,0.02041,-0.00019,1.44179,-1.39601,-0.01850,0.00515,-0.00324,-0.0024,-0.0073,-0.0024,0.0073,-0.0073,-0.0073,-0.0073,-0.2803,1.8530,1.4154,2.3761,0.0317,-0.0366,-0.0122,1,1,1,1,1,1,1
19.3959,approach,4,return,0.02041,-0.00019,1.44179,-1.39601,-0.01850,0.00515,-0.00324,-0.0024,-0.0073,-0.0024,0.0073,-0.0073,-0.0073,-0.0073,-0.2803,1.8530,1.4154,2.3761,0.0317,-0.0366,-0.0122,1,1,1,1,1,1,1
19.4360,approach,4,return,0.02041,-0.00019,1.44179,-1.39639,-0.01850,0.00477,-0.00324,-0.0024,-0.0024,-0.0024,-0.0220,-0.0073,-0.0073,0.0073,-0.2667,1.8120,1.4701,2.3663,0.0366,-0.0464,-0.0171,1,1,1,1,1,1,1
19.4754,approach,4,return,0.02041,-0.00019,1.44179,-1.39639,-0.01850,0.00477,-0.00324,-0.0024,-0.0024,-0.0024,-0.0220,-0.0073,-0.0073,0.0073,-0.2667,1.8120,1.4701,2.3663,0.0366,-0.0464,-0.0171,1,1,1,1,1,1,1
19.5155,approach,4,return,0.02041,-0.00019,1.44179,-1.39601,-0.01888,0.00515,-0.00362,-0.0024,-0.0024,-0.0024,-0.0073,-0.0073,-0.0073,-0.0073,-0.2803,1.7709,1.5111,2.3663,0.0366,-0.0415,-0.0171,1,1,1,1,1,1,1
19.5555,approach,4,return,0.02041,-0.00019,1.44179,-1.39601,-0.01888,0.00515,-0.00362,-0.0024,-0.0024,-0.0024,-0.0073,-0.0073,-0.0073,-0.0073,-0.2803,1.7709,1.5111,2.3663,0.0366,-0.0415,-0.0171,1,1,1,1,1,1,1
19.5955,approach,4,return,0.02041,-0.00019,1.44179,-1.39601,-0.01888,0.00515,-0.00362,-0.0024,-0.0024,-0.0024,-0.0073,-0.0073,-0.0073,-0.0073,-0.2803,1.7709,1.5111,2.3663,0.0366,-0.0415,-0.0171,1,1,1,1,1,1,1
19.6363,approach,4,return,0.02003,-0.00019,1.44179,-1.39601,-0.01850,0.00515,-0.00324,-0.0024,-0.0024,-0.0024,-0.0073,-0.0073,0.0073,-0.0073,-0.2940,1.7299,1.6068,2.3663,0.0366,-0.0415,-0.0122,1,1,1,1,1,1,1
19.6759,approach,4,return,0.02003,-0.00019,1.44179,-1.39601,-0.01850,0.00515,-0.00324,-0.0024,-0.0024,-0.0024,-0.0073,-0.0073,0.0073,-0.0073,-0.2940,1.7299,1.6068,2.3663,0.0366,-0.0415,-0.0122,1,1,1,1,1,1,1
19.7159,approach,4,return,0.02041,-0.00019,1.44179,-1.39601,-0.01888,0.00515,-0.00362,0.0024,-0.0024,-0.0024,-0.0073,-0.0220,0.0073,-0.0220,-0.2940,1.6479,1.5932,2.3712,0.0366,-0.0366,-0.0122,1,1,1,1,1,1,1
19.7559,approach,4,return,0.02041,-0.00019,1.44179,-1.39601,-0.01888,0.00515,-0.00362,0.0024,-0.0024,-0.0024,-0.0073,-0.0220,0.0073,-0.0220,-0.2940,1.6479,1.5932,2.3712,0.0366,-0.0366,-0.0122,1,1,1,1,1,1,1
19.7957,approach,4,return,0.02041,-0.00019,1.44179,-1.39601,-0.01888,0.00515,-0.00362,0.0024,-0.0024,-0.0024,-0.0073,-0.0220,0.0073,-0.0220,-0.2940,1.6479,1.5932,2.3712,0.0366,-0.0366,-0.0122,1,1,1,1,1,1,1
19.8356,approach,4,return,0.02041,-0.00019,1.44179,-1.39601,-0.01850,0.00515,-0.00362,-0.0024,0.0024,0.0024,-0.0220,-0.0073,0.0073,-0.0073,-0.3214,1.6479,1.6479,2.3761,0.0366,-0.0415,-0.0122,1,1,1,1,1,1,1
19.8760,approach,4,return,0.02041,-0.00019,1.44179,-1.39601,-0.01850,0.00515,-0.00362,-0.0024,0.0024,0.0024,-0.0220,-0.0073,0.0073,-0.0073,-0.3214,1.6479,1.6479,2.3761,0.0366,-0.0415,-0.0122,1,1,1,1,1,1,1
19.9161,approach,4,return,0.02041,-0.00019,1.44179,-1.39601,-0.01850,0.00515,-0.00324,-0.0024,-0.0024,-0.0024,-0.0220,-0.0220,-0.0073,-0.0073,-0.3077,1.5795,1.7026,2.3858,0.0366,-0.0415,-0.0122,1,1,1,1,1,1,1
19.9556,approach,4,return,0.02041,-0.00019,1.44179,-1.39601,-0.01850,0.00515,-0.00324,-0.0024,-0.0024,-0.0024,-0.0220,-0.0220,-0.0073,-0.0073,-0.3077,1.5795,1.7026,2.3858,0.0366,-0.0415,-0.0122,1,1,1,1,1,1,1
19.9958,approach,4,return,0.02041,-0.00019,1.44179,-1.39601,-0.01850,0.00515,-0.00324,-0.0024,-0.0024,-0.0024,-0.0220,-0.0220,-0.0073,-0.0073,-0.3077,1.5795,1.7026,2.3858,0.0366,-0.0415,-0.0122,1,1,1,1,1,1,1
20.0361,approach,4,return,0.02041,-0.00019,1.44179,-1.39601,-0.01850,0.00477,-0.00324,-0.0073,0.0024,-0.0024,-0.0073,-0.0073,-0.0073,0.0073,-0.2803,1.5248,1.7026,2.3810,0.0366,-0.0415,-0.0171,1,1,1,1,1,1,1
20.0755,approach,4,return,0.02041,-0.00019,1.44179,-1.39601,-0.01850,0.00477,-0.00324,-0.0073,0.0024,-0.0024,-0.0073,-0.0073,-0.0073,0.0073,-0.2803,1.5248,1.7026,2.3810,0.0366,-0.0415,-0.0171,1,1,1,1,1,1,1
20.1157,approach,4,return,0.02041,-0.00019,1.44179,-1.39601,-0.01888,0.00515,-0.00324,-0.0024,0.0024,-0.0024,-0.0073,-0.0073,0.0073,-0.0073,-0.2667,1.5111,1.7162,2.3858,0.0366,-0.0415,-0.0171,1,1,1,1,1,1,1
20.1556,approach,4,return,0.02041,-0.00019,1.44179,-1.39601,-0.01888,0.00515,-0.00324,-0.0024,0.0024,-0.0024,-0.0073,-0.0073,0.0073,-0.0073,-0.2667,1.5111,1.7162,2.3858,0.0366,-0.0415,-0.0171,1,1,1,1,1,1,1
20.1956,approach,4,return,0.02041,-0.00019,1.44179,-1.39601,-0.01888,0.00515,-0.00324,-0.0024,0.0024,-0.0024,-0.0073,-0.0073,0.0073,-0.0073,-0.2667,1.5111,1.7162,2.3858,0.0366,-0.0415,-0.0171,1,1,1,1,1,1,1
20.2355,approach,4,return,0.02041,-0.00019,1.44179,-1.39601,-0.01888,0.00515,-0.00362,-0.0024,-0.0024,0.0024,0.0073,-0.0220,-0.0073,-0.0073,-0.2803,1.5385,1.7709,2.3761,0.0366,-0.0415,-0.0171,1,1,1,1,1,1,1
20.2757,approach,4,return,0.02041,-0.00019,1.44179,-1.39601,-0.01888,0.00515,-0.00362,-0.0024,-0.0024,0.0024,0.0073,-0.0220,-0.0073,-0.0073,-0.2803,1.5385,1.7709,2.3761,0.0366,-0.0415,-0.0171,1,1,1,1,1,1,1
20.3156,approach,4,return,0.02041,-0.00019,1.44179,-1.39601,-0.01850,0.00515,-0.00324,0.0024,-0.0024,-0.0024,0.0073,-0.0073,0.0073,-0.0220,-0.2803,1.5111,1.7846,2.3761,0.0366,-0.0415,-0.0171,1,1,1,1,1,1,1
20.3564,approach,4,return,0.02041,-0.00019,1.44179,-1.39601,-0.01850,0.00515,-0.00324,0.0024,-0.0024,-0.0024,0.0073,-0.0073,0.0073,-0.0220,-0.2803,1.5111,1.7846,2.3761,0.0366,-0.0415,-0.0171,1,1,1,1,1,1,1
20.3965,approach,4,return,0.02041,-0.00019,1.44179,-1.39601,-0.01850,0.00515,-0.00324,0.0024,-0.0024,-0.0024,0.0073,-0.0073,0.0073,-0.0220,-0.2803,1.5111,1.7846,2.3761,0.0366,-0.0415,-0.0171,1,1,1,1,1,1,1
20.4355,approach,4,return,0.02041,-0.00019,1.44179,-1.39601,-0.01888,0.00515,-0.00324,0.0024,0.0024,-0.0024,0.0073,-0.0220,0.0073,-0.0073,-0.2667,1.5111,1.8667,2.3907,0.0366,-0.0415,-0.0171,1,1,1,1,1,1,1
20.4756,approach,4,return,0.02041,-0.00019,1.44179,-1.39601,-0.01888,0.00515,-0.00324,0.0024,0.0024,-0.0024,0.0073,-0.0220,0.0073,-0.0073,-0.2667,1.5111,1.8667,2.3907,0.0366,-0.0415,-0.0171,1,1,1,1,1,1,1
20.5154,approach,4,return,0.02041,-0.00019,1.44179,-1.39601,-0.01850,0.00477,-0.00324,-0.0024,-0.0024,0.0073,-0.0073,-0.0073,-0.0220,0.0073,-0.2667,1.4974,1.8940,2.3858,0.0366,-0.0464,-0.0171,1,1,1,1,1,1,1
20.5562,approach,4,return,0.02041,-0.00019,1.44179,-1.39601,-0.01850,0.00477,-0.00324,-0.0024,-0.0024,0.0073,-0.0073,-0.0073,-0.0220,0.0073,-0.2667,1.4974,1.8940,2.3858,0.0366,-0.0464,-0.0171,1,1,1,1,1,1,1
20.5963,approach,4,return,0.02041,-0.00019,1.44179,-1.39601,-0.01850,0.00477,-0.00324,-0.0024,-0.0024,0.0073,-0.0073,-0.0073,-0.0220,0.0073,-0.2667,1.4974,1.8940,2.3858,0.0366,-0.0464,-0.0171,1,1,1,1,1,1,1
20.6359,approach,4,return,0.02041,-0.00019,1.44179,-1.39601,-0.01850,0.00477,-0.00362,-0.0024,-0.0073,-0.0024,-0.0073,0.0073,-0.0073,-0.0073,-0.2803,1.4701,1.8530,2.3956,0.0366,-0.0464,-0.0171,1,1,1,1,1,1,1
20.6761,approach,4,return,0.02041,-0.00019,1.44179,-1.39601,-0.01850,0.00477,-0.00362,-0.0024,-0.0073,-0.0024,-0.0073,0.0073,-0.0073,-0.0073,-0.2803,1.4701,1.8530,2.3956,0.0366,-0.0464,-0.0171,1,1,1,1,1,1,1
20.7161,approach,4,return,0.02041,-0.00019,1.44179,-1.39601,-0.01850,0.00477,-0.00324,-0.0024,-0.0073,-0.0024,-0.0073,-0.0073,0.0220,0.0073,-0.2940,1.4564,1.8256,2.3907,0.0366,-0.0464,-0.0171,1,1,1,1,1,1,1
20.7557,approach,4,return,0.02041,-0.00019,1.44179,-1.39601,-0.01850,0.00477,-0.00324,-0.0024,-0.0073,-0.0024,-0.0073,-0.0073,0.0220,0.0073,-0.2940,1.4564,1.8256,2.3907,0.0366,-0.0464,-0.0171,1,1,1,1,1,1,1
20.7955,approach,4,return,0.02041,-0.00019,1.44179,-1.39601,-0.01850,0.00477,-0.00324,-0.0024,-0.0073,-0.0024,-0.0073,-0.0073,0.0220,0.0073,-0.2940,1.4564,1.8256,2.3907,0.0366,-0.0464,-0.0171,1,1,1,1,1,1,1
20.8355,approach,4,return,0.02041,-0.00019,1.44179,-1.39601,-0.01850,0.00477,-0.00324,-0.0024,-0.0024,-0.0024,-0.0073,0.0073,-0.0073,-0.0073,-0.2940,1.4291,1.7983,2.3956,0.0317,-0.0464,-0.0171,1,1,1,1,1,1,1
20.8758,approach,4,return,0.02041,-0.00019,1.44179,-1.39601,-0.01850,0.00477,-0.00324,-0.0024,-0.0024,-0.0024,-0.0073,0.0073,-0.0073,-0.0073,-0.2940,1.4291,1.7983,2.3956,0.0317,-0.0464,-0.0171,1,1,1,1,1,1,1
20.9159,approach,4,return,0.02041,-0.00019,1.44179,-1.39601,-0.01850,0.00515,-0.00362,-0.0024,-0.0024,-0.0024,-0.0220,-0.0073,-0.0073,-0.0220,-0.3214,1.4154,1.7983,2.3956,0.0317,-0.0513,-0.0220,1,1,1,1,1,1,1
20.9555,approach,4,return,0.02041,-0.00019,1.44179,-1.39601,-0.01850,0.00515,-0.00362,-0.0024,-0.0024,-0.0024,-0.0220,-0.0073,-0.0073,-0.0220,-0.3214,1.4154,1.7983,2.3956,0.0317,-0.0513,-0.0220,1,1,1,1,1,1,1
20.9954,approach,4,return,0.02041,-0.00019,1.44179,-1.39601,-0.01850,0.00515,-0.00362,-0.0024,-0.0024,-0.0024,-0.0220,-0.0073,-0.0073,-0.0220,-0.3214,1.4154,1.7983,2.3956,0.0317,-0.0513,-0.0220,1,1,1,1,1,1,1
21.0357,approach,4,return,0.02041,-0.00019,1.44179,-1.39601,-0.01850,0.00477,-0.00362,-0.0073,-0.0024,-0.0024,-0.0220,-0.0073,-0.0220,-0.0073,-0.3350,1.4017,1.8256,2.3956,0.0317,-0.0562,-0.0220,1,1,1,1,1,1,1
21.0756,approach,4,return,0.02041,-0.00019,1.44179,-1.39601,-0.01850,0.00477,-0.00362,-0.0073,-0.0024,-0.0024,-0.0220,-0.0073,-0.0220,-0.0073,-0.3350,1.4017,1.8256,2.3956,0.0317,-0.0562,-0.0220,1,1,1,1,1,1,1
21.1160,approach,4,return,0.02041,-0.00019,1.44179,-1.39601,-0.01850,0.00477,-0.00362,-0.0073,-0.0024,-0.0024,-0.0220,0.0073,0.0073,-0.0220,-0.3487,1.3607,1.8120,2.3858,0.0317,-0.0513,-0.0220,1,1,1,1,1,1,1
21.1561,approach,4,return,0.02041,-0.00019,1.44179,-1.39601,-0.01850,0.00477,-0.00362,-0.0073,-0.0024,-0.0024,-0.0220,0.0073,0.0073,-0.0220,-0.3487,1.3607,1.8120,2.3858,0.0317,-0.0513,-0.0220,1,1,1,1,1,1,1
21.1955,approach,4,return,0.02041,-0.00019,1.44179,-1.39601,-0.01850,0.00477,-0.00362,-0.0073,-0.0024,-0.0024,-0.0220,0.0073,0.0073,-0.0220,-0.3487,1.3607,1.8120,2.3858,0.0317,-0.0513,-0.0220,1,1,1,1,1,1,1
21.2358,approach,4,return,0.02041,-0.00019,1.44179,-1.39601,-0.01888,0.00477,-0.00324,-0.0024,-0.0024,-0.0024,0.0073,-0.0220,-0.0073,-0.0073,-0.4034,1.3607,1.8120,2.3761,0.0317,-0.0513,-0.0269,1,1,1,1,1,1,1
21.2754,approach,4,return,0.02041,-0.00019,1.44179,-1.39601,-0.01888,0.00477,-0.00324,-0.0024,-0.0024,-0.0024,0.0073,-0.0220,-0.0073,-0.0073,-0.4034,1.3607,1.8120,2.3761,0.0317,-0.0513,-0.0269,1,1,1,1,1,1,1
21.3155,approach,4,return,0.02041,-0.00019,1.44179,-1.39601,-0.01850,0.00515,-0.00362,-0.0024,0.0024,-0.0024,-0.0073,-0.0073,0.0073,-0.0073,-0.4034,1.4017,1.7983,2.3761,0.0317,-0.0513,-0.0220,1,1,1,1,1,1,1
21.3561,approach,4,return,0.02041,-0.00019,1.44179,-1.39601,-0.01850,0.00515,-0.00362,-0.0024,0.0024,-0.0024,-0.0073,-0.0073,0.0073,-0.0073,-0.4034,1.4017,1.7983,2.3761,0.0317,-0.0513,-0.0220,1,1,1,1,1,1,1
21.3955,approach,4,return,0.02041,-0.00019,1.44179,-1.39601,-0.01850,0.00515,-0.00362,-0.0024,0.0024,-0.0024,-0.0073,-0.0073,0.0073,-0.0073,-0.4034,1.4017,1.7983,2.3761,0.0317,-0.0513,-0.0220,1,1,1,1,1,1,1
21.4355,approach,4,return,0.02041,-0.00019,1.44179,-1.39601,-0.01888,0.00477,-0.00362,-0.0024,-0.0024,-0.0024,-0.0073,-0.0073,0.0073,-0.0073,-0.4034,1.4017,1.8120,2.3663,0.0366,-0.0562,-0.0220,1,1,1,1,1,1,1
21.4756,approach,4,return,0.02041,-0.00019,1.44179,-1.39601,-0.01888,0.00477,-0.00362,-0.0024,-0.0024,-0.0024,-0.0073,-0.0073,0.0073,-0.0073,-0.4034,1.4017,1.8120,2.3663,0.0366,-0.0562,-0.0220,1,1,1,1,1,1,1
21.5156,approach,4,return,0.02041,-0.00019,1.44179,-1.39601,-0.01888,0.00477,-0.00362,-0.0024,-0.0024,-0.0024,-0.0220,-0.0073,-0.0220,-0.0073,-0.4034,1.3880,1.8256,2.3712,0.0366,-0.0562,-0.0220,1,1,1,1,1,1,1
21.5559,approach,4,return,0.02041,-0.00019,1.44179,-1.39601,-0.01888,0.00477,-0.00362,-0.0024,-0.0024,-0.0024,-0.0220,-0.0073,-0.0220,-0.0073,-0.4034,1.3880,1.8256,2.3712,0.0366,-0.0562,-0.0220,1,1,1,1,1,1,1
21.5961,approach,4,return,0.02041,-0.00019,1.44179,-1.39601,-0.01888,0.00477,-0.00362,-0.0024,-0.0024,-0.0024,-0.0220,-0.0073,-0.0220,-0.0073,-0.4034,1.3880,1.8256,2.3712,0.0366,-0.0562,-0.0220,1,1,1,1,1,1,1
21.6360,approach,4,return,0.02003,-0.00019,1.44179,-1.39601,-0.01888,0.00477,-0.00324,-0.0024,-0.0024,-0.0024,-0.0073,-0.0220,-0.0220,0.0073,-0.4718,1.4017,1.8120,2.3761,0.0366,-0.0513,-0.0269,1,1,1,1,1,1,1
