peipl15/reBot_Arm/outputs/gravity_calib_20260622_002257.csv
t_s,phase,swept_joint,direction,q1,q2,q3,q4,q5,q6,q7,v1,v2,v3,v4,v5,v6,v7,tau1,tau2,tau3,tau4,tau5,tau6,tau7,st1,st2,st3,st4,st5,st6,st7
0.0026,approach,3,to_lo,0.08640,1.16903,0.38090,0.75360,-0.13867,0.39731,-0.00324,0.0024,-0.0024,-0.0024,-0.0220,-0.0073,-0.0073,0.0073,0.0205,-0.1983,0.9778,0.0415,0.0073,-0.0073,-0.0073,1,1,1,1,1,1,1
0.0424,approach,3,to_lo,0.08640,1.16903,0.38090,0.75360,-0.13867,0.39731,-0.00324,0.0024,-0.0024,-0.0024,-0.0220,-0.0073,-0.0073,0.0073,0.0205,-0.1983,0.9778,0.0415,0.0073,-0.0073,-0.0073,1,1,1,1,1,1,1
0.0826,approach,3,to_lo,0.08640,1.16903,0.38090,0.75360,-0.13867,0.39731,-0.00324,0.0024,-0.0024,-0.0024,-0.0220,-0.0073,-0.0073,0.0073,0.0205,-0.1983,0.9778,0.0415,0.0073,-0.0073,-0.0073,1,1,1,1,1,1,1
0.1224,approach,3,to_lo,0.08602,1.17170,0.36259,0.73644,-0.13943,0.39692,-0.00324,-0.0024,-0.0024,-0.2076,0.0513,0.0073,0.0073,0.0073,0.2530,-3.4530,5.6000,2.0830,0.0122,0.0073,-0.0024,1,1,1,1,1,1,1
0.1624,approach,3,to_lo,0.08602,1.17170,0.36259,0.73644,-0.13943,0.39692,-0.00324,-0.0024,-0.0024,-0.2076,0.0513,0.0073,0.0073,0.0073,0.2530,-3.4530,5.6000,2.0830,0.0122,0.0073,-0.0024,1,1,1,1,1,1,1
0.2022,approach,3,to_lo,0.08602,1.17170,0.34619,0.73987,-0.13943,0.39731,-0.00362,-0.0024,-0.0024,-0.2125,0.1099,0.0073,-0.0073,0.0073,0.2667,-3.9590,6.1060,2.3907,0.0073,0.0024,-0.0024,1,1,1,1,1,1,1
0.2426,approach,3,to_lo,0.08602,1.17170,0.34619,0.73987,-0.13943,0.39731,-0.00362,-0.0024,-0.0024,-0.2125,0.1099,0.0073,-0.0073,0.0073,0.2667,-3.9590,6.1060,2.3907,0.0073,0.0024,-0.0024,1,1,1,1,1,1,1
0.2825,approach,3,to_lo,0.08602,1.17170,0.34619,0.73987,-0.13943,0.39731,-0.00362,-0.0024,-0.0024,-0.2125,0.1099,0.0073,-0.0073,0.0073,0.2667,-3.9590,6.1060,2.3907,0.0073,0.0024,-0.0024,1,1,1,1,1,1,1
0.3223,approach,3,to_lo,0.08602,1.17056,0.32483,0.75895,-0.13676,0.39502,-0.00324,-0.0024,-0.0024,-0.1929,0.0513,-0.0073,0.0073,-0.0073,0.3350,-2.9470,2.8923,1.1160,-0.1001,0.0806,-0.0024,1,1,1,1,1,1,1
0.3623,approach,3,to_lo,0.08602,1.17056,0.32483,0.75895,-0.13676,0.39502,-0.00324,-0.0024,-0.0024,-0.1929,0.0513,-0.0073,0.0073,-0.0073,0.3350,-2.9470,2.8923,1.1160,-0.1001,0.0806,-0.0024,1,1,1,1,1,1,1
0.4023,approach,3,to_lo,0.08602,1.17056,0.30575,0.74521,-0.13714,0.39731,-0.00362,0.0024,0.0024,-0.2222,-0.1245,-0.0220,0.0073,-0.0220,0.4308,-3.3709,6.9128,2.2344,-0.1343,0.0220,-0.0024,1,1,1,1,1,1,1
0.4423,approach,3,to_lo,0.08602,1.17056,0.30575,0.74521,-0.13714,0.39731,-0.00362,0.0024,0.0024,-0.2222,-0.1245,-0.0220,0.0073,-0.0220,0.4308,-3.3709,6.9128,2.2344,-0.1343,0.0220,-0.0024,1,1,1,1,1,1,1
0.4822,approach,3,to_lo,0.08602,1.17056,0.30575,0.74521,-0.13714,0.39731,-0.00362,0.0024,0.0024,-0.2222,-0.1245,-0.0220,0.0073,-0.0220,0.4308,-3.3709,6.9128,2.2344,-0.1343,0.0220,-0.0024,1,1,1,1,1,1,1
0.5223,approach,3,to_lo,0.08602,1.16980,0.28401,0.75551,-0.13981,0.39731,-0.00324,-0.0024,-0.0317,-0.2027,0.0073,-0.0366,-0.0073,-0.0073,0.3077,-3.0427,3.7265,1.6630,-0.0317,0.0220,-0.0073,1,1,1,1,1,1,1
0.5623,approach,3,to_lo,0.08602,1.16980,0.28401,0.75551,-0.13981,0.39731,-0.00324,-0.0024,-0.0317,-0.2027,0.0073,-0.0366,-0.0073,-0.0073,0.3077,-3.0427,3.7265,1.6630,-0.0317,0.0220,-0.0073,1,1,1,1,1,1,1
0.6023,approach,3,to_lo,0.08602,1.16980,0.26684,0.75170,-0.14019,0.39769,-0.00324,-0.0073,-0.0024,-0.2125,-0.0513,-0.0073,-0.0073,-0.0073,0.3077,-3.0291,5.5863,2.0342,-0.0024,0.0122,-0.0073,1,1,1,1,1,1,1
0.6424,approach,3,to_lo,0.08602,1.16980,0.26684,0.75170,-0.14019,0.39769,-0.00324,-0.0073,-0.0024,-0.2125,-0.0513,-0.0073,-0.0073,-0.0073,0.3077,-3.0291,5.5863,2.0342,-0.0024,0.0122,-0.0073,1,1,1,1,1,1,1
0.6825,approach,3,to_lo,0.08602,1.16980,0.26684,0.75170,-0.14019,0.39769,-0.00324,-0.0073,-0.0024,-0.2125,-0.0513,-0.0073,-0.0073,-0.0073,0.3077,-3.0291,5.5863,2.0342,-0.0024,0.0122,-0.0073,1,1,1,1,1,1,1
0.7224,approach,3,to_lo,0.08602,1.16980,0.24510,0.75360,-0.13981,0.39731,-0.00324,-0.0024,-0.0024,-0.1734,-0.0220,-0.0073,-0.0073,-0.0220,0.3487,-3.3026,5.0803,1.9853,0.0171,0.0073,-0.0024,1,1,1,1,1,1,1
0.7627,approach,3,to_lo,0.08602,1.16980,0.24510,0.75360,-0.13981,0.39731,-0.00324,-0.0024,-0.0024,-0.1734,-0.0220,-0.0073,-0.0073,-0.0220,0.3487,-3.3026,5.0803,1.9853,0.0171,0.0073,-0.0024,1,1,1,1,1,1,1
0.8026,approach,3,to_lo,0.08602,1.16980,0.23175,0.75246,-0.13981,0.39731,-0.00324,-0.0024,-0.0024,-0.1392,-0.0220,-0.0073,0.0073,-0.0073,0.3761,-3.4530,5.5590,2.1270,0.0220,0.0073,-0.0073,1,1,1,1,1,1,1
0.8423,approach,3,to_lo,0.08602,1.16980,0.23175,0.75246,-0.13981,0.39731,-0.00324,-0.0024,-0.0024,-0.1392,-0.0220,-0.0073,0.0073,-0.0073,0.3761,-3.4530,5.5590,2.1270,0.0220,0.0073,-0.0073,1,1,1,1,1,1,1
0.8826,approach,3,to_lo,0.08602,1.16980,0.23175,0.75246,-0.13981,0.39731,-0.00324,-0.0024,-0.0024,-0.1392,-0.0220,-0.0073,0.0073,-0.0073,0.3761,-3.4530,5.5590,2.1270,0.0220,0.0073,-0.0073,1,1,1,1,1,1,1
0.9226,approach,3,to_lo,0.08602,1.16980,0.21496,0.75284,-0.13981,0.39731,-0.00324,-0.0073,-0.0024,-0.1245,-0.0366,0.0073,-0.0220,-0.0073,0.4171,-3.7128,5.4359,2.1758,0.0415,0.0073,-0.0073,1,1,1,1,1,1,1
0.9624,approach,3,to_lo,0.08602,1.16980,0.21496,0.75284,-0.13981,0.39731,-0.00324,-0.0073,-0.0024,-0.1245,-0.0366,0.0073,-0.0220,-0.0073,0.4171,-3.7128,5.4359,2.1758,0.0415,0.0073,-0.0073,1,1,1,1,1,1,1
1.0023,approach,3,to_lo,0.08602,1.16980,0.20542,0.75322,-0.13981,0.39731,-0.00324,-0.0024,-0.0073,-0.1099,0.0220,-0.0073,-0.0073,-0.0220,0.3897,-3.8496,5.0530,2.2051,0.0611,0.0073,-0.0024,1,1,1,1,1,1,1
1.0425,approach,3,to_lo,0.08602,1.16980,0.20542,0.75322,-0.13981,0.39731,-0.00324,-0.0024,-0.0073,-0.1099,0.0220,-0.0073,-0.0073,-0.0220,0.3897,-3.8496,5.0530,2.2051,0.0611,0.0073,-0.0024,1,1,1,1,1,1,1
1.0825,approach,3,to_lo,0.08602,1.16980,0.20542,0.75322,-0.13981,0.39731,-0.00324,-0.0024,-0.0073,-0.1099,0.0220,-0.0073,-0.0073,-0.0220,0.3897,-3.8496,5.0530,2.2051,0.0611,0.0073,-0.0024,1,1,1,1,1,1,1
1.1225,approach,3,to_lo,0.08602,1.16941,0.19245,0.75360,-0.13943,0.39731,-0.00362,-0.0024,-0.0024,-0.1148,-0.0073,-0.0073,-0.0073,-0.0073,0.4171,-3.7812,5.3949,2.2149,0.0708,0.0073,-0.0024,1,1,1,1,1,1,1
1.1630,approach,3,to_lo,0.08602,1.16941,0.19245,0.75360,-0.13943,0.39731,-0.00362,-0.0024,-0.0024,-0.1148,-0.0073,-0.0073,-0.0073,-0.0073,0.4171,-3.7812,5.3949,2.2149,0.0708,0.0073,-0.0024,1,1,1,1,1,1,1
1.2025,approach,3,to_lo,0.08602,1.16941,0.18482,0.75360,-0.13905,0.39692,-0.00324,-0.0024,-0.0024,-0.0904,-0.0073,0.0073,-0.0220,-0.0073,0.4855,-3.9043,5.1897,2.2540,0.0757,0.0073,0.0024,1,1,1,1,1,1,1
1.2425,approach,3,to_lo,0.08602,1.16941,0.18482,0.75360,-0.13905,0.39692,-0.00324,-0.0024,-0.0024,-0.0904,-0.0073,0.0073,-0.0220,-0.0073,0.4855,-3.9043,5.1897,2.2540,0.0757,0.0073,0.0024,1,1,1,1,1,1,1
1.2826,approach,3,to_lo,0.08602,1.16941,0.18482,0.75360,-0.13905,0.39692,-0.00324,-0.0024,-0.0024,-0.0904,-0.0073,0.0073,-0.0220,-0.0073,0.4855,-3.9043,5.1897,2.2540,0.0757,0.0073,0.0024,1,1,1,1,1,1,1
1.3225,approach,3,to_lo,0.08602,1.16941,0.17453,0.75360,-0.13905,0.39731,-0.00362,-0.0024,-0.0073,-0.0806,-0.0220,-0.0073,-0.0073,-0.0220,0.4991,-3.9316,5.9009,2.3028,0.0855,0.0073,-0.0073,1,1,1,1,1,1,1
1.3629,approach,3,to_lo,0.08602,1.16941,0.17453,0.75360,-0.13905,0.39731,-0.00362,-0.0024,-0.0073,-0.0806,-0.0220,-0.0073,-0.0073,-0.0220,0.4991,-3.9316,5.9009,2.3028,0.0855,0.0073,-0.0073,1,1,1,1,1,1,1
1.4026,approach,3,to_lo,0.08602,1.16941,0.16918,0.75399,-0.13905,0.39692,-0.00362,-0.0024,-0.0073,-0.0708,0.0073,-0.0073,-0.0073,-0.0220,0.5265,-3.9316,5.3675,2.3126,0.0904,0.0073,-0.0073,1,1,1,1,1,1,1
1.4422,approach,3,to_lo,0.08602,1.16941,0.16918,0.75399,-0.13905,0.39692,-0.00362,-0.0024,-0.0073,-0.0708,0.0073,-0.0073,-0.0073,-0.0220,0.5265,-3.9316,5.3675,2.3126,0.0904,0.0073,-0.0073,1,1,1,1,1,1,1
1.4824,approach,3,to_lo,0.08602,1.16941,0.16918,0.75399,-0.13905,0.39692,-0.00362,-0.0024,-0.0073,-0.0708,0.0073,-0.0073,-0.0073,-0.0220,0.5265,-3.9316,5.3675,2.3126,0.0904,0.0073,-0.0073,1,1,1,1,1,1,1
1.5223,approach,3,to_lo,0.08602,1.16903,0.16156,0.75360,-0.13905,0.39692,-0.00362,0.0024,-0.0024,-0.0708,-0.0073,-0.0073,-0.0220,-0.0073,0.5538,-3.9726,5.8462,2.3614,0.0904,0.0122,-0.0073,1,1,1,1,1,1,1
1.5623,approach,3,to_lo,0.08602,1.16903,0.16156,0.75360,-0.13905,0.39692,-0.00362,0.0024,-0.0024,-0.0708,-0.0073,-0.0073,-0.0220,-0.0073,0.5538,-3.9726,5.8462,2.3614,0.0904,0.0122,-0.0073,1,1,1,1,1,1,1
1.6025,approach,3,to_lo,0.08602,1.16903,0.15774,0.75399,-0.13905,0.39692,-0.00324,-0.0024,-0.0073,-0.0366,-0.0073,-0.0073,-0.0073,-0.0073,0.5949,-3.9863,5.4222,2.3810,0.0855,0.0220,-0.0073,1,1,1,1,1,1,1
1.6428,approach,3,to_lo,0.08602,1.16903,0.15774,0.75399,-0.13905,0.39692,-0.00324,-0.0024,-0.0073,-0.0366,-0.0073,-0.0073,-0.0073,-0.0073,0.5949,-3.9863,5.4222,2.3810,0.0855,0.0220,-0.0073,1,1,1,1,1,1,1
1.6827,approach,3,to_lo,0.08602,1.16903,0.15774,0.75399,-0.13905,0.39692,-0.00324,-0.0024,-0.0073,-0.0366,-0.0073,-0.0073,-0.0073,-0.0073,0.5949,-3.9863,5.4222,2.3810,0.0855,0.0220,-0.0073,1,1,1,1,1,1,1
1.7226,approach,3,to_lo,0.08602,1.16903,0.15202,0.75437,-0.13867,0.39692,-0.00324,-0.0024,-0.0024,-0.0366,-0.0220,-0.0220,-0.0073,-0.0073,0.5949,-3.8496,5.1487,2.3858,0.0855,0.0220,-0.0073,1,1,1,1,1,1,1
1.7625,approach,3,to_lo,0.08602,1.16903,0.15202,0.75437,-0.13867,0.39692,-0.00324,-0.0024,-0.0024,-0.0366,-0.0220,-0.0220,-0.0073,-0.0073,0.5949,-3.8496,5.1487,2.3858,0.0855,0.0220,-0.0073,1,1,1,1,1,1,1
1.8031,approach,3,to_lo,0.08602,1.16903,0.14858,0.75437,-0.13867,0.39692,-0.00362,-0.0073,-0.0024,-0.0415,0.0073,-0.0073,-0.0073,-0.0073,0.6359,-3.8359,5.5179,2.4200,0.0708,0.0220,-0.0024,1,1,1,1,1,1,1
1.8426,approach,3,to_lo,0.08602,1.16903,0.14858,0.75437,-0.13867,0.39692,-0.00362,-0.0073,-0.0024,-0.0415,0.0073,-0.0073,-0.0073,-0.0073,0.6359,-3.8359,5.5179,2.4200,0.0708,0.0220,-0.0024,1,1,1,1,1,1,1
1.8827,approach,3,to_lo,0.08602,1.16903,0.14858,0.75437,-0.13867,0.39692,-0.00362,-0.0073,-0.0024,-0.0415,0.0073,-0.0073,-0.0073,-0.0073,0.6359,-3.8359,5.5179,2.4200,0.0708,0.0220,-0.0024,1,1,1,1,1,1,1
1.9231,approach,3,to_lo,0.08602,1.16865,0.14439,0.75399,-0.13867,0.39692,-0.00324,-0.0024,-0.0024,-0.0317,-0.0366,-0.0220,-0.0073,-0.0073,0.6769,-3.7949,5.3402,2.4347,0.0659,0.0220,-0.0024,1,1,1,1,1,1,1
1.9627,approach,3,to_lo,0.08602,1.16865,0.14439,0.75399,-0.13867,0.39692,-0.00324,-0.0024,-0.0024,-0.0317,-0.0366,-0.0220,-0.0073,-0.0073,0.6769,-3.7949,5.3402,2.4347,0.0659,0.0220,-0.0024,1,1,1,1,1,1,1
2.0031,approach,3,to_lo,0.08602,1.16865,0.14210,0.75437,-0.13867,0.39692,-0.00324,-0.0073,-0.0024,-0.0464,-0.0073,-0.0073,-0.0073,-0.0073,0.7043,-3.8906,5.1487,2.4298,0.0611,0.0269,-0.0024,1,1,1,1,1,1,1
2.0430,approach,3,to_lo,0.08602,1.16865,0.14210,0.75437,-0.13867,0.39692,-0.00324,-0.0073,-0.0024,-0.0464,-0.0073,-0.0073,-0.0073,-0.0073,0.7043,-3.8906,5.1487,2.4298,0.0611,0.0269,-0.0024,1,1,1,1,1,1,1
2.0825,approach,3,to_lo,0.08602,1.16865,0.14210,0.75437,-0.13867,0.39692,-0.00324,-0.0073,-0.0024,-0.0464,-0.0073,-0.0073,-0.0073,-0.0073,0.7043,-3.8906,5.1487,2.4298,0.0611,0.0269,-0.0024,1,1,1,1,1,1,1
2.1224,approach,3,to_lo,0.08602,1.16865,0.13905,0.75437,-0.13867,0.39692,-0.00362,-0.0024,-0.0024,-0.0122,0.0073,-0.0073,-0.0220,-0.0073,0.7043,-3.9043,4.7385,2.4493,0.0513,0.0317,-0.0024,1,1,1,1,1,1,1
2.6249,sweep,3,+up,0.08602,1.16865,0.13790,0.75513,-0.13867,0.39692,-0.00324,-0.0024,-0.0024,-0.0366,0.0220,-0.0073,-0.0220,0.0073,0.7043,-3.8769,4.8479,2.3907,0.0464,0.0269,0.0024,1,1,1,1,1,1,1
2.6649,sweep,3,+up,0.08602,1.16865,0.13790,0.75513,-0.13867,0.39692,-0.00324,-0.0024,-0.0024,-0.0366,0.0220,-0.0073,-0.0220,0.0073,0.7043,-3.8769,4.8479,2.3907,0.0464,0.0269,0.0024,1,1,1,1,1,1,1
2.7050,sweep,3,+up,0.08602,1.16865,0.13142,0.75208,-0.13867,0.39692,-0.00324,-0.0073,-0.0024,0.1343,-0.1392,-0.0073,-0.0073,0.0073,0.7726,-3.8632,10.5641,2.5861,0.0366,0.0317,0.0024,1,1,1,1,1,1,1
2.7449,sweep,3,+up,0.08602,1.16865,0.13142,0.75208,-0.13867,0.39692,-0.00324,-0.0073,-0.0024,0.1343,-0.1392,-0.0073,-0.0073,0.0073,0.7726,-3.8632,10.5641,2.5861,0.0366,0.0317,0.0024,1,1,1,1,1,1,1
2.7849,sweep,3,+up,0.08602,1.16865,0.13142,0.75208,-0.13867,0.39692,-0.00324,-0.0073,-0.0024,0.1343,-0.1392,-0.0073,-0.0073,0.0073,0.7726,-3.8632,10.5641,2.5861,0.0366,0.0317,0.0024,1,1,1,1,1,1,1
2.8249,sweep,3,+up,0.08602,1.16865,0.15736,0.75780,-0.13867,0.39692,-0.00324,-0.0024,-0.0073,0.2076,-0.0220,-0.0073,-0.0073,0.0073,0.8274,-3.6855,8.0615,2.1563,0.0269,0.0366,-0.0024,1,1,1,1,1,1,1
2.8647,sweep,3,+up,0.08602,1.16865,0.15736,0.75780,-0.13867,0.39692,-0.00324,-0.0024,-0.0073,0.2076,-0.0220,-0.0073,-0.0073,0.0073,0.8274,-3.6855,8.0615,2.1563,0.0269,0.0366,-0.0024,1,1,1,1,1,1,1
2.9048,sweep,3,+up,0.08602,1.16865,0.17262,0.75360,-0.13867,0.39731,-0.00362,-0.0024,-0.0024,0.1978,-0.0659,-0.0073,-0.0073,-0.0073,0.8410,-3.6581,8.9368,2.4347,0.0171,0.0317,-0.0024,1,1,1,1,1,1,1
2.9449,sweep,3,+up,0.08602,1.16865,0.17262,0.75360,-0.13867,0.39731,-0.00362,-0.0024,-0.0024,0.1978,-0.0659,-0.0073,-0.0073,-0.0073,0.8410,-3.6581,8.9368,2.4347,0.0171,0.0317,-0.0024,1,1,1,1,1,1,1
2.9853,sweep,3,+up,0.08602,1.16865,0.17262,0.75360,-0.13867,0.39731,-0.00362,-0.0024,-0.0024,0.1978,-0.0659,-0.0073,-0.0073,-0.0073,0.8410,-3.6581,8.9368,2.4347,0.0171,0.0317,-0.0024,1,1,1,1,1,1,1
3.0249,sweep,3,+up,0.08602,1.16865,0.19703,0.75475,-0.13867,0.39731,-0.00324,-0.0024,-0.0024,0.1734,-0.0220,0.0073,0.0073,-0.0073,0.8547,-3.6171,8.4444,2.3272,0.0171,0.0317,-0.0024,1,1,1,1,1,1,1
3.0652,sweep,3,+up,0.08602,1.16865,0.19703,0.75475,-0.13867,0.39731,-0.00324,-0.0024,-0.0024,0.1734,-0.0220,0.0073,0.0073,-0.0073,0.8547,-3.6171,8.4444,2.3272,0.0171,0.0317,-0.0024,1,1,1,1,1,1,1
3.1051,sweep,3,+up,0.08602,1.16827,0.21267,0.75360,-0.13867,0.39731,-0.00362,0.0024,0.0024,0.1978,0.0073,-0.0073,-0.0073,-0.0220,0.8821,-3.6444,9.2239,2.4396,0.0122,0.0317,0.0024,1,1,1,1,1,1,1
3.1451,sweep,3,+up,0.08602,1.16827,0.21267,0.75360,-0.13867,0.39731,-0.00362,0.0024,0.0024,0.1978,0.0073,-0.0073,-0.0073,-0.0220,0.8821,-3.6444,9.2239,2.4396,0.0122,0.0317,0.0024,1,1,1,1,1,1,1
3.1856,sweep,3,+up,0.08602,1.16827,0.21267,0.75360,-0.13867,0.39731,-0.00362,0.0024,0.0024,0.1978,0.0073,-0.0073,-0.0073,-0.0220,0.8821,-3.6444,9.2239,2.4396,0.0122,0.0317,0.0024,1,1,1,1,1,1,1
3.2251,sweep,3,+up,0.08602,1.16827,0.23671,0.75399,-0.13867,0.39731,-0.00324,-0.0122,-0.0024,0.1734,-0.0073,-0.0073,-0.0220,-0.0073,0.9504,-3.6171,9.3470,2.4396,0.0073,0.0269,0.0024,1,1,1,1,1,1,1
3.2649,sweep,3,+up,0.08602,1.16827,0.23671,0.75399,-0.13867,0.39731,-0.00324,-0.0122,-0.0024,0.1734,-0.0073,-0.0073,-0.0220,-0.0073,0.9504,-3.6171,9.3470,2.4396,0.0073,0.0269,0.0024,1,1,1,1,1,1,1
3.3049,sweep,3,+up,0.08602,1.16865,0.25273,0.75399,-0.13867,0.39731,-0.00324,-0.0073,-0.0024,0.1880,0.0073,-0.0073,-0.0220,0.0073,1.0051,-3.6308,9.1692,2.4347,0.0073,0.0269,0.0024,1,1,1,1,1,1,1
3.3448,sweep,3,+up,0.08602,1.16865,0.25273,0.75399,-0.13867,0.39731,-0.00324,-0.0073,-0.0024,0.1880,0.0073,-0.0073,-0.0220,0.0073,1.0051,-3.6308,9.1692,2.4347,0.0073,0.0269,0.0024,1,1,1,1,1,1,1
3.3849,sweep,3,+up,0.08602,1.16865,0.25273,0.75399,-0.13867,0.39731,-0.00324,-0.0073,-0.0024,0.1880,0.0073,-0.0073,-0.0220,0.0073,1.0051,-3.6308,9.1692,2.4347,0.0073,0.0269,0.0024,1,1,1,1,1,1,1
3.4248,sweep,3,+up,0.08602,1.16865,0.26837,0.75399,-0.13867,0.39731,-0.00362,-0.0024,-0.0024,0.1978,-0.0073,0.0073,0.0073,-0.0220,1.0325,-3.6444,9.4838,2.4737,-0.0024,0.0220,-0.0024,1,1,1,1,1,1,1
3.4649,sweep,3,+up,0.08602,1.16865,0.26837,0.75399,-0.13867,0.39731,-0.00362,-0.0024,-0.0024,0.1978,-0.0073,0.0073,0.0073,-0.0220,1.0325,-3.6444,9.4838,2.4737,-0.0024,0.0220,-0.0024,1,1,1,1,1,1,1
3.5049,sweep,3,+up,0.08602,1.16865,0.29240,0.75399,-0.13867,0.39731,-0.00362,-0.0024,0.0024,0.1978,-0.0073,-0.0073,-0.0073,-0.0073,1.0188,-3.6308,9.2923,2.4835,-0.0073,0.0220,-0.0024,1,1,1,1,1,1,1
3.5447,sweep,3,+up,0.08602,1.16865,0.29240,0.75399,-0.13867,0.39731,-0.00362,-0.0024,0.0024,0.1978,-0.0073,-0.0073,-0.0073,-0.0073,1.0188,-3.6308,9.2923,2.4835,-0.0073,0.0220,-0.0024,1,1,1,1,1,1,1
3.5850,sweep,3,+up,0.08602,1.16865,0.29240,0.75399,-0.13867,0.39731,-0.00362,-0.0024,0.0024,0.1978,-0.0073,-0.0073,-0.0073,-0.0073,1.0188,-3.6308,9.2923,2.4835,-0.0073,0.0220,-0.0024,1,1,1,1,1,1,1
3.6248,sweep,3,+up,0.08602,1.16865,0.31605,0.75437,-0.13867,0.39731,-0.00324,-0.0024,-0.0073,0.1978,-0.0220,0.0220,-0.0073,-0.0073,1.0051,-3.6581,9.4154,2.5079,-0.0073,0.0220,-0.0024,1,1,1,1,1,1,1
3.6649,sweep,3,+up,0.08602,1.16865,0.31605,0.75437,-0.13867,0.39731,-0.00324,-0.0024,-0.0073,0.1978,-0.0220,0.0220,-0.0073,-0.0073,1.0051,-3.6581,9.4154,2.5079,-0.0073,0.0220,-0.0024,1,1,1,1,1,1,1
3.7049,sweep,3,+up,0.08602,1.16865,0.33169,0.75399,-0.13867,0.39731,-0.00324,0.0024,-0.0024,0.1978,-0.0073,-0.0073,-0.0073,-0.0220,1.0735,-3.6444,10.0034,2.5275,-0.0171,0.0171,-0.0024,1,1,1,1,1,1,1
3.7449,sweep,3,+up,0.08602,1.16865,0.33169,0.75399,-0.13867,0.39731,-0.00324,0.0024,-0.0024,0.1978,-0.0073,-0.0073,-0.0073,-0.0220,1.0735,-3.6444,10.0034,2.5275,-0.0171,0.0171,-0.0024,1,1,1,1,1,1,1
3.7849,sweep,3,+up,0.08602,1.16865,0.33169,0.75399,-0.13867,0.39731,-0.00324,0.0024,-0.0024,0.1978,-0.0073,-0.0073,-0.0073,-0.0220,1.0735,-3.6444,10.0034,2.5275,-0.0171,0.0171,-0.0024,1,1,1,1,1,1,1
3.8249,sweep,3,+up,0.08602,1.16865,0.35573,0.75437,-0.13867,0.39731,-0.00362,-0.0024,-0.0073,0.1978,0.0073,-0.0220,-0.0073,-0.0220,1.0872,-3.6991,9.9077,2.5324,-0.0171,0.0073,-0.0024,1,1,1,1,1,1,1
3.8649,sweep,3,+up,0.08602,1.16865,0.35573,0.75437,-0.13867,0.39731,-0.00362,-0.0024,-0.0073,0.1978,0.0073,-0.0220,-0.0073,-0.0220,1.0872,-3.6991,9.9077,2.5324,-0.0171,0.0073,-0.0024,1,1,1,1,1,1,1
3.9049,sweep,3,+up,0.08602,1.16865,0.37175,0.75399,-0.13867,0.39731,-0.00324,-0.0024,-0.0024,0.2027,-0.0220,-0.0073,-0.0073,0.0073,1.1009,-3.7265,10.1265,2.5568,-0.0171,0.0073,-0.0024,1,1,1,1,1,1,1
3.9448,sweep,3,+up,0.08602,1.16865,0.37175,0.75399,-0.13867,0.39731,-0.00324,-0.0024,-0.0024,0.2027,-0.0220,-0.0073,-0.0073,0.0073,1.1009,-3.7265,10.1265,2.5568,-0.0171,0.0073,-0.0024,1,1,1,1,1,1,1
3.9849,sweep,3,+up,0.08602,1.16865,0.37175,0.75399,-0.13867,0.39731,-0.00324,-0.0024,-0.0024,0.2027,-0.0220,-0.0073,-0.0073,0.0073,1.1009,-3.7265,10.1265,2.5568,-0.0171,0.0073,-0.0024,1,1,1,1,1,1,1
4.0251,sweep,3,+up,0.08602,1.16865,0.39540,0.75437,-0.13867,0.39731,-0.00362,-0.0073,-0.0073,0.1929,-0.0073,-0.0073,-0.0073,-0.0073,1.1009,-3.7538,10.2359,2.5519,-0.0220,0.0073,-0.0024,1,1,1,1,1,1,1
4.0649,sweep,3,+up,0.08602,1.16865,0.39540,0.75437,-0.13867,0.39731,-0.00362,-0.0073,-0.0073,0.1929,-0.0073,-0.0073,-0.0073,-0.0073,1.1009,-3.7538,10.2359,2.5519,-0.0220,0.0073,-0.0024,1,1,1,1,1,1,1
4.1050,sweep,3,+up,0.08602,1.16865,0.41142,0.75399,-0.13867,0.39731,-0.00324,-0.0024,-0.0024,0.1978,-0.0073,0.0073,-0.0073,-0.0073,1.1009,-3.8085,10.4410,2.5714,-0.0269,0.0024,0.0024,1,1,1,1,1,1,1
4.1451,sweep,3,+up,0.08602,1.16865,0.41142,0.75399,-0.13867,0.39731,-0.00324,-0.0024,-0.0024,0.1978,-0.0073,0.0073,-0.0073,-0.0073,1.1009,-3.8085,10.4410,2.5714,-0.0269,0.0024,0.0024,1,1,1,1,1,1,1
4.1850,sweep,3,+up,0.08602,1.16865,0.41142,0.75399,-0.13867,0.39731,-0.00324,-0.0024,-0.0024,0.1978,-0.0073,0.0073,-0.0073,-0.0073,1.1009,-3.8085,10.4410,2.5714,-0.0269,0.0024,0.0024,1,1,1,1,1,1,1
4.2249,sweep,3,+up,0.08602,1.16865,0.43545,0.75437,-0.13867,0.39731,-0.00324,-0.0073,0.0024,0.2076,0.0073,-0.0073,-0.0073,-0.0220,1.1692,-3.8359,10.3453,2.5665,-0.0269,-0.0024,-0.0024,1,1,1,1,1,1,1
4.2649,sweep,3,+up,0.08602,1.16865,0.43545,0.75437,-0.13867,0.39731,-0.00324,-0.0073,0.0024,0.2076,0.0073,-0.0073,-0.0073,-0.0220,1.1692,-3.8359,10.3453,2.5665,-0.0269,-0.0024,-0.0024,1,1,1,1,1,1,1
4.3048,sweep,3,+up,0.08602,1.16865,0.45109,0.75437,-0.13867,0.39731,-0.00324,-0.0073,-0.0024,0.2076,-0.0073,-0.0073,-0.0220,0.0073,1.1419,-3.8906,10.6462,2.5812,-0.0317,0.0024,0.0024,1,1,1,1,1,1,1
4.3448,sweep,3,+up,0.08602,1.16865,0.45109,0.75437,-0.13867,0.39731,-0.00324,-0.0073,-0.0024,0.2076,-0.0073,-0.0073,-0.0220,0.0073,1.1419,-3.8906,10.6462,2.5812,-0.0317,0.0024,0.0024,1,1,1,1,1,1,1
4.3852,sweep,3,+up,0.08602,1.16865,0.45109,0.75437,-0.13867,0.39731,-0.00324,-0.0073,-0.0024,0.2076,-0.0073,-0.0073,-0.0220,0.0073,1.1419,-3.8906,10.6462,2.5812,-0.0317,0.0024,0.0024,1,1,1,1,1,1,1
4.4249,sweep,3,+up,0.08602,1.16865,0.47551,0.75437,-0.13867,0.39731,-0.00324,-0.0024,-0.0024,0.1929,0.0073,-0.0073,0.0073,-0.0073,1.1966,-3.8769,10.7556,2.5861,-0.0366,-0.0122,0.0024,1,1,1,1,1,1,1
4.4652,sweep,3,+up,0.08602,1.16865,0.47551,0.75437,-0.13867,0.39731,-0.00324,-0.0024,-0.0024,0.1929,0.0073,-0.0073,0.0073,-0.0073,1.1966,-3.8769,10.7556,2.5861,-0.0366,-0.0122,0.0024,1,1,1,1,1,1,1
4.5048,sweep,3,+up,0.08602,1.16865,0.49115,0.75437,-0.13867,0.39731,-0.00324,-0.0024,-0.0024,0.1978,-0.0073,-0.0073,-0.0220,-0.0073,1.1692,-3.8906,10.8239,2.5812,-0.0415,-0.0171,0.0024,1,1,1,1,1,1,1
4.5448,sweep,3,+up,0.08602,1.16865,0.49115,0.75437,-0.13867,0.39731,-0.00324,-0.0024,-0.0024,0.1978,-0.0073,-0.0073,-0.0220,-0.0073,1.1692,-3.8906,10.8239,2.5812,-0.0415,-0.0171,0.0024,1,1,1,1,1,1,1
4.5848,sweep,3,+up,0.08602,1.16865,0.49115,0.75437,-0.13867,0.39731,-0.00324,-0.0024,-0.0024,0.1978,-0.0073,-0.0073,-0.0220,-0.0073,1.1692,-3.8906,10.8239,2.5812,-0.0415,-0.0171,0.0024,1,1,1,1,1,1,1
4.6247,sweep,3,+up,0.08602,1.16865,0.51518,0.75437,-0.13867,0.39731,-0.00324,-0.0024,-0.0024,0.1929,-0.0220,0.0073,-0.0073,-0.0220,1.1966,-3.9179,10.7556,2.5910,-0.0415,-0.0220,-0.0024,1,1,1,1,1,1,1
4.6648,sweep,3,+up,0.08602,1.16865,0.51518,0.75437,-0.13867,0.39731,-0.00324,-0.0024,-0.0024,0.1929,-0.0220,0.0073,-0.0073,-0.0220,1.1966,-3.9179,10.7556,2.5910,-0.0415,-0.0220,-0.0024,1,1,1,1,1,1,1
4.7048,sweep,3,+up,0.08602,1.16865,0.53082,0.75437,-0.13867,0.39731,-0.00324,-0.0073,-0.0073,0.1929,0.0073,0.0073,-0.0220,-0.0073,1.1419,-3.9590,10.9607,2.6056,-0.0513,-0.0220,-0.0024,1,1,1,1,1,1,1
4.7449,sweep,3,+up,0.08602,1.16865,0.53082,0.75437,-0.13867,0.39731,-0.00324,-0.0073,-0.0073,0.1929,0.0073,0.0073,-0.0220,-0.0073,1.1419,-3.9590,10.9607,2.6056,-0.0513,-0.0220,-0.0024,1,1,1,1,1,1,1
4.7849,sweep,3,+up,0.08602,1.16865,0.53082,0.75437,-0.13867,0.39731,-0.00324,-0.0073,-0.0073,0.1929,0.0073,0.0073,-0.0220,-0.0073,1.1419,-3.9590,10.9607,2.6056,-0.0513,-0.0220,-0.0024,1,1,1,1,1,1,1
4.8250,sweep,3,+up,0.08602,1.16865,0.55486,0.75437,-0.13867,0.39731,-0.00324,-0.0024,-0.0024,0.2027,0.0073,-0.0073,-0.0073,-0.0073,1.1966,-4.0000,11.0427,2.6056,-0.0513,-0.0220,-0.0024,1,1,1,1,1,1,1
4.8651,sweep,3,+up,0.08602,1.16865,0.55486,0.75437,-0.13867,0.39731,-0.00324,-0.0024,-0.0024,0.2027,0.0073,-0.0073,-0.0073,-0.0073,1.1966,-4.0000,11.0427,2.6056,-0.0513,-0.0220,-0.0024,1,1,1,1,1,1,1
4.9050,sweep,3,+up,0.08602,1.16865,0.57088,0.75437,-0.13867,0.39731,-0.00324,-0.0024,-0.0024,0.1832,-0.0073,-0.0073,-0.0073,0.0073,1.2239,-4.0410,11.2479,2.6007,-0.0513,-0.0269,-0.0024,1,1,1,1,1,1,1
4.9450,sweep,3,+up,0.08602,1.16865,0.57088,0.75437,-0.13867,0.39731,-0.00324,-0.0024,-0.0024,0.1832,-0.0073,-0.0073,-0.0073,0.0073,1.2239,-4.0410,11.2479,2.6007,-0.0513,-0.0269,-0.0024,1,1,1,1,1,1,1
4.9850,sweep,3,+up,0.08602,1.16865,0.57088,0.75437,-0.13867,0.39731,-0.00324,-0.0024,-0.0024,0.1832,-0.0073,-0.0073,-0.0073,0.0073,1.2239,-4.0410,11.2479,2.6007,-0.0513,-0.0269,-0.0024,1,1,1,1,1,1,1
5.0250,sweep,3,+up,0.08602,1.16865,0.59491,0.75437,-0.13867,0.39731,-0.00324,-0.0073,-0.0073,0.1978,-0.0073,0.0073,-0.0073,-0.0073,1.2923,-4.1231,11.1932,2.6007,-0.0611,-0.0269,-0.0073,1,1,1,1,1,1,1
5.0650,sweep,3,+up,0.08602,1.16865,0.59491,0.75437,-0.13867,0.39731,-0.00324,-0.0073,-0.0073,0.1978,-0.0073,0.0073,-0.0073,-0.0073,1.2923,-4.1231,11.1932,2.6007,-0.0611,-0.0269,-0.0073,1,1,1,1,1,1,1
5.1051,sweep,3,+up,0.08640,1.16865,0.61093,0.75437,-0.13867,0.39731,-0.00324,0.0024,-0.0073,0.2076,-0.0073,-0.0073,-0.0073,-0.0073,1.3197,-4.2051,11.1521,2.6105,-0.0659,-0.0317,-0.0073,1,1,1,1,1,1,1
5.1451,sweep,3,+up,0.08640,1.16865,0.61093,0.75437,-0.13867,0.39731,-0.00324,0.0024,-0.0073,0.2076,-0.0073,-0.0073,-0.0073,-0.0073,1.3197,-4.2051,11.1521,2.6105,-0.0659,-0.0317,-0.0073,1,1,1,1,1,1,1
5.1851,sweep,3,+up,0.08640,1.16865,0.61093,0.75437,-0.13867,0.39731,-0.00324,0.0024,-0.0073,0.2076,-0.0073,-0.0073,-0.0073,-0.0073,1.3197,-4.2051,11.1521,2.6105,-0.0659,-0.0317,-0.0073,1,1,1,1,1,1,1
5.2251,sweep,3,+up,0.08640,1.16865,0.63458,0.75437,-0.13867,0.39731,-0.00324,-0.0073,-0.0024,0.2076,-0.0220,-0.0073,0.0073,-0.0073,1.3060,-4.2462,11.6171,2.6105,-0.0659,-0.0317,-0.0073,1,1,1,1,1,1,1
5.2648,sweep,3,+up,0.08640,1.16865,0.63458,0.75437,-0.13867,0.39731,-0.00324,-0.0073,-0.0024,0.2076,-0.0220,-0.0073,0.0073,-0.0073,1.3060,-4.2462,11.6171,2.6105,-0.0659,-0.0317,-0.0073,1,1,1,1,1,1,1
5.3050,sweep,3,+up,0.08640,1.16865,0.65061,0.75437,-0.13867,0.39731,-0.00362,-0.0024,-0.0024,0.2125,-0.0220,0.0073,-0.0073,-0.0073,1.3060,-4.2598,11.5487,2.5910,-0.0757,-0.0317,-0.0073,1,1,1,1,1,1,1
5.3451,sweep,3,+up,0.08640,1.16865,0.65061,0.75437,-0.13867,0.39731,-0.00362,-0.0024,-0.0024,0.2125,-0.0220,0.0073,-0.0073,-0.0073,1.3060,-4.2598,11.5487,2.5910,-0.0757,-0.0317,-0.0073,1,1,1,1,1,1,1
5.3851,sweep,3,+up,0.08640,1.16865,0.65061,0.75437,-0.13867,0.39731,-0.00362,-0.0024,-0.0024,0.2125,-0.0220,0.0073,-0.0073,-0.0073,1.3060,-4.2598,11.5487,2.5910,-0.0757,-0.0317,-0.0073,1,1,1,1,1,1,1
5.4250,sweep,3,+up,0.08640,1.16865,0.67426,0.75475,-0.13867,0.39731,-0.00362,-0.0073,-0.0073,0.2027,0.0073,0.0073,0.0073,-0.0220,1.3333,-4.3692,11.8632,2.5812,-0.0757,-0.0366,-0.0073,1,1,1,1,1,1,1
5.4649,sweep,3,+up,0.08640,1.16865,0.67426,0.75475,-0.13867,0.39731,-0.00362,-0.0073,-0.0073,0.2027,0.0073,0.0073,0.0073,-0.0220,1.3333,-4.3692,11.8632,2.5812,-0.0757,-0.0366,-0.0073,1,1,1,1,1,1,1
5.5049,sweep,3,+up,0.08640,1.16865,0.69066,0.75475,-0.13867,0.39731,-0.00362,0.0024,-0.0024,0.1929,-0.0073,0.0073,-0.0073,-0.0073,1.3744,-4.4239,11.6034,2.5665,-0.0806,-0.0366,-0.0073,1,1,1,1,1,1,1
5.5448,sweep,3,+up,0.08640,1.16865,0.69066,0.75475,-0.13867,0.39731,-0.00362,0.0024,-0.0024,0.1929,-0.0073,0.0073,-0.0073,-0.0073,1.3744,-4.4239,11.6034,2.5665,-0.0806,-0.0366,-0.0073,1,1,1,1,1,1,1
5.5850,sweep,3,+up,0.08640,1.16865,0.69066,0.75475,-0.13867,0.39731,-0.00362,0.0024,-0.0024,0.1929,-0.0073,0.0073,-0.0073,-0.0073,1.3744,-4.4239,11.6034,2.5665,-0.0806,-0.0366,-0.0073,1,1,1,1,1,1,1
5.6249,sweep,3,+up,0.08640,1.16865,0.71431,0.75475,-0.13867,0.39731,-0.00324,-0.0024,-0.0073,0.2027,-0.0073,-0.0073,-0.0073,0.0220,1.3744,-4.4786,11.7265,2.5519,-0.0952,-0.0464,-0.0073,1,1,1,1,1,1,1
5.6648,sweep,3,+up,0.08640,1.16865,0.71431,0.75475,-0.13867,0.39731,-0.00324,-0.0024,-0.0073,0.2027,-0.0073,-0.0073,-0.0073,0.0220,1.3744,-4.4786,11.7265,2.5519,-0.0952,-0.0464,-0.0073,1,1,1,1,1,1,1
5.7048,sweep,3,+up,0.08640,1.16865,0.73034,0.75475,-0.13867,0.39731,-0.00324,-0.0073,-0.0024,0.1929,-0.0073,-0.0073,0.0073,-0.0073,1.3744,-4.4786,12.0410,2.5470,-0.0904,-0.0415,-0.0073,1,1,1,1,1,1,1
5.7448,sweep,3,+up,0.08640,1.16865,0.73034,0.75475,-0.13867,0.39731,-0.00324,-0.0073,-0.0024,0.1929,-0.0073,-0.0073,0.0073,-0.0073,1.3744,-4.4786,12.0410,2.5470,-0.0904,-0.0415,-0.0073,1,1,1,1,1,1,1
5.7848,sweep,3,+up,0.08640,1.16865,0.73034,0.75475,-0.13867,0.39731,-0.00324,-0.0073,-0.0024,0.1929,-0.0073,-0.0073,0.0073,-0.0073,1.3744,-4.4786,12.0410,2.5470,-0.0904,-0.0415,-0.0073,1,1,1,1,1,1,1
5.8250,sweep,3,+up,0.08640,1.16865,0.75437,0.75475,-0.13867,0.39731,-0.00362,-0.0024,-0.0024,0.1880,-0.0073,-0.0073,-0.0073,-0.0073,1.4154,-4.5470,12.0274,2.5470,-0.0904,-0.0464,-0.0024,1,1,1,1,1,1,1
5.8648,sweep,3,+up,0.08640,1.16865,0.75437,0.75475,-0.13867,0.39731,-0.00362,-0.0024,-0.0024,0.1880,-0.0073,-0.0073,-0.0073,-0.0073,1.4154,-4.5470,12.0274,2.5470,-0.0904,-0.0464,-0.0024,1,1,1,1,1,1,1
5.9049,sweep,3,+up,0.08640,1.16865,0.77001,0.75475,-0.13867,0.39731,-0.00324,0.0024,-0.0024,0.1929,0.0073,0.0073,-0.0220,-0.0073,1.3470,-4.6154,12.2462,2.5275,-0.0952,-0.0464,-0.0073,1,1,1,1,1,1,1
5.9450,sweep,3,+up,0.08640,1.16865,0.77001,0.75475,-0.13867,0.39731,-0.00324,0.0024,-0.0024,0.1929,0.0073,0.0073,-0.0220,-0.0073,1.3470,-4.6154,12.2462,2.5275,-0.0952,-0.0464,-0.0073,1,1,1,1,1,1,1
5.9849,sweep,3,+up,0.08640,1.16865,0.77001,0.75475,-0.13867,0.39731,-0.00324,0.0024,-0.0024,0.1929,0.0073,0.0073,-0.0220,-0.0073,1.3470,-4.6154,12.2462,2.5275,-0.0952,-0.0464,-0.0073,1,1,1,1,1,1,1
6.0249,sweep,3,+up,0.08640,1.16865,0.79404,0.75475,-0.13867,0.39731,-0.00362,-0.0024,0.0024,0.1978,0.0073,-0.0073,-0.0220,-0.0073,1.3607,-4.6427,12.2872,2.5128,-0.0952,-0.0513,-0.0073,1,1,1,1,1,1,1
6.0648,sweep,3,+up,0.08640,1.16865,0.79404,0.75475,-0.13867,0.39731,-0.00362,-0.0024,0.0024,0.1978,0.0073,-0.0073,-0.0220,-0.0073,1.3607,-4.6427,12.2872,2.5128,-0.0952,-0.0513,-0.0073,1,1,1,1,1,1,1
6.1048,sweep,3,+up,0.08640,1.16865,0.81044,0.75475,-0.13867,0.39731,-0.00362,-0.0024,-0.0024,0.1880,0.0073,0.0073,-0.0220,-0.0073,1.3880,-4.6974,11.7812,2.5079,-0.1050,-0.0562,-0.0073,1,1,1,1,1,1,1
6.1448,sweep,3,+up,0.08640,1.16865,0.81044,0.75475,-0.13867,0.39731,-0.00362,-0.0024,-0.0024,0.1880,0.0073,0.0073,-0.0220,-0.0073,1.3880,-4.6974,11.7812,2.5079,-0.1050,-0.0562,-0.0073,1,1,1,1,1,1,1
6.1849,sweep,3,+up,0.08640,1.16865,0.81044,0.75475,-0.13867,0.39731,-0.00362,-0.0024,-0.0024,0.1880,0.0073,0.0073,-0.0220,-0.0073,1.3880,-4.6974,11.7812,2.5079,-0.1050,-0.0562,-0.0073,1,1,1,1,1,1,1
6.2249,sweep,3,+up,0.08640,1.16865,0.83410,0.75475,-0.13867,0.39731,-0.00362,0.0024,0.0024,0.1880,0.0073,-0.0073,-0.0220,-0.0073,1.3470,-4.7248,12.0957,2.5128,-0.1197,-0.0659,-0.0024,1,1,1,1,1,1,1
6.2649,sweep,3,+up,0.08640,1.16865,0.83410,0.75475,-0.13867,0.39731,-0.00362,0.0024,0.0024,0.1880,0.0073,-0.0073,-0.0220,-0.0073,1.3470,-4.7248,12.0957,2.5128,-0.1197,-0.0659,-0.0024,1,1,1,1,1,1,1
6.3049,sweep,3,+up,0.08640,1.16865,0.85012,0.75475,-0.13867,0.39731,-0.00324,-0.0024,-0.0024,0.2027,0.0073,-0.0073,-0.0073,0.0073,1.3607,-4.7521,12.1504,2.5031,-0.1197,-0.0659,-0.0073,1,1,1,1,1,1,1
6.3449,sweep,3,+up,0.08640,1.16865,0.85012,0.75475,-0.13867,0.39731,-0.00324,-0.0024,-0.0024,0.2027,0.0073,-0.0073,-0.0073,0.0073,1.3607,-4.7521,12.1504,2.5031,-0.1197,-0.0659,-0.0073,1,1,1,1,1,1,1
6.3850,sweep,3,+up,0.08640,1.16865,0.85012,0.75475,-0.13867,0.39731,-0.00324,-0.0024,-0.0024,0.2027,0.0073,-0.0073,-0.0073,0.0073,1.3607,-4.7521,12.1504,2.5031,-0.1197,-0.0659,-0.0073,1,1,1,1,1,1,1
6.4246,sweep,3,+up,0.08640,1.16865,0.87377,0.75513,-0.13828,0.39731,-0.00324,-0.0073,-0.0024,0.1929,-0.0073,-0.0073,-0.0073,0.0220,1.3333,-4.8615,12.7932,2.4835,-0.1538,-0.0708,-0.0073,1,1,1,1,1,1,1
6.4648,sweep,3,+up,0.08640,1.16865,0.87377,0.75513,-0.13828,0.39731,-0.00324,-0.0073,-0.0024,0.1929,-0.0073,-0.0073,-0.0073,0.0220,1.3333,-4.8615,12.7932,2.4835,-0.1538,-0.0708,-0.0073,1,1,1,1,1,1,1
6.5049,sweep,3,+up,0.08640,1.16865,0.89017,0.75475,-0.13828,0.39769,-0.00324,0.0024,-0.0024,0.2125,-0.0073,-0.0220,0.0073,-0.0073,1.3607,-4.8752,12.2188,2.4786,-0.1978,-0.0757,-0.0024,1,1,1,1,1,1,1
6.5449,sweep,3,+up,0.08640,1.16865,0.89017,0.75475,-0.13828,0.39769,-0.00324,0.0024,-0.0024,0.2125,-0.0073,-0.0220,0.0073,-0.0073,1.3607,-4.8752,12.2188,2.4786,-0.1978,-0.0757,-0.0024,1,1,1,1,1,1,1
6.5849,sweep,3,+up,0.08640,1.16865,0.89017,0.75475,-0.13828,0.39769,-0.00324,0.0024,-0.0024,0.2125,-0.0073,-0.0220,0.0073,-0.0073,1.3607,-4.8752,12.2188,2.4786,-0.1978,-0.0757,-0.0024,1,1,1,1,1,1,1
6.6248,sweep,3,+up,0.08602,1.16865,0.91383,0.75475,-0.13790,0.39769,-0.00324,-0.0024,0.0024,0.1978,-0.0073,-0.0073,-0.0073,-0.0073,1.3607,-4.9026,12.5744,2.4982,-0.2759,-0.1050,-0.0024,1,1,1,1,1,1,1
6.6648,sweep,3,+up,0.08602,1.16865,0.91383,0.75475,-0.13790,0.39769,-0.00324,-0.0024,0.0024,0.1978,-0.0073,-0.0073,-0.0073,-0.0073,1.3607,-4.9026,12.5744,2.4982,-0.2759,-0.1050,-0.0024,1,1,1,1,1,1,1
6.7048,sweep,3,+up,0.08640,1.16865,0.92947,0.75437,-0.13752,0.39807,-0.00324,-0.0024,-0.0073,0.2173,-0.0366,0.0220,0.0073,-0.0073,1.3333,-4.9436,13.1077,2.5226,-0.3443,-0.1343,-0.0024,1,1,1,1,1,1,1
6.7450,sweep,3,+up,0.08640,1.16865,0.92947,0.75437,-0.13752,0.39807,-0.00324,-0.0024,-0.0073,0.2173,-0.0366,0.0220,0.0073,-0.0073,1.3333,-4.9436,13.1077,2.5226,-0.3443,-0.1343,-0.0024,1,1,1,1,1,1,1
6.7849,sweep,3,+up,0.08640,1.16865,0.92947,0.75437,-0.13752,0.39807,-0.00324,-0.0024,-0.0073,0.2173,-0.0366,0.0220,0.0073,-0.0073,1.3333,-4.9436,13.1077,2.5226,-0.3443,-0.1343,-0.0024,1,1,1,1,1,1,1
6.8249,sweep,3,+up,0.08602,1.16865,0.95312,0.75437,-0.13676,0.39807,-0.00324,-0.0024,-0.0024,0.2076,-0.0073,-0.0073,-0.0220,0.0073,1.3880,-5.0530,13.4906,2.5421,-0.4908,-0.1832,-0.0024,1,1,1,1,1,1,1
6.8649,sweep,3,+up,0.08602,1.16865,0.95312,0.75437,-0.13676,0.39807,-0.00324,-0.0024,-0.0024,0.2076,-0.0073,-0.0073,-0.0220,0.0073,1.3880,-5.0530,13.4906,2.5421,-0.4908,-0.1832,-0.0024,1,1,1,1,1,1,1
6.9048,sweep,3,+up,0.08602,1.16865,0.96876,0.75399,-0.13676,0.39807,-0.00324,-0.0024,-0.0024,0.2027,-0.0220,-0.0073,-0.0220,-0.0073,1.3607,-5.0667,13.9829,2.5617,-0.5690,-0.2173,-0.0024,1,1,1,1,1,1,1
6.9449,sweep,3,+up,0.08602,1.16865,0.96876,0.75399,-0.13676,0.39807,-0.00324,-0.0024,-0.0024,0.2027,-0.0220,-0.0073,-0.0220,-0.0073,1.3607,-5.0667,13.9829,2.5617,-0.5690,-0.2173,-0.0024,1,1,1,1,1,1,1
6.9850,sweep,3,+up,0.08602,1.16865,0.96876,0.75399,-0.13676,0.39807,-0.00324,-0.0024,-0.0024,0.2027,-0.0220,-0.0073,-0.0220,-0.0073,1.3607,-5.0667,13.9829,2.5617,-0.5690,-0.2173,-0.0024,1,1,1,1,1,1,1
7.0249,sweep,3,+up,0.08602,1.16865,0.99279,0.75399,-0.13676,0.39807,-0.00324,-0.0024,-0.0024,0.2076,-0.0073,-0.0220,-0.0366,-0.0073,1.3880,-5.1214,14.0923,2.5910,-0.6716,-0.2711,-0.0073,1,1,1,1,1,1,1
7.0649,sweep,3,+up,0.08602,1.16865,0.99279,0.75399,-0.13676,0.39807,-0.00324,-0.0024,-0.0024,0.2076,-0.0073,-0.0220,-0.0366,-0.0073,1.3880,-5.1214,14.0923,2.5910,-0.6716,-0.2711,-0.0073,1,1,1,1,1,1,1
7.1050,sweep,3,+up,0.08602,1.16865,1.00881,0.75399,-0.13676,0.39807,-0.00324,-0.0073,0.0024,0.1783,-0.0073,-0.0220,-0.0073,-0.0073,1.3744,-5.1214,14.1197,2.6154,-0.7399,-0.2857,-0.0024,1,1,1,1,1,1,1
7.1451,sweep,3,+up,0.08602,1.16865,1.00881,0.75399,-0.13676,0.39807,-0.00324,-0.0073,0.0024,0.1783,-0.0073,-0.0220,-0.0073,-0.0073,1.3744,-5.1214,14.1197,2.6154,-0.7399,-0.2857,-0.0024,1,1,1,1,1,1,1
7.1852,sweep,3,+up,0.08602,1.16865,1.00881,0.75399,-0.13676,0.39807,-0.00324,-0.0073,0.0024,0.1783,-0.0073,-0.0220,-0.0073,-0.0073,1.3744,-5.1214,14.1197,2.6154,-0.7399,-0.2857,-0.0024,1,1,1,1,1,1,1
7.2250,sweep,3,+up,0.08602,1.16865,1.03246,0.75399,-0.13714,0.39807,-0.00324,-0.0024,-0.0024,0.1978,0.0073,-0.0220,-0.0073,-0.0073,1.4017,-5.1761,14.5026,2.6447,-0.8278,-0.3199,-0.0073,1,1,1,1,1,1,1
7.2649,sweep,3,+up,0.08602,1.16865,1.03246,0.75399,-0.13714,0.39807,-0.00324,-0.0024,-0.0024,0.1978,0.0073,-0.0220,-0.0073,-0.0073,1.4017,-5.1761,14.5026,2.6447,-0.8278,-0.3199,-0.0073,1,1,1,1,1,1,1
7.3051,sweep,3,+up,0.08602,1.16865,1.04810,0.75437,-0.13790,0.39769,-0.00324,-0.0073,-0.0024,0.1734,-0.0073,-0.0220,-0.0073,-0.0073,1.4017,-5.1897,14.3795,2.6398,-0.8181,-0.3346,-0.0073,1,1,1,1,1,1,1
7.3449,sweep,3,+up,0.08602,1.16865,1.04810,0.75437,-0.13790,0.39769,-0.00324,-0.0073,-0.0024,0.1734,-0.0073,-0.0220,-0.0073,-0.0073,1.4017,-5.1897,14.3795,2.6398,-0.8181,-0.3346,-0.0073,1,1,1,1,1,1,1
7.3849,sweep,3,+up,0.08602,1.16865,1.04810,0.75437,-0.13790,0.39769,-0.00324,-0.0073,-0.0024,0.1734,-0.0073,-0.0220,-0.0073,-0.0073,1.4017,-5.1897,14.3795,2.6398,-0.8181,-0.3346,-0.0073,1,1,1,1,1,1,1
7.4247,sweep,3,+up,0.08602,1.16865,1.06794,0.75475,-0.13828,0.39769,-0.00362,-0.0024,-0.0024,0.1490,-0.0073,-0.0073,-0.0073,-0.0073,1.4427,-5.2444,14.2291,2.6056,-0.8181,-0.3443,-0.0073,1,1,1,1,1,1,1
7.4649,sweep,3,+up,0.08602,1.16865,1.06794,0.75475,-0.13828,0.39769,-0.00362,-0.0024,-0.0024,0.1490,-0.0073,-0.0073,-0.0073,-0.0073,1.4427,-5.2444,14.2291,2.6056,-0.8181,-0.3443,-0.0073,1,1,1,1,1,1,1
7.5049,sweep,3,+up,0.08602,1.16865,1.07977,0.75475,-0.13867,0.39769,-0.00362,0.0024,-0.0024,0.1490,-0.0073,0.0073,-0.0073,-0.0073,1.4564,-5.2581,14.2017,2.6056,-0.8083,-0.3590,-0.0073,1,1,1,1,1,1,1
7.5449,sweep,3,+up,0.08602,1.16865,1.07977,0.75475,-0.13867,0.39769,-0.00362,0.0024,-0.0024,0.1490,-0.0073,0.0073,-0.0073,-0.0073,1.4564,-5.2581,14.2017,2.6056,-0.8083,-0.3590,-0.0073,1,1,1,1,1,1,1
7.5850,sweep,3,+up,0.08602,1.16865,1.07977,0.75475,-0.13867,0.39769,-0.00362,0.0024,-0.0024,0.1490,-0.0073,0.0073,-0.0073,-0.0073,1.4564,-5.2581,14.2017,2.6056,-0.8083,-0.3590,-0.0073,1,1,1,1,1,1,1
7.6249,sweep,3,+up,0.08602,1.16865,1.09541,0.75513,-0.13905,0.39731,-0.00362,-0.0024,-0.0024,0.1197,-0.0073,-0.0073,-0.0073,-0.0073,1.4564,-5.3402,13.7778,2.5470,-0.7546,-0.3492,-0.0024,1,1,1,1,1,1,1
7.6648,sweep,3,+up,0.08602,1.16865,1.09541,0.75513,-0.13905,0.39731,-0.00362,-0.0024,-0.0024,0.1197,-0.0073,-0.0073,-0.0073,-0.0073,1.4564,-5.3402,13.7778,2.5470,-0.7546,-0.3492,-0.0024,1,1,1,1,1,1,1
7.7049,sweep,3,+up,0.08602,1.16865,1.10456,0.75589,-0.13905,0.39731,-0.00324,-0.0024,-0.0024,0.1245,0.0073,-0.0220,-0.0073,-0.0073,1.4427,-5.3675,13.8188,2.4640,-0.7595,-0.3492,-0.0073,1,1,1,1,1,1,1
7.7448,sweep,3,+up,0.08602,1.16865,1.10456,0.75589,-0.13905,0.39731,-0.00324,-0.0024,-0.0024,0.1245,0.0073,-0.0220,-0.0073,-0.0073,1.4427,-5.3675,13.8188,2.4640,-0.7595,-0.3492,-0.0073,1,1,1,1,1,1,1
7.7849,sweep,3,+up,0.08602,1.16865,1.10456,0.75589,-0.13905,0.39731,-0.00324,-0.0024,-0.0024,0.1245,0.0073,-0.0220,-0.0073,-0.0073,1.4427,-5.3675,13.8188,2.4640,-0.7595,-0.3492,-0.0073,1,1,1,1,1,1,1
7.8249,sweep,3,+up,0.08602,1.16865,1.11601,0.75551,-0.13905,0.39692,-0.00362,0.0024,-0.0024,0.0757,-0.0220,-0.0073,0.0073,-0.0073,1.4701,-5.4359,13.8872,2.4444,-0.7350,-0.3443,-0.0073,1,1,1,1,1,1,1
7.8649,sweep,3,+up,0.08602,1.16865,1.11601,0.75551,-0.13905,0.39692,-0.00362,0.0024,-0.0024,0.0757,-0.0220,-0.0073,0.0073,-0.0073,1.4701,-5.4359,13.8872,2.4444,-0.7350,-0.3443,-0.0073,1,1,1,1,1,1,1
7.9049,sweep,3,+up,0.08640,1.16865,1.12325,0.75589,-0.13943,0.39692,-0.00362,-0.0024,-0.0024,0.1148,-0.0073,-0.0073,0.0073,-0.0073,1.4701,-5.4222,13.4496,2.3810,-0.7155,-0.3346,-0.0073,1,1,1,1,1,1,1
7.9448,sweep,3,+up,0.08640,1.16865,1.12325,0.75589,-0.13943,0.39692,-0.00362,-0.0024,-0.0024,0.1148,-0.0073,-0.0073,0.0073,-0.0073,1.4701,-5.4222,13.4496,2.3810,-0.7155,-0.3346,-0.0073,1,1,1,1,1,1,1
7.9848,sweep,3,+up,0.08640,1.16865,1.12325,0.75589,-0.13943,0.39692,-0.00362,-0.0024,-0.0024,0.1148,-0.0073,-0.0073,0.0073,-0.0073,1.4701,-5.4222,13.4496,2.3810,-0.7155,-0.3346,-0.0073,1,1,1,1,1,1,1
8.0247,sweep,3,+up,0.08640,1.16865,1.13203,0.75589,-0.13943,0.39692,-0.00362,-0.0024,-0.0024,0.0855,-0.0073,0.0073,0.0073,-0.0073,1.4427,-5.4632,13.4496,2.3370,-0.6911,-0.3297,-0.0073,1,1,1,1,1,1,1
8.0649,sweep,3,+up,0.08640,1.16865,1.13203,0.75589,-0.13943,0.39692,-0.00362,-0.0024,-0.0024,0.0855,-0.0073,0.0073,0.0073,-0.0073,1.4427,-5.4632,13.4496,2.3370,-0.6911,-0.3297,-0.0073,1,1,1,1,1,1,1
8.1050,sweep,3,+up,0.08640,1.16865,1.13699,0.75589,-0.13943,0.39692,-0.00324,-0.0024,-0.0073,0.0611,0.0073,-0.0073,-0.0073,0.0073,1.4701,-5.5179,13.6821,2.3077,-0.6813,-0.3248,-0.0073,1,1,1,1,1,1,1
8.1452,sweep,3,+up,0.08640,1.16865,1.13699,0.75589,-0.13943,0.39692,-0.00324,-0.0024,-0.0073,0.0611,0.0073,-0.0073,-0.0073,0.0073,1.4701,-5.5179,13.6821,2.3077,-0.6813,-0.3248,-0.0073,1,1,1,1,1,1,1
8.1849,sweep,3,+up,0.08640,1.16865,1.13699,0.75589,-0.13943,0.39692,-0.00324,-0.0024,-0.0073,0.0611,0.0073,-0.0073,-0.0073,0.0073,1.4701,-5.5179,13.6821,2.3077,-0.6813,-0.3248,-0.0073,1,1,1,1,1,1,1
8.2248,sweep,3,+up,0.08640,1.16865,1.14385,0.75551,-0.13943,0.39692,-0.00324,-0.0024,-0.0024,0.0317,-0.0220,-0.0073,-0.0220,-0.0073,1.4701,-5.5863,13.3812,2.2735,-0.6618,-0.3150,-0.0024,1,1,1,1,1,1,1
8.2649,sweep,3,+up,0.08640,1.16865,1.14385,0.75551,-0.13943,0.39692,-0.00324,-0.0024,-0.0024,0.0317,-0.0220,-0.0073,-0.0220,-0.0073,1.4701,-5.5863,13.3812,2.2735,-0.6618,-0.3150,-0.0024,1,1,1,1,1,1,1
8.3050,sweep,3,+up,0.08602,1.16865,1.14767,0.75513,-0.13943,0.39692,-0.00362,-0.0024,-0.0024,0.0415,-0.0366,0.0073,-0.0073,-0.0220,1.4564,-5.6547,13.6137,2.2784,-0.6422,-0.3053,-0.0024,1,1,1,1,1,1,1
8.3449,sweep,3,+up,0.08602,1.16865,1.14767,0.75513,-0.13943,0.39692,-0.00362,-0.0024,-0.0024,0.0415,-0.0366,0.0073,-0.0073,-0.0220,1.4564,-5.6547,13.6137,2.2784,-0.6422,-0.3053,-0.0024,1,1,1,1,1,1,1
8.3850,sweep,3,+up,0.08602,1.16865,1.14767,0.75513,-0.13943,0.39692,-0.00362,-0.0024,-0.0024,0.0415,-0.0366,0.0073,-0.0073,-0.0220,1.4564,-5.6547,13.6137,2.2784,-0.6422,-0.3053,-0.0024,1,1,1,1,1,1,1
8.4247,sweep,3,+up,0.08602,1.16865,1.15263,0.75475,-0.13943,0.39692,-0.00362,-0.0024,-0.0024,0.0562,-0.0220,-0.0220,-0.0073,-0.0073,1.4838,-5.6957,13.6410,2.2735,-0.6081,-0.3004,0.0024,1,1,1,1,1,1,1
8.4650,sweep,3,+up,0.08602,1.16865,1.15263,0.75475,-0.13943,0.39692,-0.00362,-0.0024,-0.0024,0.0562,-0.0220,-0.0220,-0.0073,-0.0073,1.4838,-5.6957,13.6410,2.2735,-0.6081,-0.3004,0.0024,1,1,1,1,1,1,1
8.5049,sweep,3,+up,0.08640,1.16865,1.15568,0.75475,-0.13943,0.39692,-0.00324,0.0024,-0.0024,0.0415,-0.0073,-0.0073,-0.0073,-0.0073,1.4974,-5.7231,13.4769,2.2637,-0.6032,-0.3004,-0.0024,1,1,1,1,1,1,1
8.5450,sweep,3,+up,0.08640,1.16865,1.15568,0.75475,-0.13943,0.39692,-0.00324,0.0024,-0.0024,0.0415,-0.0073,-0.0073,-0.0073,-0.0073,1.4974,-5.7231,13.4769,2.2637,-0.6032,-0.3004,-0.0024,1,1,1,1,1,1,1
8.5849,sweep,3,+up,0.08640,1.16865,1.15568,0.75475,-0.13943,0.39692,-0.00324,0.0024,-0.0024,0.0415,-0.0073,-0.0073,-0.0073,-0.0073,1.4974,-5.7231,13.4769,2.2637,-0.6032,-0.3004,-0.0024,1,1,1,1,1,1,1
8.6248,sweep,3,+up,0.08640,1.16865,1.15950,0.75475,-0.13943,0.39692,-0.00324,-0.0024,-0.0024,0.0317,-0.0220,-0.0220,0.0073,0.0073,1.4701,-5.7231,13.6410,2.2637,-0.5788,-0.2857,0.0024,1,1,1,1,1,1,1
8.6652,sweep,3,+up,0.08640,1.16865,1.15950,0.75475,-0.13943,0.39692,-0.00324,-0.0024,-0.0024,0.0317,-0.0220,-0.0220,0.0073,0.0073,1.4701,-5.7231,13.6410,2.2637,-0.5788,-0.2857,0.0024,1,1,1,1,1,1,1
8.7050,sweep,3,+up,0.08640,1.16865,1.16178,0.75475,-0.13943,0.39692,-0.00362,0.0024,-0.0024,0.0220,-0.0220,-0.0073,0.0073,-0.0220,1.4701,-5.7231,13.9145,2.2637,-0.5592,-0.2808,0.0024,1,1,1,1,1,1,1
8.7449,sweep,3,+up,0.08640,1.16865,1.16178,0.75475,-0.13943,0.39692,-0.00362,0.0024,-0.0024,0.0220,-0.0220,-0.0073,0.0073,-0.0220,1.4701,-5.7231,13.9145,2.2637,-0.5592,-0.2808,0.0024,1,1,1,1,1,1,1
8.7849,sweep,3,+up,0.08640,1.16865,1.16178,0.75475,-0.13943,0.39692,-0.00362,0.0024,-0.0024,0.0220,-0.0220,-0.0073,0.0073,-0.0220,1.4701,-5.7231,13.9145,2.2637,-0.5592,-0.2808,0.0024,1,1,1,1,1,1,1
8.8249,sweep,3,+up,0.08640,1.16865,1.16484,0.75475,-0.13905,0.39692,-0.00362,-0.0073,-0.0024,0.0220,-0.0220,-0.0073,0.0073,-0.0073,1.5111,-5.7915,13.5043,2.2247,-0.5348,-0.2662,0.0024,1,1,1,1,1,1,1
9.3276,sweep,3,-down,0.08640,1.16865,1.16598,0.75475,-0.13905,0.39692,-0.00324,-0.0024,-0.0024,0.0269,-0.0073,-0.0073,0.0220,-0.0073,1.5111,-5.8188,13.5179,2.2344,-0.5348,-0.2613,0.0024,1,1,1,1,1,1,1
9.3679,sweep,3,-down,0.08640,1.16865,1.16598,0.75475,-0.13905,0.39692,-0.00324,-0.0024,-0.0024,0.0269,-0.0073,-0.0073,0.0220,-0.0073,1.5111,-5.8188,13.5179,2.2344,-0.5348,-0.2613,0.0024,1,1,1,1,1,1,1
9.4078,sweep,3,-down,0.08640,1.16865,1.17132,0.75551,-0.13905,0.39692,-0.00324,-0.0073,-0.0024,-0.1587,0.0513,-0.0220,-0.0220,-0.0073,1.5111,-5.9556,7.4325,2.0928,-0.4518,-0.2320,-0.0024,1,1,1,1,1,1,1
9.4475,sweep,3,-down,0.08640,1.16865,1.17132,0.75551,-0.13905,0.39692,-0.00324,-0.0073,-0.0024,-0.1587,0.0513,-0.0220,-0.0220,-0.0073,1.5111,-5.9556,7.4325,2.0928,-0.4518,-0.2320,-0.0024,1,1,1,1,1,1,1
9.4874,sweep,3,-down,0.08640,1.16865,1.17132,0.75551,-0.13905,0.39692,-0.00324,-0.0073,-0.0024,-0.1587,0.0513,-0.0220,-0.0220,-0.0073,1.5111,-5.9556,7.4325,2.0928,-0.4518,-0.2320,-0.0024,1,1,1,1,1,1,1
9.5273,sweep,3,-down,0.08640,1.16827,1.14767,0.75856,-0.14019,0.39654,-0.00324,-0.0024,-0.0024,-0.1978,-0.0366,-0.0073,-0.0073,0.0073,1.4838,-5.5726,7.3778,1.6532,-0.3199,-0.1685,-0.0024,1,1,1,1,1,1,1
9.5674,sweep,3,-down,0.08640,1.16827,1.14767,0.75856,-0.14019,0.39654,-0.00324,-0.0024,-0.0024,-0.1978,-0.0366,-0.0073,-0.0073,0.0073,1.4838,-5.5726,7.3778,1.6532,-0.3199,-0.1685,-0.0024,1,1,1,1,1,1,1
9.6074,sweep,3,-down,0.08640,1.16827,1.13127,0.75322,-0.14057,0.39616,-0.00324,0.0024,-0.0024,-0.2027,0.0220,-0.0073,-0.0073,-0.0073,1.4154,-5.5316,8.1573,2.0684,-0.2271,-0.1441,-0.0073,1,1,1,1,1,1,1
9.6474,sweep,3,-down,0.08640,1.16827,1.13127,0.75322,-0.14057,0.39616,-0.00324,0.0024,-0.0024,-0.2027,0.0220,-0.0073,-0.0073,-0.0073,1.4154,-5.5316,8.1573,2.0684,-0.2271,-0.1441,-0.0073,1,1,1,1,1,1,1
9.6875,sweep,3,-down,0.08640,1.16827,1.13127,0.75322,-0.14057,0.39616,-0.00324,0.0024,-0.0024,-0.2027,0.0220,-0.0073,-0.0073,-0.0073,1.4154,-5.5316,8.1573,2.0684,-0.2271,-0.1441,-0.0073,1,1,1,1,1,1,1
9.7275,sweep,3,-down,0.08640,1.16827,1.10800,0.75360,-0.14057,0.39616,-0.00324,-0.0024,-0.0024,-0.2027,-0.0073,0.0073,-0.0220,0.0073,1.3880,-5.5043,7.1180,2.0879,-0.1392,-0.0952,-0.0073,1,1,1,1,1,1,1
9.7675,sweep,3,-down,0.08640,1.16827,1.10800,0.75360,-0.14057,0.39616,-0.00324,-0.0024,-0.0024,-0.2027,-0.0073,0.0073,-0.0220,0.0073,1.3880,-5.5043,7.1180,2.0879,-0.1392,-0.0952,-0.0073,1,1,1,1,1,1,1
9.8075,sweep,3,-down,0.08640,1.16827,1.09121,0.75360,-0.14057,0.39616,-0.00362,-0.0024,-0.0073,-0.2125,-0.0220,-0.0073,-0.0073,-0.0073,1.3880,-5.4906,7.8427,2.1123,-0.1050,-0.0855,-0.0073,1,1,1,1,1,1,1
9.8475,sweep,3,-down,0.08640,1.16827,1.09121,0.75360,-0.14057,0.39616,-0.00362,-0.0024,-0.0073,-0.2125,-0.0220,-0.0073,-0.0073,-0.0073,1.3880,-5.4906,7.8427,2.1123,-0.1050,-0.0855,-0.0073,1,1,1,1,1,1,1
9.8876,sweep,3,-down,0.08640,1.16827,1.09121,0.75360,-0.14057,0.39616,-0.00362,-0.0024,-0.0073,-0.2125,-0.0220,-0.0073,-0.0073,-0.0073,1.3880,-5.4906,7.8427,2.1123,-0.1050,-0.0855,-0.0073,1,1,1,1,1,1,1
9.9274,sweep,3,-down,0.08640,1.16827,1.06718,0.75399,-0.14057,0.39616,-0.00362,-0.0024,-0.0024,-0.2027,-0.0073,-0.0073,-0.0073,-0.0220,1.3744,-5.4632,7.8564,2.1465,-0.0708,-0.0659,-0.0024,1,1,1,1,1,1,1
9.9674,sweep,3,-down,0.08640,1.16827,1.06718,0.75399,-0.14057,0.39616,-0.00362,-0.0024,-0.0024,-0.2027,-0.0073,-0.0073,-0.0073,-0.0220,1.3744,-5.4632,7.8564,2.1465,-0.0708,-0.0659,-0.0024,1,1,1,1,1,1,1
10.0076,sweep,3,-down,0.08640,1.16827,1.05154,0.75399,-0.14019,0.39616,-0.00324,-0.0073,-0.0024,-0.1929,-0.0073,-0.0073,-0.0220,-0.0073,1.3744,-5.4496,7.6376,2.1612,-0.0513,-0.0562,-0.0073,1,1,1,1,1,1,1
10.0476,sweep,3,-down,0.08640,1.16827,1.05154,0.75399,-0.14019,0.39616,-0.00324,-0.0073,-0.0024,-0.1929,-0.0073,-0.0073,-0.0220,-0.0073,1.3744,-5.4496,7.6376,2.1612,-0.0513,-0.0562,-0.0073,1,1,1,1,1,1,1
10.0876,sweep,3,-down,0.08640,1.16827,1.05154,0.75399,-0.14019,0.39616,-0.00324,-0.0073,-0.0024,-0.1929,-0.0073,-0.0073,-0.0220,-0.0073,1.3744,-5.4496,7.6376,2.1612,-0.0513,-0.0562,-0.0073,1,1,1,1,1,1,1
10.1275,sweep,3,-down,0.08640,1.16827,1.02789,0.75437,-0.14019,0.39616,-0.00362,0.0024,-0.0073,-0.2027,0.0073,0.0073,-0.0073,-0.0073,1.4154,-5.4359,7.1590,2.1709,-0.0366,-0.0366,-0.0122,1,1,1,1,1,1,1
10.1676,sweep,3,-down,0.08640,1.16827,1.02789,0.75437,-0.14019,0.39616,-0.00362,0.0024,-0.0073,-0.2027,0.0073,0.0073,-0.0073,-0.0073,1.4154,-5.4359,7.1590,2.1709,-0.0366,-0.0366,-0.0122,1,1,1,1,1,1,1
10.2076,sweep,3,-down,0.08640,1.16827,1.01148,0.75399,-0.14019,0.39616,-0.00362,-0.0024,-0.0073,-0.1929,0.0073,-0.0073,-0.0220,-0.0073,1.3880,-5.4085,7.9658,2.2100,-0.0220,-0.0317,-0.0122,1,1,1,1,1,1,1
10.2474,sweep,3,-down,0.08640,1.16827,1.01148,0.75399,-0.14019,0.39616,-0.00362,-0.0024,-0.0073,-0.1929,0.0073,-0.0073,-0.0220,-0.0073,1.3880,-5.4085,7.9658,2.2100,-0.0220,-0.0317,-0.0122,1,1,1,1,1,1,1
10.2874,sweep,3,-down,0.08640,1.16827,1.01148,0.75399,-0.14019,0.39616,-0.00362,-0.0024,-0.0073,-0.1929,0.0073,-0.0073,-0.0220,-0.0073,1.3880,-5.4085,7.9658,2.2100,-0.0220,-0.0317,-0.0122,1,1,1,1,1,1,1
10.3275,sweep,3,-down,0.08640,1.16827,0.98745,0.75399,-0.13981,0.39654,-0.00362,-0.0024,-0.0024,-0.2173,-0.0073,-0.0073,-0.0073,-0.0073,1.3197,-5.3949,7.8701,2.2442,-0.0073,-0.0122,-0.0073,1,1,1,1,1,1,1
10.3674,sweep,3,-down,0.08640,1.16827,0.98745,0.75399,-0.13981,0.39654,-0.00362,-0.0024,-0.0024,-0.2173,-0.0073,-0.0073,-0.0073,-0.0073,1.3197,-5.3949,7.8701,2.2442,-0.0073,-0.0122,-0.0073,1,1,1,1,1,1,1
10.4073,sweep,3,-down,0.08640,1.16827,0.97143,0.75399,-0.13981,0.39654,-0.00362,-0.0073,0.0024,-0.1978,-0.0220,-0.0073,-0.0220,-0.0073,1.3470,-5.3812,7.6513,2.2637,-0.0024,-0.0122,-0.0122,1,1,1,1,1,1,1
10.4474,sweep,3,-down,0.08640,1.16827,0.97143,0.75399,-0.13981,0.39654,-0.00362,-0.0073,0.0024,-0.1978,-0.0220,-0.0073,-0.0220,-0.0073,1.3470,-5.3812,7.6513,2.2637,-0.0024,-0.0122,-0.0122,1,1,1,1,1,1,1
10.4875,sweep,3,-down,0.08640,1.16827,0.97143,0.75399,-0.13981,0.39654,-0.00362,-0.0073,0.0024,-0.1978,-0.0220,-0.0073,-0.0220,-0.0073,1.3470,-5.3812,7.6513,2.2637,-0.0024,-0.0122,-0.0122,1,1,1,1,1,1,1
10.5277,sweep,3,-down,0.08640,1.16827,0.94778,0.75437,-0.13981,0.39692,-0.00362,-0.0024,0.0024,-0.2173,0.0220,0.0073,0.0073,-0.0073,1.3197,-5.3402,7.3915,2.2589,0.0220,0.0024,-0.0073,1,1,1,1,1,1,1
10.5674,sweep,3,-down,0.08640,1.16827,0.94778,0.75437,-0.13981,0.39692,-0.00362,-0.0024,0.0024,-0.2173,0.0220,0.0073,0.0073,-0.0073,1.3197,-5.3402,7.3915,2.2589,0.0220,0.0024,-0.0073,1,1,1,1,1,1,1
10.6075,sweep,3,-down,0.08640,1.16827,0.93175,0.75437,-0.13943,0.39692,-0.00362,-0.0073,-0.0024,-0.2076,-0.0220,-0.0073,-0.0073,-0.0220,1.3470,-5.3538,7.6923,2.2686,0.0220,0.0073,-0.0073,1,1,1,1,1,1,1
10.6478,sweep,3,-down,0.08640,1.16827,0.93175,0.75437,-0.13943,0.39692,-0.00362,-0.0073,-0.0024,-0.2076,-0.0220,-0.0073,-0.0073,-0.0220,1.3470,-5.3538,7.6923,2.2686,0.0220,0.0073,-0.0073,1,1,1,1,1,1,1
10.6874,sweep,3,-down,0.08640,1.16827,0.93175,0.75437,-0.13943,0.39692,-0.00362,-0.0073,-0.0024,-0.2076,-0.0220,-0.0073,-0.0073,-0.0220,1.3470,-5.3538,7.6923,2.2686,0.0220,0.0073,-0.0073,1,1,1,1,1,1,1
10.7273,sweep,3,-down,0.08640,1.16827,0.90734,0.75437,-0.13943,0.39692,-0.00362,-0.0024,-0.0024,-0.1978,-0.0073,0.0073,-0.0073,-0.0073,1.3060,-5.2991,7.9795,2.2979,0.0317,0.0122,-0.0073,1,1,1,1,1,1,1
10.7676,sweep,3,-down,0.08640,1.16827,0.90734,0.75437,-0.13943,0.39692,-0.00362,-0.0024,-0.0024,-0.1978,-0.0073,0.0073,-0.0073,-0.0073,1.3060,-5.2991,7.9795,2.2979,0.0317,0.0122,-0.0073,1,1,1,1,1,1,1
10.8074,sweep,3,-down,0.08640,1.16827,0.89170,0.75399,-0.13943,0.39692,-0.00324,0.0024,-0.0024,-0.1929,-0.0220,-0.0220,-0.0073,-0.0073,1.2923,-5.2991,7.6923,2.3223,0.0415,0.0122,-0.0073,1,1,1,1,1,1,1
10.8474,sweep,3,-down,0.08640,1.16827,0.89170,0.75399,-0.13943,0.39692,-0.00324,0.0024,-0.0024,-0.1929,-0.0220,-0.0220,-0.0073,-0.0073,1.2923,-5.2991,7.6923,2.3223,0.0415,0.0122,-0.0073,1,1,1,1,1,1,1
10.8875,sweep,3,-down,0.08640,1.16827,0.89170,0.75399,-0.13943,0.39692,-0.00324,0.0024,-0.0024,-0.1929,-0.0220,-0.0220,-0.0073,-0.0073,1.2923,-5.2991,7.6923,2.3223,0.0415,0.0122,-0.0073,1,1,1,1,1,1,1
10.9274,sweep,3,-down,0.08640,1.16827,0.86767,0.75475,-0.13943,0.39692,-0.00324,0.0024,-0.0073,-0.2125,-0.0073,0.0073,-0.0220,-0.0073,1.3744,-5.2718,7.7197,2.3028,0.0464,0.0171,-0.0073,1,1,1,1,1,1,1
10.9675,sweep,3,-down,0.08640,1.16827,0.86767,0.75475,-0.13943,0.39692,-0.00324,0.0024,-0.0073,-0.2125,-0.0073,0.0073,-0.0220,-0.0073,1.3744,-5.2718,7.7197,2.3028,0.0464,0.0171,-0.0073,1,1,1,1,1,1,1
11.0075,sweep,3,-down,0.08640,1.16827,0.85126,0.75399,-0.13943,0.39692,-0.00324,-0.0024,-0.0073,-0.2173,0.0073,-0.0073,-0.0073,-0.0073,1.3470,-5.1897,7.8974,2.3516,0.0513,0.0171,-0.0073,1,1,1,1,1,1,1
11.0476,sweep,3,-down,0.08640,1.16827,0.85126,0.75399,-0.13943,0.39692,-0.00324,-0.0024,-0.0073,-0.2173,0.0073,-0.0073,-0.0073,-0.0073,1.3470,-5.1897,7.8974,2.3516,0.0513,0.0171,-0.0073,1,1,1,1,1,1,1
11.0876,sweep,3,-down,0.08640,1.16827,0.85126,0.75399,-0.13943,0.39692,-0.00324,-0.0024,-0.0073,-0.2173,0.0073,-0.0073,-0.0073,-0.0073,1.3470,-5.1897,7.8974,2.3516,0.0513,0.0171,-0.0073,1,1,1,1,1,1,1
11.1276,sweep,3,-down,0.08640,1.16827,0.82761,0.75437,-0.13943,0.39692,-0.00324,-0.0073,0.0024,-0.2027,-0.0220,-0.0073,-0.0220,-0.0073,1.3470,-5.1624,7.4462,2.3419,0.0611,0.0171,-0.0073,1,1,1,1,1,1,1
11.1677,sweep,3,-down,0.08640,1.16827,0.82761,0.75437,-0.13943,0.39692,-0.00324,-0.0073,0.0024,-0.2027,-0.0220,-0.0073,-0.0220,-0.0073,1.3470,-5.1624,7.4462,2.3419,0.0611,0.0171,-0.0073,1,1,1,1,1,1,1
11.2075,sweep,3,-down,0.08640,1.16827,0.81159,0.75399,-0.13905,0.39692,-0.00362,-0.0073,-0.0024,-0.1929,-0.0366,-0.0073,-0.0073,-0.0073,1.2786,-5.1350,7.4325,2.3956,0.0611,0.0220,-0.0073,1,1,1,1,1,1,1
11.2477,sweep,3,-down,0.08640,1.16827,0.81159,0.75399,-0.13905,0.39692,-0.00362,-0.0073,-0.0024,-0.1929,-0.0366,-0.0073,-0.0073,-0.0073,1.2786,-5.1350,7.4325,2.3956,0.0611,0.0220,-0.0073,1,1,1,1,1,1,1
11.2878,sweep,3,-down,0.08640,1.16827,0.81159,0.75399,-0.13905,0.39692,-0.00362,-0.0073,-0.0024,-0.1929,-0.0366,-0.0073,-0.0073,-0.0073,1.2786,-5.1350,7.4325,2.3956,0.0611,0.0220,-0.0073,1,1,1,1,1,1,1
11.3276,sweep,3,-down,0.08640,1.16827,0.78756,0.75437,-0.13905,0.39692,-0.00362,0.0024,-0.0024,-0.2076,-0.0073,0.0073,-0.0073,-0.0220,1.2650,-5.0803,7.6786,2.4054,0.0659,0.0220,-0.0024,1,1,1,1,1,1,1
11.3675,sweep,3,-down,0.08640,1.16827,0.78756,0.75437,-0.13905,0.39692,-0.00362,0.0024,-0.0024,-0.2076,-0.0073,0.0073,-0.0073,-0.0220,1.2650,-5.0803,7.6786,2.4054,0.0659,0.0220,-0.0024,1,1,1,1,1,1,1
11.4074,sweep,3,-down,0.08640,1.16827,0.76352,0.75399,-0.13905,0.39692,-0.00324,-0.0024,-0.0024,-0.1880,-0.0073,0.0073,0.0073,-0.0073,1.2923,-5.0530,7.8017,2.4396,0.0659,0.0220,-0.0024,1,1,1,1,1,1,1
11.4477,sweep,3,-down,0.08640,1.16827,0.76352,0.75399,-0.13905,0.39692,-0.00324,-0.0024,-0.0024,-0.1880,-0.0073,0.0073,0.0073,-0.0073,1.2923,-5.0530,7.8017,2.4396,0.0659,0.0220,-0.0024,1,1,1,1,1,1,1
11.4878,sweep,3,-down,0.08640,1.16827,0.76352,0.75399,-0.13905,0.39692,-0.00324,-0.0024,-0.0024,-0.1880,-0.0073,0.0073,0.0073,-0.0073,1.2923,-5.0530,7.8017,2.4396,0.0659,0.0220,-0.0024,1,1,1,1,1,1,1
11.5276,sweep,3,-down,0.08640,1.16827,0.74788,0.75437,-0.13905,0.39692,-0.00324,-0.0024,-0.0024,-0.1978,-0.0220,-0.0220,-0.0073,0.0073,1.2786,-5.0530,7.3778,2.4005,0.0708,0.0220,-0.0024,1,1,1,1,1,1,1
11.5677,sweep,3,-down,0.08640,1.16827,0.74788,0.75437,-0.13905,0.39692,-0.00324,-0.0024,-0.0024,-0.1978,-0.0220,-0.0220,-0.0073,0.0073,1.2786,-5.0530,7.3778,2.4005,0.0708,0.0220,-0.0024,1,1,1,1,1,1,1
11.6076,sweep,3,-down,0.08640,1.16827,0.72423,0.75437,-0.13905,0.39692,-0.00362,-0.0024,-0.0073,-0.2076,-0.0073,-0.0073,0.0073,-0.0073,1.2513,-5.0530,7.1043,2.4396,0.0806,0.0220,-0.0024,1,1,1,1,1,1,1
11.6484,sweep,3,-down,0.08640,1.16827,0.72423,0.75437,-0.13905,0.39692,-0.00362,-0.0073,-0.0073,-0.2076,-0.0073,-0.0073,0.0073,-0.0073,1.2786,-5.0530,7.1043,2.4396,0.0806,0.0220,-0.0024,1,1,1,1,1,1,1
11.6877,sweep,3,-down,0.08640,1.16827,0.72423,0.75437,-0.13905,0.39692,-0.00362,-0.0073,-0.0073,-0.2076,-0.0073,-0.0073,0.0073,-0.0073,1.2786,-5.0530,7.1043,2.4396,0.0806,0.0220,-0.0024,1,1,1,1,1,1,1
11.7278,sweep,3,-down,0.08640,1.16827,0.70745,0.75437,-0.13867,0.39692,-0.00324,-0.0024,-0.0024,-0.2027,-0.0073,-0.0073,-0.0073,-0.0073,1.2786,-4.9846,7.6239,2.4396,0.0757,0.0269,-0.0073,1,1,1,1,1,1,1
11.7685,sweep,3,-down,0.08640,1.16827,0.70745,0.75437,-0.13867,0.39692,-0.00324,-0.0024,-0.0024,-0.2027,-0.0073,-0.0073,-0.0073,-0.0073,1.2786,-4.9846,7.6239,2.4396,0.0757,0.0269,-0.0073,1,1,1,1,1,1,1
11.8078,sweep,3,-down,0.08640,1.16827,0.70745,0.75437,-0.13905,0.39692,-0.00324,-0.0024,-0.0024,-0.2027,-0.0073,-0.0220,-0.0073,-0.0073,1.2786,-4.9846,7.6239,2.4347,0.0757,0.0269,-0.0073,1,1,1,1,1,1,1
11.8480,sweep,3,-down,0.08640,1.16827,0.68379,0.75437,-0.13905,0.39692,-0.00324,-0.0024,-0.0073,-0.1929,-0.0073,-0.0220,-0.0073,-0.0073,1.2786,-4.9573,7.4188,2.4347,0.0757,0.0269,-0.0073,1,1,1,1,1,1,1
11.8877,sweep,3,-down,0.08640,1.16827,0.68379,0.75437,-0.13905,0.39692,-0.00324,-0.0024,-0.0073,-0.1929,-0.0073,-0.0220,-0.0073,-0.0073,1.2786,-4.9573,7.4188,2.4347,0.0757,0.0269,-0.0073,1,1,1,1,1,1,1
11.9285,sweep,3,-down,0.08640,1.16827,0.66777,0.75437,-0.13867,0.39731,-0.00362,-0.0073,-0.0024,-0.2027,-0.0220,-0.0073,0.0073,-0.0073,1.2923,-4.9162,7.4325,2.4640,0.0757,0.0269,-0.0122,1,1,1,1,1,1,1
11.9676,sweep,3,-down,0.08640,1.16827,0.66777,0.75437,-0.13867,0.39731,-0.00362,-0.0073,-0.0024,-0.2027,-0.0220,-0.0073,0.0073,-0.0073,1.2923,-4.9162,7.4325,2.4640,0.0757,0.0269,-0.0122,1,1,1,1,1,1,1
12.0082,sweep,3,-down,0.08640,1.16827,0.66777,0.75475,-0.13867,0.39692,-0.00362,-0.0073,-0.0024,-0.2027,-0.0073,-0.0073,-0.0073,-0.0073,1.2923,-4.9162,7.4325,2.4591,0.0708,0.0269,-0.0122,1,1,1,1,1,1,1
12.0475,sweep,3,-down,0.08640,1.16827,0.64412,0.75475,-0.13867,0.39692,-0.00362,-0.0024,-0.0024,-0.2076,-0.0073,-0.0073,-0.0073,-0.0073,1.2650,-4.9162,7.2547,2.4591,0.0708,0.0269,-0.0122,1,1,1,1,1,1,1
12.0874,sweep,3,-down,0.08640,1.16827,0.64412,0.75475,-0.13867,0.39692,-0.00362,-0.0024,-0.0024,-0.2076,-0.0073,-0.0073,-0.0073,-0.0073,1.2650,-4.9162,7.2547,2.4591,0.0708,0.0269,-0.0122,1,1,1,1,1,1,1
12.1275,sweep,3,-down,0.08640,1.16827,0.62772,0.75399,-0.13867,0.39731,-0.00362,-0.0024,0.0024,-0.2027,-0.0073,-0.0073,0.0073,-0.0220,1.2786,-4.9026,7.5692,2.5031,0.0708,0.0269,-0.0122,1,1,1,1,1,1,1
12.1677,sweep,3,-down,0.08640,1.16827,0.62772,0.75399,-0.13867,0.39731,-0.00362,-0.0024,0.0024,-0.2027,-0.0073,-0.0073,0.0073,-0.0220,1.2786,-4.9026,7.5692,2.5031,0.0708,0.0269,-0.0122,1,1,1,1,1,1,1
12.2076,sweep,3,-down,0.08640,1.16827,0.62772,0.75399,-0.13867,0.39731,-0.00362,-0.0024,0.0024,-0.2027,-0.0073,-0.0073,0.0073,-0.0220,1.2786,-4.9026,7.5692,2.5031,0.0708,0.0269,-0.0122,1,1,1,1,1,1,1
12.2476,sweep,3,-down,0.08640,1.16827,0.60407,0.75437,-0.13867,0.39692,-0.00324,-0.0024,-0.0024,-0.1978,-0.0366,0.0073,-0.0073,-0.0073,1.3197,-4.8752,7.2000,2.4835,0.0611,0.0317,-0.0024,1,1,1,1,1,1,1
12.2874,sweep,3,-down,0.08640,1.16827,0.60407,0.75437,-0.13867,0.39692,-0.00324,-0.0024,-0.0024,-0.1978,-0.0366,0.0073,-0.0073,-0.0073,1.3197,-4.8752,7.2000,2.4835,0.0611,0.0317,-0.0024,1,1,1,1,1,1,1
12.3275,sweep,3,-down,0.08640,1.16827,0.58804,0.75437,-0.13867,0.39731,-0.00324,0.0024,-0.0024,-0.1978,0.0073,-0.0073,-0.0220,0.0073,1.3060,-4.8479,7.2000,2.5128,0.0659,0.0269,-0.0073,1,1,1,1,1,1,1
12.3676,sweep,3,-down,0.08640,1.16827,0.58804,0.75437,-0.13867,0.39731,-0.00324,0.0024,-0.0024,-0.1978,0.0073,-0.0073,-0.0220,0.0073,1.3060,-4.8479,7.2000,2.5128,0.0659,0.0269,-0.0073,1,1,1,1,1,1,1
12.4079,sweep,3,-down,0.08640,1.16827,0.58804,0.75437,-0.13867,0.39731,-0.00324,0.0024,-0.0024,-0.1978,0.0073,-0.0073,-0.0220,0.0073,1.3060,-4.8479,7.2000,2.5128,0.0659,0.0269,-0.0073,1,1,1,1,1,1,1
12.4474,sweep,3,-down,0.08640,1.16827,0.56401,0.75475,-0.13867,0.39692,-0.00362,-0.0024,0.0024,-0.2027,-0.0073,-0.0073,-0.0073,-0.0073,1.2513,-4.7932,6.9949,2.4542,0.0513,0.0269,-0.0073,1,1,1,1,1,1,1
12.4874,sweep,3,-down,0.08640,1.16827,0.56401,0.75475,-0.13867,0.39692,-0.00362,-0.0024,0.0024,-0.2027,-0.0073,-0.0073,-0.0073,-0.0073,1.2513,-4.7932,6.9949,2.4542,0.0513,0.0269,-0.0073,1,1,1,1,1,1,1
12.5279,sweep,3,-down,0.08640,1.16827,0.54799,0.75437,-0.13867,0.39731,-0.00324,-0.0024,-0.0024,-0.2027,-0.0073,0.0073,0.0073,-0.0073,1.2650,-4.7795,7.3368,2.4982,0.0562,0.0317,-0.0073,1,1,1,1,1,1,1
12.5677,sweep,3,-down,0.08640,1.16827,0.54799,0.75437,-0.13867,0.39731,-0.00324,-0.0024,-0.0024,-0.2027,-0.0073,0.0073,0.0073,-0.0073,1.2650,-4.7795,7.3368,2.4982,0.0562,0.0317,-0.0073,1,1,1,1,1,1,1
12.6074,sweep,3,-down,0.08640,1.16827,0.54799,0.75437,-0.13867,0.39731,-0.00324,-0.0024,-0.0024,-0.2027,-0.0073,0.0073,0.0073,-0.0073,1.2650,-4.7795,7.3368,2.4982,0.0562,0.0317,-0.0073,1,1,1,1,1,1,1
12.6475,sweep,3,-down,0.08640,1.16827,0.52434,0.75437,-0.13867,0.39731,-0.00324,0.0024,-0.0024,-0.2125,0.0073,-0.0073,-0.0073,-0.0073,1.2376,-4.7658,6.8718,2.4884,0.0513,0.0317,-0.0024,1,1,1,1,1,1,1
12.6876,sweep,3,-down,0.08640,1.16827,0.52434,0.75437,-0.13867,0.39731,-0.00324,0.0024,-0.0024,-0.2125,0.0073,-0.0073,-0.0073,-0.0073,1.2376,-4.7658,6.8718,2.4884,0.0513,0.0317,-0.0024,1,1,1,1,1,1,1
12.7275,sweep,3,-down,0.08640,1.16827,0.50832,0.75437,-0.13867,0.39731,-0.00324,-0.0073,-0.0024,-0.1880,-0.0073,-0.0220,-0.0073,-0.0073,1.2786,-4.7521,6.6393,2.5128,0.0513,0.0317,-0.0122,1,1,1,1,1,1,1
12.7675,sweep,3,-down,0.08640,1.16827,0.50832,0.75437,-0.13867,0.39731,-0.00324,-0.0073,-0.0024,-0.1880,-0.0073,-0.0220,-0.0073,-0.0073,1.2786,-4.7521,6.6393,2.5128,0.0513,0.0317,-0.0122,1,1,1,1,1,1,1
12.8073,sweep,3,-down,0.08640,1.16827,0.50832,0.75437,-0.13867,0.39731,-0.00324,-0.0073,-0.0024,-0.1880,-0.0073,-0.0220,-0.0073,-0.0073,1.2786,-4.7521,6.6393,2.5128,0.0513,0.0317,-0.0122,1,1,1,1,1,1,1
12.8478,sweep,3,-down,0.08640,1.16827,0.48428,0.75437,-0.13867,0.39692,-0.00324,-0.0024,0.0024,-0.1978,-0.0073,-0.0073,-0.0073,0.0073,1.2650,-4.7248,6.9949,2.4982,0.0562,0.0317,-0.0073,1,1,1,1,1,1,1
12.8879,sweep,3,-down,0.08640,1.16827,0.48428,0.75437,-0.13867,0.39692,-0.00324,-0.0024,0.0024,-0.1978,-0.0073,-0.0073,-0.0073,0.0073,1.2650,-4.7248,6.9949,2.4982,0.0562,0.0317,-0.0073,1,1,1,1,1,1,1
12.9276,sweep,3,-down,0.08640,1.16827,0.46788,0.75437,-0.13867,0.39692,-0.00324,-0.0024,-0.0024,-0.2076,0.0073,0.0073,-0.0220,-0.0073,1.2923,-4.6974,6.9812,2.5177,0.0562,0.0317,-0.0073,1,1,1,1,1,1,1
12.9675,sweep,3,-down,0.08640,1.16827,0.46788,0.75437,-0.13867,0.39692,-0.00324,-0.0024,-0.0024,-0.2076,0.0073,0.0073,-0.0220,-0.0073,1.2923,-4.6974,6.9812,2.5177,0.0562,0.0317,-0.0073,1,1,1,1,1,1,1
13.0073,sweep,3,-down,0.08640,1.16827,0.46788,0.75437,-0.13867,0.39692,-0.00324,-0.0024,-0.0024,-0.2076,0.0073,0.0073,-0.0220,-0.0073,1.2923,-4.6974,6.9812,2.5177,0.0562,0.0317,-0.0073,1,1,1,1,1,1,1
13.0476,sweep,3,-down,0.08640,1.16827,0.44423,0.75437,-0.13867,0.39731,-0.00362,-0.0073,-0.0024,-0.2076,0.0073,-0.0220,0.0073,0.0073,1.2513,-4.6974,6.5846,2.5275,0.0562,0.0317,-0.0073,1,1,1,1,1,1,1
13.0875,sweep,3,-down,0.08640,1.16827,0.44423,0.75437,-0.13867,0.39731,-0.00362,-0.0073,-0.0024,-0.2076,0.0073,-0.0220,0.0073,0.0073,1.2513,-4.6974,6.5846,2.5275,0.0562,0.0317,-0.0073,1,1,1,1,1,1,1
13.1277,sweep,3,-down,0.08640,1.16827,0.42859,0.75437,-0.13867,0.39692,-0.00362,-0.0024,-0.0024,-0.2076,0.0073,-0.0073,-0.0073,-0.0073,1.2376,-4.6838,6.1607,2.5031,0.0562,0.0317,-0.0024,1,1,1,1,1,1,1
13.1674,sweep,3,-down,0.08640,1.16827,0.42859,0.75437,-0.13867,0.39692,-0.00362,-0.0024,-0.0024,-0.2076,0.0073,-0.0073,-0.0073,-0.0073,1.2376,-4.6838,6.1607,2.5031,0.0562,0.0317,-0.0024,1,1,1,1,1,1,1
13.2078,sweep,3,-down,0.08640,1.16827,0.42859,0.75437,-0.13867,0.39692,-0.00362,-0.0024,-0.0024,-0.2076,0.0073,-0.0073,-0.0073,-0.0073,1.2376,-4.6838,6.1607,2.5031,0.0562,0.0317,-0.0024,1,1,1,1,1,1,1
13.2476,sweep,3,-down,0.08640,1.16827,0.40455,0.75437,-0.13867,0.39692,-0.00362,-0.0024,-0.0073,-0.1978,-0.0220,-0.0073,-0.0220,-0.0073,1.2103,-4.6291,6.5846,2.5031,0.0513,0.0317,-0.0073,1,1,1,1,1,1,1
13.2873,sweep,3,-down,0.08640,1.16827,0.40455,0.75437,-0.13867,0.39692,-0.00362,-0.0024,-0.0073,-0.1978,-0.0220,-0.0073,-0.0220,-0.0073,1.2103,-4.6291,6.5846,2.5031,0.0513,0.0317,-0.0073,1,1,1,1,1,1,1
13.3274,sweep,3,-down,0.08640,1.16827,0.38853,0.75475,-0.13867,0.39692,-0.00362,-0.0024,-0.0024,-0.1880,-0.0220,-0.0073,-0.0073,-0.0073,1.2239,-4.6154,6.5026,2.4786,0.0464,0.0317,-0.0073,1,1,1,1,1,1,1
13.3673,sweep,3,-down,0.08640,1.16827,0.38853,0.75475,-0.13867,0.39692,-0.00362,-0.0024,-0.0024,-0.1880,-0.0220,-0.0073,-0.0073,-0.0073,1.2239,-4.6154,6.5026,2.4786,0.0464,0.0317,-0.0073,1,1,1,1,1,1,1
13.4073,sweep,3,-down,0.08640,1.16827,0.38853,0.75475,-0.13867,0.39692,-0.00362,-0.0024,-0.0024,-0.1880,-0.0220,-0.0073,-0.0073,-0.0073,1.2239,-4.6154,6.5026,2.4786,0.0464,0.0317,-0.0073,1,1,1,1,1,1,1
13.4475,sweep,3,-down,0.08640,1.16827,0.36488,0.75437,-0.13867,0.39692,-0.00324,-0.0024,-0.0073,-0.1880,-0.0073,0.0073,-0.0073,0.0073,1.1966,-4.6017,6.2564,2.5031,0.0464,0.0317,-0.0024,1,1,1,1,1,1,1
13.4875,sweep,3,-down,0.08640,1.16827,0.36488,0.75437,-0.13867,0.39692,-0.00324,-0.0024,-0.0073,-0.1880,-0.0073,0.0073,-0.0073,0.0073,1.1966,-4.6017,6.2564,2.5031,0.0464,0.0317,-0.0024,1,1,1,1,1,1,1
13.5275,sweep,3,-down,0.08640,1.16827,0.34886,0.75475,-0.13867,0.39692,-0.00324,-0.0024,0.0024,-0.2027,-0.0220,-0.0073,-0.0073,-0.0073,1.1692,-4.5607,5.9145,2.4835,0.0464,0.0366,-0.0024,1,1,1,1,1,1,1
13.5675,sweep,3,-down,0.08640,1.16827,0.34886,0.75475,-0.13867,0.39692,-0.00324,-0.0024,0.0024,-0.2027,-0.0220,-0.0073,-0.0073,-0.0073,1.1692,-4.5607,5.9145,2.4835,0.0464,0.0366,-0.0024,1,1,1,1,1,1,1
13.6075,sweep,3,-down,0.08640,1.16827,0.34886,0.75475,-0.13867,0.39692,-0.00324,-0.0024,0.0024,-0.2027,-0.0220,-0.0073,-0.0073,-0.0073,1.1692,-4.5607,5.9145,2.4835,0.0464,0.0366,-0.0024,1,1,1,1,1,1,1
13.6476,sweep,3,-down,0.08640,1.16827,0.32483,0.75475,-0.13867,0.39692,-0.00324,-0.0024,-0.0073,-0.1978,-0.0073,-0.0073,-0.0220,0.0073,1.1829,-4.5744,6.1880,2.4640,0.0464,0.0464,-0.0073,1,1,1,1,1,1,1
13.6873,sweep,3,-down,0.08640,1.16827,0.32483,0.75475,-0.13867,0.39692,-0.00324,-0.0024,-0.0073,-0.1978,-0.0073,-0.0073,-0.0220,0.0073,1.1829,-4.5744,6.1880,2.4640,0.0464,0.0464,-0.0073,1,1,1,1,1,1,1
13.7274,sweep,3,-down,0.08640,1.16827,0.30880,0.75475,-0.13867,0.39692,-0.00324,-0.0024,-0.0024,-0.2125,-0.0073,-0.0073,-0.0220,-0.0220,1.1692,-4.5470,6.2701,2.4542,0.0464,0.0464,-0.0024,1,1,1,1,1,1,1
13.7674,sweep,3,-down,0.08640,1.16827,0.30880,0.75475,-0.13867,0.39692,-0.00324,-0.0024,-0.0024,-0.2125,-0.0073,-0.0073,-0.0220,-0.0220,1.1692,-4.5470,6.2701,2.4542,0.0464,0.0464,-0.0024,1,1,1,1,1,1,1
13.8073,sweep,3,-down,0.08640,1.16827,0.30880,0.75475,-0.13867,0.39692,-0.00324,-0.0024,-0.0024,-0.2125,-0.0073,-0.0073,-0.0220,-0.0220,1.1692,-4.5470,6.2701,2.4542,0.0464,0.0464,-0.0024,1,1,1,1,1,1,1
13.8475,sweep,3,-down,0.08640,1.16827,0.28515,0.75475,-0.13905,0.39692,-0.00362,-0.0024,-0.0024,-0.2027,-0.0073,-0.0073,-0.0220,-0.0220,1.1692,-4.4923,5.6273,2.4640,0.0464,0.0562,-0.0073,1,1,1,1,1,1,1
13.8875,sweep,3,-down,0.08640,1.16827,0.28515,0.75475,-0.13905,0.39692,-0.00362,-0.0024,-0.0024,-0.2027,-0.0073,-0.0073,-0.0220,-0.0220,1.1692,-4.4923,5.6273,2.4640,0.0464,0.0562,-0.0073,1,1,1,1,1,1,1
13.9273,sweep,3,-down,0.08640,1.16827,0.26913,0.75475,-0.13867,0.39692,-0.00362,0.0024,-0.0024,-0.1978,-0.0073,-0.0220,0.0073,-0.0073,1.1829,-4.4786,5.8188,2.4347,0.0464,0.0562,-0.0024,1,1,1,1,1,1,1
13.9676,sweep,3,-down,0.08640,1.16827,0.26913,0.75475,-0.13867,0.39692,-0.00362,0.0024,-0.0024,-0.1978,-0.0073,-0.0220,0.0073,-0.0073,1.1829,-4.4786,5.8188,2.4347,0.0464,0.0562,-0.0024,1,1,1,1,1,1,1
14.0078,sweep,3,-down,0.08640,1.16827,0.26913,0.75475,-0.13867,0.39692,-0.00362,0.0024,-0.0024,-0.1978,-0.0073,-0.0220,0.0073,-0.0073,1.1829,-4.4786,5.8188,2.4347,0.0464,0.0562,-0.0024,1,1,1,1,1,1,1
14.0475,sweep,3,-down,0.08640,1.16827,0.24624,0.75475,-0.13867,0.39692,-0.00324,0.0024,0.0024,-0.1587,-0.0073,-0.0073,0.0073,-0.0073,1.1556,-4.4103,5.8872,2.4444,0.0464,0.0659,-0.0073,1,1,1,1,1,1,1
14.0878,sweep,3,-down,0.08640,1.16827,0.24624,0.75475,-0.13867,0.39692,-0.00324,0.0024,0.0024,-0.1587,-0.0073,-0.0073,0.0073,-0.0073,1.1556,-4.4103,5.8872,2.4444,0.0464,0.0659,-0.0073,1,1,1,1,1,1,1
14.1277,sweep,3,-down,0.08640,1.16827,0.23365,0.75475,-0.13905,0.39692,-0.00362,-0.0073,-0.0024,-0.1441,0.0220,0.0073,-0.0073,-0.0073,1.0872,-4.4103,5.6273,2.4347,0.0415,0.0659,-0.0073,1,1,1,1,1,1,1
14.1673,sweep,3,-down,0.08640,1.16827,0.23365,0.75475,-0.13905,0.39692,-0.00362,-0.0073,-0.0024,-0.1441,0.0220,0.0073,-0.0073,-0.0073,1.0872,-4.4103,5.6273,2.4347,0.0415,0.0659,-0.0073,1,1,1,1,1,1,1
14.2076,sweep,3,-down,0.08640,1.16827,0.23365,0.75475,-0.13905,0.39692,-0.00362,-0.0073,-0.0024,-0.1441,0.0220,0.0073,-0.0073,-0.0073,1.0872,-4.4103,5.6273,2.4347,0.0415,0.0659,-0.0073,1,1,1,1,1,1,1
14.2475,sweep,3,-down,0.08640,1.16827,0.21649,0.75475,-0.13905,0.39692,-0.00362,-0.0024,-0.0024,-0.1294,0.0220,-0.0220,-0.0220,-0.0073,1.1282,-4.3419,5.5043,2.4200,0.0464,0.0757,-0.0073,1,1,1,1,1,1,1
14.2876,sweep,3,-down,0.08640,1.16827,0.21649,0.75475,-0.13905,0.39692,-0.00362,-0.0024,-0.0024,-0.1294,0.0220,-0.0220,-0.0220,-0.0073,1.1282,-4.3419,5.5043,2.4200,0.0464,0.0757,-0.0073,1,1,1,1,1,1,1
14.3277,sweep,3,-down,0.08640,1.16827,0.20657,0.75475,-0.13867,0.39692,-0.00324,-0.0024,-0.0024,-0.1441,-0.0073,-0.0220,-0.0073,-0.0073,1.1966,-4.3145,5.6137,2.4298,0.0513,0.0757,-0.0073,1,1,1,1,1,1,1
14.3676,sweep,3,-down,0.08640,1.16827,0.20657,0.75475,-0.13867,0.39692,-0.00324,-0.0024,-0.0024,-0.1441,-0.0073,-0.0220,-0.0073,-0.0073,1.1966,-4.3145,5.6137,2.4298,0.0513,0.0757,-0.0073,1,1,1,1,1,1,1
14.4076,sweep,3,-down,0.08640,1.16827,0.20657,0.75475,-0.13867,0.39692,-0.00324,-0.0024,-0.0024,-0.1441,-0.0073,-0.0220,-0.0073,-0.0073,1.1966,-4.3145,5.6137,2.4298,0.0513,0.0757,-0.0073,1,1,1,1,1,1,1
14.4475,sweep,3,-down,0.08640,1.16827,0.19322,0.75475,-0.13905,0.39692,-0.00362,-0.0024,-0.0024,-0.1099,-0.0366,-0.0073,-0.0073,-0.0073,1.2103,-4.2598,5.8188,2.4151,0.0513,0.0855,-0.0122,1,1,1,1,1,1,1
14.4875,sweep,3,-down,0.08640,1.16827,0.19322,0.75475,-0.13905,0.39692,-0.00362,-0.0024,-0.0024,-0.1099,-0.0366,-0.0073,-0.0073,-0.0073,1.2103,-4.2598,5.8188,2.4151,0.0513,0.0855,-0.0122,1,1,1,1,1,1,1
14.5276,sweep,3,-down,0.08640,1.16827,0.18597,0.75513,-0.13867,0.39692,-0.00362,-0.0024,0.0024,-0.0952,0.0073,-0.0073,0.0073,-0.0073,1.2239,-4.1778,5.3812,2.4005,0.0562,0.0855,-0.0073,1,1,1,1,1,1,1
14.5676,sweep,3,-down,0.08640,1.16827,0.18597,0.75513,-0.13867,0.39692,-0.00362,-0.0024,0.0024,-0.0952,0.0073,-0.0073,0.0073,-0.0073,1.2239,-4.1778,5.3812,2.4005,0.0562,0.0855,-0.0073,1,1,1,1,1,1,1
14.6077,sweep,3,-down,0.08640,1.16827,0.18597,0.75513,-0.13867,0.39692,-0.00362,-0.0024,0.0024,-0.0952,0.0073,-0.0073,0.0073,-0.0073,1.2239,-4.1778,5.3812,2.4005,0.0562,0.0855,-0.0073,1,1,1,1,1,1,1
14.6478,sweep,3,-down,0.08640,1.16827,0.17567,0.75475,-0.13867,0.39692,-0.00324,-0.0073,0.0024,-0.0757,0.0073,-0.0073,-0.0073,-0.0073,1.2513,-4.0821,5.6957,2.3956,0.0562,0.0904,-0.0073,1,1,1,1,1,1,1
14.6875,sweep,3,-down,0.08640,1.16827,0.17567,0.75475,-0.13867,0.39692,-0.00324,-0.0073,0.0024,-0.0757,0.0073,-0.0073,-0.0073,-0.0073,1.2513,-4.0821,5.6957,2.3956,0.0562,0.0904,-0.0073,1,1,1,1,1,1,1
14.7275,sweep,3,-down,0.08640,1.16827,0.17033,0.75513,-0.13867,0.39692,-0.00362,-0.0024,0.0024,-0.0708,-0.0073,-0.0073,0.0073,-0.0220,1.2376,-4.0137,5.3675,2.3761,0.0562,0.0952,-0.0073,1,1,1,1,1,1,1
14.7676,sweep,3,-down,0.08640,1.16827,0.17033,0.75513,-0.13867,0.39692,-0.00362,-0.0024,0.0024,-0.0708,-0.0073,-0.0073,0.0073,-0.0220,1.2376,-4.0137,5.3675,2.3761,0.0562,0.0952,-0.0073,1,1,1,1,1,1,1
14.8075,sweep,3,-down,0.08640,1.16827,0.17033,0.75513,-0.13867,0.39692,-0.00362,-0.0024,0.0024,-0.0708,-0.0073,-0.0073,0.0073,-0.0220,1.2376,-4.0137,5.3675,2.3761,0.0562,0.0952,-0.0073,1,1,1,1,1,1,1
14.8476,sweep,3,-down,0.08640,1.16827,0.16270,0.75513,-0.13867,0.39692,-0.00362,-0.0024,0.0024,-0.0611,-0.0220,-0.0073,-0.0220,0.0073,1.2376,-3.9453,5.5863,2.3663,0.0659,0.0952,-0.0073,1,1,1,1,1,1,1
14.8875,sweep,3,-down,0.08640,1.16827,0.16270,0.75513,-0.13867,0.39692,-0.00362,-0.0024,0.0024,-0.0611,-0.0220,-0.0073,-0.0220,0.0073,1.2376,-3.9453,5.5863,2.3663,0.0659,0.0952,-0.0073,1,1,1,1,1,1,1
14.9275,sweep,3,-down,0.08640,1.16827,0.15812,0.75475,-0.13905,0.39692,-0.00324,-0.0024,0.0024,-0.0611,0.0073,-0.0220,-0.0220,-0.0073,1.2650,-3.8906,5.3812,2.3712,0.0659,0.0952,-0.0024,1,1,1,1,1,1,1
14.9674,sweep,3,-down,0.08640,1.16827,0.15812,0.75475,-0.13905,0.39692,-0.00324,-0.0024,0.0024,-0.0611,0.0073,-0.0220,-0.0220,-0.0073,1.2650,-3.8906,5.3812,2.3712,0.0659,0.0952,-0.0024,1,1,1,1,1,1,1
15.0079,sweep,3,-down,0.08640,1.16827,0.15812,0.75475,-0.13905,0.39692,-0.00324,-0.0024,0.0024,-0.0611,0.0073,-0.0220,-0.0220,-0.0073,1.2650,-3.8906,5.3812,2.3712,0.0659,0.0952,-0.0024,1,1,1,1,1,1,1
15.0475,sweep,3,-down,0.08640,1.16827,0.15278,0.75513,-0.13867,0.39692,-0.00324,-0.0024,-0.0024,-0.0659,0.0073,-0.0220,-0.0073,-0.0073,1.2239,-3.8222,5.0940,2.3468,0.0659,0.1050,-0.0024,1,1,1,1,1,1,1
15.0877,sweep,3,-down,0.08640,1.16827,0.15278,0.75513,-0.13867,0.39692,-0.00324,-0.0024,-0.0024,-0.0659,0.0073,-0.0220,-0.0073,-0.0073,1.2239,-3.8222,5.0940,2.3468,0.0659,0.1050,-0.0024,1,1,1,1,1,1,1
15.1275,sweep,3,-down,0.08640,1.16827,0.14935,0.75475,-0.13867,0.39692,-0.00362,-0.0024,-0.0024,-0.0415,-0.0073,0.0073,-0.0220,-0.0220,1.1966,-3.7538,5.2718,2.3565,0.0659,0.1050,-0.0024,1,1,1,1,1,1,1
15.1680,sweep,3,-down,0.08640,1.16827,0.14935,0.75475,-0.13867,0.39692,-0.00362,-0.0024,-0.0024,-0.0415,-0.0073,0.0073,-0.0220,-0.0220,1.1966,-3.7538,5.2718,2.3565,0.0659,0.1050,-0.0024,1,1,1,1,1,1,1
15.2076,sweep,3,-down,0.08640,1.16827,0.14935,0.75475,-0.13867,0.39692,-0.00362,-0.0024,-0.0024,-0.0415,-0.0073,0.0073,-0.0220,-0.0220,1.1966,-3.7538,5.2718,2.3565,0.0659,0.1050,-0.0024,1,1,1,1,1,1,1
15.2478,sweep,3,-down,0.08640,1.16827,0.14477,0.75475,-0.13867,0.39692,-0.00324,0.0024,-0.0024,-0.0269,-0.0073,-0.0073,-0.0073,-0.0220,1.1966,-3.7265,5.3265,2.3419,0.0611,0.1148,-0.0024,1,1,1,1,1,1,1
15.2878,sweep,3,-down,0.08640,1.16827,0.14477,0.75475,-0.13867,0.39692,-0.00324,0.0024,-0.0024,-0.0269,-0.0073,-0.0073,-0.0073,-0.0220,1.1966,-3.7265,5.3265,2.3419,0.0611,0.1148,-0.0024,1,1,1,1,1,1,1
15.3276,sweep,3,-down,0.08640,1.16827,0.14248,0.75475,-0.13867,0.39692,-0.00324,-0.0024,-0.0073,-0.0220,-0.0073,-0.0073,-0.0220,0.0073,1.1966,-3.6855,4.8068,2.3468,0.0611,0.1099,-0.0073,1,1,1,1,1,1,1
15.3676,sweep,3,-down,0.08640,1.16827,0.14248,0.75475,-0.13867,0.39692,-0.00324,-0.0024,-0.0073,-0.0220,-0.0073,-0.0073,-0.0220,0.0073,1.1966,-3.6855,4.8068,2.3468,0.0611,0.1099,-0.0073,1,1,1,1,1,1,1
15.4078,sweep,3,-down,0.08640,1.16827,0.14248,0.75475,-0.13867,0.39692,-0.00324,-0.0024,-0.0073,-0.0220,-0.0073,-0.0073,-0.0220,0.0073,1.1966,-3.6855,4.8068,2.3468,0.0611,0.1099,-0.0073,1,1,1,1,1,1,1
15.4478,sweep,3,-down,0.08640,1.16827,0.13905,0.75475,-0.13867,0.39731,-0.00324,0.0024,-0.0024,-0.0220,-0.0220,-0.0073,0.0073,-0.0073,1.2103,-3.6171,4.9026,2.3419,0.0659,0.1099,-0.0073,1,1,1,1,1,1,1
15.9506,sweep,3,+up,0.08640,1.16827,0.13828,0.75475,-0.13867,0.39692,-0.00362,0.0024,-0.0024,-0.0269,0.0220,0.0073,-0.0073,-0.0220,1.2103,-3.6034,4.7385,2.3321,0.0659,0.1099,-0.0024,1,1,1,1,1,1,1
15.9906,sweep,3,+up,0.08640,1.16827,0.13828,0.75475,-0.13867,0.39692,-0.00362,0.0024,-0.0024,-0.0269,0.0220,0.0073,-0.0073,-0.0220,1.2103,-3.6034,4.7385,2.3321,0.0659,0.1099,-0.0024,1,1,1,1,1,1,1
16.0308,sweep,3,+up,0.08640,1.16827,0.13180,0.75246,-0.13867,0.39692,-0.00324,-0.0024,-0.0024,0.1392,-0.1245,-0.0073,-0.0073,-0.0073,1.2103,-3.3436,10.3316,2.5324,0.0659,0.1001,-0.0073,1,1,1,1,1,1,1
16.0705,sweep,3,+up,0.08640,1.16827,0.13180,0.75246,-0.13867,0.39692,-0.00324,-0.0024,-0.0024,0.1392,-0.1245,-0.0073,-0.0073,-0.0073,1.2103,-3.3436,10.3316,2.5324,0.0659,0.1001,-0.0073,1,1,1,1,1,1,1
16.1105,sweep,3,+up,0.08640,1.16827,0.13180,0.75246,-0.13867,0.39692,-0.00324,-0.0024,-0.0024,0.1392,-0.1245,-0.0073,-0.0073,-0.0073,1.2103,-3.3436,10.3316,2.5324,0.0659,0.1001,-0.0073,1,1,1,1,1,1,1
16.1508,sweep,3,+up,0.08640,1.16827,0.15774,0.75895,-0.13867,0.39731,-0.00324,-0.0024,-0.0024,0.1880,0.0220,-0.0073,-0.0220,-0.0220,1.2376,-3.2479,7.8291,2.0391,0.0611,0.0855,-0.0122,1,1,1,1,1,1,1
16.1904,sweep,3,+up,0.08640,1.16827,0.15774,0.75895,-0.13867,0.39731,-0.00324,-0.0024,-0.0024,0.1880,0.0220,-0.0073,-0.0220,-0.0220,1.2376,-3.2479,7.8291,2.0391,0.0611,0.0855,-0.0122,1,1,1,1,1,1,1
16.2304,sweep,3,+up,0.08640,1.16827,0.17262,0.75322,-0.13867,0.39731,-0.00324,-0.0073,-0.0024,0.1783,-0.0220,-0.0073,0.0073,0.0073,1.1829,-3.2342,9.1419,2.4347,0.0562,0.0708,-0.0073,1,1,1,1,1,1,1
16.2703,sweep,3,+up,0.08640,1.16827,0.17262,0.75322,-0.13867,0.39731,-0.00324,-0.0073,-0.0024,0.1783,-0.0220,-0.0073,0.0073,0.0073,1.1829,-3.2342,9.1419,2.4347,0.0562,0.0708,-0.0073,1,1,1,1,1,1,1
16.3101,sweep,3,+up,0.08640,1.16827,0.17262,0.75322,-0.13867,0.39731,-0.00324,-0.0073,-0.0024,0.1783,-0.0220,-0.0073,0.0073,0.0073,1.1829,-3.2342,9.1419,2.4347,0.0562,0.0708,-0.0073,1,1,1,1,1,1,1
16.3503,sweep,3,+up,0.08640,1.16827,0.19741,0.75780,-0.13867,0.39769,-0.00324,0.0024,-0.0024,0.1832,-0.0220,-0.0073,-0.0073,-0.0073,1.2103,-3.1521,7.9111,2.0586,0.0562,0.0611,-0.0122,1,1,1,1,1,1,1
16.3903,sweep,3,+up,0.08640,1.16827,0.19741,0.75780,-0.13867,0.39769,-0.00324,0.0024,-0.0024,0.1832,-0.0220,-0.0073,-0.0073,-0.0073,1.2103,-3.1521,7.9111,2.0586,0.0562,0.0611,-0.0122,1,1,1,1,1,1,1
16.4303,sweep,3,+up,0.08640,1.16827,0.21305,0.75360,-0.13867,0.39731,-0.00324,0.0024,-0.0024,0.1929,-0.0659,0.0073,-0.0220,-0.0073,1.2239,-3.1111,8.6906,2.3126,0.0562,0.0513,-0.0073,1,1,1,1,1,1,1
16.4703,sweep,3,+up,0.08640,1.16827,0.21305,0.75360,-0.13867,0.39731,-0.00324,0.0024,-0.0024,0.1929,-0.0659,0.0073,-0.0220,-0.0073,1.2239,-3.1111,8.6906,2.3126,0.0562,0.0513,-0.0073,1,1,1,1,1,1,1
16.5103,sweep,3,+up,0.08640,1.16827,0.21305,0.75360,-0.13867,0.39731,-0.00324,0.0024,-0.0024,0.1929,-0.0659,0.0073,-0.0220,-0.0073,1.2239,-3.1111,8.6906,2.3126,0.0562,0.0513,-0.0073,1,1,1,1,1,1,1
16.5503,sweep,3,+up,0.08640,1.16827,0.23671,0.75360,-0.13867,0.39769,-0.00362,-0.0024,0.0024,0.1880,-0.0073,-0.0220,-0.0073,-0.0073,1.2513,-3.0701,8.9231,2.3468,0.0562,0.0415,-0.0073,1,1,1,1,1,1,1
16.5904,sweep,3,+up,0.08640,1.16827,0.23671,0.75360,-0.13867,0.39769,-0.00362,-0.0024,0.0024,0.1880,-0.0073,-0.0220,-0.0073,-0.0073,1.2513,-3.0701,8.9231,2.3468,0.0562,0.0415,-0.0073,1,1,1,1,1,1,1
16.6305,sweep,3,+up,0.08640,1.16827,0.25235,0.75360,-0.13867,0.39731,-0.00362,-0.0024,-0.0024,0.1880,-0.0073,-0.0073,-0.0073,-0.0220,1.2103,-3.0154,9.5111,2.3907,0.0562,0.0415,-0.0073,1,1,1,1,1,1,1
16.6704,sweep,3,+up,0.08640,1.16827,0.25235,0.75360,-0.13867,0.39731,-0.00362,-0.0024,-0.0024,0.1880,-0.0073,-0.0073,-0.0073,-0.0220,1.2103,-3.0154,9.5111,2.3907,0.0562,0.0415,-0.0073,1,1,1,1,1,1,1
16.7103,sweep,3,+up,0.08640,1.16827,0.25235,0.75360,-0.13867,0.39731,-0.00362,-0.0024,-0.0024,0.1880,-0.0073,-0.0073,-0.0073,-0.0220,1.2103,-3.0154,9.5111,2.3907,0.0562,0.0415,-0.0073,1,1,1,1,1,1,1
16.7503,sweep,3,+up,0.08640,1.16827,0.27638,0.75360,-0.13867,0.39731,-0.00362,-0.0024,0.0024,0.2027,0.0073,-0.0073,-0.0073,0.0073,1.2376,-3.0017,9.4291,2.4249,0.0513,0.0317,-0.0073,1,1,1,1,1,1,1
16.7903,sweep,3,+up,0.08640,1.16827,0.27638,0.75360,-0.13867,0.39731,-0.00362,-0.0024,0.0024,0.2027,0.0073,-0.0073,-0.0073,0.0073,1.2376,-3.0017,9.4291,2.4249,0.0513,0.0317,-0.0073,1,1,1,1,1,1,1
16.8304,sweep,3,+up,0.08640,1.16827,0.29240,0.75360,-0.13867,0.39731,-0.00362,-0.0073,-0.0024,0.2027,-0.0073,-0.0220,-0.0073,-0.0073,1.2650,-3.0154,9.2786,2.4542,0.0513,0.0269,-0.0122,1,1,1,1,1,1,1
16.8703,sweep,3,+up,0.08640,1.16827,0.29240,0.75360,-0.13867,0.39731,-0.00362,-0.0073,-0.0024,0.2027,-0.0073,-0.0220,-0.0073,-0.0073,1.2650,-3.0154,9.2786,2.4542,0.0513,0.0269,-0.0122,1,1,1,1,1,1,1
16.9102,sweep,3,+up,0.08640,1.16827,0.29240,0.75360,-0.13867,0.39731,-0.00362,-0.0073,-0.0024,0.2027,-0.0073,-0.0220,-0.0073,-0.0073,1.2650,-3.0154,9.2786,2.4542,0.0513,0.0269,-0.0122,1,1,1,1,1,1,1
16.9502,sweep,3,+up,0.08640,1.16827,0.31643,0.75399,-0.13867,0.39769,-0.00362,-0.0073,-0.0024,0.1929,-0.0073,-0.0073,-0.0073,-0.0220,1.2513,-3.0427,9.3744,2.4640,0.0464,0.0220,-0.0122,1,1,1,1,1,1,1
16.9903,sweep,3,+up,0.08640,1.16827,0.31643,0.75399,-0.13867,0.39769,-0.00362,-0.0073,-0.0024,0.1929,-0.0073,-0.0073,-0.0073,-0.0220,1.2513,-3.0427,9.3744,2.4640,0.0464,0.0220,-0.0122,1,1,1,1,1,1,1
17.0302,sweep,3,+up,0.08640,1.16827,0.33246,0.75437,-0.13867,0.39731,-0.00362,-0.0024,-0.0024,0.2027,-0.0220,-0.0073,-0.0073,-0.0073,1.2786,-3.0427,9.2376,2.4542,0.0464,0.0171,-0.0122,1,1,1,1,1,1,1
17.0702,sweep,3,+up,0.08640,1.16827,0.33246,0.75437,-0.13867,0.39731,-0.00362,-0.0024,-0.0024,0.2027,-0.0220,-0.0073,-0.0073,-0.0073,1.2786,-3.0427,9.2376,2.4542,0.0464,0.0171,-0.0122,1,1,1,1,1,1,1
17.1104,sweep,3,+up,0.08640,1.16827,0.33246,0.75437,-0.13867,0.39731,-0.00362,-0.0024,-0.0024,0.2027,-0.0220,-0.0073,-0.0073,-0.0073,1.2786,-3.0427,9.2376,2.4542,0.0464,0.0171,-0.0122,1,1,1,1,1,1,1
17.1505,sweep,3,+up,0.08640,1.16827,0.35611,0.75399,-0.13867,0.39769,-0.00324,-0.0024,-0.0024,0.2027,0.0073,-0.0073,0.0073,0.0073,1.2103,-3.0974,9.8393,2.4982,0.0464,0.0171,-0.0122,1,1,1,1,1,1,1
17.1904,sweep,3,+up,0.08640,1.16827,0.35611,0.75399,-0.13867,0.39769,-0.00324,-0.0024,-0.0024,0.2027,0.0073,-0.0073,0.0073,0.0073,1.2103,-3.0974,9.8393,2.4982,0.0464,0.0171,-0.0122,1,1,1,1,1,1,1
17.2305,sweep,3,+up,0.08640,1.16827,0.37213,0.75399,-0.13867,0.39731,-0.00324,-0.0024,-0.0024,0.1978,-0.0220,-0.0073,-0.0073,-0.0073,1.2103,-3.1521,10.0034,2.5128,0.0415,0.0122,-0.0122,1,1,1,1,1,1,1
17.2706,sweep,3,+up,0.08640,1.16827,0.37213,0.75399,-0.13867,0.39731,-0.00324,-0.0024,-0.0024,0.1978,-0.0220,-0.0073,-0.0073,-0.0073,1.2103,-3.1521,10.0034,2.5128,0.0415,0.0122,-0.0122,1,1,1,1,1,1,1
17.3104,sweep,3,+up,0.08640,1.16827,0.37213,0.75399,-0.13867,0.39731,-0.00324,-0.0024,-0.0024,0.1978,-0.0220,-0.0073,-0.0073,-0.0073,1.2103,-3.1521,10.0034,2.5128,0.0415,0.0122,-0.0122,1,1,1,1,1,1,1
17.3504,sweep,3,+up,0.08640,1.16865,0.39616,0.75437,-0.13867,0.39731,-0.00362,-0.0024,0.0024,0.2027,0.0073,0.0073,-0.0220,0.0073,1.2239,-3.3026,10.0171,2.5226,0.0366,0.0073,-0.0073,1,1,1,1,1,1,1
17.3904,sweep,3,+up,0.08640,1.16865,0.39616,0.75437,-0.13867,0.39731,-0.00362,-0.0024,0.0024,0.2027,0.0073,0.0073,-0.0220,0.0073,1.2239,-3.3026,10.0171,2.5226,0.0366,0.0073,-0.0073,1,1,1,1,1,1,1
17.4301,sweep,3,+up,0.08640,1.16865,0.41180,0.75399,-0.13867,0.39731,-0.00362,-0.0024,-0.0024,0.1978,-0.0073,0.0073,-0.0073,-0.0073,1.1966,-3.3436,10.2359,2.5568,0.0317,0.0024,-0.0073,1,1,1,1,1,1,1
17.4703,sweep,3,+up,0.08640,1.16865,0.41180,0.75399,-0.13867,0.39731,-0.00362,-0.0024,-0.0024,0.1978,-0.0073,0.0073,-0.0073,-0.0073,1.1966,-3.3436,10.2359,2.5568,0.0317,0.0024,-0.0073,1,1,1,1,1,1,1
17.5104,sweep,3,+up,0.08640,1.16865,0.41180,0.75399,-0.13867,0.39731,-0.00362,-0.0024,-0.0024,0.1978,-0.0073,0.0073,-0.0073,-0.0073,1.1966,-3.3436,10.2359,2.5568,0.0317,0.0024,-0.0073,1,1,1,1,1,1,1
17.5504,sweep,3,+up,0.08640,1.16865,0.43584,0.75437,-0.13867,0.39769,-0.00362,-0.0024,-0.0024,0.1978,-0.0073,-0.0073,0.0073,-0.0073,1.2650,-3.4120,10.1812,2.5519,0.0269,0.0024,-0.0024,1,1,1,1,1,1,1
17.5902,sweep,3,+up,0.08640,1.16865,0.43584,0.75437,-0.13867,0.39769,-0.00362,-0.0024,-0.0024,0.1978,-0.0073,-0.0073,0.0073,-0.0073,1.2650,-3.4120,10.1812,2.5519,0.0269,0.0024,-0.0024,1,1,1,1,1,1,1
17.6304,sweep,3,+up,0.08640,1.16865,0.45148,0.75437,-0.13867,0.39731,-0.00362,-0.0024,-0.0024,0.2173,0.0073,-0.0073,-0.0073,-0.0073,1.2103,-3.4393,10.5504,2.5763,0.0171,-0.0073,-0.0024,1,1,1,1,1,1,1
17.6704,sweep,3,+up,0.08640,1.16865,0.45148,0.75437,-0.13867,0.39731,-0.00362,-0.0024,-0.0024,0.2173,0.0073,-0.0073,-0.0073,-0.0073,1.2103,-3.4393,10.5504,2.5763,0.0171,-0.0073,-0.0024,1,1,1,1,1,1,1
17.7105,sweep,3,+up,0.08640,1.16865,0.45148,0.75437,-0.13867,0.39731,-0.00362,-0.0024,-0.0024,0.2173,0.0073,-0.0073,-0.0073,-0.0073,1.2103,-3.4393,10.5504,2.5763,0.0171,-0.0073,-0.0024,1,1,1,1,1,1,1
17.7504,sweep,3,+up,0.08640,1.16865,0.47551,0.75437,-0.13867,0.39731,-0.00362,0.0024,-0.0073,0.1929,-0.0073,-0.0220,-0.0073,-0.0073,1.1692,-3.4940,10.6735,2.5714,0.0073,-0.0122,-0.0024,1,1,1,1,1,1,1
17.7902,sweep,3,+up,0.08640,1.16865,0.47551,0.75437,-0.13867,0.39731,-0.00362,0.0024,-0.0073,0.1929,-0.0073,-0.0220,-0.0073,-0.0073,1.1692,-3.4940,10.6735,2.5714,0.0073,-0.0122,-0.0024,1,1,1,1,1,1,1
17.8304,sweep,3,+up,0.08640,1.16865,0.49153,0.75437,-0.13867,0.39731,-0.00362,-0.0024,-0.0024,0.1978,0.0073,0.0073,0.0073,-0.0073,1.1829,-3.5350,10.8103,2.5910,0.0073,-0.0171,-0.0073,1,1,1,1,1,1,1
17.8706,sweep,3,+up,0.08640,1.16865,0.49153,0.75437,-0.13867,0.39731,-0.00362,-0.0024,-0.0024,0.1978,0.0073,0.0073,0.0073,-0.0073,1.1829,-3.5350,10.8103,2.5910,0.0073,-0.0171,-0.0073,1,1,1,1,1,1,1
17.9102,sweep,3,+up,0.08640,1.16865,0.49153,0.75437,-0.13867,0.39731,-0.00362,-0.0024,-0.0024,0.1978,0.0073,0.0073,0.0073,-0.0073,1.1829,-3.5350,10.8103,2.5910,0.0073,-0.0171,-0.0073,1,1,1,1,1,1,1
17.9503,sweep,3,+up,0.08640,1.16865,0.51556,0.75437,-0.13867,0.39731,-0.00362,-0.0024,0.0024,0.1929,0.0073,-0.0073,-0.0073,-0.0073,1.1419,-3.5761,10.6051,2.5910,0.0122,-0.0220,-0.0024,1,1,1,1,1,1,1
17.9902,sweep,3,+up,0.08640,1.16865,0.51556,0.75437,-0.13867,0.39731,-0.00362,-0.0024,0.0024,0.1929,0.0073,-0.0073,-0.0073,-0.0073,1.1419,-3.5761,10.6051,2.5910,0.0122,-0.0220,-0.0024,1,1,1,1,1,1,1
18.0304,sweep,3,+up,0.08640,1.16865,0.53120,0.75437,-0.13867,0.39731,-0.00324,-0.0073,-0.0024,0.1832,-0.0073,-0.0073,-0.0073,-0.0073,1.1556,-3.5897,10.9333,2.5861,0.0073,-0.0317,-0.0073,1,1,1,1,1,1,1
18.0704,sweep,3,+up,0.08640,1.16865,0.53120,0.75437,-0.13867,0.39731,-0.00324,-0.0073,-0.0024,0.1832,-0.0073,-0.0073,-0.0073,-0.0073,1.1556,-3.5897,10.9333,2.5861,0.0073,-0.0317,-0.0073,1,1,1,1,1,1,1
18.1103,sweep,3,+up,0.08640,1.16865,0.53120,0.75437,-0.13867,0.39731,-0.00324,-0.0073,-0.0024,0.1832,-0.0073,-0.0073,-0.0073,-0.0073,1.1556,-3.5897,10.9333,2.5861,0.0073,-0.0317,-0.0073,1,1,1,1,1,1,1
18.1503,sweep,3,+up,0.08640,1.16865,0.55524,0.75437,-0.13867,0.39731,-0.00324,-0.0024,-0.0024,0.1880,-0.0073,-0.0073,-0.0220,-0.0220,1.1009,-3.6308,10.9880,2.5861,-0.0024,-0.0269,-0.0073,1,1,1,1,1,1,1
18.1905,sweep,3,+up,0.08640,1.16865,0.55524,0.75437,-0.13867,0.39731,-0.00324,-0.0024,-0.0024,0.1880,-0.0073,-0.0073,-0.0220,-0.0220,1.1009,-3.6308,10.9880,2.5861,-0.0024,-0.0269,-0.0073,1,1,1,1,1,1,1
18.2304,sweep,3,+up,0.08640,1.16865,0.57126,0.75437,-0.13867,0.39731,-0.00362,0.0024,-0.0073,0.1880,-0.0073,0.0073,-0.0073,-0.0073,1.0872,-3.6855,11.2342,2.5861,-0.0024,-0.0317,-0.0073,1,1,1,1,1,1,1
18.2704,sweep,3,+up,0.08640,1.16865,0.57126,0.75437,-0.13867,0.39731,-0.00362,0.0024,-0.0073,0.1880,-0.0073,0.0073,-0.0073,-0.0073,1.0872,-3.6855,11.2342,2.5861,-0.0024,-0.0317,-0.0073,1,1,1,1,1,1,1
18.3104,sweep,3,+up,0.08640,1.16865,0.57126,0.75437,-0.13867,0.39731,-0.00362,0.0024,-0.0073,0.1880,-0.0073,0.0073,-0.0073,-0.0073,1.0872,-3.6855,11.2342,2.5861,-0.0024,-0.0317,-0.0073,1,1,1,1,1,1,1
18.3502,sweep,3,+up,0.08640,1.16865,0.59529,0.75437,-0.13867,0.39731,-0.00324,-0.0024,-0.0024,0.1929,-0.0220,-0.0073,-0.0073,-0.0073,1.0872,-3.7402,11.0974,2.5861,-0.0073,-0.0366,-0.0024,1,1,1,1,1,1,1
18.3903,sweep,3,+up,0.08640,1.16865,0.59529,0.75437,-0.13867,0.39731,-0.00324,-0.0024,-0.0024,0.1929,-0.0220,-0.0073,-0.0073,-0.0073,1.0872,-3.7402,11.0974,2.5861,-0.0073,-0.0366,-0.0024,1,1,1,1,1,1,1
18.4304,sweep,3,+up,0.08640,1.16865,0.61131,0.75437,-0.13867,0.39731,-0.00324,-0.0024,-0.0024,0.1978,0.0073,0.0073,0.0073,-0.0073,1.0735,-3.7675,10.9333,2.5910,-0.0073,-0.0415,-0.0073,1,1,1,1,1,1,1
18.4703,sweep,3,+up,0.08640,1.16865,0.61131,0.75437,-0.13867,0.39731,-0.00324,-0.0024,-0.0024,0.1978,0.0073,0.0073,0.0073,-0.0073,1.0735,-3.7675,10.9333,2.5910,-0.0073,-0.0415,-0.0073,1,1,1,1,1,1,1
18.5102,sweep,3,+up,0.08640,1.16865,0.61131,0.75437,-0.13867,0.39731,-0.00324,-0.0024,-0.0024,0.1978,0.0073,0.0073,0.0073,-0.0073,1.0735,-3.7675,10.9333,2.5910,-0.0073,-0.0415,-0.0073,1,1,1,1,1,1,1
18.5507,sweep,3,+up,0.08640,1.16865,0.63497,0.75475,-0.13867,0.39731,-0.00362,-0.0024,0.0024,0.2125,-0.0220,-0.0220,-0.0073,-0.0073,1.1419,-3.8085,11.3436,2.5910,-0.0122,-0.0415,-0.0073,1,1,1,1,1,1,1
18.5903,sweep,3,+up,0.08640,1.16865,0.63497,0.75475,-0.13867,0.39731,-0.00362,-0.0024,0.0024,0.2125,-0.0220,-0.0220,-0.0073,-0.0073,1.1419,-3.8085,11.3436,2.5910,-0.0122,-0.0415,-0.0073,1,1,1,1,1,1,1
18.6303,sweep,3,+up,0.08640,1.16865,0.65099,0.75475,-0.13867,0.39731,-0.00324,0.0024,-0.0024,0.2076,-0.0073,-0.0073,-0.0073,-0.0073,1.0735,-3.8496,11.6034,2.5812,-0.0122,-0.0415,-0.0073,1,1,1,1,1,1,1
18.6703,sweep,3,+up,0.08640,1.16865,0.65099,0.75475,-0.13867,0.39731,-0.00324,0.0024,-0.0024,0.2076,-0.0073,-0.0073,-0.0073,-0.0073,1.0735,-3.8496,11.6034,2.5812,-0.0122,-0.0415,-0.0073,1,1,1,1,1,1,1
18.7105,sweep,3,+up,0.08640,1.16865,0.65099,0.75475,-0.13867,0.39731,-0.00324,0.0024,-0.0024,0.2076,-0.0073,-0.0073,-0.0073,-0.0073,1.0735,-3.8496,11.6034,2.5812,-0.0122,-0.0415,-0.0073,1,1,1,1,1,1,1
18.7504,sweep,3,+up,0.08640,1.16865,0.67464,0.75475,-0.13867,0.39731,-0.00362,0.0024,-0.0024,0.2027,-0.0220,-0.0073,0.0073,-0.0073,1.1009,-3.9179,11.7128,2.5617,-0.0122,-0.0513,-0.0073,1,1,1,1,1,1,1
18.7906,sweep,3,+up,0.08640,1.16865,0.67464,0.75475,-0.13867,0.39731,-0.00362,0.0024,-0.0024,0.2027,-0.0220,-0.0073,0.0073,-0.0073,1.1009,-3.9179,11.7128,2.5617,-0.0122,-0.0513,-0.0073,1,1,1,1,1,1,1
18.8305,sweep,3,+up,0.08640,1.16865,0.69104,0.75475,-0.13867,0.39731,-0.00324,-0.0024,-0.0024,0.1929,-0.0073,-0.0073,-0.0073,-0.0073,1.1282,-3.9863,11.4393,2.5421,-0.0171,-0.0513,-0.0122,1,1,1,1,1,1,1
18.8704,sweep,3,+up,0.08640,1.16865,0.69104,0.75475,-0.13867,0.39731,-0.00324,-0.0024,-0.0024,0.1929,-0.0073,-0.0073,-0.0073,-0.0073,1.1282,-3.9863,11.4393,2.5421,-0.0171,-0.0513,-0.0122,1,1,1,1,1,1,1
18.9103,sweep,3,+up,0.08640,1.16865,0.69104,0.75475,-0.13867,0.39731,-0.00324,-0.0024,-0.0024,0.1929,-0.0073,-0.0073,-0.0073,-0.0073,1.1282,-3.9863,11.4393,2.5421,-0.0171,-0.0513,-0.0122,1,1,1,1,1,1,1
18.9502,sweep,3,+up,0.08640,1.16865,0.71469,0.75513,-0.13867,0.39731,-0.00362,-0.0024,-0.0024,0.1783,-0.0220,-0.0220,-0.0073,-0.0073,1.0872,-4.0274,11.6171,2.5177,-0.0171,-0.0513,-0.0073,1,1,1,1,1,1,1
18.9902,sweep,3,+up,0.08640,1.16865,0.71469,0.75513,-0.13867,0.39731,-0.00362,-0.0024,-0.0024,0.1783,-0.0220,-0.0220,-0.0073,-0.0073,1.0872,-4.0274,11.6171,2.5177,-0.0171,-0.0513,-0.0073,1,1,1,1,1,1,1
19.0302,sweep,3,+up,0.08640,1.16865,0.73072,0.75513,-0.13867,0.39731,-0.00324,-0.0024,-0.0024,0.2125,0.0073,-0.0073,-0.0073,-0.0073,1.0872,-4.0821,11.7812,2.5128,-0.0171,-0.0611,-0.0073,1,1,1,1,1,1,1
19.0705,sweep,3,+up,0.08640,1.16865,0.73072,0.75513,-0.13867,0.39731,-0.00324,-0.0024,-0.0024,0.2125,0.0073,-0.0073,-0.0073,-0.0073,1.0872,-4.0821,11.7812,2.5128,-0.0171,-0.0611,-0.0073,1,1,1,1,1,1,1
19.1106,sweep,3,+up,0.08640,1.16865,0.73072,0.75513,-0.13867,0.39731,-0.00324,-0.0024,-0.0024,0.2125,0.0073,-0.0073,-0.0073,-0.0073,1.0872,-4.0821,11.7812,2.5128,-0.0171,-0.0611,-0.0073,1,1,1,1,1,1,1
19.1502,sweep,3,+up,0.08640,1.16865,0.75475,0.75475,-0.13867,0.39731,-0.00324,-0.0024,-0.0024,0.2027,-0.0073,-0.0073,-0.0220,-0.0073,1.0598,-4.0957,11.8632,2.5275,-0.0171,-0.0659,-0.0073,1,1,1,1,1,1,1
19.1902,sweep,3,+up,0.08640,1.16865,0.75475,0.75475,-0.13867,0.39731,-0.00324,-0.0024,-0.0024,0.2027,-0.0073,-0.0073,-0.0220,-0.0073,1.0598,-4.0957,11.8632,2.5275,-0.0171,-0.0659,-0.0073,1,1,1,1,1,1,1
19.2302,sweep,3,+up,0.08640,1.16865,0.77039,0.75513,-0.13867,0.39731,-0.00362,-0.0024,-0.0024,0.1880,0.0220,0.0073,-0.0073,-0.0073,1.0735,-4.1504,11.9726,2.4884,-0.0220,-0.0708,-0.0073,1,1,1,1,1,1,1
19.2704,sweep,3,+up,0.08640,1.16865,0.77039,0.75513,-0.13867,0.39731,-0.00362,-0.0024,-0.0024,0.1880,0.0220,0.0073,-0.0073,-0.0073,1.0735,-4.1504,11.9726,2.4884,-0.0220,-0.0708,-0.0073,1,1,1,1,1,1,1
19.3104,sweep,3,+up,0.08640,1.16865,0.77039,0.75513,-0.13867,0.39731,-0.00362,-0.0024,-0.0024,0.1880,0.0220,0.0073,-0.0073,-0.0073,1.0735,-4.1504,11.9726,2.4884,-0.0220,-0.0708,-0.0073,1,1,1,1,1,1,1
19.3505,sweep,3,+up,0.08640,1.16865,0.79442,0.75475,-0.13867,0.39731,-0.00324,-0.0073,-0.0024,0.2076,0.0073,-0.0073,-0.0073,-0.0073,1.1009,-4.1641,12.1778,2.4689,-0.0220,-0.0757,-0.0073,1,1,1,1,1,1,1
19.3905,sweep,3,+up,0.08640,1.16865,0.79442,0.75475,-0.13867,0.39731,-0.00324,-0.0073,-0.0024,0.2076,0.0073,-0.0073,-0.0073,-0.0073,1.1009,-4.1641,12.1778,2.4689,-0.0220,-0.0757,-0.0073,1,1,1,1,1,1,1
19.4305,sweep,3,+up,0.08640,1.16865,0.81083,0.75475,-0.13867,0.39731,-0.00324,-0.0024,-0.0024,0.1978,0.0220,-0.0073,-0.0220,-0.0073,1.1009,-4.2188,11.6444,2.4591,-0.0269,-0.0855,-0.0073,1,1,1,1,1,1,1
19.4703,sweep,3,+up,0.08640,1.16865,0.81083,0.75475,-0.13867,0.39731,-0.00324,-0.0024,-0.0024,0.1978,0.0220,-0.0073,-0.0220,-0.0073,1.1009,-4.2188,11.6444,2.4591,-0.0269,-0.0855,-0.0073,1,1,1,1,1,1,1
19.5104,sweep,3,+up,0.08640,1.16865,0.81083,0.75475,-0.13867,0.39731,-0.00324,-0.0024,-0.0024,0.1978,0.0220,-0.0073,-0.0220,-0.0073,1.1009,-4.2188,11.6444,2.4591,-0.0269,-0.0855,-0.0073,1,1,1,1,1,1,1
19.5502,sweep,3,+up,0.08640,1.16865,0.83448,0.75437,-0.13828,0.39731,-0.00324,-0.0024,-0.0024,0.1685,0.0073,-0.0073,-0.0220,-0.0073,1.1282,-4.2598,12.1641,2.4786,-0.0415,-0.0952,-0.0073,1,1,1,1,1,1,1
19.5903,sweep,3,+up,0.08640,1.16865,0.83448,0.75437,-0.13828,0.39731,-0.00324,-0.0024,-0.0024,0.1685,0.0073,-0.0073,-0.0220,-0.0073,1.1282,-4.2598,12.1641,2.4786,-0.0415,-0.0952,-0.0073,1,1,1,1,1,1,1
19.6303,sweep,3,+up,0.08640,1.16865,0.84211,0.75437,-0.13828,0.39731,-0.00362,-0.0024,-0.0024,0.1832,-0.0073,-0.0073,-0.0220,-0.0073,1.1282,-4.2872,12.3829,2.4786,-0.0464,-0.1050,-0.0073,1,1,1,1,1,1,1
19.6704,sweep,3,+up,0.08640,1.16865,0.84211,0.75437,-0.13828,0.39731,-0.00362,-0.0024,-0.0024,0.1832,-0.0073,-0.0073,-0.0220,-0.0073,1.1282,-4.2872,12.3829,2.4786,-0.0464,-0.1050,-0.0073,1,1,1,1,1,1,1
19.7103,sweep,3,+up,0.08640,1.16865,0.84211,0.75437,-0.13828,0.39731,-0.00362,-0.0024,-0.0024,0.1832,-0.0073,-0.0073,-0.0220,-0.0073,1.1282,-4.2872,12.3829,2.4786,-0.0464,-0.1050,-0.0073,1,1,1,1,1,1,1
19.7503,sweep,3,+up,0.08640,1.16865,0.87377,0.75437,-0.13790,0.39731,-0.00362,-0.0024,-0.0024,0.1880,-0.0073,0.0073,-0.0073,-0.0073,1.1556,-4.3692,12.7111,2.4591,-0.1001,-0.1148,-0.0024,1,1,1,1,1,1,1
19.7901,sweep,3,+up,0.08640,1.16865,0.87377,0.75437,-0.13790,0.39731,-0.00362,-0.0024,-0.0024,0.1880,-0.0073,0.0073,-0.0073,-0.0073,1.1556,-4.3692,12.7111,2.4591,-0.1001,-0.1148,-0.0024,1,1,1,1,1,1,1
19.8304,sweep,3,+up,0.08640,1.16865,0.89055,0.75437,-0.13790,0.39731,-0.00362,0.0024,-0.0024,0.1880,0.0073,0.0073,-0.0073,-0.0073,1.1692,-4.4103,12.2188,2.4737,-0.1343,-0.1245,-0.0024,1,1,1,1,1,1,1
19.8703,sweep,3,+up,0.08640,1.16865,0.89055,0.75437,-0.13790,0.39731,-0.00362,0.0024,-0.0024,0.1880,0.0073,0.0073,-0.0073,-0.0073,1.1692,-4.4103,12.2188,2.4737,-0.1343,-0.1245,-0.0024,1,1,1,1,1,1,1
19.9102,sweep,3,+up,0.08640,1.16865,0.89055,0.75437,-0.13790,0.39731,-0.00362,0.0024,-0.0024,0.1880,0.0073,0.0073,-0.0073,-0.0073,1.1692,-4.4103,12.2188,2.4737,-0.1343,-0.1245,-0.0024,1,1,1,1,1,1,1
19.9503,sweep,3,+up,0.08640,1.16865,0.91497,0.75551,-0.13905,0.39692,-0.00362,-0.0024,-0.0024,0.1783,-0.0073,-0.0366,-0.0073,-0.0073,1.1692,-4.4513,11.5897,2.3614,-0.0757,-0.0855,-0.0122,1,1,1,1,1,1,1
19.9904,sweep,3,+up,0.08640,1.16865,0.91497,0.75551,-0.13905,0.39692,-0.00362,-0.0024,-0.0024,0.1783,-0.0073,-0.0366,-0.0073,-0.0073,1.1692,-4.4513,11.5897,2.3614,-0.0757,-0.0855,-0.0122,1,1,1,1,1,1,1
20.0303,sweep,3,+up,0.08640,1.16865,0.93061,0.75551,-0.13905,0.39692,-0.00362,-0.0024,0.0024,0.1978,-0.0220,-0.0073,-0.0073,-0.0220,1.1556,-4.5060,11.9043,2.3468,-0.0708,-0.0904,-0.0073,1,1,1,1,1,1,1
20.0704,sweep,3,+up,0.08640,1.16865,0.93061,0.75551,-0.13905,0.39692,-0.00362,-0.0024,0.0024,0.1978,-0.0220,-0.0073,-0.0073,-0.0220,1.1556,-4.5060,11.9043,2.3468,-0.0708,-0.0904,-0.0073,1,1,1,1,1,1,1
20.1105,sweep,3,+up,0.08640,1.16865,0.93061,0.75551,-0.13905,0.39692,-0.00362,-0.0024,0.0024,0.1978,-0.0220,-0.0073,-0.0073,-0.0220,1.1556,-4.5060,11.9043,2.3468,-0.0708,-0.0904,-0.0073,1,1,1,1,1,1,1
20.1504,sweep,3,+up,0.08640,1.16865,0.95464,0.75513,-0.13867,0.39692,-0.00324,0.0024,-0.0024,0.2027,-0.0073,0.0073,0.0073,-0.0073,1.1966,-4.5607,11.9590,2.3126,-0.0806,-0.0806,-0.0122,1,1,1,1,1,1,1
20.1904,sweep,3,+up,0.08640,1.16865,0.95464,0.75513,-0.13867,0.39692,-0.00324,0.0024,-0.0024,0.2027,-0.0073,0.0073,0.0073,-0.0073,1.1966,-4.5607,11.9590,2.3126,-0.0806,-0.0806,-0.0122,1,1,1,1,1,1,1
20.2305,sweep,3,+up,0.08640,1.16865,0.97028,0.75513,-0.13867,0.39692,-0.00362,-0.0073,-0.0024,0.2027,-0.0073,-0.0073,0.0073,-0.0073,1.2103,-4.6017,12.4923,2.3028,-0.0904,-0.0855,-0.0171,1,1,1,1,1,1,1
20.2705,sweep,3,+up,0.08640,1.16865,0.97028,0.75513,-0.13867,0.39692,-0.00362,-0.0073,-0.0024,0.2027,-0.0073,-0.0073,0.0073,-0.0073,1.2103,-4.6017,12.4923,2.3028,-0.0904,-0.0855,-0.0171,1,1,1,1,1,1,1
20.3105,sweep,3,+up,0.08640,1.16865,0.97028,0.75513,-0.13867,0.39692,-0.00362,-0.0073,-0.0024,0.2027,-0.0073,-0.0073,0.0073,-0.0073,1.2103,-4.6017,12.4923,2.3028,-0.0904,-0.0855,-0.0171,1,1,1,1,1,1,1
20.3506,sweep,3,+up,0.08640,1.16865,0.99432,0.75475,-0.13828,0.39731,-0.00362,0.0024,-0.0024,0.2076,-0.0220,-0.0220,-0.0073,-0.0073,1.2103,-4.6701,12.3966,2.3175,-0.1245,-0.0904,-0.0171,1,1,1,1,1,1,1
20.3904,sweep,3,+up,0.08640,1.16865,0.99432,0.75475,-0.13828,0.39731,-0.00362,0.0024,-0.0024,0.2076,-0.0220,-0.0220,-0.0073,-0.0073,1.2103,-4.6701,12.3966,2.3175,-0.1245,-0.0904,-0.0171,1,1,1,1,1,1,1
20.4302,sweep,3,+up,0.08640,1.16865,1.01034,0.75513,-0.13790,0.39731,-0.00324,-0.0024,-0.0073,0.1880,0.0073,0.0073,-0.0073,0.0073,1.2513,-4.7111,12.2598,2.2882,-0.1685,-0.1001,-0.0171,1,1,1,1,1,1,1
20.4703,sweep,3,+up,0.08640,1.16865,1.01034,0.75513,-0.13790,0.39731,-0.00324,-0.0024,-0.0073,0.1880,0.0073,0.0073,-0.0073,0.0073,1.2513,-4.7111,12.2598,2.2882,-0.1685,-0.1001,-0.0171,1,1,1,1,1,1,1
20.5106,sweep,3,+up,0.08640,1.16865,1.01034,0.75513,-0.13790,0.39731,-0.00324,-0.0024,-0.0073,0.1880,0.0073,0.0073,-0.0073,0.0073,1.2513,-4.7111,12.2598,2.2882,-0.1685,-0.1001,-0.0171,1,1,1,1,1,1,1
20.5508,sweep,3,+up,0.08640,1.16865,1.03399,0.75437,-0.13752,0.39731,-0.00324,0.0024,-0.0024,0.2076,-0.0220,0.0073,-0.0220,0.0073,1.2513,-4.7658,12.7658,2.3272,-0.2857,-0.1197,-0.0171,1,1,1,1,1,1,1
20.5905,sweep,3,+up,0.08640,1.16865,1.03399,0.75437,-0.13752,0.39731,-0.00324,0.0024,-0.0024,0.2076,-0.0220,0.0073,-0.0220,0.0073,1.2513,-4.7658,12.7658,2.3272,-0.2857,-0.1197,-0.0171,1,1,1,1,1,1,1
20.6307,sweep,3,+up,0.08640,1.16865,1.04925,0.75437,-0.13676,0.39769,-0.00324,-0.0024,-0.0024,0.1734,0.0073,-0.0073,-0.0073,-0.0073,1.2376,-4.7932,12.7658,2.3028,-0.3932,-0.1392,-0.0171,1,1,1,1,1,1,1
20.6703,sweep,3,+up,0.08640,1.16865,1.04925,0.75437,-0.13676,0.39769,-0.00324,-0.0024,-0.0024,0.1734,0.0073,-0.0073,-0.0073,-0.0073,1.2376,-4.7932,12.7658,2.3028,-0.3932,-0.1392,-0.0171,1,1,1,1,1,1,1
20.7106,sweep,3,+up,0.08640,1.16865,1.04925,0.75437,-0.13676,0.39769,-0.00324,-0.0024,-0.0024,0.1734,0.0073,-0.0073,-0.0073,-0.0073,1.2376,-4.7932,12.7658,2.3028,-0.3932,-0.1392,-0.0171,1,1,1,1,1,1,1
20.7505,sweep,3,+up,0.08602,1.16865,1.06870,0.75399,-0.13676,0.39769,-0.00362,-0.0024,-0.0024,0.1636,-0.0073,-0.0220,-0.0073,-0.0073,1.2376,-4.8342,13.4632,2.3614,-0.5006,-0.1734,-0.0073,1,1,1,1,1,1,1
20.7903,sweep,3,+up,0.08602,1.16865,1.06870,0.75399,-0.13676,0.39769,-0.00362,-0.0024,-0.0024,0.1636,-0.0073,-0.0220,-0.0073,-0.0073,1.2376,-4.8342,13.4632,2.3614,-0.5006,-0.1734,-0.0073,1,1,1,1,1,1,1
20.8305,sweep,3,+up,0.08602,1.16865,1.08053,0.75437,-0.13714,0.39769,-0.00324,-0.0073,-0.0073,0.1245,0.0220,-0.0220,0.0073,0.0073,1.2923,-4.8615,13.2308,2.3663,-0.5592,-0.1880,-0.0073,1,1,1,1,1,1,1
20.8705,sweep,3,+up,0.08602,1.16865,1.08053,0.75437,-0.13714,0.39769,-0.00324,-0.0073,-0.0073,0.1245,0.0220,-0.0220,0.0073,0.0073,1.2923,-4.8615,13.2308,2.3663,-0.5592,-0.1880,-0.0073,1,1,1,1,1,1,1
20.9103,sweep,3,+up,0.08602,1.16865,1.08053,0.75437,-0.13714,0.39769,-0.00324,-0.0073,-0.0073,0.1245,0.0220,-0.0220,0.0073,0.0073,1.2923,-4.8615,13.2308,2.3663,-0.5592,-0.1880,-0.0073,1,1,1,1,1,1,1
20.9503,sweep,3,+up,0.08602,1.16865,1.09541,0.75437,-0.13752,0.39769,-0.00324,0.0024,-0.0024,0.1001,-0.0073,-0.0366,-0.0220,0.0073,1.3060,-4.9299,13.5043,2.3663,-0.6081,-0.2027,-0.0073,1,1,1,1,1,1,1
20.9903,sweep,3,+up,0.08602,1.16865,1.09541,0.75437,-0.13752,0.39769,-0.00324,0.0024,-0.0024,0.1001,-0.0073,-0.0366,-0.0220,0.0073,1.3060,-4.9299,13.5043,2.3663,-0.6081,-0.2027,-0.0073,1,1,1,1,1,1,1
21.0305,sweep,3,+up,0.08602,1.16865,1.10494,0.75475,-0.13790,0.39769,-0.00362,-0.0073,0.0024,0.1197,-0.0073,-0.0220,-0.0073,-0.0073,1.2513,-4.9299,13.1761,2.3468,-0.6032,-0.2222,-0.0073,1,1,1,1,1,1,1
21.0703,sweep,3,+up,0.08602,1.16865,1.10494,0.75475,-0.13790,0.39769,-0.00362,-0.0073,0.0024,0.1197,-0.0073,-0.0220,-0.0073,-0.0073,1.2513,-4.9299,13.1761,2.3468,-0.6032,-0.2222,-0.0073,1,1,1,1,1,1,1
21.1103,sweep,3,+up,0.08602,1.16865,1.10494,0.75475,-0.13790,0.39769,-0.00362,-0.0073,0.0024,0.1197,-0.0073,-0.0220,-0.0073,-0.0073,1.2513,-4.9299,13.1761,2.3468,-0.6032,-0.2222,-0.0073,1,1,1,1,1,1,1
21.1503,sweep,3,+up,0.08602,1.16865,1.11639,0.75475,-0.13828,0.39769,-0.00324,-0.0024,-0.0073,0.0659,-0.0073,-0.0073,-0.0073,-0.0073,1.3060,-5.0256,13.3265,2.3468,-0.5836,-0.2320,-0.0073,1,1,1,1,1,1,1
21.1903,sweep,3,+up,0.08602,1.16865,1.11639,0.75475,-0.13828,0.39769,-0.00324,-0.0024,-0.0073,0.0659,-0.0073,-0.0073,-0.0073,-0.0073,1.3060,-5.0256,13.3265,2.3468,-0.5836,-0.2320,-0.0073,1,1,1,1,1,1,1
21.2302,sweep,3,+up,0.08602,1.16865,1.12325,0.75437,-0.13867,0.39769,-0.00362,-0.0073,-0.0024,0.1050,-0.0073,-0.0073,-0.0073,-0.0073,1.2786,-5.0393,13.0940,2.3468,-0.5836,-0.2369,-0.0122,1,1,1,1,1,1,1
21.2702,sweep,3,+up,0.08602,1.16865,1.12325,0.75437,-0.13867,0.39769,-0.00362,-0.0073,-0.0024,0.1050,-0.0073,-0.0073,-0.0073,-0.0073,1.2786,-5.0393,13.0940,2.3468,-0.5836,-0.2369,-0.0122,1,1,1,1,1,1,1
