peipl15/reBot_Arm/outputs/gravity_calib_20260622_154054.csv
t_s,phase,swept_joint,direction,q1,q2,q3,q4,q5,q6,q7,v1,v2,v3,v4,v5,v6,v7,tau1,tau2,tau3,tau4,tau5,tau6,tau7,st1,st2,st3,st4,st5,st6,st7
0.0024,approach,2,to_lo,-0.03834,0.00057,1.20985,1.60773,-0.12036,1.51045,-0.00973,-0.0024,0.0024,-0.0024,-0.0220,-0.0073,-0.0220,-0.0073,0.0068,0.0068,-0.4718,-0.0073,-0.0904,0.0024,-0.0024,1,1,1,1,1,1,1
0.0424,approach,2,to_lo,-0.03834,0.00057,1.21023,1.60811,-0.11997,1.51045,-0.00973,-0.0024,0.0024,-0.0073,-0.0073,-0.0220,0.0073,0.0073,-0.0068,0.0342,-0.6906,0.0073,-0.0952,-0.0024,-0.0024,1,1,1,1,1,1,1
0.0823,approach,2,to_lo,-0.03834,0.00057,1.21023,1.60811,-0.11997,1.51045,-0.00973,-0.0024,0.0024,-0.0073,-0.0073,-0.0220,0.0073,0.0073,-0.0068,0.0342,-0.6906,0.0073,-0.0952,-0.0024,-0.0024,1,1,1,1,1,1,1
0.1223,approach,2,to_lo,-0.03834,0.00858,1.21023,1.60163,-0.11997,1.51045,-0.00973,0.0024,0.1441,-0.0024,-0.1245,-0.0073,0.0073,-0.0073,-0.0205,4.2051,-0.8684,-0.4567,-0.0952,-0.0024,-0.0024,1,1,1,1,1,1,1
0.1625,approach,2,to_lo,-0.03834,0.00858,1.21023,1.60163,-0.11997,1.51045,-0.00973,0.0024,0.1441,-0.0024,-0.1245,-0.0073,0.0073,-0.0073,-0.0205,4.2051,-0.8684,-0.4567,-0.0952,-0.0024,-0.0024,1,1,1,1,1,1,1
0.2023,approach,2,to_lo,-0.03834,0.00858,1.21023,1.60163,-0.11997,1.51045,-0.00973,0.0024,0.1441,-0.0024,-0.1245,-0.0073,0.0073,-0.0073,-0.0205,4.2051,-0.8684,-0.4567,-0.0952,-0.0024,-0.0024,1,1,1,1,1,1,1
0.2425,approach,2,to_lo,-0.03872,0.02270,1.21023,1.58827,-0.12036,1.51007,-0.00973,-0.0024,0.1001,-0.0073,-0.1392,0.0073,-0.0220,-0.0073,-0.0068,7.8564,-1.1692,-0.6862,-0.0952,-0.0024,-0.0073,1,1,1,1,1,1,1
0.2825,approach,2,to_lo,-0.03872,0.02270,1.21023,1.58827,-0.12036,1.51007,-0.00973,-0.0024,0.1001,-0.0073,-0.1392,0.0073,-0.0220,-0.0073,-0.0068,7.8564,-1.1692,-0.6862,-0.0952,-0.0024,-0.0073,1,1,1,1,1,1,1
0.3225,approach,2,to_lo,-0.03872,0.03071,1.21023,1.58331,-0.12036,1.51007,-0.00973,0.0024,0.0659,-0.0024,-0.0513,-0.0220,-0.0073,-0.0073,0.0068,10.7829,-1.3197,-0.8083,-0.0904,0.0024,-0.0073,1,1,1,1,1,1,1
0.3622,approach,2,to_lo,-0.03872,0.03071,1.21023,1.58331,-0.12036,1.51007,-0.00973,0.0024,0.0659,-0.0024,-0.0513,-0.0220,-0.0073,-0.0073,0.0068,10.7829,-1.3197,-0.8083,-0.0904,0.0024,-0.0073,1,1,1,1,1,1,1
0.4024,approach,2,to_lo,-0.03872,0.03071,1.21023,1.58331,-0.12036,1.51007,-0.00973,0.0024,0.0659,-0.0024,-0.0513,-0.0220,-0.0073,-0.0073,0.0068,10.7829,-1.3197,-0.8083,-0.0904,0.0024,-0.0073,1,1,1,1,1,1,1
0.4427,approach,2,to_lo,-0.03872,0.04253,1.21023,1.57950,-0.12074,1.51045,-0.00973,-0.0024,0.0952,-0.0024,-0.0220,-0.0073,-0.0073,0.0073,-0.0068,13.1077,-1.4017,-1.0623,-0.0757,0.0024,-0.0024,1,1,1,1,1,1,1
0.4826,approach,2,to_lo,-0.03872,0.04253,1.21023,1.57950,-0.12074,1.51045,-0.00973,-0.0024,0.0952,-0.0024,-0.0220,-0.0073,-0.0073,0.0073,-0.0068,13.1077,-1.4017,-1.0623,-0.0757,0.0024,-0.0024,1,1,1,1,1,1,1
0.5228,approach,2,to_lo,-0.03872,0.04902,1.21023,1.57874,-0.12074,1.51007,-0.00973,0.0024,0.0611,-0.0024,-0.0073,-0.0073,0.0073,-0.0220,0.0068,14.8444,-1.4701,-1.2918,-0.0659,0.0024,-0.0073,1,1,1,1,1,1,1
0.5625,approach,2,to_lo,-0.03872,0.04902,1.21023,1.57874,-0.12074,1.51007,-0.00973,0.0024,0.0611,-0.0024,-0.0073,-0.0073,0.0073,-0.0220,0.0068,14.8444,-1.4701,-1.2918,-0.0659,0.0024,-0.0073,1,1,1,1,1,1,1
0.6029,approach,2,to_lo,-0.03872,0.04902,1.21023,1.57874,-0.12074,1.51007,-0.00973,0.0024,0.0611,-0.0024,-0.0073,-0.0073,0.0073,-0.0220,0.0068,14.8444,-1.4701,-1.2918,-0.0659,0.0024,-0.0073,1,1,1,1,1,1,1
0.6430,approach,2,to_lo,-0.03872,0.05970,1.21023,1.57759,-0.12074,1.51007,-0.00973,-0.0073,0.1001,-0.0073,-0.0220,-0.0073,-0.0220,0.0073,0.0342,14.9402,-1.6479,-1.5702,-0.0464,-0.0073,-0.0073,1,1,1,1,1,1,1
0.6827,approach,2,to_lo,-0.03872,0.05970,1.21023,1.57759,-0.12074,1.51007,-0.00973,-0.0073,0.1001,-0.0073,-0.0220,-0.0073,-0.0220,0.0073,0.0342,14.9402,-1.6479,-1.5702,-0.0464,-0.0073,-0.0073,1,1,1,1,1,1,1
0.7228,approach,2,to_lo,-0.03872,0.06542,1.20985,1.57683,-0.12074,1.51007,-0.00973,-0.0073,0.0464,-0.0073,-0.0220,-0.0220,-0.0073,-0.0220,0.0479,15.3778,-1.5658,-1.7411,-0.0415,-0.0024,-0.0073,1,1,1,1,1,1,1
0.7625,approach,2,to_lo,-0.03872,0.06542,1.20985,1.57683,-0.12074,1.51007,-0.00973,-0.0073,0.0464,-0.0073,-0.0220,-0.0220,-0.0073,-0.0220,0.0479,15.3778,-1.5658,-1.7411,-0.0415,-0.0024,-0.0073,1,1,1,1,1,1,1
0.8025,approach,2,to_lo,-0.03872,0.06542,1.20985,1.57683,-0.12074,1.51007,-0.00973,-0.0073,0.0464,-0.0073,-0.0220,-0.0220,-0.0073,-0.0220,0.0479,15.3778,-1.5658,-1.7411,-0.0415,-0.0024,-0.0073,1,1,1,1,1,1,1
0.8424,approach,2,to_lo,-0.03872,0.07382,1.20947,1.57607,-0.12074,1.51007,-0.00973,-0.0024,0.0708,-0.0024,-0.0220,0.0073,-0.0220,-0.0220,0.0615,15.1043,-1.4564,-1.9951,-0.0366,0.0024,-0.0122,1,1,1,1,1,1,1
0.8826,approach,2,to_lo,-0.03872,0.07382,1.20947,1.57607,-0.12074,1.51007,-0.00973,-0.0024,0.0708,-0.0024,-0.0220,0.0073,-0.0220,-0.0220,0.0615,15.1043,-1.4564,-1.9951,-0.0366,0.0024,-0.0122,1,1,1,1,1,1,1
0.9224,approach,2,to_lo,-0.03872,0.07877,1.20947,1.57530,-0.12112,1.51045,-0.00973,-0.0024,0.0366,-0.0073,-0.0366,-0.0220,-0.0073,-0.0073,0.0615,14.9538,-1.1419,-2.1270,-0.0317,0.0024,-0.0073,1,1,1,1,1,1,1
0.9624,approach,2,to_lo,-0.03872,0.07877,1.20947,1.57530,-0.12112,1.51045,-0.00973,-0.0024,0.0366,-0.0073,-0.0366,-0.0220,-0.0073,-0.0073,0.0615,14.9538,-1.1419,-2.1270,-0.0317,0.0024,-0.0073,1,1,1,1,1,1,1
1.0024,approach,2,to_lo,-0.03872,0.07877,1.20947,1.57530,-0.12112,1.51045,-0.00973,-0.0024,0.0366,-0.0073,-0.0366,-0.0220,-0.0073,-0.0073,0.0615,14.9538,-1.1419,-2.1270,-0.0317,0.0024,-0.0073,1,1,1,1,1,1,1
1.0424,approach,2,to_lo,-0.03872,0.08412,1.20909,1.57454,-0.12074,1.51007,-0.01011,-0.0024,0.0366,-0.0024,-0.0073,0.0073,-0.0073,-0.0073,0.0752,16.0068,-1.0462,-2.2930,-0.0317,0.0024,-0.0073,1,1,1,1,1,1,1
1.0826,approach,2,to_lo,-0.03872,0.08412,1.20909,1.57454,-0.12074,1.51007,-0.01011,-0.0024,0.0366,-0.0024,-0.0073,0.0073,-0.0073,-0.0073,0.0752,16.0068,-1.0462,-2.2930,-0.0317,0.0024,-0.0073,1,1,1,1,1,1,1
1.1226,approach,2,to_lo,-0.03872,0.08793,1.20909,1.57378,-0.12112,1.51007,-0.00973,-0.0024,0.0317,-0.0024,-0.0513,-0.0073,-0.0073,0.0073,0.0752,15.6103,-1.1419,-2.3419,-0.0220,0.0024,-0.0073,1,1,1,1,1,1,1
1.1624,approach,2,to_lo,-0.03872,0.08793,1.20909,1.57378,-0.12112,1.51007,-0.00973,-0.0024,0.0317,-0.0024,-0.0513,-0.0073,-0.0073,0.0073,0.0752,15.6103,-1.1419,-2.3419,-0.0220,0.0024,-0.0073,1,1,1,1,1,1,1
1.2024,approach,2,to_lo,-0.03872,0.08793,1.20909,1.57378,-0.12112,1.51007,-0.00973,-0.0024,0.0317,-0.0024,-0.0513,-0.0073,-0.0073,0.0073,0.0752,15.6103,-1.1419,-2.3419,-0.0220,0.0024,-0.0073,1,1,1,1,1,1,1
1.2425,approach,2,to_lo,-0.03872,0.09365,1.20909,1.57187,-0.12074,1.51045,-0.01011,-0.0024,0.0122,-0.0024,-0.0220,-0.0073,-0.0073,-0.0073,0.0752,14.5983,-1.0735,-2.2540,-0.0220,-0.0024,-0.0024,1,1,1,1,1,1,1
1.2825,approach,2,to_lo,-0.03872,0.09365,1.20909,1.57187,-0.12074,1.51045,-0.01011,-0.0024,0.0122,-0.0024,-0.0220,-0.0073,-0.0073,-0.0073,0.0752,14.5983,-1.0735,-2.2540,-0.0220,-0.0024,-0.0024,1,1,1,1,1,1,1
1.3224,approach,2,to_lo,-0.03872,0.09556,1.20909,1.57149,-0.12074,1.51007,-0.01011,-0.0024,0.0073,0.0024,-0.0073,-0.0073,-0.0073,-0.0073,0.0889,15.5419,-1.0872,-2.2735,-0.0122,0.0024,-0.0122,1,1,1,1,1,1,1
1.3629,approach,2,to_lo,-0.03872,0.09556,1.20909,1.57149,-0.12074,1.51007,-0.01011,-0.0024,0.0073,0.0024,-0.0073,-0.0073,-0.0073,-0.0073,0.0889,15.5419,-1.0872,-2.2735,-0.0122,0.0024,-0.0122,1,1,1,1,1,1,1
1.4024,approach,2,to_lo,-0.03872,0.09556,1.20909,1.57149,-0.12074,1.51007,-0.01011,-0.0024,0.0073,0.0024,-0.0073,-0.0073,-0.0073,-0.0073,0.0889,15.5419,-1.0872,-2.2735,-0.0122,0.0024,-0.0122,1,1,1,1,1,1,1
1.4430,approach,2,to_lo,-0.03872,0.09937,1.20909,1.57149,-0.12074,1.51007,-0.01011,-0.0024,0.0269,-0.0024,-0.0220,-0.0220,-0.0073,-0.0220,0.0752,15.3778,-1.1692,-2.3272,-0.0073,-0.0024,-0.0171,1,1,1,1,1,1,1
1.4828,approach,2,to_lo,-0.03872,0.09937,1.20909,1.57149,-0.12074,1.51007,-0.01011,-0.0024,0.0269,-0.0024,-0.0220,-0.0220,-0.0073,-0.0220,0.0752,15.3778,-1.1692,-2.3272,-0.0073,-0.0024,-0.0171,1,1,1,1,1,1,1
1.5225,approach,2,to_lo,-0.03872,0.10128,1.20909,1.56996,-0.12074,1.51007,-0.00973,-0.0073,0.0220,-0.0024,-0.0220,0.0073,-0.0073,0.0073,0.0752,15.3778,-1.0051,-2.2100,-0.0073,-0.0024,-0.0073,1,1,1,1,1,1,1
2.0253,sweep,2,+up,-0.03872,0.10281,1.20909,1.57034,-0.12074,1.51045,-0.00973,-0.0024,0.0317,-0.0024,0.0073,-0.0220,-0.0220,-0.0073,0.0889,15.0632,-1.0051,-2.2198,-0.0024,-0.0024,-0.0122,1,1,1,1,1,1,1
2.0651,sweep,2,+up,-0.03872,0.10281,1.20909,1.57034,-0.12074,1.51045,-0.00973,-0.0024,0.0317,-0.0024,0.0073,-0.0220,-0.0220,-0.0073,0.0889,15.0632,-1.0051,-2.2198,-0.0024,-0.0024,-0.0122,1,1,1,1,1,1,1
2.1051,sweep,2,+up,-0.03872,0.10281,1.20909,1.57034,-0.12074,1.51045,-0.00973,-0.0024,0.0317,-0.0024,0.0073,-0.0220,-0.0220,-0.0073,0.0889,15.0632,-1.0051,-2.2198,-0.0024,-0.0024,-0.0122,1,1,1,1,1,1,1
2.1451,sweep,2,+up,-0.03872,0.12493,1.20909,1.57263,-0.12036,1.51007,-0.00973,-0.0073,0.2076,0.0024,-0.0073,0.0073,-0.0073,0.0073,0.0889,16.9231,-1.3880,-2.4151,0.0122,0.0024,-0.0024,1,1,1,1,1,1,1
2.1852,sweep,2,+up,-0.03872,0.12493,1.20909,1.57263,-0.12036,1.51007,-0.00973,-0.0073,0.2076,0.0024,-0.0073,0.0073,-0.0073,0.0073,0.0889,16.9231,-1.3880,-2.4151,0.0122,0.0024,-0.0024,1,1,1,1,1,1,1
2.2252,sweep,2,+up,-0.03872,0.14248,1.20909,1.57187,-0.12074,1.51007,-0.00973,-0.0073,0.2222,-0.0073,-0.0366,-0.0073,-0.0073,-0.0073,0.0889,14.7761,-1.2650,-2.3907,0.0122,0.0024,-0.0024,1,1,1,1,1,1,1
2.2652,sweep,2,+up,-0.03872,0.14248,1.20909,1.57187,-0.12074,1.51007,-0.00973,-0.0073,0.2222,-0.0073,-0.0366,-0.0073,-0.0073,-0.0073,0.0889,14.7761,-1.2650,-2.3907,0.0122,0.0024,-0.0024,1,1,1,1,1,1,1
2.3054,sweep,2,+up,-0.03872,0.14248,1.20909,1.57187,-0.12074,1.51007,-0.00973,-0.0073,0.2222,-0.0073,-0.0366,-0.0073,-0.0073,-0.0073,0.0889,14.7761,-1.2650,-2.3907,0.0122,0.0024,-0.0024,1,1,1,1,1,1,1
2.3454,sweep,2,+up,-0.03872,0.16728,1.20832,1.56806,-0.12036,1.51045,-0.00973,-0.0024,0.1832,-0.0024,-0.0073,0.0073,-0.0073,-0.0073,0.0889,14.0376,-0.4444,-2.0391,0.0122,0.0024,-0.0073,1,1,1,1,1,1,1
2.3854,sweep,2,+up,-0.03872,0.16728,1.20832,1.56806,-0.12036,1.51045,-0.00973,-0.0024,0.1832,-0.0024,-0.0073,0.0073,-0.0073,-0.0073,0.0889,14.0376,-0.4444,-2.0391,0.0122,0.0024,-0.0073,1,1,1,1,1,1,1
2.4253,sweep,2,+up,-0.03872,0.18215,1.20832,1.56882,-0.12036,1.51045,-0.00973,-0.0024,0.1392,-0.0024,-0.0073,-0.0073,-0.0073,0.0073,0.0889,15.0496,-0.3897,-2.0244,0.0073,0.0024,-0.0073,1,1,1,1,1,1,1
2.4652,sweep,2,+up,-0.03872,0.18215,1.20832,1.56882,-0.12036,1.51045,-0.00973,-0.0024,0.1392,-0.0024,-0.0073,-0.0073,-0.0073,0.0073,0.0889,15.0496,-0.3897,-2.0244,0.0073,0.0024,-0.0073,1,1,1,1,1,1,1
2.5053,sweep,2,+up,-0.03872,0.18215,1.20832,1.56882,-0.12036,1.51045,-0.00973,-0.0024,0.1392,-0.0024,-0.0073,-0.0073,-0.0073,0.0073,0.0889,15.0496,-0.3897,-2.0244,0.0073,0.0024,-0.0073,1,1,1,1,1,1,1
2.5454,sweep,2,+up,-0.03872,0.20733,1.20832,1.56958,-0.12074,1.51007,-0.00973,-0.0024,0.1880,-0.0024,-0.0220,-0.0073,-0.0073,0.0073,0.1026,13.5043,-0.3350,-2.0391,0.0073,-0.0024,-0.0024,1,1,1,1,1,1,1
2.5854,sweep,2,+up,-0.03872,0.20733,1.20832,1.56958,-0.12074,1.51007,-0.00973,-0.0024,0.1880,-0.0024,-0.0220,-0.0073,-0.0073,0.0073,0.1026,13.5043,-0.3350,-2.0391,0.0073,-0.0024,-0.0024,1,1,1,1,1,1,1
2.6257,sweep,2,+up,-0.03872,0.22335,1.20832,1.56996,-0.12036,1.51045,-0.00973,-0.0024,0.1929,-0.0024,0.0073,-0.0073,0.0073,-0.0220,0.0889,13.6684,-0.2803,-2.0342,0.0024,0.0024,0.0024,1,1,1,1,1,1,1
2.6656,sweep,2,+up,-0.03872,0.22335,1.20832,1.56996,-0.12036,1.51045,-0.00973,-0.0024,0.1929,-0.0024,0.0073,-0.0073,0.0073,-0.0220,0.0889,13.6684,-0.2803,-2.0342,0.0024,0.0024,0.0024,1,1,1,1,1,1,1
2.7058,sweep,2,+up,-0.03872,0.22335,1.20832,1.56996,-0.12036,1.51045,-0.00973,-0.0024,0.1929,-0.0024,0.0073,-0.0073,0.0073,-0.0220,0.0889,13.6684,-0.2803,-2.0342,0.0024,0.0024,0.0024,1,1,1,1,1,1,1
2.7453,sweep,2,+up,-0.03872,0.24701,1.20832,1.57073,-0.12074,1.51045,-0.00973,-0.0024,0.1880,-0.0024,-0.0366,-0.0073,-0.0073,-0.0073,0.1026,13.9692,-0.2256,-2.0684,0.0073,-0.0024,-0.0024,1,1,1,1,1,1,1
2.7853,sweep,2,+up,-0.03872,0.24701,1.20832,1.57073,-0.12074,1.51045,-0.00973,-0.0024,0.1880,-0.0024,-0.0366,-0.0073,-0.0073,-0.0073,0.1026,13.9692,-0.2256,-2.0684,0.0073,-0.0024,-0.0024,1,1,1,1,1,1,1
2.8252,sweep,2,+up,-0.03872,0.26379,1.20832,1.57073,-0.12074,1.51045,-0.00973,-0.0024,0.2271,-0.0073,-0.0073,0.0073,-0.0220,-0.0073,0.1162,13.0940,-0.1983,-2.0733,0.0122,-0.0073,-0.0024,1,1,1,1,1,1,1
2.8653,sweep,2,+up,-0.03872,0.26379,1.20832,1.57073,-0.12074,1.51045,-0.00973,-0.0024,0.2271,-0.0073,-0.0073,0.0073,-0.0220,-0.0073,0.1162,13.0940,-0.1983,-2.0733,0.0122,-0.0073,-0.0024,1,1,1,1,1,1,1
2.9052,sweep,2,+up,-0.03872,0.26379,1.20832,1.57073,-0.12074,1.51045,-0.00973,-0.0024,0.2271,-0.0073,-0.0073,0.0073,-0.0220,-0.0073,0.1162,13.0940,-0.1983,-2.0733,0.0122,-0.0073,-0.0024,1,1,1,1,1,1,1
2.9450,sweep,2,+up,-0.03872,0.28782,1.20832,1.57073,-0.12074,1.51045,-0.00973,-0.0024,0.1978,-0.0073,-0.0073,-0.0220,-0.0073,-0.0220,0.1162,12.9983,-0.1162,-2.0928,0.0122,-0.0024,-0.0073,1,1,1,1,1,1,1
2.9851,sweep,2,+up,-0.03872,0.28782,1.20832,1.57073,-0.12074,1.51045,-0.00973,-0.0024,0.1978,-0.0073,-0.0073,-0.0220,-0.0073,-0.0220,0.1162,12.9983,-0.1162,-2.0928,0.0122,-0.0024,-0.0073,1,1,1,1,1,1,1
3.0251,sweep,2,+up,-0.03872,0.30537,1.20603,1.56958,-0.12074,1.51045,-0.01011,-0.0024,0.2369,-0.0171,-0.0659,-0.0220,-0.0073,-0.0220,0.1436,10.8376,1.9897,-1.9805,0.0171,-0.0073,-0.0073,1,1,1,1,1,1,1
3.0653,sweep,2,+up,-0.03872,0.30537,1.20603,1.56958,-0.12074,1.51045,-0.01011,-0.0024,0.2369,-0.0171,-0.0659,-0.0220,-0.0073,-0.0220,0.1436,10.8376,1.9897,-1.9805,0.0171,-0.0073,-0.0073,1,1,1,1,1,1,1
3.1055,sweep,2,+up,-0.03872,0.30537,1.20603,1.56958,-0.12074,1.51045,-0.01011,-0.0024,0.2369,-0.0171,-0.0659,-0.0220,-0.0073,-0.0220,0.1436,10.8376,1.9897,-1.9805,0.0171,-0.0073,-0.0073,1,1,1,1,1,1,1
3.1462,sweep,2,+up,-0.03872,0.32940,1.20642,1.56653,-0.12036,1.51045,-0.00973,-0.0024,0.1783,0.0073,0.0366,0.0220,-0.0220,0.0073,0.1162,11.0838,2.1949,-1.5507,-0.0024,-0.0122,-0.0073,1,1,1,1,1,1,1
3.1858,sweep,2,+up,-0.03872,0.32940,1.20642,1.56653,-0.12036,1.51045,-0.00973,-0.0024,0.1783,0.0073,0.0366,0.0220,-0.0220,0.0073,0.1162,11.0838,2.1949,-1.5507,-0.0024,-0.0122,-0.0073,1,1,1,1,1,1,1
3.2253,sweep,2,+up,-0.03872,0.34428,1.20756,1.57340,-0.12036,1.51007,-0.00973,-0.0024,0.1734,-0.0024,-0.0659,-0.0073,-0.0366,-0.0220,0.1162,12.7111,1.1282,-2.1026,0.0024,-0.0073,-0.0122,1,1,1,1,1,1,1
3.2659,sweep,2,+up,-0.03872,0.34428,1.20756,1.57340,-0.12036,1.51007,-0.00973,-0.0024,0.1734,-0.0024,-0.0659,-0.0073,-0.0366,-0.0220,0.1162,12.7111,1.1282,-2.1026,0.0024,-0.0073,-0.0122,1,1,1,1,1,1,1
3.3056,sweep,2,+up,-0.03872,0.34428,1.20756,1.57340,-0.12036,1.51007,-0.00973,-0.0024,0.1734,-0.0024,-0.0659,-0.0073,-0.0366,-0.0220,0.1162,12.7111,1.1282,-2.1026,0.0024,-0.0073,-0.0122,1,1,1,1,1,1,1
3.3454,sweep,2,+up,-0.03872,0.37022,1.20718,1.56996,-0.12074,1.51045,-0.00973,-0.0024,0.2271,-0.0073,-0.0513,-0.0073,-0.0220,-0.0073,0.1846,9.7026,1.7709,-1.8535,0.0122,-0.0122,-0.0122,1,1,1,1,1,1,1
3.3856,sweep,2,+up,-0.03872,0.37022,1.20718,1.56996,-0.12074,1.51045,-0.00973,-0.0024,0.2271,-0.0073,-0.0513,-0.0073,-0.0220,-0.0073,0.1846,9.7026,1.7709,-1.8535,0.0122,-0.0122,-0.0122,1,1,1,1,1,1,1
3.4253,sweep,2,+up,-0.03872,0.38586,1.20718,1.56882,-0.12036,1.51007,-0.01011,-0.0024,0.1978,-0.0024,0.0073,0.0073,-0.0220,-0.0220,0.1436,10.3316,1.9214,-1.7265,0.0024,-0.0073,-0.0122,1,1,1,1,1,1,1
3.4657,sweep,2,+up,-0.03872,0.38586,1.20718,1.56882,-0.12036,1.51007,-0.01011,-0.0024,0.1978,-0.0024,0.0073,0.0073,-0.0220,-0.0220,0.1436,10.3316,1.9214,-1.7265,0.0024,-0.0073,-0.0122,1,1,1,1,1,1,1
3.5055,sweep,2,+up,-0.03872,0.38586,1.20718,1.56882,-0.12036,1.51007,-0.01011,-0.0024,0.1978,-0.0024,0.0073,0.0073,-0.0220,-0.0220,0.1436,10.3316,1.9214,-1.7265,0.0024,-0.0073,-0.0122,1,1,1,1,1,1,1
3.5456,sweep,2,+up,-0.03872,0.40951,1.20756,1.57034,-0.12074,1.51045,-0.00973,-0.0073,0.1978,-0.0024,-0.0220,-0.0220,0.0073,-0.0073,0.1573,10.6325,2.0718,-1.7998,-0.0024,-0.0073,-0.0073,1,1,1,1,1,1,1
3.5855,sweep,2,+up,-0.03872,0.40951,1.20756,1.57034,-0.12074,1.51045,-0.00973,-0.0073,0.1978,-0.0024,-0.0220,-0.0220,0.0073,-0.0073,0.1573,10.6325,2.0718,-1.7998,-0.0024,-0.0073,-0.0073,1,1,1,1,1,1,1
3.6255,sweep,2,+up,-0.03872,0.42630,1.20718,1.56958,-0.12074,1.51045,-0.00973,-0.0024,0.1978,-0.0024,0.0073,-0.0073,-0.0220,-0.0073,0.1573,9.8667,2.3179,-1.7314,0.0073,-0.0122,-0.0024,1,1,1,1,1,1,1
3.6657,sweep,2,+up,-0.03872,0.42630,1.20718,1.56958,-0.12074,1.51045,-0.00973,-0.0024,0.1978,-0.0024,0.0073,-0.0073,-0.0220,-0.0073,0.1573,9.8667,2.3179,-1.7314,0.0073,-0.0122,-0.0024,1,1,1,1,1,1,1
3.7057,sweep,2,+up,-0.03872,0.42630,1.20718,1.56958,-0.12074,1.51045,-0.00973,-0.0024,0.1978,-0.0024,0.0073,-0.0073,-0.0220,-0.0073,0.1573,9.8667,2.3179,-1.7314,0.0073,-0.0122,-0.0024,1,1,1,1,1,1,1
3.7453,sweep,2,+up,-0.03872,0.44995,1.20756,1.57034,-0.12036,1.51007,-0.00973,-0.0024,0.1832,0.0024,0.0073,0.0073,-0.0220,0.0073,0.1573,10.0308,2.6325,-1.7265,0.0024,-0.0122,0.0024,1,1,1,1,1,1,1
3.7860,sweep,2,+up,-0.03872,0.44995,1.20756,1.57034,-0.12036,1.51007,-0.00973,-0.0024,0.1832,0.0024,0.0073,0.0073,-0.0220,0.0073,0.1573,10.0308,2.6325,-1.7265,0.0024,-0.0122,0.0024,1,1,1,1,1,1,1
3.8251,sweep,2,+up,-0.03872,0.46673,1.20756,1.56996,-0.12074,1.51045,-0.00973,-0.0024,0.2418,-0.0024,-0.0073,-0.0220,-0.0073,0.0073,0.1709,9.2923,2.7829,-1.6972,0.0024,-0.0122,0.0024,1,1,1,1,1,1,1
3.8653,sweep,2,+up,-0.03872,0.46673,1.20756,1.56996,-0.12074,1.51045,-0.00973,-0.0024,0.2418,-0.0024,-0.0073,-0.0220,-0.0073,0.0073,0.1709,9.2923,2.7829,-1.6972,0.0024,-0.0122,0.0024,1,1,1,1,1,1,1
3.9057,sweep,2,+up,-0.03872,0.46673,1.20756,1.56996,-0.12074,1.51045,-0.00973,-0.0024,0.2418,-0.0024,-0.0073,-0.0220,-0.0073,0.0073,0.1709,9.2923,2.7829,-1.6972,0.0024,-0.0122,0.0024,1,1,1,1,1,1,1
3.9452,sweep,2,+up,-0.03872,0.49077,1.20756,1.56996,-0.12036,1.51045,-0.01011,-0.0024,0.2027,-0.0024,-0.0220,0.0073,-0.0073,-0.0073,0.1709,9.2923,3.1111,-1.6484,0.0024,-0.0073,0.0024,1,1,1,1,1,1,1
3.9853,sweep,2,+up,-0.03872,0.49077,1.20756,1.56996,-0.12036,1.51045,-0.01011,-0.0024,0.2027,-0.0024,-0.0220,0.0073,-0.0073,-0.0073,0.1709,9.2923,3.1111,-1.6484,0.0024,-0.0073,0.0024,1,1,1,1,1,1,1
4.0253,sweep,2,+up,-0.03872,0.50679,1.20756,1.56996,-0.12036,1.51045,-0.00973,-0.0073,0.1929,-0.0073,-0.0073,0.0073,-0.0073,0.0073,0.1846,8.9641,3.2615,-1.6484,0.0024,-0.0073,-0.0024,1,1,1,1,1,1,1
4.0658,sweep,2,+up,-0.03872,0.50679,1.20756,1.56996,-0.12036,1.51045,-0.00973,-0.0073,0.1929,-0.0073,-0.0073,0.0073,-0.0073,0.0073,0.1846,8.9641,3.2615,-1.6484,0.0024,-0.0073,-0.0024,1,1,1,1,1,1,1
4.1057,sweep,2,+up,-0.03872,0.50679,1.20756,1.56996,-0.12036,1.51045,-0.00973,-0.0073,0.1929,-0.0073,-0.0073,0.0073,-0.0073,0.0073,0.1846,8.9641,3.2615,-1.6484,0.0024,-0.0073,-0.0024,1,1,1,1,1,1,1
4.1459,sweep,2,+up,-0.03872,0.53159,1.20756,1.56996,-0.12036,1.51045,-0.00973,-0.0024,0.2222,-0.0024,-0.0073,0.0073,0.0073,-0.0073,0.1983,8.2803,3.5487,-1.5995,0.0024,-0.0073,0.0024,1,1,1,1,1,1,1
4.1852,sweep,2,+up,-0.03872,0.53159,1.20756,1.56996,-0.12036,1.51045,-0.00973,-0.0024,0.2222,-0.0024,-0.0073,0.0073,0.0073,-0.0073,0.1983,8.2803,3.5487,-1.5995,0.0024,-0.0073,0.0024,1,1,1,1,1,1,1
4.2252,sweep,2,+up,-0.03872,0.54723,1.20756,1.56996,-0.12036,1.51045,-0.00973,-0.0024,0.1929,-0.0024,-0.0073,-0.0073,0.0073,-0.0073,0.1983,8.3214,3.7128,-1.5849,0.0024,-0.0024,0.0024,1,1,1,1,1,1,1
4.2654,sweep,2,+up,-0.03872,0.54723,1.20756,1.56996,-0.12036,1.51045,-0.00973,-0.0024,0.1929,-0.0024,-0.0073,-0.0073,0.0073,-0.0073,0.1983,8.3214,3.7128,-1.5849,0.0024,-0.0024,0.0024,1,1,1,1,1,1,1
4.3055,sweep,2,+up,-0.03872,0.54723,1.20756,1.56996,-0.12036,1.51045,-0.00973,-0.0024,0.1929,-0.0024,-0.0073,-0.0073,0.0073,-0.0073,0.1983,8.3214,3.7128,-1.5849,0.0024,-0.0024,0.0024,1,1,1,1,1,1,1
4.3456,sweep,2,+up,-0.03872,0.57202,1.20756,1.56996,-0.12074,1.51045,-0.01011,-0.0024,0.2027,-0.0024,-0.0073,-0.0220,0.0073,-0.0073,0.1983,7.6239,3.9043,-1.5360,0.0024,-0.0073,-0.0024,1,1,1,1,1,1,1
4.3856,sweep,2,+up,-0.03872,0.57202,1.20756,1.56996,-0.12074,1.51045,-0.01011,-0.0024,0.2027,-0.0024,-0.0073,-0.0220,0.0073,-0.0073,0.1983,7.6239,3.9043,-1.5360,0.0024,-0.0073,-0.0024,1,1,1,1,1,1,1
4.4258,sweep,2,+up,-0.03872,0.58766,1.20756,1.56996,-0.12036,1.51045,-0.00973,-0.0024,0.1880,0.0024,-0.0220,-0.0073,-0.0073,0.0073,0.2120,7.9111,4.0547,-1.5116,-0.0024,-0.0073,-0.0073,1,1,1,1,1,1,1
4.4662,sweep,2,+up,-0.03872,0.58766,1.20756,1.56996,-0.12036,1.51045,-0.00973,-0.0024,0.1880,0.0024,-0.0220,-0.0073,-0.0073,0.0073,0.2120,7.9111,4.0547,-1.5116,-0.0024,-0.0073,-0.0073,1,1,1,1,1,1,1
4.5054,sweep,2,+up,-0.03872,0.58766,1.20756,1.56996,-0.12036,1.51045,-0.00973,-0.0024,0.1880,0.0024,-0.0220,-0.0073,-0.0073,0.0073,0.2120,7.9111,4.0547,-1.5116,-0.0024,-0.0073,-0.0073,1,1,1,1,1,1,1
4.5455,sweep,2,+up,-0.03872,0.61208,1.20756,1.56958,-0.12036,1.51045,-0.00973,-0.0024,0.2027,-0.0024,-0.0220,0.0073,-0.0220,-0.0073,0.2256,7.2000,4.1641,-1.4774,0.0073,-0.0073,-0.0024,1,1,1,1,1,1,1
4.5856,sweep,2,+up,-0.03872,0.61208,1.20756,1.56958,-0.12036,1.51045,-0.00973,-0.0024,0.2027,-0.0024,-0.0220,0.0073,-0.0220,-0.0073,0.2256,7.2000,4.1641,-1.4774,0.0073,-0.0073,-0.0024,1,1,1,1,1,1,1
4.6257,sweep,2,+up,-0.03872,0.62848,1.20756,1.56958,-0.12036,1.51045,-0.00973,-0.0024,0.2173,-0.0024,0.0073,-0.0073,-0.0073,-0.0073,0.2393,6.9402,4.3009,-1.4237,0.0024,-0.0073,-0.0073,1,1,1,1,1,1,1
4.6653,sweep,2,+up,-0.03872,0.62848,1.20756,1.56958,-0.12036,1.51045,-0.00973,-0.0024,0.2173,-0.0024,0.0073,-0.0073,-0.0073,-0.0073,0.2393,6.9402,4.3009,-1.4237,0.0024,-0.0073,-0.0073,1,1,1,1,1,1,1
4.7054,sweep,2,+up,-0.03872,0.62848,1.20756,1.56958,-0.12036,1.51045,-0.00973,-0.0024,0.2173,-0.0024,0.0073,-0.0073,-0.0073,-0.0073,0.2393,6.9402,4.3009,-1.4237,0.0024,-0.0073,-0.0073,1,1,1,1,1,1,1
4.7456,sweep,2,+up,-0.03872,0.65251,1.20794,1.56958,-0.12074,1.51045,-0.00973,-0.0024,0.1783,-0.0024,-0.0073,-0.0220,-0.0073,-0.0220,0.2256,6.8991,4.4786,-1.3797,0.0024,-0.0073,-0.0024,1,1,1,1,1,1,1
4.7852,sweep,2,+up,-0.03872,0.65251,1.20794,1.56958,-0.12074,1.51045,-0.00973,-0.0024,0.1783,-0.0024,-0.0073,-0.0220,-0.0073,-0.0220,0.2256,6.8991,4.4786,-1.3797,0.0024,-0.0073,-0.0024,1,1,1,1,1,1,1
4.8254,sweep,2,+up,-0.03872,0.66892,1.20794,1.56958,-0.12036,1.51045,-0.00973,-0.0024,0.2076,0.0073,-0.0073,0.0073,-0.0073,-0.0073,0.2256,6.3385,4.6154,-1.3455,0.0073,-0.0073,-0.0024,1,1,1,1,1,1,1
4.8655,sweep,2,+up,-0.03872,0.66892,1.20794,1.56958,-0.12036,1.51045,-0.00973,-0.0024,0.2076,0.0073,-0.0073,0.0073,-0.0073,-0.0073,0.2256,6.3385,4.6154,-1.3455,0.0073,-0.0073,-0.0024,1,1,1,1,1,1,1
4.9051,sweep,2,+up,-0.03872,0.66892,1.20794,1.56958,-0.12036,1.51045,-0.00973,-0.0024,0.2076,0.0073,-0.0073,0.0073,-0.0073,-0.0073,0.2256,6.3385,4.6154,-1.3455,0.0073,-0.0073,-0.0024,1,1,1,1,1,1,1
4.9453,sweep,2,+up,-0.03872,0.69295,1.20794,1.56958,-0.12036,1.51045,-0.00973,0.0024,0.2076,-0.0024,0.0073,0.0073,-0.0220,0.0073,0.2256,6.1333,4.8205,-1.2967,0.0024,-0.0073,-0.0122,1,1,1,1,1,1,1
4.9857,sweep,2,+up,-0.03872,0.69295,1.20794,1.56958,-0.12036,1.51045,-0.00973,0.0024,0.2076,-0.0024,0.0073,0.0073,-0.0220,0.0073,0.2256,6.1333,4.8205,-1.2967,0.0024,-0.0073,-0.0122,1,1,1,1,1,1,1
5.0253,sweep,2,+up,-0.03872,0.70935,1.20794,1.56958,-0.12036,1.51045,-0.01011,-0.0024,0.2222,-0.0024,0.0073,-0.0073,-0.0220,-0.0073,0.2530,5.7231,4.9436,-1.2723,0.0073,-0.0073,-0.0122,1,1,1,1,1,1,1
5.0655,sweep,2,+up,-0.03872,0.70935,1.20794,1.56958,-0.12036,1.51045,-0.01011,-0.0024,0.2222,-0.0024,0.0073,-0.0073,-0.0220,-0.0073,0.2530,5.7231,4.9436,-1.2723,0.0073,-0.0073,-0.0122,1,1,1,1,1,1,1
5.1054,sweep,2,+up,-0.03872,0.70935,1.20794,1.56958,-0.12036,1.51045,-0.01011,-0.0024,0.2222,-0.0024,0.0073,-0.0073,-0.0220,-0.0073,0.2530,5.7231,4.9436,-1.2723,0.0073,-0.0073,-0.0122,1,1,1,1,1,1,1
5.1456,sweep,2,+up,-0.03872,0.73377,1.20794,1.56958,-0.12036,1.51045,-0.00973,0.0024,0.2173,-0.0073,-0.0073,0.0073,-0.0073,-0.0073,0.2530,5.1624,5.0393,-1.2137,0.0122,-0.0073,-0.0122,1,1,1,1,1,1,1
5.1856,sweep,2,+up,-0.03872,0.73377,1.20794,1.56958,-0.12036,1.51045,-0.00973,0.0024,0.2173,-0.0073,-0.0073,0.0073,-0.0073,-0.0073,0.2530,5.1624,5.0393,-1.2137,0.0122,-0.0073,-0.0122,1,1,1,1,1,1,1
5.2267,sweep,2,+up,-0.03872,0.75017,1.20794,1.56958,-0.12036,1.51045,-0.01011,0.0024,0.1880,-0.0024,-0.0220,-0.0073,0.0073,-0.0220,0.2530,4.7795,5.2171,-1.1844,0.0122,-0.0073,-0.0171,1,1,1,1,1,1,1
5.2655,sweep,2,+up,-0.03872,0.75017,1.20794,1.56958,-0.12036,1.51045,-0.01011,0.0024,0.1880,-0.0024,-0.0220,-0.0073,0.0073,-0.0220,0.2530,4.7795,5.2171,-1.1844,0.0122,-0.0073,-0.0171,1,1,1,1,1,1,1
5.3058,sweep,2,+up,-0.03872,0.75017,1.20794,1.56958,-0.12036,1.51045,-0.01011,0.0024,0.1880,-0.0024,-0.0220,-0.0073,0.0073,-0.0220,0.2530,4.7795,5.2171,-1.1844,0.0122,-0.0073,-0.0171,1,1,1,1,1,1,1
5.3456,sweep,2,+up,-0.03872,0.77420,1.20794,1.56958,-0.12036,1.51045,-0.00973,-0.0073,0.2222,-0.0024,-0.0073,-0.0073,0.0073,0.0073,0.2530,4.6291,5.3128,-1.1355,0.0122,-0.0122,-0.0171,1,1,1,1,1,1,1
5.3853,sweep,2,+up,-0.03872,0.77420,1.20794,1.56958,-0.12036,1.51045,-0.00973,-0.0073,0.2222,-0.0024,-0.0073,-0.0073,0.0073,0.0073,0.2530,4.6291,5.3128,-1.1355,0.0122,-0.0122,-0.0171,1,1,1,1,1,1,1
5.4255,sweep,2,+up,-0.03872,0.79023,1.20794,1.56958,-0.12036,1.51045,-0.01011,0.0024,0.1783,-0.0024,-0.0220,0.0073,-0.0073,-0.0073,0.2530,4.3009,5.4906,-1.0916,0.0171,-0.0122,-0.0171,1,1,1,1,1,1,1
5.4657,sweep,2,+up,-0.03872,0.79023,1.20794,1.56958,-0.12036,1.51045,-0.01011,0.0024,0.1783,-0.0024,-0.0220,0.0073,-0.0073,-0.0073,0.2530,4.3009,5.4906,-1.0916,0.0171,-0.0122,-0.0171,1,1,1,1,1,1,1
5.5054,sweep,2,+up,-0.03872,0.79023,1.20794,1.56958,-0.12036,1.51045,-0.01011,0.0024,0.1783,-0.0024,-0.0220,0.0073,-0.0073,-0.0073,0.2530,4.3009,5.4906,-1.0916,0.0171,-0.0122,-0.0171,1,1,1,1,1,1,1
5.5456,sweep,2,+up,-0.03872,0.81464,1.20794,1.56958,-0.12036,1.51045,-0.01011,-0.0024,0.1734,-0.0024,-0.0073,-0.0073,-0.0073,-0.0073,0.2667,3.8085,5.6821,-1.0427,0.0073,-0.0122,-0.0122,1,1,1,1,1,1,1
5.5857,sweep,2,+up,-0.03872,0.81464,1.20794,1.56958,-0.12036,1.51045,-0.01011,-0.0024,0.1734,-0.0024,-0.0073,-0.0073,-0.0073,-0.0073,0.2667,3.8085,5.6821,-1.0427,0.0073,-0.0122,-0.0122,1,1,1,1,1,1,1
5.6258,sweep,2,+up,-0.03872,0.83104,1.20794,1.56958,-0.12036,1.51045,-0.01011,-0.0024,0.2027,-0.0024,-0.0073,0.0073,0.0073,-0.0073,0.3077,3.6581,5.7641,-1.0085,0.0073,-0.0171,-0.0122,1,1,1,1,1,1,1
5.6654,sweep,2,+up,-0.03872,0.83104,1.20794,1.56958,-0.12036,1.51045,-0.01011,-0.0024,0.2027,-0.0024,-0.0073,0.0073,0.0073,-0.0073,0.3077,3.6581,5.7641,-1.0085,0.0073,-0.0171,-0.0122,1,1,1,1,1,1,1
5.7053,sweep,2,+up,-0.03872,0.83104,1.20794,1.56958,-0.12036,1.51045,-0.01011,-0.0024,0.2027,-0.0024,-0.0073,0.0073,0.0073,-0.0073,0.3077,3.6581,5.7641,-1.0085,0.0073,-0.0171,-0.0122,1,1,1,1,1,1,1
5.7452,sweep,2,+up,-0.03872,0.85508,1.20794,1.56958,-0.12036,1.51045,-0.00973,0.0024,0.1880,-0.0024,-0.0073,0.0073,-0.0073,0.0073,0.3214,3.3162,5.8872,-0.9451,0.0073,-0.0171,-0.0171,1,1,1,1,1,1,1
5.7852,sweep,2,+up,-0.03872,0.85508,1.20794,1.56958,-0.12036,1.51045,-0.00973,0.0024,0.1880,-0.0024,-0.0073,0.0073,-0.0073,0.0073,0.3214,3.3162,5.8872,-0.9451,0.0073,-0.0171,-0.0171,1,1,1,1,1,1,1
5.8253,sweep,2,+up,-0.03872,0.87949,1.20794,1.56958,-0.12036,1.51045,-0.01011,0.0024,0.2222,-0.0024,-0.0073,-0.0073,-0.0073,-0.0220,0.3077,2.5094,6.0239,-0.8962,0.0073,-0.0220,-0.0171,1,1,1,1,1,1,1
5.8651,sweep,2,+up,-0.03872,0.87949,1.20794,1.56958,-0.12036,1.51045,-0.01011,0.0024,0.2222,-0.0024,-0.0073,-0.0073,-0.0073,-0.0220,0.3077,2.5094,6.0239,-0.8962,0.0073,-0.0220,-0.0171,1,1,1,1,1,1,1
5.9059,sweep,2,+up,-0.03872,0.87949,1.20794,1.56958,-0.12036,1.51045,-0.01011,0.0024,0.2222,-0.0024,-0.0073,-0.0073,-0.0073,-0.0220,0.3077,2.5094,6.0239,-0.8962,0.0073,-0.0220,-0.0171,1,1,1,1,1,1,1
5.9451,sweep,2,+up,-0.03872,0.89590,1.20794,1.56958,-0.12036,1.51045,-0.01011,-0.0024,0.1880,-0.0024,-0.0073,-0.0220,-0.0073,-0.0073,0.2940,2.4410,6.1197,-0.8523,0.0122,-0.0269,-0.0171,1,1,1,1,1,1,1
5.9857,sweep,2,+up,-0.03872,0.89590,1.20794,1.56958,-0.12036,1.51045,-0.01011,-0.0024,0.1880,-0.0024,-0.0073,-0.0220,-0.0073,-0.0073,0.2940,2.4410,6.1197,-0.8523,0.0122,-0.0269,-0.0171,1,1,1,1,1,1,1
6.0252,sweep,2,+up,-0.03872,0.92031,1.20794,1.56920,-0.12036,1.51045,-0.00973,-0.0024,0.1880,-0.0024,0.0073,-0.0073,-0.0366,0.0073,0.2940,1.5795,6.2838,-0.7741,0.0122,-0.0269,-0.0171,1,1,1,1,1,1,1
6.0653,sweep,2,+up,-0.03872,0.92031,1.20794,1.56920,-0.12036,1.51045,-0.00973,-0.0024,0.1880,-0.0024,0.0073,-0.0073,-0.0366,0.0073,0.3077,1.5795,6.2838,-0.7741,0.0122,-0.0269,-0.0171,1,1,1,1,1,1,1
6.1055,sweep,2,+up,-0.03872,0.92031,1.20794,1.56920,-0.12036,1.51045,-0.00973,-0.0024,0.1880,-0.0024,0.0073,-0.0073,-0.0366,0.0073,0.3077,1.5795,6.2838,-0.7741,0.0122,-0.0269,-0.0171,1,1,1,1,1,1,1
6.1458,sweep,2,+up,-0.03872,0.93671,1.20794,1.56920,-0.12036,1.51045,-0.01011,-0.0024,0.2027,0.0024,-0.0220,-0.0220,-0.0073,-0.0073,0.3214,1.3607,6.4205,-0.7204,0.0024,-0.0269,-0.0171,1,1,1,1,1,1,1
6.1854,sweep,2,+up,-0.03872,0.93671,1.20794,1.56920,-0.12036,1.51045,-0.01011,-0.0024,0.2027,0.0024,-0.0220,-0.0220,-0.0073,-0.0073,0.3214,1.3607,6.4205,-0.7204,0.0024,-0.0269,-0.0171,1,1,1,1,1,1,1
6.2253,sweep,2,+up,-0.03872,0.95273,1.20794,1.56958,-0.12036,1.51045,-0.01011,-0.0024,0.1880,-0.0024,-0.0073,-0.0073,0.0073,0.0073,0.3214,1.3060,6.6393,-0.6764,0.0024,-0.0317,-0.0171,1,1,1,1,1,1,1
6.2657,sweep,2,+up,-0.03872,0.96036,1.20794,1.56958,-0.12036,1.51045,-0.01011,-0.0024,0.1832,-0.0024,-0.0073,-0.0073,0.0073,0.0073,0.3350,1.3333,6.6393,-0.6764,0.0024,-0.0317,-0.0171,1,1,1,1,1,1,1
6.3053,sweep,2,+up,-0.03872,0.96036,1.20794,1.56958,-0.12036,1.51045,-0.01011,-0.0024,0.1832,-0.0024,-0.0073,-0.0073,0.0073,0.0073,0.3350,1.3333,6.6393,-0.6764,0.0024,-0.0317,-0.0171,1,1,1,1,1,1,1
6.3452,sweep,2,+up,-0.03872,0.97715,1.20794,1.56958,-0.12036,1.51045,-0.01011,-0.0024,0.2222,0.0024,0.0073,-0.0073,-0.0073,-0.0220,0.3350,0.8547,6.7624,-0.6325,0.0073,-0.0366,-0.0122,1,1,1,1,1,1,1
6.3850,sweep,2,+up,-0.03872,0.97715,1.20794,1.56958,-0.12036,1.51045,-0.01011,-0.0024,0.2222,0.0024,0.0073,-0.0073,-0.0073,-0.0220,0.3350,0.8547,6.7624,-0.6325,0.0073,-0.0366,-0.0122,1,1,1,1,1,1,1
6.4252,sweep,2,+up,-0.03872,0.97715,1.20794,1.56958,-0.12036,1.51045,-0.01011,-0.0024,0.2222,0.0024,0.0073,0.0073,-0.0073,0.0073,0.3350,0.8547,6.7624,-0.6325,0.0073,-0.0415,-0.0122,1,1,1,1,1,1,1
6.4654,sweep,2,+up,-0.03872,1.00118,1.20832,1.56958,-0.12036,1.51045,-0.01011,-0.0024,0.2027,-0.0024,-0.0073,0.0073,-0.0073,0.0073,0.3350,0.6222,6.8718,-0.5690,0.0073,-0.0415,-0.0122,1,1,1,1,1,1,1
6.5053,sweep,2,+up,-0.03872,1.00118,1.20832,1.56958,-0.12036,1.51045,-0.01011,-0.0024,0.2027,-0.0024,-0.0073,0.0073,-0.0073,0.0073,0.3350,0.6222,6.8718,-0.5690,0.0073,-0.0415,-0.0122,1,1,1,1,1,1,1
6.5452,sweep,2,+up,-0.03872,1.01759,1.20832,1.56958,-0.12036,1.51045,-0.01011,-0.0073,0.2076,-0.0024,-0.0220,0.0073,-0.0220,-0.0220,0.3350,0.1846,7.0085,-0.5397,0.0073,-0.0415,-0.0171,1,1,1,1,1,1,1
6.5852,sweep,2,+up,-0.03872,1.01759,1.20832,1.56958,-0.12036,1.51045,-0.01011,-0.0073,0.2076,-0.0024,-0.0220,0.0073,-0.0220,-0.0220,0.3350,0.1846,7.0085,-0.5397,0.0073,-0.0415,-0.0171,1,1,1,1,1,1,1
6.6253,sweep,2,+up,-0.03872,1.01759,1.20832,1.56958,-0.12036,1.51045,-0.01011,-0.0073,0.2076,-0.0024,-0.0220,0.0073,-0.0220,-0.0220,0.3350,0.1846,7.0085,-0.5397,0.0073,-0.0415,-0.0171,1,1,1,1,1,1,1
6.6652,sweep,2,+up,-0.03872,1.04200,1.20832,1.56958,-0.12036,1.51045,-0.01011,-0.0024,0.2027,0.0024,-0.0073,-0.0220,-0.0073,-0.0220,0.3487,0.1026,7.0906,-0.4908,0.0024,-0.0415,-0.0073,1,1,1,1,1,1,1
6.7056,sweep,2,+up,-0.03872,1.04200,1.20832,1.56958,-0.12036,1.51045,-0.01011,-0.0024,0.2027,0.0024,-0.0073,-0.0220,-0.0073,-0.0220,0.3487,0.1026,7.0906,-0.4908,0.0024,-0.0415,-0.0073,1,1,1,1,1,1,1
6.7451,sweep,2,+up,-0.03872,1.05879,1.20832,1.56958,-0.12036,1.51045,-0.01011,-0.0024,0.1734,-0.0024,-0.0073,-0.0073,-0.0073,-0.0073,0.3350,-0.1709,7.1590,-0.4469,0.0024,-0.0513,-0.0073,1,1,1,1,1,1,1
6.7856,sweep,2,+up,-0.03872,1.05879,1.20832,1.56958,-0.12036,1.51045,-0.01011,-0.0024,0.1734,-0.0024,-0.0073,-0.0073,-0.0073,-0.0073,0.3350,-0.1709,7.1590,-0.4469,0.0024,-0.0513,-0.0073,1,1,1,1,1,1,1
6.8250,sweep,2,+up,-0.03872,1.05879,1.20832,1.56958,-0.12036,1.51045,-0.01011,-0.0024,0.1734,-0.0024,-0.0073,-0.0073,-0.0073,-0.0073,0.3350,-0.1709,7.1590,-0.4469,0.0024,-0.0513,-0.0073,1,1,1,1,1,1,1
6.8652,sweep,2,+up,-0.03872,1.08358,1.20832,1.56920,-0.12036,1.51045,-0.01011,-0.0024,0.1880,-0.0073,-0.0073,0.0073,0.0073,-0.0073,0.3624,-1.1692,7.2957,-0.3541,0.0024,-0.0513,-0.0024,1,1,1,1,1,1,1
6.9052,sweep,2,+up,-0.03872,1.08358,1.20832,1.56920,-0.12036,1.51045,-0.01011,-0.0024,0.1880,-0.0073,-0.0073,0.0073,0.0073,-0.0073,0.3624,-1.1692,7.2957,-0.3541,0.0024,-0.0513,-0.0024,1,1,1,1,1,1,1
6.9450,sweep,2,+up,-0.03872,1.10037,1.20832,1.56844,-0.12036,1.51045,-0.01011,-0.0073,0.2076,-0.0073,-0.0366,-0.0073,-0.0073,-0.0073,0.4034,-1.9487,7.4051,-0.2466,-0.0024,-0.0513,-0.0024,1,1,1,1,1,1,1
6.9852,sweep,2,+up,-0.03872,1.10037,1.20832,1.56844,-0.12036,1.51045,-0.01011,-0.0073,0.2076,-0.0073,-0.0366,-0.0073,-0.0073,-0.0073,0.4034,-1.9487,7.4051,-0.2466,-0.0024,-0.0513,-0.0024,1,1,1,1,1,1,1
7.0251,sweep,2,+up,-0.03872,1.10037,1.20832,1.56844,-0.12036,1.51045,-0.01011,-0.0073,0.2076,-0.0073,-0.0366,-0.0073,-0.0073,-0.0073,0.4034,-1.9487,7.4051,-0.2466,-0.0024,-0.0513,-0.0024,1,1,1,1,1,1,1
7.0652,sweep,2,+up,-0.03872,1.12440,1.20832,1.56653,-0.12036,1.51045,-0.01011,-0.0024,0.1734,-0.0024,-0.0220,-0.0073,-0.0220,-0.0366,0.3897,-2.3043,7.5556,-0.0415,-0.0024,-0.0562,0.0024,1,1,1,1,1,1,1
7.1053,sweep,2,+up,-0.03872,1.12440,1.20832,1.56653,-0.12036,1.51045,-0.01011,-0.0024,0.1734,-0.0024,-0.0220,-0.0073,-0.0220,-0.0366,0.3897,-2.3043,7.5556,-0.0415,-0.0024,-0.0562,0.0024,1,1,1,1,1,1,1
7.1452,sweep,2,+up,-0.03872,1.14004,1.20832,1.56920,-0.12036,1.51045,-0.01011,-0.0024,0.2076,0.0024,0.0220,-0.0073,-0.0073,-0.0073,0.4171,-1.8393,7.6650,-0.0952,-0.0024,-0.0513,0.0024,1,1,1,1,1,1,1
7.1851,sweep,2,+up,-0.03872,1.14004,1.20832,1.56920,-0.12036,1.51045,-0.01011,-0.0024,0.2076,0.0024,0.0220,-0.0073,-0.0073,-0.0073,0.4171,-1.8393,7.6650,-0.0952,-0.0024,-0.0513,0.0024,1,1,1,1,1,1,1
7.2253,sweep,2,+up,-0.03872,1.14004,1.20832,1.56920,-0.12036,1.51045,-0.01011,-0.0024,0.2076,0.0024,0.0220,-0.0073,-0.0073,-0.0073,0.4171,-1.8393,7.6650,-0.0952,-0.0024,-0.0513,0.0024,1,1,1,1,1,1,1
7.2654,sweep,2,+up,-0.03872,1.16445,1.20832,1.57073,-0.12036,1.51045,-0.00973,-0.0073,0.2076,-0.0024,-0.0073,-0.0073,-0.0073,-0.0073,0.4308,-2.2359,7.8154,-0.1538,-0.0024,-0.0562,0.0024,1,1,1,1,1,1,1
7.3053,sweep,2,+up,-0.03872,1.16445,1.20832,1.57073,-0.12036,1.51045,-0.00973,-0.0073,0.2076,-0.0024,-0.0073,-0.0073,-0.0073,-0.0073,0.4308,-2.2359,7.8154,-0.1538,-0.0024,-0.0562,0.0024,1,1,1,1,1,1,1
7.3454,sweep,2,+up,-0.03872,1.18086,1.20832,1.56882,-0.12036,1.51045,-0.01011,-0.0024,0.2027,-0.0024,-0.0073,-0.0073,-0.0073,-0.0073,0.4308,-2.6872,7.8974,-0.0562,-0.0024,-0.0562,0.0024,1,1,1,1,1,1,1
7.3853,sweep,2,+up,-0.03872,1.18086,1.20832,1.56882,-0.12036,1.51045,-0.01011,-0.0024,0.2027,-0.0024,-0.0073,-0.0073,-0.0073,-0.0073,0.4308,-2.6872,7.8974,-0.0562,-0.0024,-0.0562,0.0024,1,1,1,1,1,1,1
7.4253,sweep,2,+up,-0.03872,1.18086,1.20832,1.56882,-0.12036,1.51045,-0.01011,-0.0024,0.2027,-0.0024,-0.0073,-0.0073,-0.0073,-0.0073,0.4308,-2.6872,7.8974,-0.0562,-0.0024,-0.0562,0.0024,1,1,1,1,1,1,1
7.4652,sweep,2,+up,-0.03872,1.20489,1.20832,1.56882,-0.12036,1.51045,-0.01011,-0.0024,0.2125,0.0024,0.0073,-0.0073,-0.0220,-0.0073,0.4444,-2.8376,8.0342,-0.0220,-0.0024,-0.0659,0.0024,1,1,1,1,1,1,1
7.5050,sweep,2,+up,-0.03872,1.20489,1.20832,1.56882,-0.12036,1.51045,-0.01011,-0.0024,0.2125,0.0024,0.0073,-0.0073,-0.0220,-0.0073,0.4444,-2.8376,8.0342,-0.0220,-0.0024,-0.0659,0.0024,1,1,1,1,1,1,1
7.5456,sweep,2,+up,-0.03872,1.22091,1.20832,1.56882,-0.12036,1.51045,-0.01011,0.0024,0.1880,-0.0024,-0.0073,-0.0073,0.0073,-0.0073,0.4444,-3.0427,8.0615,0.0073,-0.0073,-0.0611,0.0024,1,1,1,1,1,1,1
7.5855,sweep,2,+up,-0.03872,1.22091,1.20832,1.56882,-0.12036,1.51045,-0.01011,0.0024,0.1880,-0.0024,-0.0073,-0.0073,0.0073,-0.0073,0.4444,-3.0427,8.0615,0.0073,-0.0073,-0.0611,0.0024,1,1,1,1,1,1,1
7.6255,sweep,2,+up,-0.03872,1.22091,1.20832,1.56882,-0.12036,1.51045,-0.01011,0.0024,0.1880,-0.0024,-0.0073,-0.0073,0.0073,-0.0073,0.4444,-3.0427,8.0615,0.0073,-0.0073,-0.0611,0.0024,1,1,1,1,1,1,1
7.6656,sweep,2,+up,-0.03872,1.24533,1.20832,1.56806,-0.12036,1.51045,-0.01011,-0.0024,0.2173,-0.0024,-0.0073,-0.0073,-0.0220,-0.0220,0.4444,-3.5214,8.2120,0.0611,-0.0073,-0.0708,0.0024,1,1,1,1,1,1,1
7.7052,sweep,2,+up,-0.03872,1.24533,1.20832,1.56806,-0.12036,1.51045,-0.01011,-0.0024,0.2173,-0.0024,-0.0073,-0.0073,-0.0220,-0.0220,0.4444,-3.5214,8.2120,0.0611,-0.0073,-0.0708,0.0024,1,1,1,1,1,1,1
7.7452,sweep,2,+up,-0.03872,1.26173,1.20832,1.56462,-0.12036,1.51045,-0.00973,-0.0024,0.1978,-0.0073,-0.0073,-0.0073,-0.0073,-0.0220,0.4444,-3.8359,8.3624,0.4029,-0.0122,-0.0757,0.0073,1,1,1,1,1,1,1
7.7854,sweep,2,+up,-0.03872,1.26173,1.20832,1.56462,-0.12036,1.51045,-0.00973,-0.0024,0.1978,-0.0073,-0.0073,-0.0073,-0.0073,-0.0220,0.4444,-3.8359,8.3624,0.4029,-0.0122,-0.0757,0.0073,1,1,1,1,1,1,1
7.8252,sweep,2,+up,-0.03872,1.26173,1.20832,1.56462,-0.12036,1.51045,-0.00973,-0.0024,0.1978,-0.0073,-0.0073,-0.0073,-0.0073,-0.0220,0.4444,-3.8359,8.3624,0.4029,-0.0122,-0.0757,0.0073,1,1,1,1,1,1,1
7.8655,sweep,2,+up,-0.03872,1.28615,1.20832,1.56577,-0.12036,1.51045,-0.01011,-0.0024,0.1929,-0.0024,0.0073,-0.0073,0.0220,-0.0073,0.4581,-4.3829,8.4718,0.5690,-0.0220,-0.0708,0.0024,1,1,1,1,1,1,1
7.9050,sweep,2,+up,-0.03872,1.28615,1.20832,1.56577,-0.12036,1.51045,-0.01011,-0.0024,0.1929,-0.0024,0.0073,-0.0073,0.0220,-0.0073,0.4581,-4.3829,8.4718,0.5690,-0.0220,-0.0708,0.0024,1,1,1,1,1,1,1
7.9451,sweep,2,+up,-0.03872,1.30179,1.20832,1.56920,-0.12036,1.51045,-0.01011,-0.0024,0.1832,-0.0024,0.0073,-0.0073,-0.0073,-0.0073,0.4718,-3.8632,8.5949,0.3785,-0.0269,-0.0806,-0.0024,1,1,1,1,1,1,1
7.9851,sweep,2,+up,-0.03872,1.30179,1.20832,1.56920,-0.12036,1.51045,-0.01011,-0.0024,0.1832,-0.0024,0.0073,-0.0073,-0.0073,-0.0073,0.4718,-3.8632,8.5949,0.3785,-0.0269,-0.0806,-0.0024,1,1,1,1,1,1,1
8.0252,sweep,2,+up,-0.03872,1.30179,1.20832,1.56920,-0.12036,1.51045,-0.01011,-0.0024,0.1832,-0.0024,0.0073,-0.0073,-0.0073,-0.0073,0.4718,-3.8632,8.5949,0.3785,-0.0269,-0.0806,-0.0024,1,1,1,1,1,1,1
8.0651,sweep,2,+up,-0.03872,1.32582,1.20832,1.57034,-0.12074,1.51045,-0.00973,-0.0024,0.1978,-0.0024,-0.0073,-0.0073,-0.0073,-0.0073,0.4855,-4.0274,8.6222,0.3541,-0.0269,-0.0855,0.0024,1,1,1,1,1,1,1
8.1051,sweep,2,+up,-0.03872,1.32582,1.20832,1.57034,-0.12074,1.51045,-0.00973,-0.0024,0.1978,-0.0024,-0.0073,-0.0073,-0.0073,-0.0073,0.4855,-4.0274,8.6222,0.3541,-0.0269,-0.0855,0.0024,1,1,1,1,1,1,1
8.1450,sweep,2,+up,-0.03872,1.34222,1.20832,1.56996,-0.12074,1.51045,-0.01011,-0.0024,0.2027,-0.0073,0.0073,-0.0073,-0.0073,-0.0220,0.4991,-4.7795,8.6769,0.4029,-0.0220,-0.0855,0.0024,1,1,1,1,1,1,1
8.1850,sweep,2,+up,-0.03872,1.34222,1.20832,1.56996,-0.12074,1.51045,-0.01011,-0.0024,0.2027,-0.0073,0.0073,-0.0073,-0.0073,-0.0220,0.4991,-4.7795,8.6769,0.4029,-0.0220,-0.0855,0.0024,1,1,1,1,1,1,1
8.2250,sweep,2,+up,-0.03872,1.34222,1.20832,1.56996,-0.12074,1.51045,-0.01011,-0.0024,0.2027,-0.0073,0.0073,-0.0073,-0.0073,-0.0220,0.4991,-4.7795,8.6769,0.4029,-0.0220,-0.0855,0.0024,1,1,1,1,1,1,1
8.2653,sweep,2,+up,-0.03872,1.36587,1.20832,1.56996,-0.12036,1.51045,-0.01011,-0.0024,0.1783,0.0024,0.0220,-0.0073,0.0220,-0.0073,0.5265,-4.0821,8.7453,0.4225,-0.0220,-0.0855,-0.0024,1,1,1,1,1,1,1
8.3051,sweep,2,+up,-0.03872,1.36587,1.20832,1.56996,-0.12036,1.51045,-0.01011,-0.0024,0.1783,0.0024,0.0220,-0.0073,0.0220,-0.0073,0.5265,-4.0821,8.7453,0.4225,-0.0220,-0.0855,-0.0024,1,1,1,1,1,1,1
8.3452,sweep,2,+up,-0.03872,1.38190,1.20832,1.57034,-0.12036,1.51045,-0.01011,-0.0024,0.2027,-0.0024,-0.0073,-0.0073,-0.0073,-0.0073,0.5128,-4.3419,8.7316,0.4322,-0.0171,-0.0904,0.0024,1,1,1,1,1,1,1
8.3853,sweep,2,+up,-0.03872,1.38190,1.20832,1.57034,-0.12036,1.51045,-0.01011,-0.0024,0.2027,-0.0024,-0.0073,-0.0073,-0.0073,-0.0073,0.5128,-4.3419,8.7316,0.4322,-0.0171,-0.0904,0.0024,1,1,1,1,1,1,1
8.4253,sweep,2,+up,-0.03872,1.38190,1.20832,1.57034,-0.12036,1.51045,-0.01011,-0.0024,0.2027,-0.0024,-0.0073,-0.0073,-0.0073,-0.0073,0.5128,-4.3419,8.7316,0.4322,-0.0171,-0.0904,0.0024,1,1,1,1,1,1,1
8.4653,sweep,2,+up,-0.03872,1.40631,1.20832,1.56996,-0.12074,1.51045,-0.01011,-0.0024,0.2076,-0.0073,-0.0220,-0.0073,-0.0220,0.0073,0.5402,-4.9436,8.8000,0.4908,-0.0171,-0.0952,0.0024,1,1,1,1,1,1,1
8.5050,sweep,2,+up,-0.03872,1.40631,1.20832,1.56996,-0.12074,1.51045,-0.01011,-0.0024,0.2076,-0.0073,-0.0220,-0.0073,-0.0220,0.0073,0.5402,-4.9436,8.8000,0.4908,-0.0171,-0.0952,0.0024,1,1,1,1,1,1,1
8.5452,sweep,2,+up,-0.03872,1.42271,1.20832,1.56996,-0.12074,1.51045,-0.01011,-0.0024,0.2173,-0.0024,0.0073,-0.0073,-0.0073,-0.0073,0.5675,-5.2991,8.8547,0.5104,-0.0171,-0.1001,0.0024,1,1,1,1,1,1,1
8.5855,sweep,2,+up,-0.03872,1.42271,1.20832,1.56996,-0.12074,1.51045,-0.01011,-0.0024,0.2173,-0.0024,0.0073,-0.0073,-0.0073,-0.0073,0.5675,-5.2991,8.8547,0.5104,-0.0171,-0.1001,0.0024,1,1,1,1,1,1,1
8.6253,sweep,2,+up,-0.03872,1.42271,1.20832,1.56996,-0.12074,1.51045,-0.01011,-0.0024,0.2173,-0.0024,0.0073,-0.0073,-0.0073,-0.0073,0.5675,-5.2991,8.8547,0.5104,-0.0171,-0.1001,0.0024,1,1,1,1,1,1,1
8.6652,sweep,2,+up,-0.03872,1.44675,1.20832,1.56996,-0.12036,1.51007,-0.01011,-0.0024,0.1978,0.0024,-0.0073,-0.0073,-0.0366,-0.0073,0.6222,-4.9983,8.8684,0.5397,-0.0171,-0.1050,0.0073,1,1,1,1,1,1,1
8.7054,sweep,2,+up,-0.03872,1.44675,1.20832,1.56996,-0.12036,1.51007,-0.01011,-0.0024,0.1978,0.0024,-0.0073,-0.0073,-0.0366,-0.0073,0.6222,-4.9983,8.8684,0.5397,-0.0171,-0.1050,0.0073,1,1,1,1,1,1,1
8.7452,sweep,2,+up,-0.03872,1.46315,1.20832,1.56958,-0.12074,1.51045,-0.00973,-0.0024,0.1783,-0.0024,-0.0220,-0.0073,-0.0073,0.0073,0.6222,-5.5453,8.9504,0.5983,-0.0171,-0.1050,0.0073,1,1,1,1,1,1,1
8.7857,sweep,2,+up,-0.03872,1.46315,1.20832,1.56958,-0.12074,1.51045,-0.00973,-0.0024,0.1783,-0.0024,-0.0220,-0.0073,-0.0073,0.0073,0.6222,-5.5453,8.9504,0.5983,-0.0171,-0.1050,0.0073,1,1,1,1,1,1,1
8.8250,sweep,2,+up,-0.03872,1.46315,1.20832,1.56958,-0.12074,1.51045,-0.00973,-0.0024,0.1783,-0.0024,-0.0220,-0.0073,-0.0073,0.0073,0.6222,-5.5453,8.9504,0.5983,-0.0171,-0.1050,0.0073,1,1,1,1,1,1,1
8.8650,sweep,2,+up,-0.03872,1.48756,1.20832,1.56920,-0.12036,1.51045,-0.01011,-0.0024,0.2320,-0.0024,-0.0073,-0.0073,0.0073,-0.0220,0.6496,-6.4615,8.9915,0.7106,-0.0122,-0.1050,-0.0024,1,1,1,1,1,1,1
8.9051,sweep,2,+up,-0.03872,1.48756,1.20832,1.56920,-0.12036,1.51045,-0.01011,-0.0024,0.2320,-0.0024,-0.0073,-0.0073,0.0073,-0.0220,0.6496,-6.4615,8.9915,0.7106,-0.0122,-0.1050,-0.0024,1,1,1,1,1,1,1
8.9451,sweep,2,+up,-0.03872,1.50359,1.20832,1.56882,-0.12036,1.51007,-0.01011,0.0024,0.1832,0.0024,-0.0073,-0.0073,-0.0220,-0.0073,0.6632,-6.3795,9.0598,0.7546,-0.0073,-0.1050,0.0024,1,1,1,1,1,1,1
8.9851,sweep,2,+up,-0.03872,1.50359,1.20832,1.56882,-0.12036,1.51007,-0.01011,0.0024,0.1832,0.0024,-0.0073,-0.0073,-0.0220,-0.0073,0.6632,-6.3795,9.0598,0.7546,-0.0073,-0.1050,0.0024,1,1,1,1,1,1,1
9.0249,sweep,2,+up,-0.03872,1.50359,1.20832,1.56882,-0.12036,1.51007,-0.01011,0.0024,0.1832,0.0024,-0.0073,-0.0073,-0.0220,-0.0073,0.6632,-6.3795,9.0598,0.7546,-0.0073,-0.1050,0.0024,1,1,1,1,1,1,1
9.0649,sweep,2,+up,-0.03872,1.52800,1.20832,1.56882,-0.12036,1.51045,-0.01011,-0.0024,0.1880,-0.0024,0.0073,0.0073,-0.0073,-0.0220,0.6906,-6.8171,9.1145,0.8376,-0.0073,-0.1050,-0.0073,1,1,1,1,1,1,1
9.1051,sweep,2,+up,-0.03872,1.52800,1.20832,1.56882,-0.12036,1.51045,-0.01011,-0.0024,0.1880,-0.0024,0.0073,0.0073,-0.0073,-0.0220,0.6906,-6.8171,9.1145,0.8376,-0.0073,-0.1050,-0.0073,1,1,1,1,1,1,1
9.1454,sweep,2,+up,-0.03872,1.54364,1.20832,1.56920,-0.12036,1.51007,-0.00973,-0.0073,0.1832,0.0024,-0.0073,0.0073,-0.0220,0.0073,0.6906,-6.6803,9.1966,0.8962,-0.0073,-0.1099,-0.0024,1,1,1,1,1,1,1
9.1858,sweep,2,+up,-0.03872,1.54364,1.20832,1.56920,-0.12036,1.51007,-0.00973,-0.0073,0.1832,0.0024,-0.0073,0.0073,-0.0220,0.0073,0.6906,-6.6803,9.1966,0.8962,-0.0073,-0.1099,-0.0024,1,1,1,1,1,1,1
9.2259,sweep,2,+up,-0.03872,1.54364,1.20832,1.56920,-0.12036,1.51007,-0.00973,-0.0073,0.1832,0.0024,-0.0073,0.0073,-0.0220,0.0073,0.6906,-6.6803,9.1966,0.8962,-0.0073,-0.1099,-0.0024,1,1,1,1,1,1,1
9.2650,sweep,2,+up,-0.03872,1.56806,1.20870,1.56920,-0.12036,1.51045,-0.01011,-0.0024,0.1880,0.0024,-0.0220,-0.0073,-0.0073,-0.0073,0.7179,-7.0632,9.2239,0.9353,-0.0171,-0.1099,-0.0024,1,1,1,1,1,1,1
9.3052,sweep,2,+up,-0.03872,1.56806,1.20870,1.56920,-0.12036,1.51045,-0.01011,-0.0024,0.1880,0.0024,-0.0220,-0.0073,-0.0073,-0.0073,0.7179,-7.0632,9.2239,0.9353,-0.0171,-0.1099,-0.0024,1,1,1,1,1,1,1
9.3455,sweep,2,+up,-0.03872,1.58446,1.20870,1.56920,-0.12036,1.51045,-0.01011,-0.0024,0.2027,-0.0024,0.0073,-0.0073,-0.0220,-0.0073,0.7043,-7.4325,9.2650,0.9988,-0.0220,-0.1148,0.0024,1,1,1,1,1,1,1
9.3854,sweep,2,+up,-0.03872,1.58446,1.20870,1.56920,-0.12036,1.51045,-0.01011,-0.0024,0.2027,-0.0024,0.0073,-0.0073,-0.0220,-0.0073,0.7043,-7.4325,9.2650,0.9988,-0.0220,-0.1148,0.0024,1,1,1,1,1,1,1
9.4254,sweep,2,+up,-0.03872,1.58446,1.20870,1.56920,-0.12036,1.51045,-0.01011,-0.0024,0.2027,-0.0024,0.0073,-0.0073,-0.0220,-0.0073,0.7043,-7.4325,9.2650,0.9988,-0.0220,-0.1148,0.0024,1,1,1,1,1,1,1
9.4655,sweep,2,+up,-0.03872,1.60849,1.20870,1.56920,-0.12036,1.51045,-0.01011,0.0024,0.1929,-0.0024,0.0073,-0.0073,0.0073,-0.0073,0.7453,-7.4051,9.2923,1.0720,-0.0171,-0.1148,0.0024,1,1,1,1,1,1,1
9.5054,sweep,2,+up,-0.03872,1.60849,1.20870,1.56920,-0.12036,1.51045,-0.01011,0.0024,0.1929,-0.0024,0.0073,-0.0073,0.0073,-0.0073,0.7453,-7.4051,9.2923,1.0720,-0.0171,-0.1148,0.0024,1,1,1,1,1,1,1
9.5453,sweep,2,+up,-0.03872,1.62451,1.20870,1.56920,-0.12036,1.51007,-0.00973,-0.0024,0.2027,-0.0024,-0.0073,-0.0073,-0.0073,-0.0073,0.7453,-7.4735,9.3470,1.1306,-0.0220,-0.1197,0.0073,1,1,1,1,1,1,1
9.5852,sweep,2,+up,-0.03872,1.62451,1.20870,1.56920,-0.12036,1.51007,-0.00973,-0.0024,0.2027,-0.0024,-0.0073,-0.0073,-0.0073,-0.0073,0.7453,-7.4735,9.3470,1.1306,-0.0220,-0.1197,0.0073,1,1,1,1,1,1,1
9.6249,sweep,2,+up,-0.03872,1.62451,1.20870,1.56920,-0.12036,1.51007,-0.00973,-0.0024,0.2027,-0.0024,-0.0073,-0.0073,-0.0073,-0.0073,0.7453,-7.4735,9.3470,1.1306,-0.0220,-0.1197,0.0073,1,1,1,1,1,1,1
9.6653,sweep,2,+up,-0.03872,1.64855,1.20870,1.56958,-0.12036,1.51045,-0.00973,0.0024,0.1880,0.0073,0.0073,0.0073,-0.0073,-0.0073,0.8000,-7.6103,9.2239,1.1746,-0.0317,-0.1148,0.0073,1,1,1,1,1,1,1
9.7053,sweep,2,+up,-0.03872,1.64855,1.20870,1.56958,-0.12036,1.51045,-0.00973,0.0024,0.1880,0.0073,0.0073,0.0073,-0.0073,-0.0073,0.8000,-7.6103,9.2239,1.1746,-0.0317,-0.1148,0.0073,1,1,1,1,1,1,1
9.7453,sweep,2,+up,-0.03872,1.66495,1.20870,1.56958,-0.12036,1.51045,-0.01011,-0.0024,0.2222,-0.0024,0.0073,-0.0220,-0.0073,-0.0073,0.7863,-7.9795,9.0051,1.1893,-0.0269,-0.1245,0.0073,1,1,1,1,1,1,1
9.7851,sweep,2,+up,-0.03872,1.66495,1.20870,1.56958,-0.12036,1.51045,-0.01011,-0.0024,0.2222,-0.0024,0.0073,-0.0220,-0.0073,-0.0073,0.7863,-7.9795,9.0051,1.1893,-0.0269,-0.1245,0.0073,1,1,1,1,1,1,1
9.8254,sweep,2,+up,-0.03872,1.66495,1.20870,1.56958,-0.12036,1.51045,-0.01011,-0.0024,0.2222,-0.0024,0.0073,-0.0220,-0.0073,-0.0073,0.7863,-7.9795,9.0051,1.1893,-0.0269,-0.1245,0.0073,1,1,1,1,1,1,1
9.8654,sweep,2,+up,-0.03872,1.68898,1.20870,1.56996,-0.12036,1.51045,-0.01011,0.0024,0.1880,-0.0024,-0.0220,0.0073,-0.0073,-0.0220,0.7863,-7.9795,9.0325,1.2234,-0.0269,-0.1245,0.0073,1,1,1,1,1,1,1
9.9053,sweep,2,+up,-0.03872,1.68898,1.20870,1.56996,-0.12036,1.51045,-0.01011,0.0024,0.1880,-0.0024,-0.0220,0.0073,-0.0073,-0.0220,0.7863,-7.9795,9.0325,1.2234,-0.0269,-0.1245,0.0073,1,1,1,1,1,1,1
9.9453,sweep,2,+up,-0.03872,1.70500,1.20870,1.56996,-0.12036,1.51007,-0.01011,-0.0024,0.1929,0.0024,-0.0073,-0.0073,-0.0220,-0.0220,0.7726,-8.2803,9.0051,1.2479,-0.0317,-0.1245,0.0024,1,1,1,1,1,1,1
9.9854,sweep,2,+up,-0.03872,1.70500,1.20870,1.56996,-0.12036,1.51007,-0.01011,-0.0024,0.1929,0.0024,-0.0073,-0.0073,-0.0220,-0.0220,0.7726,-8.2803,9.0051,1.2479,-0.0317,-0.1245,0.0024,1,1,1,1,1,1,1
10.0253,sweep,2,+up,-0.03872,1.70500,1.20870,1.56996,-0.12036,1.51007,-0.01011,-0.0024,0.1929,0.0024,-0.0073,-0.0073,-0.0220,-0.0220,0.7726,-8.2803,9.0051,1.2479,-0.0317,-0.1245,0.0024,1,1,1,1,1,1,1
10.0657,sweep,2,+up,-0.03872,1.72942,1.20909,1.56996,-0.12036,1.51045,-0.01011,-0.0073,0.2320,0.0024,-0.0073,-0.0073,-0.0073,-0.0220,0.8000,-8.7316,8.9504,1.2527,-0.0317,-0.1343,0.0024,1,1,1,1,1,1,1
10.1052,sweep,2,+up,-0.03872,1.72942,1.20909,1.56996,-0.12036,1.51045,-0.01011,-0.0073,0.2320,0.0024,-0.0073,-0.0073,-0.0073,-0.0220,0.8000,-8.7316,8.9504,1.2527,-0.0317,-0.1343,0.0024,1,1,1,1,1,1,1
10.1451,sweep,2,+up,-0.03872,1.74506,1.20870,1.56996,-0.12036,1.51007,-0.00973,-0.0073,0.1929,-0.0024,0.0073,-0.0073,-0.0073,-0.0073,0.8137,-8.4581,8.9368,1.3260,-0.0366,-0.1294,0.0024,1,1,1,1,1,1,1
10.1853,sweep,2,+up,-0.03872,1.74506,1.20870,1.56996,-0.12036,1.51007,-0.00973,-0.0073,0.1929,-0.0024,0.0073,-0.0073,-0.0073,-0.0073,0.8137,-8.4581,8.9368,1.3260,-0.0366,-0.1294,0.0024,1,1,1,1,1,1,1
10.2252,sweep,2,+up,-0.03872,1.74506,1.20870,1.56996,-0.12036,1.51007,-0.00973,-0.0073,0.1929,-0.0024,0.0073,-0.0073,-0.0073,-0.0073,0.8137,-8.4581,8.9368,1.3260,-0.0366,-0.1294,0.0024,1,1,1,1,1,1,1
10.2660,sweep,2,+up,-0.03872,1.76947,1.20909,1.56996,-0.12036,1.51007,-0.01011,-0.0073,0.2027,-0.0024,-0.0073,-0.0073,-0.0073,-0.0073,0.7863,-8.5402,8.8547,1.3260,-0.0366,-0.1343,0.0024,1,1,1,1,1,1,1
10.3060,sweep,2,+up,-0.03872,1.76947,1.20909,1.56996,-0.12036,1.51007,-0.01011,-0.0073,0.2027,-0.0024,-0.0073,-0.0073,-0.0073,-0.0073,0.7863,-8.5402,8.8547,1.3260,-0.0366,-0.1343,0.0024,1,1,1,1,1,1,1
10.3452,sweep,2,+up,-0.03872,1.78550,1.20909,1.57111,-0.12074,1.51007,-0.01011,-0.0024,0.1929,-0.0024,0.0073,-0.0220,-0.0073,-0.0073,0.7863,-8.4991,8.7590,1.2674,-0.0317,-0.1392,-0.0024,1,1,1,1,1,1,1
10.3857,sweep,2,+up,-0.03872,1.78550,1.20909,1.57111,-0.12074,1.51007,-0.01011,-0.0024,0.1929,-0.0024,0.0073,-0.0220,-0.0073,-0.0073,0.7863,-8.4991,8.7590,1.2674,-0.0317,-0.1392,-0.0024,1,1,1,1,1,1,1
10.4254,sweep,2,+up,-0.03872,1.78550,1.20909,1.57111,-0.12074,1.51007,-0.01011,-0.0024,0.1929,-0.0024,0.0073,-0.0220,-0.0073,-0.0073,0.7863,-8.4991,8.7590,1.2674,-0.0317,-0.1392,-0.0024,1,1,1,1,1,1,1
10.4653,sweep,2,+up,-0.03872,1.80915,1.20909,1.57073,-0.12036,1.51007,-0.01011,-0.0024,0.2173,-0.0024,-0.0073,-0.0073,-0.0220,-0.0073,0.8274,-8.4308,8.6496,1.2772,-0.0464,-0.1392,-0.0024,1,1,1,1,1,1,1
10.5052,sweep,2,+up,-0.03872,1.80915,1.20909,1.57073,-0.12036,1.51007,-0.01011,-0.0024,0.2173,-0.0024,-0.0073,-0.0073,-0.0220,-0.0073,0.8274,-8.4308,8.6496,1.2772,-0.0464,-0.1392,-0.0024,1,1,1,1,1,1,1
10.5453,sweep,2,+up,-0.03872,1.82479,1.20909,1.57073,-0.12036,1.51007,-0.01011,-0.0024,0.1929,-0.0024,-0.0073,-0.0220,-0.0073,-0.0220,0.8547,-8.0068,8.5675,1.2625,-0.0415,-0.1343,-0.0073,1,1,1,1,1,1,1
10.5854,sweep,2,+up,-0.03872,1.82479,1.20909,1.57073,-0.12036,1.51007,-0.01011,-0.0024,0.1929,-0.0024,-0.0073,-0.0220,-0.0073,-0.0220,0.8547,-8.0068,8.5675,1.2625,-0.0415,-0.1343,-0.0073,1,1,1,1,1,1,1
10.6251,sweep,2,+up,-0.03872,1.82479,1.20909,1.57073,-0.12036,1.51007,-0.01011,-0.0024,0.1929,-0.0024,-0.0073,-0.0220,-0.0073,-0.0220,0.8547,-8.0068,8.5675,1.2625,-0.0415,-0.1343,-0.0073,1,1,1,1,1,1,1
10.6656,sweep,2,+up,-0.03872,1.84997,1.20909,1.56958,-0.12074,1.51007,-0.01011,-0.0024,0.1978,-0.0024,-0.0073,-0.0220,-0.0220,-0.0073,0.8274,-9.1692,8.5538,1.3748,-0.0415,-0.1392,-0.0024,1,1,1,1,1,1,1
10.7057,sweep,2,+up,-0.03872,1.84997,1.20909,1.56958,-0.12074,1.51007,-0.01011,-0.0024,0.1978,-0.0024,-0.0073,-0.0220,-0.0220,-0.0073,0.8274,-9.1692,8.5538,1.3748,-0.0415,-0.1392,-0.0024,1,1,1,1,1,1,1
10.7456,sweep,2,+up,-0.03872,1.86599,1.20909,1.56958,-0.12074,1.51045,-0.01011,0.0024,0.2173,-0.0073,-0.0073,-0.0073,-0.0073,0.0073,0.8274,-9.6068,8.5402,1.4139,-0.0415,-0.1441,0.0024,1,1,1,1,1,1,1
10.7853,sweep,2,+up,-0.03872,1.86599,1.20909,1.56958,-0.12074,1.51045,-0.01011,0.0024,0.2173,-0.0073,-0.0073,-0.0073,-0.0073,0.0073,0.8274,-9.6068,8.5402,1.4139,-0.0415,-0.1441,0.0024,1,1,1,1,1,1,1
10.8251,sweep,2,+up,-0.03872,1.86599,1.20909,1.56958,-0.12074,1.51045,-0.01011,0.0024,0.2173,-0.0073,-0.0073,-0.0073,-0.0073,0.0073,0.8274,-9.6068,8.5402,1.4139,-0.0415,-0.1441,0.0024,1,1,1,1,1,1,1
10.8652,sweep,2,+up,-0.03872,1.88964,1.20909,1.56920,-0.12036,1.51045,-0.01011,0.0024,0.1734,-0.0073,-0.0073,-0.0073,0.0073,0.0073,0.8821,-9.2239,8.5538,1.4969,-0.0464,-0.1441,0.0024,1,1,1,1,1,1,1
10.9054,sweep,2,+up,-0.03872,1.88964,1.20909,1.56920,-0.12036,1.51045,-0.01011,0.0024,0.1734,-0.0073,-0.0073,-0.0073,0.0073,0.0073,0.8821,-9.2239,8.5538,1.4969,-0.0464,-0.1441,0.0024,1,1,1,1,1,1,1
10.9451,sweep,2,+up,-0.03872,1.90566,1.20909,1.56958,-0.12074,1.51007,-0.00973,-0.0024,0.1880,0.0024,-0.0073,-0.0073,-0.0073,0.0073,0.9094,-9.1829,8.5402,1.5067,-0.0366,-0.1490,0.0024,1,1,1,1,1,1,1
10.9852,sweep,2,+up,-0.03872,1.90566,1.20909,1.56958,-0.12074,1.51007,-0.00973,-0.0024,0.1880,0.0024,-0.0073,-0.0073,-0.0073,0.0073,0.9094,-9.1829,8.5402,1.5067,-0.0366,-0.1490,0.0024,1,1,1,1,1,1,1
11.0252,sweep,2,+up,-0.03872,1.90566,1.20909,1.56958,-0.12074,1.51007,-0.00973,-0.0024,0.1880,0.0024,-0.0073,-0.0073,-0.0073,0.0073,0.9094,-9.1829,8.5402,1.5067,-0.0366,-0.1490,0.0024,1,1,1,1,1,1,1
11.0652,sweep,2,+up,-0.03872,1.93008,1.20909,1.57034,-0.12074,1.51007,-0.00973,-0.0024,0.1832,-0.0024,0.0073,-0.0073,-0.0073,-0.0073,0.8957,-9.6479,8.4308,1.5067,-0.0366,-0.1490,0.0024,1,1,1,1,1,1,1
11.1051,sweep,2,+up,-0.03872,1.93008,1.20909,1.57034,-0.12074,1.51007,-0.00973,-0.0024,0.1832,-0.0024,0.0073,-0.0073,-0.0073,-0.0073,0.8957,-9.6479,8.4308,1.5067,-0.0366,-0.1490,0.0024,1,1,1,1,1,1,1
11.1451,sweep,2,+up,-0.03872,1.94610,1.20909,1.57034,-0.12074,1.51007,-0.01011,-0.0024,0.2173,0.0024,0.0073,-0.0220,0.0073,-0.0073,0.8821,-9.7299,8.3761,1.5067,-0.0269,-0.1441,-0.0024,1,1,1,1,1,1,1
11.1852,sweep,2,+up,-0.03872,1.94610,1.20909,1.57034,-0.12074,1.51007,-0.01011,-0.0024,0.2173,0.0024,0.0073,-0.0220,0.0073,-0.0073,0.8821,-9.7299,8.3761,1.5067,-0.0269,-0.1441,-0.0024,1,1,1,1,1,1,1
11.2251,sweep,2,+up,-0.03872,1.94610,1.20909,1.57034,-0.12074,1.51007,-0.01011,-0.0024,0.2173,0.0024,0.0073,-0.0220,0.0073,-0.0073,0.8821,-9.7299,8.3761,1.5067,-0.0269,-0.1441,-0.0024,1,1,1,1,1,1,1
11.2653,sweep,2,+up,-0.03872,1.96975,1.20909,1.57034,-0.12074,1.51045,-0.01011,-0.0024,0.1832,0.0024,-0.0073,-0.0073,0.0073,-0.0220,0.8957,-9.2786,8.2120,1.5018,-0.0220,-0.1538,-0.0024,1,1,1,1,1,1,1
11.3051,sweep,2,+up,-0.03872,1.96975,1.20909,1.57034,-0.12074,1.51045,-0.01011,-0.0024,0.1832,0.0024,-0.0073,-0.0073,0.0073,-0.0220,0.8957,-9.2786,8.2120,1.5018,-0.0220,-0.1538,-0.0024,1,1,1,1,1,1,1
11.3454,sweep,2,+up,-0.03872,1.98615,1.20909,1.56996,-0.12112,1.51007,-0.01011,-0.0024,0.1636,-0.0024,-0.0073,-0.0073,0.0073,-0.0220,0.9368,-9.4838,8.1436,1.5604,-0.0171,-0.1538,-0.0024,1,1,1,1,1,1,1
11.3853,sweep,2,+up,-0.03872,1.98615,1.20909,1.56996,-0.12112,1.51007,-0.01011,-0.0024,0.1636,-0.0024,-0.0073,-0.0073,0.0073,-0.0220,0.9368,-9.4838,8.1436,1.5604,-0.0171,-0.1538,-0.0024,1,1,1,1,1,1,1
11.4253,sweep,2,+up,-0.03872,1.98615,1.20909,1.56996,-0.12112,1.51007,-0.01011,-0.0024,0.1636,-0.0024,-0.0073,-0.0073,0.0073,-0.0220,0.9368,-9.4838,8.1436,1.5604,-0.0171,-0.1538,-0.0024,1,1,1,1,1,1,1
11.4650,sweep,2,+up,-0.03872,2.01057,1.20909,1.56996,-0.12112,1.51007,-0.01011,-0.0024,0.2125,-0.0024,-0.0073,-0.0073,-0.0073,-0.0220,0.9231,-10.0581,8.0752,1.5946,-0.0073,-0.1587,-0.0024,1,1,1,1,1,1,1
11.5052,sweep,2,+up,-0.03872,2.01057,1.20909,1.56996,-0.12112,1.51007,-0.01011,-0.0024,0.2125,-0.0024,-0.0073,-0.0073,-0.0073,-0.0220,0.9231,-10.0581,8.0752,1.5946,-0.0073,-0.1587,-0.0024,1,1,1,1,1,1,1
11.5451,sweep,2,+up,-0.03872,2.02659,1.20909,1.56996,-0.12112,1.51045,-0.01011,0.0024,0.1929,-0.0024,0.0073,-0.0073,0.0073,-0.0220,0.9368,-10.1812,8.0205,1.6239,0.0024,-0.1587,-0.0073,1,1,1,1,1,1,1
11.5851,sweep,2,+up,-0.03872,2.02659,1.20909,1.56996,-0.12112,1.51045,-0.01011,0.0024,0.1929,-0.0024,0.0073,-0.0073,0.0073,-0.0220,0.9368,-10.1812,8.0205,1.6239,0.0024,-0.1587,-0.0073,1,1,1,1,1,1,1
11.6251,sweep,2,+up,-0.03872,2.02659,1.20909,1.56996,-0.12112,1.51045,-0.01011,0.0024,0.1929,-0.0024,0.0073,-0.0073,0.0073,-0.0220,0.9368,-10.1812,8.0205,1.6239,0.0024,-0.1587,-0.0073,1,1,1,1,1,1,1
11.6649,sweep,2,+up,-0.03872,2.05024,1.20947,1.57034,-0.12112,1.51007,-0.01011,-0.0073,0.2173,-0.0024,0.0073,-0.0073,-0.0073,0.0073,0.9231,-9.9487,7.9248,1.6288,0.0171,-0.1636,-0.0073,1,1,1,1,1,1,1
11.7052,sweep,2,+up,-0.03872,2.05024,1.20947,1.57034,-0.12112,1.51007,-0.01011,-0.0073,0.2173,-0.0024,0.0073,-0.0073,-0.0073,0.0073,0.9231,-9.9487,7.9248,1.6288,0.0171,-0.1636,-0.0073,1,1,1,1,1,1,1
11.7455,sweep,2,+up,-0.03872,2.06626,1.20947,1.57073,-0.12112,1.51007,-0.01011,-0.0024,0.1880,-0.0073,0.0220,-0.0073,-0.0220,-0.0073,0.9368,-9.5385,7.7060,1.6044,0.0171,-0.1587,-0.0024,1,1,1,1,1,1,1
11.7852,sweep,2,+up,-0.03872,2.06626,1.20947,1.57073,-0.12112,1.51007,-0.01011,-0.0024,0.1880,-0.0073,0.0220,-0.0073,-0.0220,-0.0073,0.9368,-9.5385,7.7060,1.6044,0.0171,-0.1587,-0.0024,1,1,1,1,1,1,1
11.8250,sweep,2,+up,-0.03872,2.06626,1.20947,1.57073,-0.12112,1.51007,-0.01011,-0.0024,0.1880,-0.0073,0.0220,-0.0073,-0.0220,-0.0073,0.9368,-9.5385,7.7060,1.6044,0.0171,-0.1587,-0.0024,1,1,1,1,1,1,1
11.8651,sweep,2,+up,-0.03872,2.08991,1.20947,1.57187,-0.12036,1.51007,-0.01011,-0.0024,0.2271,0.0024,-0.0220,-0.0073,0.0073,-0.0220,0.9094,-9.6342,7.4735,1.4676,0.0024,-0.1392,0.0024,1,1,1,1,1,1,1
11.9053,sweep,2,+up,-0.03872,2.08991,1.20947,1.57187,-0.12036,1.51007,-0.01011,-0.0024,0.2271,0.0024,-0.0220,-0.0073,0.0073,-0.0220,0.9094,-9.6342,7.4735,1.4676,0.0024,-0.1392,0.0024,1,1,1,1,1,1,1
11.9451,sweep,2,+up,-0.03872,2.10632,1.20947,1.57149,-0.12036,1.51007,-0.00973,-0.0024,0.1929,-0.0024,-0.0220,-0.0220,-0.0220,0.0073,0.9504,-9.6889,7.2957,1.4774,0.0024,-0.1343,0.0024,1,1,1,1,1,1,1
11.9852,sweep,2,+up,-0.03872,2.10632,1.20947,1.57149,-0.12036,1.51007,-0.00973,-0.0024,0.1929,-0.0024,-0.0220,-0.0220,-0.0220,0.0073,0.9504,-9.6889,7.2957,1.4774,0.0024,-0.1343,0.0024,1,1,1,1,1,1,1
12.0256,sweep,2,+up,-0.03872,2.10632,1.20947,1.57149,-0.12036,1.51007,-0.00973,-0.0024,0.1929,-0.0024,-0.0220,-0.0220,-0.0220,0.0073,0.9504,-9.6889,7.2957,1.4774,0.0024,-0.1343,0.0024,1,1,1,1,1,1,1
12.0654,sweep,2,+up,-0.03872,2.13073,1.20947,1.56882,-0.12036,1.51007,-0.01011,-0.0024,0.1783,-0.0024,-0.0220,-0.0073,-0.0073,-0.0220,0.9504,-10.4410,7.2684,1.6923,-0.0024,-0.1294,0.0024,1,1,1,1,1,1,1
12.1053,sweep,2,+up,-0.03872,2.13073,1.20947,1.56882,-0.12036,1.51007,-0.01011,-0.0024,0.1783,-0.0024,-0.0220,-0.0073,-0.0073,-0.0220,0.9504,-10.4410,7.2684,1.6923,-0.0024,-0.1294,0.0024,1,1,1,1,1,1,1
12.1454,sweep,2,+up,-0.03872,2.14637,1.20947,1.56882,-0.12036,1.51007,-0.01011,-0.0024,0.1929,0.0024,-0.0073,-0.0220,0.0073,0.0073,0.9641,-10.0855,7.1453,1.7314,-0.0024,-0.1197,-0.0024,1,1,1,1,1,1,1
12.1855,sweep,2,+up,-0.03872,2.14637,1.20947,1.56882,-0.12036,1.51007,-0.01011,-0.0024,0.1929,0.0024,-0.0073,-0.0220,0.0073,0.0073,0.9641,-10.0855,7.1453,1.7314,-0.0024,-0.1197,-0.0024,1,1,1,1,1,1,1
12.2252,sweep,2,+up,-0.03872,2.14637,1.20947,1.56882,-0.12036,1.51007,-0.01011,-0.0024,0.1929,0.0024,-0.0073,-0.0220,0.0073,0.0073,0.9641,-10.0855,7.1453,1.7314,-0.0024,-0.1197,-0.0024,1,1,1,1,1,1,1
12.2654,sweep,2,+up,-0.03872,2.17079,1.20947,1.56920,-0.12036,1.51007,-0.01011,-0.0024,0.2076,-0.0024,0.0073,-0.0220,-0.0073,-0.0073,0.9915,-10.4410,7.0906,1.7900,-0.0122,-0.1099,-0.0024,1,1,1,1,1,1,1
12.3054,sweep,2,+up,-0.03872,2.17079,1.20947,1.56920,-0.12036,1.51007,-0.01011,-0.0024,0.2076,-0.0024,0.0073,-0.0220,-0.0073,-0.0073,0.9915,-10.4410,7.0906,1.7900,-0.0122,-0.1099,-0.0024,1,1,1,1,1,1,1
12.3452,sweep,2,+up,-0.03872,2.18643,1.20947,1.56958,-0.12036,1.51007,-0.01011,-0.0024,0.2222,-0.0024,-0.0073,0.0073,-0.0220,-0.0073,1.0051,-9.9487,6.9812,1.7998,-0.0171,-0.1099,-0.0024,1,1,1,1,1,1,1
12.3854,sweep,2,+up,-0.03872,2.18643,1.20947,1.56958,-0.12036,1.51007,-0.01011,-0.0024,0.2222,-0.0024,-0.0073,0.0073,-0.0220,-0.0073,1.0051,-9.9487,6.9812,1.7998,-0.0171,-0.1099,-0.0024,1,1,1,1,1,1,1
12.4251,sweep,2,+up,-0.03872,2.18643,1.20947,1.56958,-0.12036,1.51007,-0.01011,-0.0024,0.2222,-0.0024,-0.0073,0.0073,-0.0220,-0.0073,1.0051,-9.9487,6.9812,1.7998,-0.0171,-0.1099,-0.0024,1,1,1,1,1,1,1
12.4653,sweep,2,+up,-0.03872,2.21046,1.20947,1.57073,-0.12036,1.51007,-0.01011,-0.0024,0.1880,-0.0073,-0.0073,-0.0220,-0.0220,-0.0220,1.0325,-10.0991,6.8718,1.7070,-0.0171,-0.1050,-0.0024,1,1,1,1,1,1,1
12.5052,sweep,2,+up,-0.03872,2.21046,1.20947,1.57073,-0.12036,1.51007,-0.01011,-0.0024,0.1880,-0.0073,-0.0073,-0.0220,-0.0220,-0.0220,1.0325,-10.0991,6.8718,1.7070,-0.0171,-0.1050,-0.0024,1,1,1,1,1,1,1
12.5453,sweep,2,+up,-0.03872,2.22686,1.20947,1.57073,-0.12036,1.51007,-0.00973,0.0024,0.2369,0.0024,0.0073,-0.0073,-0.0073,-0.0073,0.9778,-10.4684,6.7761,1.7070,-0.0171,-0.1001,0.0024,1,1,1,1,1,1,1
12.5857,sweep,2,+up,-0.03872,2.22686,1.20947,1.57073,-0.12036,1.51007,-0.00973,0.0024,0.2369,0.0024,0.0073,-0.0073,-0.0073,-0.0073,0.9778,-10.4684,6.7761,1.7070,-0.0171,-0.1001,0.0024,1,1,1,1,1,1,1
12.6255,sweep,2,+up,-0.03872,2.22686,1.20947,1.57073,-0.12036,1.51007,-0.00973,0.0024,0.2369,0.0024,0.0073,-0.0073,-0.0073,-0.0073,0.9778,-10.4684,6.7761,1.7070,-0.0171,-0.1001,0.0024,1,1,1,1,1,1,1
12.6653,sweep,2,+up,-0.03872,2.25013,1.20947,1.57149,-0.12074,1.51007,-0.01011,-0.0024,0.1685,-0.0024,-0.0073,0.0073,-0.0073,-0.0220,1.0051,-9.6342,6.6120,1.6435,-0.0122,-0.1099,0.0024,1,1,1,1,1,1,1
12.7052,sweep,2,+up,-0.03872,2.25013,1.20947,1.57149,-0.12074,1.51007,-0.01011,-0.0024,0.1685,-0.0024,-0.0073,0.0073,-0.0073,-0.0220,1.0051,-9.6342,6.6120,1.6435,-0.0122,-0.1099,0.0024,1,1,1,1,1,1,1
12.7451,sweep,2,+up,-0.03872,2.26577,1.20947,1.57073,-0.12074,1.51045,-0.01011,-0.0024,0.1880,0.0024,-0.0220,-0.0220,0.0220,-0.0220,1.0598,-10.2359,6.4615,1.6825,-0.0073,-0.1099,0.0024,1,1,1,1,1,1,1
12.7852,sweep,2,+up,-0.03872,2.26577,1.20947,1.57073,-0.12074,1.51045,-0.01011,-0.0024,0.1880,0.0024,-0.0220,-0.0220,0.0220,-0.0220,1.0598,-10.2359,6.4615,1.6825,-0.0073,-0.1099,0.0024,1,1,1,1,1,1,1
12.8252,sweep,2,+up,-0.03872,2.26577,1.20947,1.57073,-0.12074,1.51045,-0.01011,-0.0024,0.1880,0.0024,-0.0220,-0.0220,0.0220,-0.0220,1.0598,-10.2359,6.4615,1.6825,-0.0073,-0.1099,0.0024,1,1,1,1,1,1,1
12.8652,sweep,2,+up,-0.03872,2.28637,1.20947,1.57034,-0.12074,1.51007,-0.01011,-0.0024,0.1832,-0.0024,0.0073,-0.0073,0.0073,-0.0220,1.0872,-10.8923,6.2838,1.7070,-0.0024,-0.1001,0.0122,1,1,1,1,1,1,1
12.9054,sweep,2,+up,-0.03872,2.28637,1.20947,1.57034,-0.12074,1.51007,-0.01011,-0.0024,0.1832,-0.0024,0.0073,-0.0073,0.0073,-0.0220,1.0872,-10.8923,6.2838,1.7070,-0.0024,-0.1001,0.0122,1,1,1,1,1,1,1
12.9451,sweep,2,+up,-0.03872,2.29782,1.20947,1.56996,-0.12074,1.51007,-0.01011,-0.0024,0.1441,-0.0073,-0.0073,0.0073,-0.0220,0.0073,1.1419,-10.1538,6.1607,1.7411,0.0024,-0.0855,0.0122,1,1,1,1,1,1,1
12.9851,sweep,2,+up,-0.03872,2.29782,1.20947,1.56996,-0.12074,1.51007,-0.01011,-0.0024,0.1441,-0.0073,-0.0073,0.0073,-0.0220,0.0073,1.1419,-10.1538,6.1607,1.7411,0.0024,-0.0855,0.0122,1,1,1,1,1,1,1
13.0253,sweep,2,+up,-0.03872,2.29782,1.20947,1.56996,-0.12074,1.51007,-0.01011,-0.0024,0.1441,-0.0073,-0.0073,0.0073,-0.0220,0.0073,1.1419,-10.1538,6.1607,1.7411,0.0024,-0.0855,0.0122,1,1,1,1,1,1,1
13.0655,sweep,2,+up,-0.03872,2.31308,1.20947,1.57034,-0.12074,1.51007,-0.00973,-0.0024,0.0757,0.0024,0.0073,-0.0073,0.0073,-0.0220,1.1556,-10.4137,6.0513,1.7460,0.0171,-0.0855,0.0122,1,1,1,1,1,1,1
13.1052,sweep,2,+up,-0.03872,2.31308,1.20947,1.57034,-0.12074,1.51007,-0.00973,-0.0024,0.0757,0.0024,0.0073,-0.0073,0.0073,-0.0220,1.1556,-10.4137,6.0513,1.7460,0.0171,-0.0855,0.0122,1,1,1,1,1,1,1
13.1454,sweep,2,+up,-0.03872,2.32223,1.20947,1.57034,-0.12074,1.51007,-0.00973,-0.0024,0.1050,-0.0024,-0.0220,-0.0220,0.0073,-0.0073,1.1419,-10.5504,5.9692,1.7607,0.0171,-0.0757,0.0073,1,1,1,1,1,1,1
13.1852,sweep,2,+up,-0.03872,2.32223,1.20947,1.57034,-0.12074,1.51007,-0.00973,-0.0024,0.1050,-0.0024,-0.0220,-0.0220,0.0073,-0.0073,1.1419,-10.5504,5.9692,1.7607,0.0171,-0.0757,0.0073,1,1,1,1,1,1,1
13.2255,sweep,2,+up,-0.03872,2.32223,1.20947,1.57034,-0.12074,1.51007,-0.00973,-0.0024,0.1050,-0.0024,-0.0220,-0.0220,0.0073,-0.0073,1.1419,-10.5504,5.9692,1.7607,0.0171,-0.0757,0.0073,1,1,1,1,1,1,1
13.2653,sweep,2,+up,-0.03872,2.33406,1.20947,1.56920,-0.12074,1.51007,-0.01011,-0.0024,0.0806,-0.0024,-0.0073,-0.0073,-0.0366,-0.0220,1.1419,-10.9880,5.8462,1.8877,0.0220,-0.0757,0.0073,1,1,1,1,1,1,1
13.3052,sweep,2,+up,-0.03872,2.33406,1.20947,1.56920,-0.12074,1.51007,-0.01011,-0.0024,0.0806,-0.0024,-0.0073,-0.0073,-0.0366,-0.0220,1.1419,-10.9880,5.8462,1.8877,0.0220,-0.0757,0.0073,1,1,1,1,1,1,1
13.3452,sweep,2,+up,-0.03872,2.34092,1.20947,1.56920,-0.12074,1.51007,-0.00973,-0.0024,0.0513,-0.0024,-0.0073,-0.0220,0.0073,-0.0073,1.1692,-10.9744,5.7641,1.9414,0.0220,-0.0757,0.0024,1,1,1,1,1,1,1
13.3850,sweep,2,+up,-0.03872,2.34092,1.20947,1.56920,-0.12074,1.51007,-0.00973,-0.0024,0.0513,-0.0024,-0.0073,-0.0220,0.0073,-0.0073,1.1692,-10.9744,5.7641,1.9414,0.0220,-0.0757,0.0024,1,1,1,1,1,1,1
13.4252,sweep,2,+up,-0.03872,2.34092,1.20947,1.56920,-0.12074,1.51007,-0.00973,-0.0024,0.0513,-0.0024,-0.0073,-0.0220,0.0073,-0.0073,1.1692,-10.9744,5.7641,1.9414,0.0220,-0.0757,0.0024,1,1,1,1,1,1,1
13.4652,sweep,2,+up,-0.03872,2.34970,1.20947,1.56958,-0.12074,1.51007,-0.01011,0.0024,0.0952,-0.0024,-0.0220,-0.0073,0.0073,-0.0073,1.1556,-11.0017,5.6137,1.9707,0.0269,-0.0757,0.0073,1,1,1,1,1,1,1
13.5052,sweep,2,+up,-0.03872,2.34970,1.20947,1.56958,-0.12074,1.51007,-0.01011,0.0024,0.0952,-0.0024,-0.0220,-0.0073,0.0073,-0.0073,1.1556,-11.0017,5.6137,1.9707,0.0269,-0.0757,0.0073,1,1,1,1,1,1,1
13.5451,sweep,2,+up,-0.03872,2.35542,1.20947,1.56958,-0.12074,1.51007,-0.00973,-0.0024,0.0806,-0.0024,-0.0220,-0.0366,-0.0073,0.0073,1.1556,-11.2479,5.4906,2.0049,0.0317,-0.0708,0.0024,1,1,1,1,1,1,1
13.5852,sweep,2,+up,-0.03872,2.35542,1.20947,1.56958,-0.12074,1.51007,-0.00973,-0.0024,0.0806,-0.0024,-0.0220,-0.0366,-0.0073,0.0073,1.1556,-11.2479,5.4906,2.0049,0.0317,-0.0708,0.0024,1,1,1,1,1,1,1
13.6250,sweep,2,+up,-0.03872,2.35542,1.20947,1.56958,-0.12074,1.51007,-0.00973,-0.0024,0.0806,-0.0024,-0.0220,-0.0366,-0.0073,0.0073,1.1556,-11.2479,5.4906,2.0049,0.0317,-0.0708,0.0024,1,1,1,1,1,1,1
13.6653,sweep,2,+up,-0.03872,2.36114,1.20947,1.57225,-0.12074,1.51007,-0.00973,-0.0024,0.0415,-0.0024,0.0073,-0.0073,-0.0220,-0.0073,1.1692,-10.2496,5.2581,1.7949,0.0464,-0.0659,-0.0024,1,1,1,1,1,1,1
13.7052,sweep,2,+up,-0.03872,2.36114,1.20947,1.57225,-0.12074,1.51007,-0.00973,-0.0024,0.0415,-0.0024,0.0073,-0.0073,-0.0220,-0.0073,1.1692,-10.2496,5.2581,1.7949,0.0464,-0.0659,-0.0024,1,1,1,1,1,1,1
13.7454,sweep,2,+up,-0.03872,2.36496,1.20947,1.57301,-0.12112,1.50969,-0.01011,-0.0024,0.0220,-0.0024,0.0220,-0.0073,-0.0073,0.0073,1.1966,-9.9761,5.1214,1.6874,0.0611,-0.0513,-0.0024,1,1,1,1,1,1,1
13.7851,sweep,2,+up,-0.03872,2.36496,1.20947,1.57301,-0.12112,1.50969,-0.01011,-0.0024,0.0220,-0.0024,0.0220,-0.0073,-0.0073,0.0073,1.1966,-9.9761,5.1214,1.6874,0.0611,-0.0513,-0.0024,1,1,1,1,1,1,1
13.8253,sweep,2,+up,-0.03872,2.36496,1.20947,1.57301,-0.12112,1.50969,-0.01011,-0.0024,0.0220,-0.0024,0.0220,-0.0073,-0.0073,0.0073,1.1966,-9.9761,5.1214,1.6874,0.0611,-0.0513,-0.0024,1,1,1,1,1,1,1
13.8650,sweep,2,+up,-0.03872,2.37030,1.20947,1.57301,-0.12150,1.50893,-0.01011,-0.0073,0.0806,-0.0024,-0.0073,0.0073,-0.0073,-0.0073,1.1282,-9.9897,5.0120,1.5409,0.0806,-0.0171,-0.0122,1,1,1,1,1,1,1
13.9051,sweep,2,+up,-0.03872,2.37030,1.20947,1.57301,-0.12150,1.50893,-0.01011,-0.0073,0.0806,-0.0024,-0.0073,0.0073,-0.0073,-0.0073,1.1282,-9.9897,5.0120,1.5409,0.0806,-0.0171,-0.0122,1,1,1,1,1,1,1
13.9452,sweep,2,+up,-0.03834,2.37297,1.20947,1.57340,-0.12188,1.50854,-0.01011,-0.0024,0.0415,-0.0024,-0.0073,-0.0073,-0.0073,-0.0073,1.1419,-9.6205,4.8889,1.4481,0.1392,0.0220,-0.0073,1,1,1,1,1,1,1
13.9853,sweep,2,+up,-0.03834,2.37297,1.20947,1.57340,-0.12188,1.50854,-0.01011,-0.0024,0.0415,-0.0024,-0.0073,-0.0073,-0.0073,-0.0073,1.1419,-9.6205,4.8889,1.4481,0.1392,0.0220,-0.0073,1,1,1,1,1,1,1
14.0256,sweep,2,+up,-0.03834,2.37297,1.20947,1.57340,-0.12188,1.50854,-0.01011,-0.0024,0.0415,-0.0024,-0.0073,-0.0073,-0.0073,-0.0073,1.1419,-9.6205,4.8889,1.4481,0.1392,0.0220,-0.0073,1,1,1,1,1,1,1
14.0654,sweep,2,+up,-0.03834,2.37755,1.20985,1.57340,-0.12188,1.50778,-0.01011,-0.0024,0.0317,-0.0024,0.0220,-0.0073,-0.0073,-0.0073,1.1145,-10.0991,4.6838,1.3114,0.1978,0.1001,-0.0073,1,1,1,1,1,1,1
14.1055,sweep,2,+up,-0.03834,2.37755,1.20985,1.57340,-0.12188,1.50778,-0.01011,-0.0024,0.0317,-0.0024,0.0220,-0.0073,-0.0073,-0.0073,1.1145,-10.0991,4.6838,1.3114,0.1978,0.1001,-0.0073,1,1,1,1,1,1,1
14.1452,sweep,2,+up,-0.03834,2.37907,1.20985,1.57301,-0.12150,1.50778,-0.01011,-0.0024,0.0366,0.0024,0.0073,0.0073,-0.0220,-0.0073,1.1282,-9.2376,4.5744,1.2625,0.2222,0.1490,-0.0024,1,1,1,1,1,1,1
14.1851,sweep,2,+up,-0.03834,2.37907,1.20985,1.57301,-0.12150,1.50778,-0.01011,-0.0024,0.0366,0.0024,0.0073,0.0073,-0.0220,-0.0073,1.1282,-9.2376,4.5744,1.2625,0.2222,0.1490,-0.0024,1,1,1,1,1,1,1
14.2251,sweep,2,+up,-0.03834,2.37907,1.20985,1.57301,-0.12150,1.50778,-0.01011,-0.0024,0.0366,0.0024,0.0073,0.0073,-0.0220,-0.0073,1.1282,-9.2376,4.5744,1.2625,0.2222,0.1490,-0.0024,1,1,1,1,1,1,1
14.2660,sweep,2,+up,-0.03834,2.38174,1.20985,1.57263,-0.12150,1.50816,-0.01011,-0.0024,0.0562,-0.0024,-0.0220,-0.0073,0.0073,-0.0073,1.1145,-9.6752,4.3145,1.1600,0.2613,0.2125,-0.0073,1,1,1,1,1,1,1
14.7685,sweep,2,-down,-0.03834,2.38365,1.20985,1.57263,-0.12150,1.50854,-0.00973,-0.0024,0.0073,-0.0024,-0.0073,-0.0073,-0.0220,0.0073,1.1009,-9.7573,4.0684,1.1160,0.2808,0.2369,-0.0024,1,1,1,1,1,1,1
14.8085,sweep,2,-down,-0.03834,2.38365,1.20985,1.57263,-0.12150,1.50854,-0.00973,-0.0024,0.0073,-0.0024,-0.0073,-0.0073,-0.0220,0.0073,1.1009,-9.7573,4.0684,1.1160,0.2808,0.2369,-0.0024,1,1,1,1,1,1,1
14.8484,sweep,2,-down,-0.03834,2.38899,1.20985,1.57073,-0.12074,1.51007,-0.01011,-0.0024,-0.1636,-0.0024,-0.0659,-0.0073,-0.0073,-0.0073,1.0735,-14.8171,3.1658,0.9011,0.3736,0.2955,-0.0073,1,1,1,1,1,1,1
14.8885,sweep,2,-down,-0.03834,2.38899,1.20985,1.57073,-0.12074,1.51007,-0.01011,-0.0024,-0.1636,-0.0024,-0.0659,-0.0073,-0.0073,-0.0073,1.0735,-14.8171,3.1658,0.9011,0.3736,0.2955,-0.0073,1,1,1,1,1,1,1
14.9285,sweep,2,-down,-0.03834,2.38899,1.20985,1.57073,-0.12074,1.51007,-0.01011,-0.0024,-0.1636,-0.0024,-0.0659,-0.0073,-0.0073,-0.0073,1.0735,-14.8171,3.1658,0.9011,0.3736,0.2955,-0.0073,1,1,1,1,1,1,1
14.9685,sweep,2,-down,-0.03834,2.36801,1.20870,1.56004,-0.11654,1.51465,-0.01011,-0.0024,-0.1880,-0.0073,-0.0513,0.0659,0.0073,0.0073,1.0462,-18.5641,4.7111,2.1612,0.0562,0.0024,-0.0073,1,1,1,1,1,1,1
15.0085,sweep,2,-down,-0.03834,2.36801,1.20870,1.56004,-0.11654,1.51465,-0.01011,-0.0024,-0.1880,-0.0073,-0.0513,0.0659,0.0073,0.0073,1.0462,-18.5641,4.7111,2.1612,0.0562,0.0024,-0.0073,1,1,1,1,1,1,1
15.0484,sweep,2,-down,-0.03834,2.35275,1.20832,1.56081,-0.11654,1.51427,-0.01011,-0.0024,-0.2173,0.0024,0.0366,-0.0073,-0.0073,-0.0073,1.0735,-19.3162,5.1077,2.4493,-0.0024,-0.0464,-0.0073,1,1,1,1,1,1,1
15.0886,sweep,2,-down,-0.03834,2.35275,1.20832,1.56081,-0.11654,1.51427,-0.01011,-0.0024,-0.2173,0.0024,0.0366,-0.0073,-0.0073,-0.0073,1.0735,-19.3162,5.1077,2.4493,-0.0024,-0.0464,-0.0073,1,1,1,1,1,1,1
15.1289,sweep,2,-down,-0.03834,2.35275,1.20832,1.56081,-0.11654,1.51427,-0.01011,-0.0024,-0.2173,0.0024,0.0366,-0.0073,-0.0073,-0.0073,1.0735,-19.3162,5.1077,2.4493,-0.0024,-0.0464,-0.0073,1,1,1,1,1,1,1
15.1686,sweep,2,-down,-0.03834,2.32567,1.20832,1.56958,-0.11654,1.51350,-0.01011,-0.0024,-0.2369,-0.0024,-0.0073,-0.0073,-0.0220,0.0073,1.0462,-15.6923,5.2171,1.9951,-0.0659,-0.1148,-0.0073,1,1,1,1,1,1,1
15.2086,sweep,2,-down,-0.03834,2.32567,1.20832,1.56958,-0.11654,1.51350,-0.01011,-0.0024,-0.2369,-0.0024,-0.0073,-0.0073,-0.0220,0.0073,1.0462,-15.6923,5.2171,1.9951,-0.0659,-0.1148,-0.0073,1,1,1,1,1,1,1
15.2485,sweep,2,-down,-0.03834,2.31079,1.20832,1.56920,-0.11692,1.51274,-0.01011,0.0024,-0.1343,-0.0024,-0.0073,-0.0073,-0.0073,0.0073,1.0598,-17.2239,5.2855,2.0586,-0.1343,-0.1392,-0.0024,1,1,1,1,1,1,1
15.2885,sweep,2,-down,-0.03834,2.31079,1.20832,1.56920,-0.11692,1.51274,-0.01011,0.0024,-0.1343,-0.0024,-0.0073,-0.0073,-0.0073,0.0073,1.0598,-17.2239,5.2855,2.0586,-0.1343,-0.1392,-0.0024,1,1,1,1,1,1,1
15.3287,sweep,2,-down,-0.03834,2.31079,1.20832,1.56920,-0.11692,1.51274,-0.01011,0.0024,-0.1343,-0.0024,-0.0073,-0.0073,-0.0073,0.0073,1.0598,-17.2239,5.2855,2.0586,-0.1343,-0.1392,-0.0024,1,1,1,1,1,1,1
15.3685,sweep,2,-down,-0.03834,2.28752,1.20832,1.56882,-0.11807,1.51122,-0.01011,-0.0024,-0.2418,-0.0024,-0.0073,-0.0220,-0.0220,-0.0220,1.0598,-17.9487,5.4085,2.1758,-0.2125,-0.1099,-0.0024,1,1,1,1,1,1,1
15.4085,sweep,2,-down,-0.03834,2.28752,1.20832,1.56882,-0.11807,1.51122,-0.01011,-0.0024,-0.2418,-0.0024,-0.0073,-0.0220,-0.0220,-0.0220,1.0598,-17.9487,5.4085,2.1758,-0.2125,-0.1099,-0.0024,1,1,1,1,1,1,1
15.4484,sweep,2,-down,-0.03834,2.27111,1.20832,1.56958,-0.11883,1.51122,-0.01011,-0.0024,-0.2027,-0.0024,0.0073,0.0073,-0.0220,-0.0220,1.0735,-17.1692,5.4906,2.1758,-0.2125,-0.1148,-0.0024,1,1,1,1,1,1,1
15.4887,sweep,2,-down,-0.03834,2.27111,1.20832,1.56958,-0.11883,1.51122,-0.01011,-0.0024,-0.2027,-0.0024,0.0073,0.0073,-0.0220,-0.0220,1.0735,-17.1692,5.4906,2.1758,-0.2125,-0.1148,-0.0024,1,1,1,1,1,1,1
15.5287,sweep,2,-down,-0.03834,2.27111,1.20832,1.56958,-0.11883,1.51122,-0.01011,-0.0024,-0.2027,-0.0024,0.0073,0.0073,-0.0220,-0.0220,1.0735,-17.1692,5.4906,2.1758,-0.2125,-0.1148,-0.0024,1,1,1,1,1,1,1
15.5684,sweep,2,-down,-0.03834,2.24632,1.20832,1.57187,-0.12074,1.51083,-0.01011,-0.0024,-0.2125,0.0024,0.0073,-0.0220,0.0220,-0.0073,1.0872,-16.4308,5.6410,1.9756,-0.1099,-0.1294,-0.0073,1,1,1,1,1,1,1
15.6085,sweep,2,-down,-0.03834,2.24632,1.20832,1.57187,-0.12074,1.51083,-0.01011,-0.0024,-0.2125,0.0024,0.0073,-0.0220,0.0220,-0.0073,1.0872,-16.4308,5.6410,1.9756,-0.1099,-0.1294,-0.0073,1,1,1,1,1,1,1
15.6485,sweep,2,-down,-0.03834,2.22953,1.20832,1.57301,-0.12074,1.51083,-0.01011,-0.0073,-0.2125,0.0024,0.0073,-0.0073,-0.0073,-0.0073,1.0598,-15.5145,5.6957,1.8388,-0.1001,-0.1441,-0.0024,1,1,1,1,1,1,1
15.6887,sweep,2,-down,-0.03834,2.22953,1.20832,1.57301,-0.12074,1.51083,-0.01011,-0.0073,-0.2125,0.0024,0.0073,-0.0073,-0.0073,-0.0073,1.0598,-15.5145,5.6957,1.8388,-0.1001,-0.1441,-0.0024,1,1,1,1,1,1,1
15.7284,sweep,2,-down,-0.03834,2.22953,1.20832,1.57301,-0.12074,1.51083,-0.01011,-0.0073,-0.2125,0.0024,0.0073,-0.0073,-0.0073,-0.0073,1.0598,-15.5145,5.6957,1.8388,-0.1001,-0.1441,-0.0024,1,1,1,1,1,1,1
15.7687,sweep,2,-down,-0.03834,2.20626,1.20832,1.57416,-0.12074,1.51045,-0.01011,-0.0024,-0.1685,-0.0024,-0.0659,-0.0073,-0.0220,0.0073,1.0051,-16.1846,5.7915,1.5604,-0.0904,-0.1490,-0.0073,1,1,1,1,1,1,1
15.8085,sweep,2,-down,-0.03834,2.20626,1.20832,1.57416,-0.12074,1.51045,-0.01011,-0.0024,-0.1685,-0.0024,-0.0659,-0.0073,-0.0220,0.0073,1.0051,-16.1846,5.7915,1.5604,-0.0904,-0.1490,-0.0073,1,1,1,1,1,1,1
15.8487,sweep,2,-down,-0.03834,2.19024,1.20832,1.57149,-0.12074,1.51045,-0.01011,-0.0073,-0.2222,-0.0073,-0.0513,0.0073,-0.0073,-0.0220,1.0051,-16.2940,5.8325,1.6874,-0.0904,-0.1538,-0.0073,1,1,1,1,1,1,1
15.8884,sweep,2,-down,-0.03834,2.19024,1.20832,1.57149,-0.12074,1.51045,-0.01011,-0.0073,-0.2222,-0.0073,-0.0513,0.0073,-0.0073,-0.0220,1.0051,-16.2940,5.8325,1.6874,-0.0904,-0.1538,-0.0073,1,1,1,1,1,1,1
15.9285,sweep,2,-down,-0.03834,2.19024,1.20832,1.57149,-0.12074,1.51045,-0.01011,-0.0073,-0.2222,-0.0073,-0.0513,0.0073,-0.0073,-0.0220,1.0051,-16.2940,5.8325,1.6874,-0.0904,-0.1538,-0.0073,1,1,1,1,1,1,1
15.9686,sweep,2,-down,-0.03834,2.16621,1.20832,1.56958,-0.12074,1.51045,-0.01011,-0.0024,-0.1880,0.0024,0.0073,-0.0220,0.0220,-0.0073,0.9778,-16.0752,5.9692,1.8193,-0.0904,-0.1441,-0.0024,1,1,1,1,1,1,1
16.0087,sweep,2,-down,-0.03834,2.16621,1.20832,1.56958,-0.12074,1.51045,-0.01011,-0.0024,-0.1880,0.0024,0.0073,-0.0220,0.0220,-0.0073,0.9778,-16.0752,5.9692,1.8193,-0.0904,-0.1441,-0.0024,1,1,1,1,1,1,1
16.0489,sweep,2,-down,-0.03834,2.15057,1.20832,1.56996,-0.12074,1.51045,-0.01011,-0.0024,-0.1490,-0.0024,-0.0073,-0.0220,-0.0073,-0.0073,0.9915,-16.3897,6.0513,1.8193,-0.0904,-0.1490,-0.0073,1,1,1,1,1,1,1
16.0895,sweep,2,-down,-0.03834,2.15057,1.20832,1.56996,-0.12074,1.51045,-0.01011,-0.0024,-0.1490,-0.0024,-0.0073,-0.0220,-0.0073,-0.0073,0.9915,-16.3897,6.0513,1.8193,-0.0904,-0.1490,-0.0073,1,1,1,1,1,1,1
16.1297,sweep,2,-down,-0.03834,2.15057,1.20832,1.56996,-0.12074,1.51045,-0.01011,-0.0024,-0.1490,-0.0024,-0.0073,-0.0220,-0.0073,-0.0073,0.9915,-16.3897,6.0513,1.8193,-0.0904,-0.1490,-0.0073,1,1,1,1,1,1,1
16.1686,sweep,2,-down,-0.03834,2.12654,1.20832,1.57034,-0.12074,1.51045,-0.01011,-0.0024,-0.2125,-0.0024,0.0073,-0.0073,0.0073,-0.0220,0.9641,-16.7590,6.2017,1.8193,-0.0757,-0.1636,-0.0073,1,1,1,1,1,1,1
16.2092,sweep,2,-down,-0.03834,2.12654,1.20832,1.57034,-0.12074,1.51045,-0.01011,-0.0024,-0.2125,-0.0024,0.0073,-0.0073,0.0073,-0.0220,0.9641,-16.7590,6.2017,1.8193,-0.0757,-0.1636,-0.0073,1,1,1,1,1,1,1
16.2485,sweep,2,-down,-0.03834,2.10975,1.20832,1.57111,-0.12074,1.51045,-0.01011,-0.0024,-0.2466,-0.0024,0.0073,-0.0220,-0.0220,-0.0073,0.9368,-15.5145,6.2564,1.7753,-0.0757,-0.1685,0.0024,1,1,1,1,1,1,1
16.2891,sweep,2,-down,-0.03834,2.10975,1.20832,1.57111,-0.12074,1.51045,-0.01011,-0.0024,-0.2466,-0.0024,0.0073,-0.0220,-0.0220,-0.0073,0.9368,-15.5145,6.2564,1.7753,-0.0757,-0.1685,0.0024,1,1,1,1,1,1,1
16.3286,sweep,2,-down,-0.03834,2.10975,1.20832,1.57111,-0.12074,1.51045,-0.01011,-0.0024,-0.2466,-0.0024,0.0073,-0.0220,-0.0220,-0.0073,0.9368,-15.5145,6.2564,1.7753,-0.0757,-0.1685,0.0024,1,1,1,1,1,1,1
16.3686,sweep,2,-down,-0.03834,2.08534,1.20832,1.57187,-0.12074,1.51045,-0.01011,0.0024,-0.2125,-0.0024,0.0073,-0.0073,-0.0073,-0.0073,0.9094,-15.2137,6.4205,1.6923,-0.0806,-0.1587,-0.0024,1,1,1,1,1,1,1
16.4088,sweep,2,-down,-0.03834,2.08534,1.20832,1.57187,-0.12074,1.51045,-0.01011,0.0024,-0.2125,-0.0024,0.0073,-0.0073,-0.0073,-0.0073,0.9094,-15.2137,6.4205,1.6923,-0.0806,-0.1587,-0.0024,1,1,1,1,1,1,1
16.4488,sweep,2,-down,-0.03834,2.07008,1.20832,1.57187,-0.12074,1.51045,-0.00973,-0.0024,-0.1832,-0.0024,-0.0073,-0.0220,-0.0073,-0.0073,0.8957,-16.2256,6.4752,1.6532,-0.0757,-0.1636,0.0024,1,1,1,1,1,1,1
16.4888,sweep,2,-down,-0.03834,2.07008,1.20832,1.57187,-0.12074,1.51045,-0.00973,-0.0024,-0.1832,-0.0024,-0.0073,-0.0220,-0.0073,-0.0073,0.8957,-16.2256,6.4752,1.6532,-0.0757,-0.1636,0.0024,1,1,1,1,1,1,1
16.5288,sweep,2,-down,-0.03834,2.07008,1.20832,1.57187,-0.12074,1.51045,-0.00973,-0.0024,-0.1832,-0.0024,-0.0073,-0.0220,-0.0073,-0.0073,0.8957,-16.2256,6.4752,1.6532,-0.0757,-0.1636,0.0024,1,1,1,1,1,1,1
16.5689,sweep,2,-down,-0.03834,2.04566,1.20832,1.57149,-0.12074,1.51045,-0.01011,-0.0073,-0.2662,0.0024,0.0073,-0.0073,0.0073,-0.0073,0.9504,-15.5282,6.5709,1.6190,-0.0708,-0.1636,0.0024,1,1,1,1,1,1,1
16.6085,sweep,2,-down,-0.03834,2.04566,1.20832,1.57149,-0.12074,1.51045,-0.01011,-0.0073,-0.2662,0.0024,0.0073,-0.0073,0.0073,-0.0073,0.9504,-15.5282,6.5709,1.6190,-0.0708,-0.1636,0.0024,1,1,1,1,1,1,1
16.6489,sweep,2,-down,-0.03834,2.02850,1.20832,1.57225,-0.12074,1.51045,-0.00973,-0.0024,-0.2076,-0.0024,0.0220,-0.0073,0.0073,0.0073,0.9231,-14.2154,6.6667,1.5311,-0.0659,-0.1685,0.0073,1,1,1,1,1,1,1
16.6885,sweep,2,-down,-0.03834,2.02850,1.20832,1.57225,-0.12074,1.51045,-0.00973,-0.0024,-0.2076,-0.0024,0.0220,-0.0073,0.0073,0.0073,0.9231,-14.2154,6.6667,1.5311,-0.0659,-0.1685,0.0073,1,1,1,1,1,1,1
16.7290,sweep,2,-down,-0.03834,2.02850,1.20832,1.57225,-0.12074,1.51045,-0.00973,-0.0024,-0.2076,-0.0024,0.0220,-0.0073,0.0073,0.0073,0.9231,-14.2154,6.6667,1.5311,-0.0659,-0.1685,0.0073,1,1,1,1,1,1,1
16.7686,sweep,2,-down,-0.03834,2.00446,1.20832,1.57225,-0.12074,1.51045,-0.01011,-0.0024,-0.1685,-0.0024,-0.0220,-0.0073,-0.0220,-0.0073,0.9231,-14.1607,6.6803,1.4579,-0.0611,-0.1783,0.0073,1,1,1,1,1,1,1
16.8084,sweep,2,-down,-0.03834,2.00446,1.20832,1.57225,-0.12074,1.51045,-0.01011,-0.0024,-0.1685,-0.0024,-0.0220,-0.0073,-0.0220,-0.0073,0.9231,-14.1607,6.6803,1.4579,-0.0611,-0.1783,0.0073,1,1,1,1,1,1,1
16.8485,sweep,2,-down,-0.03834,1.98959,1.20832,1.57149,-0.12074,1.51045,-0.00973,-0.0073,-0.1636,-0.0073,-0.0073,-0.0220,-0.0073,0.0073,0.8547,-15.5282,6.7487,1.4628,-0.0562,-0.1832,0.0122,1,1,1,1,1,1,1
16.8884,sweep,2,-down,-0.03834,1.98959,1.20832,1.57149,-0.12074,1.51045,-0.00973,-0.0073,-0.1636,-0.0073,-0.0073,-0.0220,-0.0073,0.0073,0.8547,-15.5282,6.7487,1.4628,-0.0562,-0.1832,0.0122,1,1,1,1,1,1,1
16.9285,sweep,2,-down,-0.03834,1.98959,1.20832,1.57149,-0.12074,1.51045,-0.00973,-0.0073,-0.1636,-0.0073,-0.0073,-0.0220,-0.0073,0.0073,0.8547,-15.5282,6.7487,1.4628,-0.0562,-0.1832,0.0122,1,1,1,1,1,1,1
16.9684,sweep,2,-down,-0.03834,1.96517,1.20832,1.57111,-0.12036,1.51007,-0.01011,-0.0024,-0.2222,-0.0024,-0.0073,0.0073,-0.0073,-0.0073,0.9094,-14.7077,6.8308,1.4481,-0.0611,-0.1734,0.0122,1,1,1,1,1,1,1
17.0089,sweep,2,-down,-0.03834,1.96517,1.20832,1.57111,-0.12036,1.51007,-0.01011,-0.0024,-0.2222,-0.0024,-0.0073,0.0073,-0.0073,-0.0073,0.9094,-14.7077,6.8308,1.4481,-0.0611,-0.1734,0.0122,1,1,1,1,1,1,1
17.0484,sweep,2,-down,-0.03872,1.94839,1.20832,1.57149,-0.12036,1.51007,-0.00973,-0.0024,-0.2369,0.0024,-0.0073,-0.0073,-0.0073,0.0073,0.9094,-13.7915,6.8991,1.4042,-0.0611,-0.1685,0.0122,1,1,1,1,1,1,1
17.0886,sweep,2,-down,-0.03872,1.94839,1.20832,1.57149,-0.12036,1.51007,-0.00973,-0.0024,-0.2369,0.0024,-0.0073,-0.0073,-0.0073,0.0073,0.9094,-13.7915,6.8991,1.4042,-0.0611,-0.1685,0.0122,1,1,1,1,1,1,1
17.1289,sweep,2,-down,-0.03872,1.94839,1.20832,1.57149,-0.12036,1.51007,-0.00973,-0.0024,-0.2369,0.0024,-0.0073,-0.0073,-0.0073,0.0073,0.9094,-13.7915,6.8991,1.4042,-0.0611,-0.1685,0.0122,1,1,1,1,1,1,1
17.1684,sweep,2,-down,-0.03834,1.92474,1.20832,1.57111,-0.12036,1.51007,-0.00973,-0.0024,-0.1832,-0.0073,0.0073,-0.0073,-0.0220,-0.0073,0.8821,-14.6667,7.0085,1.3700,-0.0562,-0.1734,0.0122,1,1,1,1,1,1,1
17.2088,sweep,2,-down,-0.03834,1.92474,1.20832,1.57111,-0.12036,1.51007,-0.00973,-0.0024,-0.1832,-0.0073,0.0073,-0.0073,-0.0220,-0.0073,0.8821,-14.6667,7.0085,1.3700,-0.0562,-0.1734,0.0122,1,1,1,1,1,1,1
17.2489,sweep,2,-down,-0.03834,1.90871,1.20832,1.57149,-0.12036,1.51007,-0.00973,-0.0024,-0.2076,-0.0024,-0.0073,-0.0073,-0.0220,-0.0073,0.8957,-14.2838,7.0769,1.3407,-0.0659,-0.1734,0.0122,1,1,1,1,1,1,1
17.2887,sweep,2,-down,-0.03834,1.90871,1.20832,1.57149,-0.12036,1.51007,-0.00973,-0.0024,-0.2076,-0.0024,-0.0073,-0.0073,-0.0220,-0.0073,0.8957,-14.2838,7.0769,1.3407,-0.0659,-0.1734,0.0122,1,1,1,1,1,1,1
17.3292,sweep,2,-down,-0.03834,1.90871,1.20832,1.57149,-0.12036,1.51007,-0.00973,-0.0024,-0.2076,-0.0024,-0.0073,-0.0073,-0.0220,-0.0073,0.8957,-14.2838,7.0769,1.3407,-0.0659,-0.1734,0.0122,1,1,1,1,1,1,1
17.3690,sweep,2,-down,-0.03872,1.88506,1.20832,1.57111,-0.12036,1.51007,-0.00973,-0.0073,-0.1783,-0.0073,-0.0073,0.0073,-0.0220,-0.0073,0.8957,-14.5573,7.1726,1.3407,-0.0611,-0.1636,0.0122,1,1,1,1,1,1,1
17.4086,sweep,2,-down,-0.03872,1.88506,1.20832,1.57111,-0.12036,1.51007,-0.00973,-0.0073,-0.1783,-0.0073,-0.0073,0.0073,-0.0220,-0.0073,0.8957,-14.5573,7.1726,1.3407,-0.0611,-0.1636,0.0122,1,1,1,1,1,1,1
17.4490,sweep,2,-down,-0.03834,1.86828,1.20832,1.57073,-0.12036,1.51007,-0.00973,-0.0073,-0.2320,-0.0024,-0.0073,-0.0220,-0.0073,0.0073,0.9094,-13.8325,7.2274,1.3455,-0.0708,-0.1587,0.0073,1,1,1,1,1,1,1
17.4889,sweep,2,-down,-0.03834,1.86828,1.20832,1.57073,-0.12036,1.51007,-0.00973,-0.0073,-0.2320,-0.0024,-0.0073,-0.0220,-0.0073,0.0073,0.9094,-13.8325,7.2274,1.3455,-0.0708,-0.1587,0.0073,1,1,1,1,1,1,1
17.5292,sweep,2,-down,-0.03834,1.86828,1.20832,1.57073,-0.12036,1.51007,-0.00973,-0.0073,-0.2320,-0.0024,-0.0073,-0.0220,-0.0073,0.0073,0.9094,-13.8325,7.2274,1.3455,-0.0708,-0.1587,0.0073,1,1,1,1,1,1,1
17.5693,sweep,2,-down,-0.03834,1.84424,1.20832,1.57111,-0.12036,1.51007,-0.00973,-0.0024,-0.2125,-0.0024,-0.0366,0.0220,0.0073,-0.0073,0.8684,-13.7504,7.3368,1.2967,-0.0659,-0.1587,0.0073,1,1,1,1,1,1,1
17.6087,sweep,2,-down,-0.03834,1.84424,1.20832,1.57111,-0.12036,1.51007,-0.00973,-0.0024,-0.2125,-0.0024,-0.0366,0.0220,0.0073,-0.0073,0.8684,-13.7504,7.3368,1.2967,-0.0659,-0.1587,0.0073,1,1,1,1,1,1,1
17.6488,sweep,2,-down,-0.03834,1.82822,1.20832,1.57111,-0.12036,1.51045,-0.01011,-0.0024,-0.2173,-0.0024,0.0073,-0.0073,-0.0073,-0.0220,0.8684,-13.7504,7.3778,1.2918,-0.0708,-0.1538,0.0073,1,1,1,1,1,1,1
17.6887,sweep,2,-down,-0.03834,1.82822,1.20832,1.57111,-0.12036,1.51045,-0.01011,-0.0024,-0.2173,-0.0024,0.0073,-0.0073,-0.0073,-0.0220,0.8684,-13.7504,7.3778,1.2918,-0.0708,-0.1538,0.0073,1,1,1,1,1,1,1
17.7285,sweep,2,-down,-0.03834,1.82822,1.20832,1.57111,-0.12036,1.51045,-0.01011,-0.0024,-0.2173,-0.0024,0.0073,-0.0073,-0.0073,-0.0220,0.8684,-13.7504,7.3778,1.2918,-0.0708,-0.1538,0.0073,1,1,1,1,1,1,1
17.7685,sweep,2,-down,-0.03834,1.80419,1.20832,1.57111,-0.12036,1.51007,-0.01011,-0.0024,-0.1929,-0.0024,-0.0073,-0.0220,-0.0073,0.0073,0.8821,-13.3812,7.4325,1.2527,-0.0806,-0.1441,0.0073,1,1,1,1,1,1,1
17.8088,sweep,2,-down,-0.03834,1.80419,1.20832,1.57111,-0.12036,1.51007,-0.01011,-0.0024,-0.1929,-0.0024,-0.0073,-0.0220,-0.0073,0.0073,0.8821,-13.3812,7.4325,1.2527,-0.0806,-0.1441,0.0073,1,1,1,1,1,1,1
17.8486,sweep,2,-down,-0.03834,1.78779,1.20832,1.57111,-0.12036,1.51007,-0.00973,0.0024,-0.1783,-0.0024,-0.0073,-0.0073,-0.0073,-0.0220,0.8821,-12.9709,7.4735,1.2332,-0.0904,-0.1392,0.0073,1,1,1,1,1,1,1
17.8888,sweep,2,-down,-0.03834,1.78779,1.20832,1.57111,-0.12036,1.51007,-0.00973,0.0024,-0.1783,-0.0024,-0.0073,-0.0073,-0.0073,-0.0220,0.8821,-12.9709,7.4735,1.2332,-0.0904,-0.1392,0.0073,1,1,1,1,1,1,1
17.9293,sweep,2,-down,-0.03834,1.78779,1.20832,1.57111,-0.12036,1.51007,-0.00973,0.0024,-0.1783,-0.0024,-0.0073,-0.0073,-0.0073,-0.0220,0.8821,-12.9709,7.4735,1.2332,-0.0904,-0.1392,0.0073,1,1,1,1,1,1,1
17.9683,sweep,2,-down,-0.03834,1.76337,1.20832,1.57149,-0.12074,1.51007,-0.01011,-0.0024,-0.1978,-0.0024,-0.0073,-0.0220,-0.0073,-0.0220,0.8547,-12.8479,7.5419,1.1600,-0.0806,-0.1490,0.0073,1,1,1,1,1,1,1
18.0090,sweep,2,-down,-0.03834,1.76337,1.20832,1.57149,-0.12074,1.51007,-0.01011,-0.0024,-0.1978,-0.0024,-0.0073,-0.0220,-0.0073,-0.0220,0.8547,-12.8479,7.5419,1.1600,-0.0806,-0.1490,0.0073,1,1,1,1,1,1,1
18.0486,sweep,2,-down,-0.03834,1.74735,1.20832,1.57149,-0.12074,1.51007,-0.00973,-0.0024,-0.1880,0.0024,-0.0220,-0.0073,-0.0220,-0.0073,0.8410,-12.8342,7.6239,1.1502,-0.0855,-0.1441,0.0122,1,1,1,1,1,1,1
18.0885,sweep,2,-down,-0.03834,1.74735,1.20832,1.57149,-0.12074,1.51007,-0.00973,-0.0024,-0.1880,0.0024,-0.0220,-0.0073,-0.0220,-0.0073,0.8410,-12.8342,7.6239,1.1502,-0.0855,-0.1441,0.0122,1,1,1,1,1,1,1
18.1285,sweep,2,-down,-0.03834,1.74735,1.20832,1.57149,-0.12074,1.51007,-0.00973,-0.0024,-0.1880,0.0024,-0.0220,-0.0073,-0.0220,-0.0073,0.8410,-12.8342,7.6239,1.1502,-0.0855,-0.1441,0.0122,1,1,1,1,1,1,1
18.1685,sweep,2,-down,-0.03834,1.72255,1.20832,1.57149,-0.12074,1.51007,-0.00973,0.0024,-0.1929,-0.0024,-0.0220,-0.0073,0.0073,-0.0073,0.8410,-11.8359,7.7470,1.0916,-0.0855,-0.1441,0.0073,1,1,1,1,1,1,1
18.2087,sweep,2,-down,-0.03834,1.72255,1.20832,1.57149,-0.12074,1.51007,-0.00973,0.0024,-0.1929,-0.0024,-0.0220,-0.0073,0.0073,-0.0073,0.8410,-11.8359,7.7470,1.0916,-0.0855,-0.1441,0.0073,1,1,1,1,1,1,1
18.2492,sweep,2,-down,-0.03834,1.70653,1.20832,1.57149,-0.12036,1.51007,-0.00973,-0.0073,-0.1929,-0.0024,-0.0073,-0.0073,-0.0073,-0.0220,0.8410,-11.8222,7.8017,1.0623,-0.0806,-0.1343,0.0122,1,1,1,1,1,1,1
18.2886,sweep,2,-down,-0.03834,1.70653,1.20832,1.57149,-0.12036,1.51007,-0.00973,-0.0073,-0.1929,-0.0024,-0.0073,-0.0073,-0.0073,-0.0220,0.8410,-11.8222,7.8017,1.0623,-0.0806,-0.1343,0.0122,1,1,1,1,1,1,1
18.3288,sweep,2,-down,-0.03834,1.70653,1.20832,1.57149,-0.12036,1.51007,-0.00973,-0.0073,-0.1929,-0.0024,-0.0073,-0.0073,-0.0073,-0.0220,0.8410,-11.8222,7.8017,1.0623,-0.0806,-0.1343,0.0122,1,1,1,1,1,1,1
18.3690,sweep,2,-down,-0.03834,1.68288,1.20832,1.57149,-0.12036,1.51007,-0.01011,-0.0024,-0.1929,-0.0024,-0.0220,-0.0073,-0.0073,-0.0220,0.8274,-11.8906,7.8838,1.0085,-0.0855,-0.1343,0.0122,1,1,1,1,1,1,1
18.4087,sweep,2,-down,-0.03834,1.68288,1.20832,1.57149,-0.12036,1.51007,-0.01011,-0.0024,-0.1929,-0.0024,-0.0220,-0.0073,-0.0073,-0.0220,0.8274,-11.8906,7.8838,1.0085,-0.0855,-0.1343,0.0122,1,1,1,1,1,1,1
18.4490,sweep,2,-down,-0.03834,1.66648,1.20832,1.57149,-0.12036,1.51007,-0.01011,-0.0024,-0.2320,-0.0024,0.0073,0.0073,-0.0220,-0.0073,0.8547,-11.4393,7.9385,0.9792,-0.0904,-0.1343,0.0122,1,1,1,1,1,1,1
18.4891,sweep,2,-down,-0.03834,1.66648,1.20832,1.57149,-0.12036,1.51007,-0.01011,-0.0024,-0.2320,-0.0024,0.0073,0.0073,-0.0220,-0.0073,0.8547,-11.4393,7.9385,0.9792,-0.0904,-0.1343,0.0122,1,1,1,1,1,1,1
18.5285,sweep,2,-down,-0.03834,1.66648,1.20832,1.57149,-0.12036,1.51007,-0.01011,-0.0024,-0.2320,-0.0024,0.0073,0.0073,-0.0220,-0.0073,0.8547,-11.4393,7.9385,0.9792,-0.0904,-0.1343,0.0122,1,1,1,1,1,1,1
18.5692,sweep,2,-down,-0.03834,1.64206,1.20832,1.57187,-0.12074,1.51007,-0.00973,-0.0073,-0.1978,-0.0024,-0.0220,-0.0073,-0.0073,0.0073,0.8410,-10.8650,8.0889,0.9158,-0.0855,-0.1294,0.0122,1,1,1,1,1,1,1
18.6091,sweep,2,-down,-0.03834,1.64206,1.20832,1.57187,-0.12074,1.51007,-0.00973,-0.0073,-0.1978,-0.0024,-0.0220,-0.0073,-0.0073,0.0073,0.8410,-10.8650,8.0889,0.9158,-0.0855,-0.1294,0.0122,1,1,1,1,1,1,1
18.6488,sweep,2,-down,-0.03834,1.62604,1.20832,1.57187,-0.12074,1.51007,-0.00973,-0.0024,-0.1783,-0.0024,0.0073,-0.0073,-0.0073,0.0073,0.8410,-11.2889,8.1573,0.8669,-0.0855,-0.1294,0.0122,1,1,1,1,1,1,1
18.6890,sweep,2,-down,-0.03834,1.62604,1.20832,1.57187,-0.12074,1.51007,-0.00973,-0.0024,-0.1783,-0.0024,0.0073,-0.0073,-0.0073,0.0073,0.8410,-11.2889,8.1573,0.8669,-0.0855,-0.1294,0.0122,1,1,1,1,1,1,1
18.7291,sweep,2,-down,-0.03834,1.62604,1.20832,1.57187,-0.12074,1.51007,-0.00973,-0.0024,-0.1783,-0.0024,0.0073,-0.0073,-0.0073,0.0073,0.8410,-11.2889,8.1573,0.8669,-0.0855,-0.1294,0.0122,1,1,1,1,1,1,1
18.7686,sweep,2,-down,-0.03834,1.60201,1.20832,1.57149,-0.12074,1.51007,-0.00973,-0.0024,-0.2076,-0.0024,-0.0220,-0.0073,-0.0220,-0.0073,0.8957,-11.0017,8.2393,0.8327,-0.0904,-0.1245,0.0122,1,1,1,1,1,1,1
18.8084,sweep,2,-down,-0.03834,1.60201,1.20832,1.57149,-0.12074,1.51007,-0.00973,-0.0024,-0.2076,-0.0024,-0.0220,-0.0073,-0.0220,-0.0073,0.8957,-11.0017,8.2393,0.8327,-0.0904,-0.1245,0.0122,1,1,1,1,1,1,1
18.8490,sweep,2,-down,-0.03834,1.58560,1.20832,1.57149,-0.12074,1.51007,-0.01011,-0.0024,-0.2076,-0.0073,-0.0220,0.0073,-0.0220,-0.0073,0.8274,-10.1812,8.2940,0.7937,-0.0855,-0.1245,0.0073,1,1,1,1,1,1,1
18.8885,sweep,2,-down,-0.03834,1.58560,1.20832,1.57149,-0.12074,1.51007,-0.01011,-0.0024,-0.2076,-0.0073,-0.0220,0.0073,-0.0220,-0.0073,0.8274,-10.1812,8.2940,0.7937,-0.0855,-0.1245,0.0073,1,1,1,1,1,1,1
18.9286,sweep,2,-down,-0.03834,1.58560,1.20832,1.57149,-0.12074,1.51007,-0.01011,-0.0024,-0.2076,-0.0073,-0.0220,0.0073,-0.0220,-0.0073,0.8274,-10.1812,8.2940,0.7937,-0.0855,-0.1245,0.0073,1,1,1,1,1,1,1
18.9683,sweep,2,-down,-0.03834,1.56119,1.20832,1.57187,-0.12074,1.51007,-0.01011,-0.0024,-0.2173,-0.0073,-0.0073,-0.0073,-0.0073,-0.0220,0.8000,-9.7026,8.4308,0.7302,-0.0904,-0.1245,0.0073,1,1,1,1,1,1,1
19.0091,sweep,2,-down,-0.03834,1.56119,1.20832,1.57187,-0.12074,1.51007,-0.01011,-0.0024,-0.2173,-0.0073,-0.0073,-0.0073,-0.0073,-0.0220,0.8000,-9.7026,8.4308,0.7302,-0.0904,-0.1245,0.0073,1,1,1,1,1,1,1
19.0487,sweep,2,-down,-0.03834,1.54555,1.20832,1.57149,-0.12074,1.51045,-0.00973,-0.0024,-0.1880,0.0024,-0.0073,-0.0073,0.0220,-0.0073,0.8000,-10.4000,8.4855,0.7057,-0.0952,-0.1294,0.0024,1,1,1,1,1,1,1
19.0888,sweep,2,-down,-0.03834,1.54555,1.20832,1.57149,-0.12074,1.51045,-0.00973,-0.0024,-0.1880,0.0024,-0.0073,-0.0073,0.0220,-0.0073,0.8000,-10.4000,8.4855,0.7057,-0.0952,-0.1294,0.0024,1,1,1,1,1,1,1
19.1289,sweep,2,-down,-0.03834,1.54555,1.20832,1.57149,-0.12074,1.51045,-0.00973,-0.0024,-0.1880,0.0024,-0.0073,-0.0073,0.0220,-0.0073,0.8000,-10.4000,8.4855,0.7057,-0.0952,-0.1294,0.0024,1,1,1,1,1,1,1
19.1689,sweep,2,-down,-0.03834,1.52113,1.20832,1.57149,-0.12074,1.51007,-0.01011,-0.0024,-0.2271,0.0024,-0.0073,-0.0073,-0.0073,0.0073,0.8000,-9.6205,8.6085,0.6569,-0.0855,-0.1294,0.0073,1,1,1,1,1,1,1
19.2087,sweep,2,-down,-0.03834,1.52113,1.20832,1.57149,-0.12074,1.51007,-0.01011,-0.0024,-0.2271,0.0024,-0.0073,-0.0073,-0.0073,0.0073,0.8000,-9.6205,8.6085,0.6569,-0.0855,-0.1294,0.0073,1,1,1,1,1,1,1
19.2490,sweep,2,-down,-0.03834,1.50473,1.20832,1.57149,-0.12074,1.51007,-0.00973,-0.0073,-0.1880,-0.0024,-0.0073,-0.0220,-0.0073,0.0073,0.8137,-9.3197,8.6496,0.6129,-0.0855,-0.1343,0.0073,1,1,1,1,1,1,1
19.2885,sweep,2,-down,-0.03834,1.50473,1.20832,1.57149,-0.12074,1.51007,-0.00973,-0.0073,-0.1880,-0.0024,-0.0073,-0.0220,-0.0073,0.0073,0.8137,-9.3197,8.6496,0.6129,-0.0855,-0.1343,0.0073,1,1,1,1,1,1,1
19.3292,sweep,2,-down,-0.03834,1.50473,1.20832,1.57149,-0.12074,1.51007,-0.00973,-0.0073,-0.1880,-0.0024,-0.0073,-0.0220,-0.0073,0.0073,0.8137,-9.3197,8.6496,0.6129,-0.0855,-0.1343,0.0073,1,1,1,1,1,1,1
19.3689,sweep,2,-down,-0.03834,1.48032,1.20832,1.57149,-0.12074,1.51007,-0.01011,-0.0024,-0.1978,-0.0024,-0.0073,0.0073,-0.0073,-0.0073,0.7863,-8.8137,8.7316,0.5739,-0.0855,-0.1294,0.0024,1,1,1,1,1,1,1
19.4091,sweep,2,-down,-0.03834,1.48032,1.20832,1.57149,-0.12074,1.51007,-0.01011,-0.0024,-0.1978,-0.0024,-0.0073,0.0073,-0.0073,-0.0073,0.7863,-8.8137,8.7316,0.5739,-0.0855,-0.1294,0.0024,1,1,1,1,1,1,1
19.4490,sweep,2,-down,-0.03834,1.46467,1.20832,1.57149,-0.12074,1.51007,-0.01011,-0.0024,-0.1978,0.0024,0.0073,-0.0220,0.0073,-0.0073,0.7726,-9.4701,8.7726,0.5495,-0.0855,-0.1343,-0.0024,1,1,1,1,1,1,1
19.4890,sweep,2,-down,-0.03834,1.46467,1.20832,1.57149,-0.12074,1.51007,-0.01011,-0.0024,-0.1978,0.0024,0.0073,-0.0220,0.0073,-0.0073,0.7726,-9.4701,8.7726,0.5495,-0.0855,-0.1343,-0.0024,1,1,1,1,1,1,1
19.5290,sweep,2,-down,-0.03834,1.46467,1.20832,1.57149,-0.12074,1.51007,-0.01011,-0.0024,-0.1978,0.0024,0.0073,-0.0220,0.0073,-0.0073,0.7726,-9.4701,8.7726,0.5495,-0.0855,-0.1343,-0.0024,1,1,1,1,1,1,1
19.5690,sweep,2,-down,-0.03834,1.43988,1.20832,1.57149,-0.12036,1.51007,-0.00973,-0.0024,-0.1929,-0.0024,0.0073,-0.0073,-0.0073,0.0073,0.7863,-8.4034,8.8684,0.4957,-0.0806,-0.1294,-0.0024,1,1,1,1,1,1,1
19.6089,sweep,2,-down,-0.03834,1.43988,1.20832,1.57149,-0.12036,1.51007,-0.00973,-0.0024,-0.1929,-0.0024,0.0073,-0.0073,-0.0073,0.0073,0.7863,-8.4034,8.8684,0.4957,-0.0806,-0.1294,-0.0024,1,1,1,1,1,1,1
19.6487,sweep,2,-down,-0.03834,1.42348,1.20832,1.57187,-0.12036,1.51007,-0.01011,0.0024,-0.2369,-0.0024,-0.0073,0.0073,-0.0220,-0.0073,0.8137,-7.6239,8.8684,0.4567,-0.0855,-0.1245,-0.0073,1,1,1,1,1,1,1
19.6888,sweep,2,-down,-0.03834,1.42348,1.20832,1.57187,-0.12036,1.51007,-0.01011,0.0024,-0.2369,-0.0024,-0.0073,0.0073,-0.0220,-0.0073,0.8137,-7.6239,8.8684,0.4567,-0.0855,-0.1245,-0.0073,1,1,1,1,1,1,1
19.7286,sweep,2,-down,-0.03834,1.42348,1.20832,1.57187,-0.12036,1.51007,-0.01011,0.0024,-0.2369,-0.0024,-0.0073,0.0073,-0.0220,-0.0073,0.8137,-7.6239,8.8684,0.4567,-0.0855,-0.1245,-0.0073,1,1,1,1,1,1,1
19.7687,sweep,2,-down,-0.03834,1.40021,1.20870,1.57149,-0.12074,1.51007,-0.01011,-0.0024,-0.1880,-0.0024,-0.0073,-0.0220,-0.0073,-0.0073,0.8274,-8.4855,8.8820,0.4029,-0.0952,-0.1197,0.0024,1,1,1,1,1,1,1
19.8086,sweep,2,-down,-0.03834,1.40021,1.20870,1.57149,-0.12074,1.51007,-0.01011,-0.0024,-0.1880,-0.0024,-0.0073,-0.0220,-0.0073,-0.0073,0.8274,-8.4855,8.8820,0.4029,-0.0952,-0.1197,0.0024,1,1,1,1,1,1,1
19.8490,sweep,2,-down,-0.03834,1.38342,1.20870,1.57149,-0.12074,1.51007,-0.00973,-0.0024,-0.2027,-0.0024,-0.0073,-0.0220,0.0073,0.0073,0.8137,-7.8701,8.9368,0.3687,-0.0904,-0.1197,-0.0024,1,1,1,1,1,1,1
19.8887,sweep,2,-down,-0.03834,1.38342,1.20870,1.57149,-0.12074,1.51007,-0.00973,-0.0024,-0.2027,-0.0024,-0.0073,-0.0220,0.0073,0.0073,0.8137,-7.8701,8.9368,0.3687,-0.0904,-0.1197,-0.0024,1,1,1,1,1,1,1
19.9290,sweep,2,-down,-0.03834,1.38342,1.20870,1.57149,-0.12074,1.51007,-0.00973,-0.0024,-0.2027,-0.0024,-0.0073,-0.0220,0.0073,0.0073,0.8137,-7.8701,8.9368,0.3687,-0.0904,-0.1197,-0.0024,1,1,1,1,1,1,1
19.9687,sweep,2,-down,-0.03834,1.35901,1.20870,1.57149,-0.12074,1.51007,-0.01011,0.0024,-0.2271,-0.0024,-0.0073,-0.0073,-0.0073,-0.0073,0.7726,-7.0906,8.9915,0.3199,-0.0855,-0.1197,-0.0073,1,1,1,1,1,1,1
20.0085,sweep,2,-down,-0.03834,1.35901,1.20870,1.57149,-0.12074,1.51007,-0.01011,0.0024,-0.2271,-0.0024,-0.0073,-0.0073,-0.0073,-0.0073,0.7726,-7.0906,8.9915,0.3199,-0.0855,-0.1197,-0.0073,1,1,1,1,1,1,1
20.0488,sweep,2,-down,-0.03834,1.34260,1.20870,1.57149,-0.12036,1.51007,-0.01011,-0.0024,-0.2076,-0.0024,-0.0220,0.0073,-0.0073,-0.0073,0.7863,-6.6803,9.0051,0.2759,-0.0904,-0.1197,-0.0024,1,1,1,1,1,1,1
20.0891,sweep,2,-down,-0.03834,1.34260,1.20870,1.57149,-0.12036,1.51007,-0.01011,-0.0024,-0.2076,-0.0024,-0.0220,0.0073,-0.0073,-0.0073,0.7863,-6.6803,9.0051,0.2759,-0.0904,-0.1197,-0.0024,1,1,1,1,1,1,1
20.1286,sweep,2,-down,-0.03834,1.34260,1.20870,1.57149,-0.12036,1.51007,-0.01011,-0.0024,-0.2076,-0.0024,-0.0220,0.0073,-0.0073,-0.0073,0.7863,-6.6803,9.0051,0.2759,-0.0904,-0.1197,-0.0024,1,1,1,1,1,1,1
20.1683,sweep,2,-down,-0.03834,1.31857,1.20870,1.57149,-0.12074,1.51007,-0.01011,-0.0024,-0.2173,-0.0024,0.0073,0.0073,-0.0073,-0.0220,0.7453,-6.6803,9.0188,0.2369,-0.0952,-0.1245,-0.0073,1,1,1,1,1,1,1
20.2086,sweep,2,-down,-0.03834,1.31857,1.20870,1.57149,-0.12074,1.51007,-0.01011,-0.0024,-0.2173,-0.0024,0.0073,0.0073,-0.0073,-0.0220,0.7453,-6.6803,9.0188,0.2369,-0.0952,-0.1245,-0.0073,1,1,1,1,1,1,1
20.2486,sweep,2,-down,-0.03834,1.30255,1.20870,1.57187,-0.12074,1.51007,-0.01011,0.0024,-0.1734,-0.0024,0.0073,-0.0220,-0.0220,-0.0073,0.7316,-6.7350,9.0325,0.2125,-0.0952,-0.1148,-0.0122,1,1,1,1,1,1,1
20.2885,sweep,2,-down,-0.03834,1.30255,1.20870,1.57187,-0.12074,1.51007,-0.01011,0.0024,-0.1734,-0.0024,0.0073,-0.0220,-0.0220,-0.0073,0.7316,-6.7350,9.0325,0.2125,-0.0952,-0.1148,-0.0122,1,1,1,1,1,1,1
20.3284,sweep,2,-down,-0.03834,1.30255,1.20870,1.57187,-0.12074,1.51007,-0.01011,0.0024,-0.1734,-0.0024,0.0073,-0.0220,-0.0220,-0.0073,0.7316,-6.7350,9.0325,0.2125,-0.0952,-0.1148,-0.0122,1,1,1,1,1,1,1
20.3685,sweep,2,-down,-0.03834,1.27813,1.20870,1.57187,-0.12074,1.51007,-0.00973,-0.0024,-0.2271,0.0024,-0.0073,-0.0073,-0.0073,-0.0220,0.7043,-5.8051,8.9778,0.1587,-0.0952,-0.1148,-0.0073,1,1,1,1,1,1,1
20.4088,sweep,2,-down,-0.03834,1.27813,1.20870,1.57187,-0.12074,1.51007,-0.00973,-0.0024,-0.2271,0.0024,-0.0073,-0.0073,-0.0073,-0.0220,0.7043,-5.8051,8.9778,0.1587,-0.0952,-0.1148,-0.0073,1,1,1,1,1,1,1
20.4484,sweep,2,-down,-0.03834,1.26211,1.20870,1.57187,-0.12074,1.51007,-0.01011,-0.0024,-0.2076,-0.0024,-0.0073,-0.0073,-0.0073,-0.0073,0.7043,-5.8872,8.9231,0.1294,-0.0855,-0.1148,-0.0024,1,1,1,1,1,1,1
20.4887,sweep,2,-down,-0.03834,1.26211,1.20870,1.57187,-0.12074,1.51007,-0.01011,-0.0024,-0.2076,-0.0024,-0.0073,-0.0073,-0.0073,-0.0073,0.7043,-5.8872,8.9231,0.1294,-0.0855,-0.1148,-0.0024,1,1,1,1,1,1,1
20.5291,sweep,2,-down,-0.03834,1.26211,1.20870,1.57187,-0.12074,1.51007,-0.01011,-0.0024,-0.2076,-0.0024,-0.0073,-0.0073,-0.0073,-0.0073,0.7043,-5.8872,8.9231,0.1294,-0.0855,-0.1148,-0.0024,1,1,1,1,1,1,1
20.5693,sweep,2,-down,-0.03872,1.23770,1.20870,1.57187,-0.12074,1.51007,-0.00973,-0.0024,-0.1832,-0.0024,0.0073,0.0073,0.0073,-0.0073,0.6906,-5.6821,8.8957,0.0904,-0.0904,-0.1099,0.0024,1,1,1,1,1,1,1
20.6088,sweep,2,-down,-0.03872,1.23770,1.20870,1.57187,-0.12074,1.51007,-0.00973,-0.0024,-0.1832,-0.0024,0.0073,0.0073,0.0073,-0.0073,0.6906,-5.6821,8.8957,0.0904,-0.0904,-0.1099,0.0024,1,1,1,1,1,1,1
20.6490,sweep,2,-down,-0.03834,1.22129,1.20870,1.57187,-0.12074,1.51007,-0.01011,-0.0073,-0.2320,-0.0024,-0.0073,0.0073,-0.0073,-0.0073,0.7179,-5.0530,8.8820,0.0659,-0.0904,-0.1050,0.0024,1,1,1,1,1,1,1
20.6893,sweep,2,-down,-0.03834,1.22129,1.20870,1.57187,-0.12074,1.51007,-0.01011,-0.0073,-0.2320,-0.0024,-0.0073,0.0073,-0.0073,-0.0073,0.7179,-5.0530,8.8820,0.0659,-0.0904,-0.1050,0.0024,1,1,1,1,1,1,1
20.7290,sweep,2,-down,-0.03834,1.22129,1.20870,1.57187,-0.12074,1.51007,-0.01011,-0.0073,-0.2320,-0.0024,-0.0073,0.0073,-0.0073,-0.0073,0.7179,-5.0530,8.8820,0.0659,-0.0904,-0.1050,0.0024,1,1,1,1,1,1,1
