peipl15/reBot_Arm/outputs/gravity_calib_20260622_153058.csv
t_s,phase,swept_joint,direction,q1,q2,q3,q4,q5,q6,q7,v1,v2,v3,v4,v5,v6,v7,tau1,tau2,tau3,tau4,tau5,tau6,tau7,st1,st2,st3,st4,st5,st6,st7
0.0025,approach,2,to_lo,0.08526,-0.02079,0.02804,1.58408,-0.04635,-0.18635,-0.00324,-0.0024,-0.0024,-0.0024,0.0073,-0.0073,0.0073,-0.0073,-0.0068,-0.0068,-0.0479,-0.0122,-0.0024,-0.0073,-0.0122,1,1,1,1,1,1,1
0.0424,approach,2,to_lo,0.08526,-0.02079,0.02804,1.58408,-0.04635,-0.18635,-0.00324,-0.0024,-0.0024,-0.0024,0.0073,-0.0073,0.0073,-0.0073,-0.0068,-0.0068,-0.0479,-0.0122,-0.0024,-0.0073,-0.0122,1,1,1,1,1,1,1
0.0824,approach,2,to_lo,0.08526,-0.02079,0.02804,1.58408,-0.04635,-0.18635,-0.00324,-0.0024,-0.0024,-0.0024,0.0073,-0.0073,0.0073,-0.0073,-0.0068,-0.0068,-0.0479,-0.0122,-0.0024,-0.0073,-0.0122,1,1,1,1,1,1,1
0.1223,approach,2,to_lo,0.08526,-0.01202,0.02804,1.58331,-0.04635,-0.18635,-0.00324,-0.0024,0.1294,-0.0024,-0.0366,0.0073,-0.0220,-0.0073,-0.0342,5.6137,-0.0342,-0.1880,0.0024,-0.0122,-0.0024,1,1,1,1,1,1,1
0.1624,approach,2,to_lo,0.08526,-0.01202,0.02804,1.58331,-0.04635,-0.18635,-0.00324,-0.0024,0.1294,-0.0024,-0.0366,0.0073,-0.0220,-0.0073,-0.0342,5.6137,-0.0342,-0.1880,0.0024,-0.0122,-0.0024,1,1,1,1,1,1,1
0.2024,approach,2,to_lo,0.08526,0.00095,0.02804,1.58026,-0.04673,-0.18635,-0.00324,-0.0073,0.1734,-0.0024,-0.0366,-0.0073,-0.0073,-0.0073,-0.0479,6.3795,-0.0342,-0.3199,0.0073,-0.0220,-0.0024,1,1,1,1,1,1,1
0.2424,approach,2,to_lo,0.08526,0.00095,0.02804,1.58026,-0.04673,-0.18635,-0.00324,-0.0073,0.1734,-0.0024,-0.0366,-0.0073,-0.0073,-0.0073,-0.0479,6.3795,-0.0342,-0.3199,0.0073,-0.0220,-0.0024,1,1,1,1,1,1,1
0.2823,approach,2,to_lo,0.08526,0.00095,0.02804,1.58026,-0.04673,-0.18635,-0.00324,-0.0073,0.1734,-0.0024,-0.0366,-0.0073,-0.0073,-0.0073,-0.0479,6.3795,-0.0342,-0.3199,0.0073,-0.0220,-0.0024,1,1,1,1,1,1,1
0.3224,approach,2,to_lo,0.08526,0.01888,0.02804,1.57835,-0.04635,-0.18635,-0.00324,-0.0024,0.1490,-0.0024,-0.0073,-0.0073,-0.0220,-0.0073,-0.0615,6.5709,-0.0342,-0.6325,0.0073,-0.0269,-0.0024,1,1,1,1,1,1,1
0.3624,approach,2,to_lo,0.08526,0.01888,0.02804,1.57835,-0.04635,-0.18635,-0.00324,-0.0024,0.1490,-0.0024,-0.0073,-0.0073,-0.0220,-0.0073,-0.0615,6.5709,-0.0342,-0.6325,0.0073,-0.0269,-0.0024,1,1,1,1,1,1,1
0.4025,approach,2,to_lo,0.08526,0.02956,0.02804,1.57416,-0.04635,-0.18635,-0.00324,0.0024,0.1245,0.0024,-0.0659,-0.0073,-0.0073,-0.0073,-0.0752,6.0923,-0.0342,-0.5299,-0.0024,-0.0269,-0.0024,1,1,1,1,1,1,1
0.4425,approach,2,to_lo,0.08526,0.02956,0.02804,1.57416,-0.04635,-0.18635,-0.00324,0.0024,0.1245,0.0024,-0.0659,-0.0073,-0.0073,-0.0073,-0.0752,6.0923,-0.0342,-0.5299,-0.0024,-0.0269,-0.0024,1,1,1,1,1,1,1
0.4825,approach,2,to_lo,0.08526,0.02956,0.02804,1.57416,-0.04635,-0.18635,-0.00324,0.0024,0.1245,0.0024,-0.0659,-0.0073,-0.0073,-0.0073,-0.0752,6.0923,-0.0342,-0.5299,-0.0024,-0.0269,-0.0024,1,1,1,1,1,1,1
0.5225,approach,2,to_lo,0.08526,0.04330,0.02804,1.57187,-0.04635,-0.18635,-0.00362,-0.0024,0.0904,-0.0024,0.0073,-0.0220,-0.0220,-0.0220,-0.1026,5.7504,-0.0479,-0.3980,-0.0122,-0.0269,-0.0073,1,1,1,1,1,1,1
0.5624,approach,2,to_lo,0.08526,0.04330,0.02804,1.57187,-0.04635,-0.18635,-0.00362,-0.0024,0.0904,-0.0024,0.0073,-0.0220,-0.0220,-0.0220,-0.1026,5.7504,-0.0479,-0.3980,-0.0122,-0.0269,-0.0073,1,1,1,1,1,1,1
0.6024,approach,2,to_lo,0.08526,0.05093,0.02804,1.57073,-0.04635,-0.18635,-0.00324,-0.0024,0.0757,-0.0024,-0.0366,-0.0073,-0.0073,0.0073,-0.1162,6.0513,-0.0752,-0.3443,-0.0122,-0.0317,-0.0073,1,1,1,1,1,1,1
0.6423,approach,2,to_lo,0.08526,0.05093,0.02804,1.57073,-0.04635,-0.18635,-0.00324,-0.0024,0.0757,-0.0024,-0.0366,-0.0073,-0.0073,0.0073,-0.1162,6.0513,-0.0752,-0.3443,-0.0122,-0.0317,-0.0073,1,1,1,1,1,1,1
0.6824,approach,2,to_lo,0.08526,0.05093,0.02804,1.57073,-0.04635,-0.18635,-0.00324,-0.0024,0.0757,-0.0024,-0.0366,-0.0073,-0.0073,0.0073,-0.1162,6.0513,-0.0752,-0.3443,-0.0122,-0.0317,-0.0073,1,1,1,1,1,1,1
0.7224,approach,2,to_lo,0.08526,0.06161,0.02804,1.56958,-0.04635,-0.18635,-0.00362,-0.0024,0.0806,-0.0024,0.0073,-0.0073,-0.0073,-0.0220,-0.1162,5.5727,-0.0889,-0.2222,-0.0171,-0.0366,-0.0073,1,1,1,1,1,1,1
0.7623,approach,2,to_lo,0.08526,0.06161,0.02804,1.56958,-0.04635,-0.18635,-0.00362,-0.0024,0.0806,-0.0024,0.0073,-0.0073,-0.0073,-0.0220,-0.1162,5.5727,-0.0889,-0.2222,-0.0171,-0.0366,-0.0073,1,1,1,1,1,1,1
0.8024,approach,2,to_lo,0.08526,0.06733,0.02804,1.56958,-0.04635,-0.18635,-0.00362,-0.0073,0.0611,-0.0024,-0.0220,-0.0220,-0.0073,-0.0220,-0.1436,5.8598,-0.0889,-0.1978,-0.0317,-0.0366,-0.0073,1,1,1,1,1,1,1
0.8423,approach,2,to_lo,0.08526,0.06733,0.02804,1.56958,-0.04635,-0.18635,-0.00362,-0.0073,0.0611,-0.0024,-0.0220,-0.0220,-0.0073,-0.0220,-0.1436,5.8598,-0.0889,-0.1978,-0.0317,-0.0366,-0.0073,1,1,1,1,1,1,1
0.8823,approach,2,to_lo,0.08526,0.06733,0.02804,1.56958,-0.04635,-0.18635,-0.00362,-0.0073,0.0611,-0.0024,-0.0220,-0.0220,-0.0073,-0.0220,-0.1436,5.8598,-0.0889,-0.1978,-0.0317,-0.0366,-0.0073,1,1,1,1,1,1,1
0.9223,approach,2,to_lo,0.08526,0.07572,0.02804,1.56958,-0.04635,-0.18635,-0.00362,-0.0073,0.0659,-0.0024,-0.0073,-0.0073,-0.0220,-0.0220,-0.1573,5.4496,-0.0889,-0.1441,-0.0317,-0.0366,-0.0073,1,1,1,1,1,1,1
0.9623,approach,2,to_lo,0.08526,0.07572,0.02804,1.56958,-0.04635,-0.18635,-0.00362,-0.0073,0.0659,-0.0024,-0.0073,-0.0073,-0.0220,-0.0220,-0.1573,5.4496,-0.0889,-0.1441,-0.0317,-0.0366,-0.0073,1,1,1,1,1,1,1
1.0024,approach,2,to_lo,0.08526,0.08030,0.02804,1.56958,-0.04635,-0.18635,-0.00362,-0.0024,0.0659,-0.0024,-0.0073,0.0073,0.0073,-0.0073,-0.1709,5.5179,-0.1026,-0.1392,-0.0317,-0.0366,-0.0122,1,1,1,1,1,1,1
1.0425,approach,2,to_lo,0.08526,0.08030,0.02804,1.56958,-0.04635,-0.18635,-0.00362,-0.0024,0.0659,-0.0024,-0.0073,0.0073,0.0073,-0.0073,-0.1709,5.5179,-0.1026,-0.1392,-0.0317,-0.0366,-0.0122,1,1,1,1,1,1,1
1.0825,approach,2,to_lo,0.08526,0.08030,0.02804,1.56958,-0.04635,-0.18635,-0.00362,-0.0024,0.0659,-0.0024,-0.0073,0.0073,0.0073,-0.0073,-0.1709,5.5179,-0.1026,-0.1392,-0.0317,-0.0366,-0.0122,1,1,1,1,1,1,1
1.1224,approach,2,to_lo,0.08526,0.08602,0.02804,1.56996,-0.04635,-0.18635,-0.00324,-0.0024,0.0708,-0.0024,0.0073,-0.0073,-0.0220,0.0073,-0.1983,5.5727,-0.1162,-0.1148,-0.0366,-0.0415,-0.0024,1,1,1,1,1,1,1
1.1624,approach,2,to_lo,0.08526,0.08602,0.02804,1.56996,-0.04635,-0.18635,-0.00324,-0.0024,0.0708,-0.0024,0.0073,-0.0073,-0.0220,0.0073,-0.1983,5.5727,-0.1162,-0.1148,-0.0366,-0.0415,-0.0024,1,1,1,1,1,1,1
1.2024,approach,2,to_lo,0.08526,0.08946,0.02804,1.56996,-0.04635,-0.18635,-0.00324,-0.0024,0.0464,-0.0024,-0.0073,0.0073,-0.0073,-0.0073,-0.1983,5.6137,-0.1162,-0.1050,-0.0415,-0.0366,-0.0024,1,1,1,1,1,1,1
1.2424,approach,2,to_lo,0.08526,0.08946,0.02804,1.56996,-0.04635,-0.18635,-0.00324,-0.0024,0.0464,-0.0024,-0.0073,0.0073,-0.0073,-0.0073,-0.1983,5.6137,-0.1162,-0.1050,-0.0415,-0.0366,-0.0024,1,1,1,1,1,1,1
1.2824,approach,2,to_lo,0.08526,0.08946,0.02804,1.56996,-0.04635,-0.18635,-0.00324,-0.0024,0.0464,-0.0024,-0.0073,0.0073,-0.0073,-0.0073,-0.1983,5.6137,-0.1162,-0.1050,-0.0415,-0.0366,-0.0024,1,1,1,1,1,1,1
1.3225,approach,2,to_lo,0.08526,0.09403,0.02804,1.56996,-0.04635,-0.18635,-0.00324,0.0024,0.0220,-0.0024,-0.0220,0.0073,0.0073,-0.0073,-0.2256,5.7094,-0.1299,-0.0904,-0.0415,-0.0415,-0.0073,1,1,1,1,1,1,1
1.3630,approach,2,to_lo,0.08526,0.09403,0.02804,1.56996,-0.04635,-0.18635,-0.00324,0.0024,0.0220,-0.0024,-0.0220,0.0073,0.0073,-0.0073,-0.2256,5.7094,-0.1299,-0.0904,-0.0415,-0.0415,-0.0073,1,1,1,1,1,1,1
1.4028,approach,2,to_lo,0.08526,0.09632,0.02804,1.57034,-0.04635,-0.18635,-0.00324,-0.0024,0.0317,-0.0024,-0.0073,-0.0073,-0.0073,0.0073,-0.2256,5.9966,-0.1299,-0.1001,-0.0464,-0.0415,-0.0073,1,1,1,1,1,1,1
1.4429,approach,2,to_lo,0.08526,0.09632,0.02804,1.57034,-0.04635,-0.18635,-0.00324,-0.0024,0.0317,-0.0024,-0.0073,-0.0073,-0.0073,0.0073,-0.2256,5.9966,-0.1299,-0.1001,-0.0464,-0.0415,-0.0073,1,1,1,1,1,1,1
1.4824,approach,2,to_lo,0.08526,0.09632,0.02804,1.57034,-0.04635,-0.18635,-0.00324,-0.0024,0.0317,-0.0024,-0.0073,-0.0073,-0.0073,0.0073,-0.2256,5.9966,-0.1299,-0.1001,-0.0464,-0.0415,-0.0073,1,1,1,1,1,1,1
1.5230,approach,2,to_lo,0.08526,0.10014,0.02804,1.56996,-0.04635,-0.18635,-0.00324,-0.0024,0.0171,-0.0024,-0.0073,0.0073,-0.0073,-0.0073,-0.2393,5.7915,-0.1299,-0.0904,-0.0513,-0.0464,-0.0122,1,1,1,1,1,1,1
2.0257,sweep,2,+up,0.08526,0.10090,0.02804,1.57034,-0.04635,-0.18635,-0.00324,-0.0024,0.0220,-0.0073,0.0073,-0.0073,-0.0073,-0.0073,-0.2530,5.8462,-0.1299,-0.0952,-0.0562,-0.0464,-0.0122,1,1,1,1,1,1,1
2.0658,sweep,2,+up,0.08526,0.10090,0.02804,1.57034,-0.04635,-0.18635,-0.00324,-0.0024,0.0220,-0.0073,0.0073,-0.0073,-0.0073,-0.0073,-0.2530,5.8462,-0.1299,-0.0952,-0.0562,-0.0464,-0.0122,1,1,1,1,1,1,1
2.1058,sweep,2,+up,0.08526,0.11654,0.02804,1.57225,-0.04635,-0.18635,-0.00362,-0.0073,0.1880,-0.0024,0.1538,-0.0366,-0.0073,-0.0073,-0.3214,6.5709,-0.1709,-0.2076,-0.0757,-0.0464,-0.0122,1,1,1,1,1,1,1
2.1457,sweep,2,+up,0.08526,0.11654,0.02804,1.57225,-0.04635,-0.18635,-0.00362,-0.0073,0.1880,-0.0024,0.1538,-0.0366,-0.0073,-0.0073,-0.3214,6.5709,-0.1709,-0.2076,-0.0757,-0.0464,-0.0122,1,1,1,1,1,1,1
2.1859,sweep,2,+up,0.08526,0.11654,0.02804,1.57225,-0.04635,-0.18635,-0.00362,-0.0073,0.1880,-0.0024,0.1538,-0.0366,-0.0073,-0.0073,-0.3214,6.5709,-0.1709,-0.2076,-0.0757,-0.0464,-0.0122,1,1,1,1,1,1,1
2.2259,sweep,2,+up,0.08526,0.14172,0.02804,1.56882,-0.04635,-0.18635,-0.00324,-0.0024,0.1880,-0.0073,-0.0220,0.0073,-0.0220,-0.0220,-0.3350,4.9026,-0.1983,-0.0513,-0.0757,-0.0513,-0.0122,1,1,1,1,1,1,1
2.2657,sweep,2,+up,0.08526,0.14172,0.02804,1.56882,-0.04635,-0.18635,-0.00324,-0.0024,0.1880,-0.0073,-0.0220,0.0073,-0.0220,-0.0220,-0.3350,4.9026,-0.1983,-0.0513,-0.0757,-0.0513,-0.0122,1,1,1,1,1,1,1
2.3058,sweep,2,+up,0.08526,0.15774,0.02804,1.56920,-0.04673,-0.18635,-0.00324,-0.0024,0.2027,-0.0073,0.0073,-0.0220,-0.0073,0.0073,-0.3487,5.1487,-0.1983,-0.0366,-0.0659,-0.0513,-0.0073,1,1,1,1,1,1,1
2.3457,sweep,2,+up,0.08526,0.15774,0.02804,1.56920,-0.04673,-0.18635,-0.00324,-0.0024,0.2027,-0.0073,0.0073,-0.0220,-0.0073,0.0073,-0.3487,5.1487,-0.1983,-0.0366,-0.0659,-0.0513,-0.0073,1,1,1,1,1,1,1
2.3860,sweep,2,+up,0.08526,0.15774,0.02804,1.56920,-0.04673,-0.18635,-0.00324,-0.0024,0.2027,-0.0073,0.0073,-0.0220,-0.0073,0.0073,-0.3487,5.1487,-0.1983,-0.0366,-0.0659,-0.0513,-0.0073,1,1,1,1,1,1,1
2.4254,sweep,2,+up,0.08526,0.18177,0.02804,1.56920,-0.04673,-0.18635,-0.00324,-0.0024,0.1734,-0.0024,-0.0220,-0.0366,-0.0073,-0.0073,-0.3487,5.1350,-0.2120,-0.0269,-0.0708,-0.0513,-0.0073,1,1,1,1,1,1,1
2.4658,sweep,2,+up,0.08526,0.18177,0.02804,1.56920,-0.04673,-0.18635,-0.00324,-0.0024,0.1734,-0.0024,-0.0220,-0.0366,-0.0073,-0.0073,-0.3487,5.1350,-0.2120,-0.0269,-0.0708,-0.0513,-0.0073,1,1,1,1,1,1,1
2.5056,sweep,2,+up,0.08526,0.19818,0.02804,1.56920,-0.04673,-0.18635,-0.00324,-0.0073,0.2076,-0.0024,0.0073,0.0073,-0.0073,-0.0220,-0.3761,4.8342,-0.2120,-0.0024,-0.0757,-0.0562,-0.0073,1,1,1,1,1,1,1
2.5458,sweep,2,+up,0.08526,0.19818,0.02804,1.56920,-0.04673,-0.18635,-0.00324,-0.0073,0.2076,-0.0024,0.0073,0.0073,-0.0073,-0.0220,-0.3761,4.8342,-0.2120,-0.0024,-0.0757,-0.0562,-0.0073,1,1,1,1,1,1,1
2.5857,sweep,2,+up,0.08526,0.19818,0.02804,1.56920,-0.04673,-0.18635,-0.00324,-0.0073,0.2076,-0.0024,0.0073,0.0073,-0.0073,-0.0220,-0.3761,4.8342,-0.2120,-0.0024,-0.0757,-0.0562,-0.0073,1,1,1,1,1,1,1
2.6255,sweep,2,+up,0.08526,0.22183,0.02804,1.56882,-0.04635,-0.18635,-0.00324,-0.0024,0.1929,-0.0024,-0.0073,0.0073,-0.0073,-0.0073,-0.3624,4.8479,-0.2120,0.0415,-0.0708,-0.0562,-0.0073,1,1,1,1,1,1,1
2.6659,sweep,2,+up,0.08526,0.22183,0.02804,1.56882,-0.04635,-0.18635,-0.00324,-0.0024,0.1929,-0.0024,-0.0073,0.0073,-0.0073,-0.0073,-0.3624,4.8479,-0.2120,0.0415,-0.0708,-0.0562,-0.0073,1,1,1,1,1,1,1
2.7059,sweep,2,+up,0.08526,0.23861,0.02804,1.56424,-0.04673,-0.18635,-0.00362,-0.0024,0.2271,-0.0024,-0.0806,-0.0073,-0.0073,-0.0220,-0.3897,4.2051,-0.2256,0.4176,-0.0757,-0.0562,-0.0024,1,1,1,1,1,1,1
2.7458,sweep,2,+up,0.08526,0.23861,0.02804,1.56424,-0.04673,-0.18635,-0.00362,-0.0024,0.2271,-0.0024,-0.0806,-0.0073,-0.0073,-0.0220,-0.3897,4.2051,-0.2256,0.4176,-0.0757,-0.0562,-0.0024,1,1,1,1,1,1,1
2.7856,sweep,2,+up,0.08526,0.23861,0.02804,1.56424,-0.04673,-0.18635,-0.00362,-0.0024,0.2271,-0.0024,-0.0806,-0.0073,-0.0073,-0.0220,-0.3897,4.2051,-0.2256,0.4176,-0.0757,-0.0562,-0.0024,1,1,1,1,1,1,1
2.8259,sweep,2,+up,0.08526,0.26226,0.02804,1.56844,-0.04635,-0.18673,-0.00362,-0.0024,0.2076,0.0024,0.0513,-0.0073,0.0073,-0.0220,-0.4034,4.4650,-0.1983,0.3346,-0.0708,-0.0611,-0.0024,1,1,1,1,1,1,1
2.8657,sweep,2,+up,0.08526,0.26226,0.02804,1.56844,-0.04635,-0.18673,-0.00362,-0.0024,0.2076,0.0024,0.0513,-0.0073,0.0073,-0.0220,-0.4034,4.4650,-0.1983,0.3346,-0.0708,-0.0611,-0.0024,1,1,1,1,1,1,1
2.9058,sweep,2,+up,0.08526,0.27867,0.02804,1.56806,-0.04635,-0.18635,-0.00324,0.0024,0.1978,0.0024,-0.0220,-0.0073,-0.0220,-0.0220,-0.3761,4.0274,-0.2120,0.4322,-0.0757,-0.0611,-0.0024,1,1,1,1,1,1,1
2.9458,sweep,2,+up,0.08526,0.27867,0.02804,1.56806,-0.04635,-0.18635,-0.00324,0.0024,0.1978,0.0024,-0.0220,-0.0073,-0.0220,-0.0220,-0.3761,4.0274,-0.2120,0.4322,-0.0757,-0.0611,-0.0024,1,1,1,1,1,1,1
2.9858,sweep,2,+up,0.08526,0.27867,0.02804,1.56806,-0.04635,-0.18635,-0.00324,0.0024,0.1978,0.0024,-0.0220,-0.0073,-0.0220,-0.0220,-0.3761,4.0274,-0.2120,0.4322,-0.0757,-0.0611,-0.0024,1,1,1,1,1,1,1
3.0257,sweep,2,+up,0.08526,0.30270,0.02804,1.56844,-0.04673,-0.18673,-0.00324,-0.0024,0.2222,-0.0024,0.0073,-0.0073,-0.0073,-0.0073,-0.4308,3.8085,-0.2120,0.5153,-0.0757,-0.0611,-0.0024,1,1,1,1,1,1,1
3.0657,sweep,2,+up,0.08526,0.30270,0.02804,1.56844,-0.04673,-0.18673,-0.00324,-0.0024,0.2222,-0.0024,0.0073,-0.0073,-0.0073,-0.0073,-0.4308,3.8085,-0.2120,0.5153,-0.0757,-0.0611,-0.0024,1,1,1,1,1,1,1
3.1057,sweep,2,+up,0.08526,0.31872,0.02804,1.56882,-0.04635,-0.18635,-0.00324,-0.0024,0.1978,-0.0024,0.0073,0.0073,-0.0073,0.0073,-0.4444,3.8222,-0.2393,0.5690,-0.0757,-0.0659,-0.0024,1,1,1,1,1,1,1
3.1459,sweep,2,+up,0.08526,0.31872,0.02804,1.56882,-0.04635,-0.18635,-0.00324,-0.0024,0.1978,-0.0024,0.0073,0.0073,-0.0073,0.0073,-0.4444,3.8222,-0.2393,0.5690,-0.0757,-0.0659,-0.0024,1,1,1,1,1,1,1
3.1857,sweep,2,+up,0.08526,0.31872,0.02804,1.56882,-0.04635,-0.18635,-0.00324,-0.0024,0.1978,-0.0024,0.0073,0.0073,-0.0073,0.0073,-0.4444,3.8222,-0.2393,0.5690,-0.0757,-0.0659,-0.0024,1,1,1,1,1,1,1
3.2258,sweep,2,+up,0.08526,0.34314,0.02804,1.56882,-0.04635,-0.18673,-0.00324,-0.0024,0.2076,-0.0024,-0.0073,0.0073,0.0073,0.0073,-0.4308,3.4667,-0.2530,0.6520,-0.0757,-0.0659,-0.0073,1,1,1,1,1,1,1
3.2658,sweep,2,+up,0.08526,0.34314,0.02804,1.56882,-0.04635,-0.18673,-0.00324,-0.0024,0.2076,-0.0024,-0.0073,0.0073,0.0073,0.0073,-0.4308,3.4667,-0.2530,0.6520,-0.0757,-0.0659,-0.0073,1,1,1,1,1,1,1
3.3057,sweep,2,+up,0.08526,0.35878,0.02804,1.56882,-0.04635,-0.18635,-0.00324,-0.0024,0.1734,-0.0024,-0.0220,-0.0073,0.0073,-0.0073,-0.4308,3.7265,-0.2667,0.6911,-0.0708,-0.0611,-0.0073,1,1,1,1,1,1,1
3.3458,sweep,2,+up,0.08526,0.35878,0.02804,1.56882,-0.04635,-0.18635,-0.00324,-0.0024,0.1734,-0.0024,-0.0220,-0.0073,0.0073,-0.0073,-0.4308,3.7265,-0.2667,0.6911,-0.0708,-0.0611,-0.0073,1,1,1,1,1,1,1
3.3859,sweep,2,+up,0.08526,0.35878,0.02804,1.56882,-0.04635,-0.18635,-0.00324,-0.0024,0.1734,-0.0024,-0.0220,-0.0073,0.0073,-0.0073,-0.4308,3.7265,-0.2667,0.6911,-0.0708,-0.0611,-0.0073,1,1,1,1,1,1,1
3.4256,sweep,2,+up,0.08526,0.38319,0.02804,1.56920,-0.04635,-0.18673,-0.00362,-0.0024,0.1978,-0.0024,-0.0073,0.0073,-0.0073,-0.0073,-0.4308,3.3846,-0.2530,0.7546,-0.0757,-0.0611,-0.0122,1,1,1,1,1,1,1
3.4657,sweep,2,+up,0.08526,0.38319,0.02804,1.56920,-0.04635,-0.18673,-0.00362,-0.0024,0.1978,-0.0024,-0.0073,0.0073,-0.0073,-0.0073,-0.4308,3.3846,-0.2530,0.7546,-0.0757,-0.0611,-0.0122,1,1,1,1,1,1,1
3.5056,sweep,2,+up,0.08526,0.39921,0.02804,1.56920,-0.04635,-0.18635,-0.00324,-0.0024,0.2027,-0.0024,-0.0073,-0.0073,-0.0220,-0.0073,-0.4581,3.4256,-0.2530,0.8034,-0.0757,-0.0611,-0.0073,1,1,1,1,1,1,1
3.5458,sweep,2,+up,0.08526,0.39921,0.02804,1.56920,-0.04635,-0.18635,-0.00324,-0.0024,0.2027,-0.0024,-0.0073,-0.0073,-0.0220,-0.0073,-0.4581,3.4256,-0.2530,0.8034,-0.0757,-0.0611,-0.0073,1,1,1,1,1,1,1
3.5857,sweep,2,+up,0.08526,0.39921,0.02804,1.56920,-0.04635,-0.18635,-0.00324,-0.0024,0.2027,-0.0024,-0.0073,-0.0073,-0.0220,-0.0073,-0.4581,3.4256,-0.2530,0.8034,-0.0757,-0.0611,-0.0073,1,1,1,1,1,1,1
3.6256,sweep,2,+up,0.08526,0.42325,0.02804,1.56920,-0.04635,-0.18635,-0.00324,0.0024,0.1929,-0.0024,-0.0073,0.0073,-0.0073,0.0073,-0.4581,3.2205,-0.2530,0.8571,-0.0708,-0.0659,-0.0024,1,1,1,1,1,1,1
3.6655,sweep,2,+up,0.08526,0.42325,0.02804,1.56920,-0.04635,-0.18635,-0.00324,0.0024,0.1929,-0.0024,-0.0073,0.0073,-0.0073,0.0073,-0.4581,3.2205,-0.2530,0.8571,-0.0708,-0.0659,-0.0024,1,1,1,1,1,1,1
3.7056,sweep,2,+up,0.08526,0.43927,0.02804,1.56920,-0.04635,-0.18635,-0.00324,-0.0024,0.1880,0.0024,-0.0073,-0.0073,-0.0220,-0.0073,-0.4444,3.2752,-0.2667,0.9109,-0.0708,-0.0611,-0.0024,1,1,1,1,1,1,1
3.7458,sweep,2,+up,0.08526,0.43927,0.02804,1.56920,-0.04635,-0.18635,-0.00324,-0.0024,0.1880,0.0024,-0.0073,-0.0073,-0.0220,-0.0073,-0.4444,3.2752,-0.2667,0.9109,-0.0708,-0.0611,-0.0024,1,1,1,1,1,1,1
3.7855,sweep,2,+up,0.08526,0.43927,0.02804,1.56920,-0.04635,-0.18635,-0.00324,-0.0024,0.1880,0.0024,-0.0073,-0.0073,-0.0220,-0.0073,-0.4444,3.2752,-0.2667,0.9109,-0.0708,-0.0611,-0.0024,1,1,1,1,1,1,1
3.8257,sweep,2,+up,0.08526,0.46330,0.02804,1.56958,-0.04635,-0.18635,-0.00362,0.0024,0.1880,-0.0024,-0.0073,0.0073,-0.0220,-0.0073,-0.4581,3.2068,-0.2667,0.9402,-0.0659,-0.0611,-0.0073,1,1,1,1,1,1,1
3.8659,sweep,2,+up,0.08526,0.46330,0.02804,1.56958,-0.04635,-0.18635,-0.00362,0.0024,0.1880,-0.0024,-0.0073,0.0073,-0.0220,-0.0073,-0.4581,3.2068,-0.2667,0.9402,-0.0659,-0.0611,-0.0073,1,1,1,1,1,1,1
3.9057,sweep,2,+up,0.08526,0.47932,0.02804,1.57034,-0.04673,-0.18635,-0.00324,-0.0024,0.2027,0.0024,-0.0073,-0.0073,-0.0073,-0.0073,-0.4581,3.2342,-0.2530,0.9158,-0.0659,-0.0611,-0.0073,1,1,1,1,1,1,1
3.9458,sweep,2,+up,0.08526,0.47932,0.02804,1.57034,-0.04673,-0.18635,-0.00324,-0.0024,0.2027,0.0024,-0.0073,-0.0073,-0.0073,-0.0073,-0.4581,3.2342,-0.2530,0.9158,-0.0659,-0.0611,-0.0073,1,1,1,1,1,1,1
3.9858,sweep,2,+up,0.08526,0.47932,0.02804,1.57034,-0.04673,-0.18635,-0.00324,-0.0024,0.2027,0.0024,-0.0073,-0.0073,-0.0073,-0.0073,-0.4581,3.2342,-0.2530,0.9158,-0.0659,-0.0611,-0.0073,1,1,1,1,1,1,1
4.0258,sweep,2,+up,0.08526,0.50336,0.02766,1.56996,-0.04673,-0.18635,-0.00324,-0.0024,0.1929,-0.0024,-0.0073,-0.0220,-0.0220,-0.0220,-0.4855,2.8239,-0.2530,0.9548,-0.0659,-0.0659,-0.0024,1,1,1,1,1,1,1
4.0658,sweep,2,+up,0.08526,0.50336,0.02766,1.56996,-0.04673,-0.18635,-0.00324,-0.0024,0.1929,-0.0024,-0.0073,-0.0220,-0.0220,-0.0220,-0.4855,2.8239,-0.2530,0.9548,-0.0659,-0.0659,-0.0024,1,1,1,1,1,1,1
4.1059,sweep,2,+up,0.08526,0.51976,0.02766,1.56996,-0.04635,-0.18635,-0.00324,0.0024,0.2125,-0.0024,-0.0220,-0.0073,-0.0073,-0.0073,-0.4855,2.5094,-0.2393,0.9939,-0.0708,-0.0708,-0.0024,1,1,1,1,1,1,1
4.1456,sweep,2,+up,0.08526,0.51976,0.02766,1.56996,-0.04635,-0.18635,-0.00324,0.0024,0.2125,-0.0024,-0.0220,-0.0073,-0.0073,-0.0073,-0.4855,2.5094,-0.2393,0.9939,-0.0708,-0.0708,-0.0024,1,1,1,1,1,1,1
4.1859,sweep,2,+up,0.08526,0.51976,0.02766,1.56996,-0.04635,-0.18635,-0.00324,0.0024,0.2125,-0.0024,-0.0220,-0.0073,-0.0073,-0.0073,-0.4855,2.5094,-0.2393,0.9939,-0.0708,-0.0708,-0.0024,1,1,1,1,1,1,1
4.2257,sweep,2,+up,0.08526,0.54379,0.02766,1.56958,-0.04635,-0.18635,-0.00324,-0.0024,0.1832,-0.0024,-0.0073,-0.0073,-0.0073,-0.0073,-0.4991,2.5504,-0.2530,1.0476,-0.0757,-0.0708,-0.0073,1,1,1,1,1,1,1
4.2656,sweep,2,+up,0.08526,0.54379,0.02766,1.56958,-0.04635,-0.18635,-0.00324,-0.0024,0.1832,-0.0024,-0.0073,-0.0073,-0.0073,-0.0073,-0.4991,2.5504,-0.2530,1.0476,-0.0757,-0.0708,-0.0073,1,1,1,1,1,1,1
4.3058,sweep,2,+up,0.08526,0.55982,0.02766,1.56958,-0.04635,-0.18635,-0.00324,-0.0024,0.1978,-0.0073,0.0073,-0.0073,-0.0220,-0.0073,-0.4991,2.3179,-0.2393,1.0818,-0.0757,-0.0708,-0.0024,1,1,1,1,1,1,1
4.3459,sweep,2,+up,0.08526,0.55982,0.02766,1.56958,-0.04635,-0.18635,-0.00324,-0.0024,0.1978,-0.0073,0.0073,-0.0073,-0.0220,-0.0073,-0.4991,2.3179,-0.2393,1.0818,-0.0757,-0.0708,-0.0024,1,1,1,1,1,1,1
4.3858,sweep,2,+up,0.08526,0.55982,0.02766,1.56958,-0.04635,-0.18635,-0.00324,-0.0024,0.1978,-0.0073,0.0073,-0.0073,-0.0220,-0.0073,-0.4991,2.3179,-0.2393,1.0818,-0.0757,-0.0708,-0.0024,1,1,1,1,1,1,1
4.4258,sweep,2,+up,0.08526,0.58423,0.02766,1.56958,-0.04635,-0.18635,-0.00362,-0.0024,0.2076,-0.0024,-0.0073,-0.0073,-0.0220,-0.0220,-0.4991,2.0855,-0.2393,1.1355,-0.0806,-0.0659,-0.0024,1,1,1,1,1,1,1
4.4654,sweep,2,+up,0.08526,0.58423,0.02766,1.56958,-0.04635,-0.18635,-0.00362,-0.0024,0.2076,-0.0024,-0.0073,-0.0073,-0.0220,-0.0220,-0.4991,2.0855,-0.2393,1.1355,-0.0806,-0.0659,-0.0024,1,1,1,1,1,1,1
4.5060,sweep,2,+up,0.08488,0.60025,0.02766,1.56958,-0.04635,-0.18635,-0.00324,-0.0122,0.1832,-0.0024,0.0073,-0.0073,0.0073,-0.0073,-0.4855,1.9624,-0.2256,1.1648,-0.0806,-0.0708,-0.0024,1,1,1,1,1,1,1
4.5457,sweep,2,+up,0.08488,0.60025,0.02766,1.56958,-0.04635,-0.18635,-0.00324,-0.0122,0.1832,-0.0024,0.0073,-0.0073,0.0073,-0.0073,-0.4855,1.9624,-0.2256,1.1648,-0.0806,-0.0708,-0.0024,1,1,1,1,1,1,1
4.5857,sweep,2,+up,0.08488,0.60025,0.02766,1.56958,-0.04635,-0.18635,-0.00324,-0.0122,0.1832,-0.0024,0.0073,-0.0073,0.0073,-0.0073,-0.4855,1.9624,-0.2256,1.1648,-0.0806,-0.0708,-0.0024,1,1,1,1,1,1,1
4.6258,sweep,2,+up,0.08526,0.62428,0.02766,1.56958,-0.04635,-0.18635,-0.00324,-0.0024,0.2222,-0.0024,-0.0073,-0.0073,-0.0073,0.0073,-0.4855,1.7709,-0.2120,1.2186,-0.0806,-0.0757,-0.0024,1,1,1,1,1,1,1
4.6655,sweep,2,+up,0.08526,0.62428,0.02766,1.56958,-0.04635,-0.18635,-0.00324,-0.0024,0.2222,-0.0024,-0.0073,-0.0073,-0.0073,0.0073,-0.4855,1.7709,-0.2120,1.2186,-0.0806,-0.0757,-0.0024,1,1,1,1,1,1,1
4.7056,sweep,2,+up,0.08526,0.64031,0.02766,1.56958,-0.04635,-0.18635,-0.00324,-0.0073,0.1783,-0.0024,-0.0220,-0.0073,-0.0220,0.0073,-0.5128,1.9487,-0.2120,1.2527,-0.0855,-0.0806,-0.0073,1,1,1,1,1,1,1
4.7456,sweep,2,+up,0.08526,0.64031,0.02766,1.56958,-0.04635,-0.18635,-0.00324,-0.0073,0.1783,-0.0024,-0.0220,-0.0073,-0.0220,0.0073,-0.5128,1.9487,-0.2120,1.2527,-0.0855,-0.0806,-0.0073,1,1,1,1,1,1,1
4.7856,sweep,2,+up,0.08526,0.64031,0.02766,1.56958,-0.04635,-0.18635,-0.00324,-0.0073,0.1783,-0.0024,-0.0220,-0.0073,-0.0220,0.0073,-0.5128,1.9487,-0.2120,1.2527,-0.0855,-0.0806,-0.0073,1,1,1,1,1,1,1
4.8258,sweep,2,+up,0.08526,0.66434,0.02766,1.56958,-0.04635,-0.18635,-0.00324,-0.0024,0.1929,-0.0024,-0.0073,-0.0073,-0.0073,-0.0073,-0.5265,1.5111,-0.1983,1.3065,-0.0855,-0.0806,-0.0122,1,1,1,1,1,1,1
4.8656,sweep,2,+up,0.08526,0.66434,0.02766,1.56958,-0.04635,-0.18635,-0.00324,-0.0024,0.1929,-0.0024,-0.0073,-0.0073,-0.0073,-0.0073,-0.5265,1.5111,-0.1983,1.3065,-0.0855,-0.0806,-0.0122,1,1,1,1,1,1,1
4.9056,sweep,2,+up,0.08488,0.68036,0.02766,1.56958,-0.04673,-0.18635,-0.00324,-0.0024,0.1929,-0.0024,-0.0220,-0.0073,0.0220,-0.0220,-0.5128,1.6205,-0.1983,1.3358,-0.0855,-0.0806,-0.0073,1,1,1,1,1,1,1
4.9458,sweep,2,+up,0.08488,0.68036,0.02766,1.56958,-0.04673,-0.18635,-0.00324,-0.0024,0.1929,-0.0024,-0.0220,-0.0073,0.0220,-0.0220,-0.5128,1.6205,-0.1983,1.3358,-0.0855,-0.0806,-0.0073,1,1,1,1,1,1,1
4.9856,sweep,2,+up,0.08488,0.68036,0.02766,1.56958,-0.04673,-0.18635,-0.00324,-0.0024,0.1929,-0.0024,-0.0220,-0.0073,0.0220,-0.0220,-0.5128,1.6205,-0.1983,1.3358,-0.0855,-0.0806,-0.0073,1,1,1,1,1,1,1
5.0255,sweep,2,+up,0.08526,0.70478,0.02766,1.56958,-0.04635,-0.18635,-0.00362,0.0024,0.1832,-0.0024,-0.0073,-0.0073,-0.0073,-0.0220,-0.4991,1.4291,-0.1983,1.3944,-0.0855,-0.0806,-0.0073,1,1,1,1,1,1,1
5.0655,sweep,2,+up,0.08526,0.70478,0.02766,1.56958,-0.04635,-0.18635,-0.00362,0.0024,0.1832,-0.0024,-0.0073,-0.0073,-0.0073,-0.0220,-0.4991,1.4291,-0.1983,1.3944,-0.0855,-0.0806,-0.0073,1,1,1,1,1,1,1
5.1058,sweep,2,+up,0.08488,0.72881,0.02766,1.56958,-0.04673,-0.18635,-0.00362,-0.0073,0.2222,-0.0024,-0.0073,-0.0073,-0.0220,-0.0073,-0.4855,0.9915,-0.1846,1.4628,-0.0855,-0.0904,-0.0122,1,1,1,1,1,1,1
5.1458,sweep,2,+up,0.08488,0.72881,0.02766,1.56958,-0.04673,-0.18635,-0.00362,-0.0073,0.2222,-0.0024,-0.0073,-0.0073,-0.0220,-0.0073,-0.4855,0.9915,-0.1846,1.4628,-0.0855,-0.0904,-0.0122,1,1,1,1,1,1,1
5.1857,sweep,2,+up,0.08488,0.72881,0.02766,1.56958,-0.04673,-0.18635,-0.00362,-0.0073,0.2222,-0.0024,-0.0073,-0.0073,-0.0220,-0.0073,-0.4855,0.9915,-0.1846,1.4628,-0.0855,-0.0904,-0.0122,1,1,1,1,1,1,1
5.2256,sweep,2,+up,0.08526,0.74483,0.02766,1.56958,-0.04635,-0.18635,-0.00324,-0.0024,0.1832,-0.0024,-0.0073,-0.0073,-0.0073,-0.0073,-0.4718,1.1009,-0.1709,1.4921,-0.0806,-0.0904,-0.0073,1,1,1,1,1,1,1
5.2658,sweep,2,+up,0.08526,0.74483,0.02766,1.56958,-0.04635,-0.18635,-0.00324,-0.0024,0.1832,-0.0024,-0.0073,-0.0073,-0.0073,-0.0073,-0.4718,1.1009,-0.1709,1.4921,-0.0806,-0.0904,-0.0073,1,1,1,1,1,1,1
5.3057,sweep,2,+up,0.08526,0.76886,0.02766,1.56958,-0.04635,-0.18635,-0.00324,-0.0024,0.2027,-0.0024,-0.0073,-0.0073,-0.0073,-0.0073,-0.4718,0.6906,-0.1709,1.5507,-0.0806,-0.0904,-0.0073,1,1,1,1,1,1,1
5.3456,sweep,2,+up,0.08488,0.76886,0.02766,1.56958,-0.04635,-0.18635,-0.00324,-0.0122,0.2027,-0.0024,-0.0073,-0.0073,-0.0073,-0.0073,-0.4581,0.6906,-0.1709,1.5507,-0.0806,-0.0904,-0.0073,1,1,1,1,1,1,1
5.3857,sweep,2,+up,0.08488,0.76886,0.02766,1.56958,-0.04635,-0.18635,-0.00324,-0.0122,0.2027,-0.0024,-0.0073,-0.0073,-0.0073,-0.0073,-0.4581,0.6906,-0.1709,1.5507,-0.0806,-0.0904,-0.0073,1,1,1,1,1,1,1
5.4263,sweep,2,+up,0.08526,0.78527,0.02766,1.56958,-0.04635,-0.18635,-0.00324,-0.0024,0.1978,-0.0024,-0.0073,0.0073,-0.0073,-0.0073,-0.4581,0.9094,-0.1709,1.5897,-0.0806,-0.0904,-0.0073,1,1,1,1,1,1,1
5.4655,sweep,2,+up,0.08526,0.78527,0.02766,1.56958,-0.04635,-0.18635,-0.00324,-0.0024,0.1978,-0.0024,-0.0073,0.0073,-0.0073,-0.0073,-0.4581,0.9094,-0.1709,1.5897,-0.0806,-0.0904,-0.0073,1,1,1,1,1,1,1
5.5058,sweep,2,+up,0.08526,0.78527,0.02766,1.56958,-0.04673,-0.18635,-0.00324,-0.0024,0.1978,-0.0024,-0.0073,-0.0220,0.0073,0.0073,-0.4581,0.9094,-0.1709,1.6288,-0.0855,-0.0904,-0.0073,1,1,1,1,1,1,1
5.5459,sweep,2,+up,0.08526,0.80930,0.02766,1.56958,-0.04673,-0.18635,-0.00324,-0.0024,0.1783,-0.0024,-0.0073,-0.0220,0.0073,0.0073,-0.4444,0.6222,-0.1573,1.6288,-0.0855,-0.0904,-0.0073,1,1,1,1,1,1,1
5.5857,sweep,2,+up,0.08526,0.80930,0.02766,1.56958,-0.04673,-0.18635,-0.00324,-0.0024,0.1783,-0.0024,-0.0073,-0.0220,0.0073,0.0073,-0.4444,0.6222,-0.1573,1.6288,-0.0855,-0.0904,-0.0073,1,1,1,1,1,1,1
5.6258,sweep,2,+up,0.08526,0.82532,0.02766,1.56958,-0.04635,-0.18635,-0.00324,0.0024,0.2125,-0.0024,-0.0073,0.0073,-0.0073,0.0073,-0.4308,0.4855,-0.1436,1.6679,-0.0855,-0.0904,-0.0024,1,1,1,1,1,1,1
5.6658,sweep,2,+up,0.08526,0.82532,0.02766,1.56958,-0.04635,-0.18635,-0.00324,0.0024,0.2125,-0.0024,-0.0073,0.0073,-0.0073,0.0073,-0.4308,0.4855,-0.1436,1.6679,-0.0855,-0.0904,-0.0024,1,1,1,1,1,1,1
5.7058,sweep,2,+up,0.08526,0.82532,0.02766,1.56958,-0.04635,-0.18635,-0.00324,0.0024,0.2125,-0.0024,-0.0073,0.0073,-0.0073,0.0073,-0.4308,0.4855,-0.1436,1.6679,-0.0855,-0.0904,-0.0024,1,1,1,1,1,1,1
5.7457,sweep,2,+up,0.08526,0.84936,0.02766,1.56958,-0.04635,-0.18635,-0.00324,-0.0073,0.1783,-0.0073,-0.0220,-0.0073,0.0073,-0.0073,-0.4034,0.4991,-0.1436,1.7167,-0.0806,-0.0855,-0.0024,1,1,1,1,1,1,1
5.7858,sweep,2,+up,0.08526,0.84936,0.02766,1.56958,-0.04635,-0.18635,-0.00324,-0.0073,0.1783,-0.0073,-0.0220,-0.0073,0.0073,-0.0073,-0.4034,0.4991,-0.1436,1.7167,-0.0806,-0.0855,-0.0024,1,1,1,1,1,1,1
5.8260,sweep,2,+up,0.08526,0.86576,0.02766,1.56958,-0.04673,-0.18635,-0.00324,0.0024,0.2222,0.0024,0.0073,-0.0073,-0.0073,-0.0073,-0.4171,0.1846,-0.1436,1.7411,-0.0806,-0.0855,-0.0073,1,1,1,1,1,1,1
5.8665,sweep,2,+up,0.08526,0.86576,0.02766,1.56958,-0.04673,-0.18635,-0.00324,0.0024,0.2222,0.0024,0.0073,-0.0073,-0.0073,-0.0073,-0.4171,0.1846,-0.1436,1.7411,-0.0806,-0.0855,-0.0073,1,1,1,1,1,1,1
5.9065,sweep,2,+up,0.08526,0.86576,0.02766,1.56958,-0.04673,-0.18635,-0.00324,0.0024,0.2222,0.0024,0.0073,-0.0073,-0.0073,-0.0220,-0.4171,0.1846,-0.1436,1.7411,-0.0806,-0.0855,-0.0073,1,1,1,1,1,1,1
5.9466,sweep,2,+up,0.08526,0.89017,0.02766,1.56958,-0.04635,-0.18635,-0.00324,-0.0024,0.1978,-0.0024,-0.0366,0.0073,-0.0073,-0.0220,-0.4444,0.0889,-0.1436,1.7900,-0.0806,-0.0855,-0.0073,1,1,1,1,1,1,1
5.9860,sweep,2,+up,0.08526,0.89017,0.02766,1.56958,-0.04635,-0.18635,-0.00324,-0.0024,0.1978,-0.0024,-0.0366,0.0073,-0.0073,-0.0220,-0.4444,0.0889,-0.1436,1.7900,-0.0806,-0.0855,-0.0073,1,1,1,1,1,1,1
6.0263,sweep,2,+up,0.08526,0.90696,0.02766,1.56958,-0.04673,-0.18635,-0.00324,-0.0024,0.1978,0.0024,-0.0073,-0.0366,-0.0073,-0.0220,-0.4444,-0.4444,-0.1162,1.8437,-0.0806,-0.0904,-0.0024,1,1,1,1,1,1,1
6.0663,sweep,2,+up,0.08526,0.90696,0.02766,1.56958,-0.04673,-0.18635,-0.00324,-0.0024,0.1978,0.0024,-0.0073,-0.0366,-0.0073,-0.0220,-0.4444,-0.4444,-0.1162,1.8437,-0.0806,-0.0904,-0.0024,1,1,1,1,1,1,1
6.1059,sweep,2,+up,0.08526,0.90696,0.02766,1.56958,-0.04673,-0.18635,-0.00324,-0.0024,0.1978,0.0024,-0.0073,-0.0366,-0.0073,-0.0220,-0.4444,-0.4444,-0.1162,1.8437,-0.0806,-0.0904,-0.0024,1,1,1,1,1,1,1
6.1454,sweep,2,+up,0.08526,0.93099,0.02766,1.56958,-0.04635,-0.18635,-0.00324,-0.0024,0.2173,-0.0024,0.0073,0.0073,0.0220,-0.0073,-0.4444,-0.4581,-0.1026,1.9121,-0.0806,-0.0904,-0.0024,1,1,1,1,1,1,1
6.1857,sweep,2,+up,0.08526,0.93099,0.02766,1.56958,-0.04635,-0.18635,-0.00324,-0.0024,0.2173,-0.0024,0.0073,0.0073,0.0220,-0.0073,-0.4444,-0.4581,-0.1026,1.9121,-0.0806,-0.0904,-0.0024,1,1,1,1,1,1,1
6.2258,sweep,2,+up,0.08526,0.94701,0.02766,1.56958,-0.04635,-0.18635,-0.00324,-0.0073,0.1978,-0.0024,-0.0366,-0.0220,-0.0073,-0.0073,-0.4581,-0.4308,-0.1026,1.9219,-0.0806,-0.0904,-0.0024,1,1,1,1,1,1,1
6.2659,sweep,2,+up,0.08526,0.94701,0.02766,1.56958,-0.04635,-0.18635,-0.00324,-0.0073,0.1978,-0.0024,-0.0366,-0.0220,-0.0073,-0.0073,-0.4581,-0.4308,-0.1026,1.9219,-0.0806,-0.0904,-0.0024,1,1,1,1,1,1,1
6.3059,sweep,2,+up,0.08526,0.94701,0.02766,1.56958,-0.04635,-0.18635,-0.00324,-0.0073,0.1978,-0.0024,-0.0366,-0.0220,-0.0073,-0.0073,-0.4581,-0.4308,-0.1026,1.9219,-0.0806,-0.0904,-0.0024,1,1,1,1,1,1,1
6.3459,sweep,2,+up,0.08526,0.97143,0.02766,1.56958,-0.04635,-0.18673,-0.00324,-0.0024,0.2076,0.0024,0.0073,0.0073,-0.0073,-0.0073,-0.4308,-0.7726,-0.0889,1.9805,-0.0757,-0.0952,-0.0024,1,1,1,1,1,1,1
6.3860,sweep,2,+up,0.08526,0.97143,0.02766,1.56958,-0.04635,-0.18673,-0.00324,-0.0024,0.2076,0.0024,0.0073,0.0073,-0.0073,-0.0073,-0.4308,-0.7726,-0.0889,1.9805,-0.0757,-0.0952,-0.0024,1,1,1,1,1,1,1
6.4263,sweep,2,+up,0.08526,0.98707,0.02766,1.56958,-0.04673,-0.18673,-0.00324,-0.0024,0.1734,-0.0024,0.0073,-0.0073,-0.0073,-0.0073,-0.4444,-0.4991,-0.0752,2.0147,-0.0757,-0.1001,-0.0073,1,1,1,1,1,1,1
6.4666,sweep,2,+up,0.08526,0.98707,0.02766,1.56958,-0.04673,-0.18673,-0.00324,-0.0024,0.1734,-0.0024,0.0073,-0.0073,-0.0073,-0.0073,-0.4444,-0.4991,-0.0752,2.0147,-0.0757,-0.1001,-0.0073,1,1,1,1,1,1,1
6.5059,sweep,2,+up,0.08526,0.98707,0.02766,1.56958,-0.04673,-0.18673,-0.00324,-0.0024,0.1734,-0.0024,0.0073,-0.0073,-0.0073,-0.0073,-0.4444,-0.4991,-0.0752,2.0147,-0.0757,-0.1001,-0.0073,1,1,1,1,1,1,1
6.5457,sweep,2,+up,0.08526,1.01148,0.02766,1.56958,-0.04635,-0.18635,-0.00362,-0.0024,0.1880,-0.0024,-0.0220,-0.0073,-0.0073,-0.0073,-0.4308,-0.8410,-0.0615,2.0537,-0.0855,-0.0952,-0.0024,1,1,1,1,1,1,1
6.5861,sweep,2,+up,0.08526,1.01148,0.02766,1.56958,-0.04635,-0.18635,-0.00362,-0.0024,0.1880,-0.0024,-0.0220,-0.0073,-0.0073,-0.0073,-0.4308,-0.8410,-0.0615,2.0537,-0.0855,-0.0952,-0.0024,1,1,1,1,1,1,1
6.6255,sweep,2,+up,0.08526,1.02750,0.02766,1.56958,-0.04673,-0.18635,-0.00324,-0.0024,0.1978,-0.0024,-0.0073,-0.0220,-0.0073,-0.0073,-0.4581,-0.8137,-0.0615,2.0879,-0.0806,-0.1001,-0.0024,1,1,1,1,1,1,1
6.6659,sweep,2,+up,0.08526,1.02750,0.02766,1.56958,-0.04673,-0.18635,-0.00324,-0.0024,0.1978,-0.0024,-0.0073,-0.0220,-0.0073,-0.0073,-0.4581,-0.8137,-0.0615,2.0879,-0.0806,-0.1001,-0.0024,1,1,1,1,1,1,1
6.7057,sweep,2,+up,0.08526,1.02750,0.02766,1.56958,-0.04673,-0.18635,-0.00324,-0.0024,0.1978,-0.0024,-0.0073,-0.0220,-0.0073,-0.0073,-0.4581,-0.8137,-0.0615,2.0879,-0.0806,-0.1001,-0.0024,1,1,1,1,1,1,1
6.7458,sweep,2,+up,0.08526,1.05154,0.02766,1.56958,-0.04635,-0.18673,-0.00324,-0.0024,0.1832,-0.0024,-0.0073,-0.0073,0.0073,-0.0073,-0.4444,-1.0325,-0.0615,2.1368,-0.0806,-0.0952,-0.0024,1,1,1,1,1,1,1
6.7861,sweep,2,+up,0.08526,1.05154,0.02766,1.56958,-0.04635,-0.18673,-0.00324,-0.0024,0.1832,-0.0024,-0.0073,-0.0073,0.0073,-0.0073,-0.4444,-1.0325,-0.0615,2.1368,-0.0806,-0.0952,-0.0024,1,1,1,1,1,1,1
6.8257,sweep,2,+up,0.08488,1.06756,0.02766,1.56996,-0.04673,-0.18673,-0.00324,-0.0073,0.2076,-0.0024,-0.0220,-0.0073,-0.0073,-0.0220,-0.4308,-1.1282,-0.0342,2.1465,-0.0757,-0.1001,-0.0073,1,1,1,1,1,1,1
6.8658,sweep,2,+up,0.08488,1.06756,0.02766,1.56996,-0.04673,-0.18673,-0.00324,-0.0073,0.2076,-0.0024,-0.0220,-0.0073,-0.0073,-0.0220,-0.4308,-1.1282,-0.0342,2.1465,-0.0757,-0.1001,-0.0073,1,1,1,1,1,1,1
6.9058,sweep,2,+up,0.08488,1.06756,0.02766,1.56996,-0.04673,-0.18673,-0.00324,-0.0073,0.2076,-0.0024,-0.0220,-0.0073,-0.0073,-0.0220,-0.4308,-1.1282,-0.0342,2.1465,-0.0757,-0.1001,-0.0073,1,1,1,1,1,1,1
6.9459,sweep,2,+up,0.08488,1.09159,0.02766,1.56996,-0.04635,-0.18635,-0.00324,-0.0024,0.1929,0.0024,-0.0073,-0.0220,-0.0073,-0.0220,-0.4581,-1.1829,-0.0205,2.1856,-0.0806,-0.0952,-0.0024,1,1,1,1,1,1,1
6.9856,sweep,2,+up,0.08488,1.09159,0.02766,1.56996,-0.04635,-0.18635,-0.00324,-0.0024,0.1929,0.0024,-0.0073,-0.0220,-0.0073,-0.0220,-0.4581,-1.1829,-0.0205,2.1856,-0.0806,-0.0952,-0.0024,1,1,1,1,1,1,1
7.0259,sweep,2,+up,0.08488,1.10800,0.02766,1.56996,-0.04673,-0.18635,-0.00324,-0.0024,0.2271,-0.0024,0.0073,-0.0220,0.0073,-0.0073,-0.4855,-1.4838,-0.0068,2.1954,-0.0757,-0.0904,-0.0073,1,1,1,1,1,1,1
7.0658,sweep,2,+up,0.08488,1.10800,0.02766,1.56996,-0.04673,-0.18635,-0.00324,-0.0024,0.2271,-0.0024,0.0073,-0.0220,0.0073,-0.0073,-0.4855,-1.4838,-0.0068,2.1954,-0.0757,-0.0904,-0.0073,1,1,1,1,1,1,1
7.1057,sweep,2,+up,0.08488,1.10800,0.02766,1.56996,-0.04673,-0.18635,-0.00324,-0.0024,0.2271,-0.0024,0.0073,-0.0220,0.0073,-0.0073,-0.4855,-1.4838,-0.0068,2.1954,-0.0757,-0.0904,-0.0073,1,1,1,1,1,1,1
7.1458,sweep,2,+up,0.08488,1.13165,0.02766,1.56996,-0.04635,-0.18673,-0.00324,-0.0024,0.1978,-0.0024,0.0073,-0.0073,0.0073,0.0073,-0.4581,-1.4291,-0.0068,2.2295,-0.0757,-0.0952,-0.0073,1,1,1,1,1,1,1
7.1862,sweep,2,+up,0.08488,1.13165,0.02766,1.56996,-0.04635,-0.18673,-0.00324,-0.0024,0.1978,-0.0024,0.0073,-0.0073,0.0073,0.0073,-0.4581,-1.4291,-0.0068,2.2295,-0.0757,-0.0952,-0.0073,1,1,1,1,1,1,1
7.2257,sweep,2,+up,0.08488,1.14805,0.02766,1.56996,-0.04635,-0.18635,-0.00362,-0.0024,0.2173,-0.0024,0.0073,-0.0073,-0.0073,-0.0220,-0.4444,-1.7983,0.0068,2.2491,-0.0757,-0.0952,-0.0122,1,1,1,1,1,1,1
7.2659,sweep,2,+up,0.08488,1.14805,0.02766,1.56996,-0.04635,-0.18635,-0.00362,-0.0024,0.2173,-0.0024,0.0073,-0.0073,-0.0073,-0.0220,-0.4444,-1.7983,0.0068,2.2491,-0.0757,-0.0952,-0.0122,1,1,1,1,1,1,1
7.3059,sweep,2,+up,0.08488,1.14805,0.02766,1.56996,-0.04635,-0.18635,-0.00362,-0.0024,0.2173,-0.0024,0.0073,-0.0073,-0.0073,-0.0220,-0.4444,-1.7983,0.0068,2.2491,-0.0757,-0.0952,-0.0122,1,1,1,1,1,1,1
7.3458,sweep,2,+up,0.08488,1.17208,0.02766,1.56996,-0.04635,-0.18635,-0.00324,-0.0073,0.2076,0.0024,0.0073,-0.0073,-0.0073,-0.0073,-0.4171,-1.6889,0.0205,2.2784,-0.0757,-0.0904,-0.0122,1,1,1,1,1,1,1
7.3857,sweep,2,+up,0.08488,1.17208,0.02766,1.56996,-0.04635,-0.18635,-0.00324,-0.0073,0.2076,0.0024,0.0073,-0.0073,-0.0073,-0.0073,-0.4171,-1.6889,0.0205,2.2784,-0.0757,-0.0904,-0.0122,1,1,1,1,1,1,1
7.4255,sweep,2,+up,0.08488,1.18811,0.02766,1.56996,-0.04635,-0.18635,-0.00324,-0.0073,0.1929,-0.0024,-0.0073,0.0073,-0.0073,-0.0073,-0.4171,-1.7846,0.0068,2.2930,-0.0757,-0.0952,-0.0122,1,1,1,1,1,1,1
7.4655,sweep,2,+up,0.08488,1.18811,0.02766,1.56996,-0.04635,-0.18635,-0.00324,-0.0073,0.1929,-0.0024,-0.0073,0.0073,-0.0073,-0.0073,-0.4171,-1.7846,0.0068,2.2930,-0.0757,-0.0952,-0.0122,1,1,1,1,1,1,1
7.5056,sweep,2,+up,0.08488,1.18811,0.02766,1.56996,-0.04635,-0.18635,-0.00324,-0.0073,0.1929,-0.0024,-0.0073,0.0073,-0.0073,-0.0073,-0.4171,-1.7846,0.0068,2.2930,-0.0757,-0.0952,-0.0122,1,1,1,1,1,1,1
7.5457,sweep,2,+up,0.08488,1.21214,0.02766,1.57034,-0.04635,-0.18673,-0.00324,-0.0073,0.2125,-0.0024,-0.0073,-0.0073,-0.0073,-0.0073,-0.4308,-1.9350,0.0068,2.3126,-0.0757,-0.0952,-0.0073,1,1,1,1,1,1,1
7.5856,sweep,2,+up,0.08488,1.21214,0.02766,1.57034,-0.04635,-0.18673,-0.00324,-0.0073,0.2125,-0.0024,-0.0073,-0.0073,-0.0073,-0.0073,-0.4308,-1.9350,0.0068,2.3126,-0.0757,-0.0952,-0.0073,1,1,1,1,1,1,1
7.6260,sweep,2,+up,0.08488,1.22816,0.02766,1.57034,-0.04673,-0.18673,-0.00324,0.0024,0.2027,-0.0024,0.0073,-0.0220,-0.0220,-0.0073,-0.4444,-2.0034,0.0205,2.3223,-0.0806,-0.0952,-0.0073,1,1,1,1,1,1,1
7.6658,sweep,2,+up,0.08488,1.22816,0.02766,1.57034,-0.04673,-0.18673,-0.00324,0.0024,0.2027,-0.0024,0.0073,-0.0220,-0.0220,-0.0073,-0.4444,-2.0034,0.0205,2.3223,-0.0806,-0.0952,-0.0073,1,1,1,1,1,1,1
7.7055,sweep,2,+up,0.08488,1.22816,0.02766,1.57034,-0.04673,-0.18673,-0.00324,0.0024,0.2027,-0.0024,0.0073,-0.0220,-0.0220,-0.0073,-0.4444,-2.0034,0.0205,2.3223,-0.0806,-0.0952,-0.0073,1,1,1,1,1,1,1
7.7457,sweep,2,+up,0.08488,1.25219,0.02766,1.57034,-0.04635,-0.18635,-0.00324,-0.0024,0.2173,-0.0024,0.0073,-0.0073,-0.0073,-0.0073,-0.4581,-2.0855,0.0205,2.3272,-0.0855,-0.0952,-0.0122,1,1,1,1,1,1,1
7.7864,sweep,2,+up,0.08488,1.25219,0.02766,1.57034,-0.04635,-0.18635,-0.00324,-0.0024,0.2173,-0.0024,0.0073,-0.0073,-0.0073,-0.0073,-0.4581,-2.0855,0.0205,2.3272,-0.0855,-0.0952,-0.0122,1,1,1,1,1,1,1
7.8255,sweep,2,+up,0.08488,1.26822,0.02766,1.57034,-0.04673,-0.18673,-0.00324,-0.0073,0.1734,-0.0073,-0.0366,-0.0220,-0.0073,-0.0073,-0.4581,-1.8940,0.0068,2.3370,-0.0855,-0.0952,-0.0122,1,1,1,1,1,1,1
7.8656,sweep,2,+up,0.08488,1.26822,0.02766,1.57034,-0.04673,-0.18673,-0.00324,-0.0073,0.1734,-0.0073,-0.0366,-0.0220,-0.0073,-0.0073,-0.4581,-1.8940,0.0068,2.3370,-0.0855,-0.0952,-0.0122,1,1,1,1,1,1,1
7.9058,sweep,2,+up,0.08488,1.26822,0.02766,1.57034,-0.04673,-0.18673,-0.00324,-0.0073,0.1734,-0.0073,-0.0366,-0.0220,-0.0073,-0.0073,-0.4581,-1.8940,0.0068,2.3370,-0.0855,-0.0952,-0.0122,1,1,1,1,1,1,1
7.9457,sweep,2,+up,0.08488,1.29263,0.02766,1.57034,-0.04673,-0.18673,-0.00362,-0.0073,0.1978,-0.0073,-0.0220,-0.0073,-0.0073,-0.0220,-0.4581,-2.3179,0.0205,2.3272,-0.0855,-0.0952,-0.0073,1,1,1,1,1,1,1
7.9856,sweep,2,+up,0.08488,1.29263,0.02766,1.57034,-0.04673,-0.18673,-0.00362,-0.0073,0.1978,-0.0073,-0.0220,-0.0073,-0.0073,-0.0220,-0.4581,-2.3179,0.0205,2.3272,-0.0855,-0.0952,-0.0073,1,1,1,1,1,1,1
8.0259,sweep,2,+up,0.08488,1.30827,0.02766,1.57034,-0.04673,-0.18673,-0.00324,-0.0024,0.1929,0.0024,0.0073,-0.0220,-0.0073,-0.0073,-0.4855,-2.2085,0.0205,2.3419,-0.0855,-0.0952,-0.0073,1,1,1,1,1,1,1
8.0655,sweep,2,+up,0.08488,1.30827,0.02766,1.57034,-0.04673,-0.18673,-0.00324,-0.0024,0.1929,0.0024,0.0073,-0.0220,-0.0073,-0.0073,-0.4855,-2.2085,0.0205,2.3419,-0.0855,-0.0952,-0.0073,1,1,1,1,1,1,1
8.1058,sweep,2,+up,0.08488,1.30827,0.02766,1.57034,-0.04673,-0.18673,-0.00324,-0.0024,0.1929,0.0024,0.0073,-0.0220,-0.0073,-0.0073,-0.4855,-2.2085,0.0205,2.3419,-0.0855,-0.0952,-0.0073,1,1,1,1,1,1,1
8.1455,sweep,2,+up,0.08488,1.33268,0.02766,1.57034,-0.04673,-0.18635,-0.00362,-0.0024,0.1880,-0.0024,-0.0073,-0.0073,0.0073,-0.0073,-0.4581,-2.4137,0.0479,2.3370,-0.0904,-0.0904,-0.0122,1,1,1,1,1,1,1
8.1860,sweep,2,+up,0.08488,1.33268,0.02766,1.57034,-0.04673,-0.18635,-0.00362,-0.0024,0.1880,-0.0024,-0.0073,-0.0073,0.0073,-0.0073,-0.4581,-2.4137,0.0479,2.3370,-0.0904,-0.0904,-0.0122,1,1,1,1,1,1,1
8.2260,sweep,2,+up,0.08488,1.34871,0.02766,1.57034,-0.04673,-0.18635,-0.00324,0.0024,0.1978,-0.0024,0.0073,-0.0073,-0.0073,-0.0220,-0.4718,-2.5094,0.0615,2.3565,-0.0806,-0.0855,-0.0073,1,1,1,1,1,1,1
8.2658,sweep,2,+up,0.08488,1.34871,0.02766,1.57034,-0.04673,-0.18635,-0.00324,0.0024,0.1978,-0.0024,0.0073,-0.0073,-0.0073,-0.0220,-0.4718,-2.5094,0.0615,2.3565,-0.0806,-0.0855,-0.0073,1,1,1,1,1,1,1
8.3061,sweep,2,+up,0.08488,1.34871,0.02766,1.57034,-0.04673,-0.18635,-0.00324,0.0024,0.1978,-0.0024,0.0073,-0.0073,-0.0073,-0.0220,-0.4718,-2.5094,0.0615,2.3565,-0.0806,-0.0855,-0.0073,1,1,1,1,1,1,1
8.3459,sweep,2,+up,0.08488,1.37274,0.02766,1.57034,-0.04673,-0.18635,-0.00362,-0.0024,0.1832,0.0024,-0.0073,-0.0073,-0.0073,-0.0220,-0.4855,-2.6325,0.0889,2.3712,-0.0806,-0.0952,-0.0122,1,1,1,1,1,1,1
8.3861,sweep,2,+up,0.08488,1.37274,0.02766,1.57034,-0.04673,-0.18635,-0.00362,-0.0024,0.1832,0.0024,-0.0073,-0.0073,-0.0073,-0.0220,-0.4855,-2.6325,0.0889,2.3712,-0.0806,-0.0952,-0.0122,1,1,1,1,1,1,1
8.4256,sweep,2,+up,0.08488,1.38876,0.02766,1.57034,-0.04635,-0.18635,-0.00324,-0.0024,0.2076,-0.0024,0.0073,0.0073,0.0073,-0.0220,-0.4991,-2.7419,0.0615,2.3712,-0.0757,-0.0904,-0.0122,1,1,1,1,1,1,1
8.4660,sweep,2,+up,0.08488,1.38876,0.02766,1.57034,-0.04635,-0.18635,-0.00324,-0.0024,0.2076,-0.0024,0.0073,0.0073,0.0073,-0.0220,-0.4991,-2.7419,0.0615,2.3712,-0.0757,-0.0904,-0.0122,1,1,1,1,1,1,1
8.5059,sweep,2,+up,0.08488,1.38876,0.02766,1.57034,-0.04635,-0.18635,-0.00324,-0.0024,0.2076,-0.0024,0.0073,0.0073,0.0073,-0.0220,-0.4991,-2.7419,0.0615,2.3712,-0.0757,-0.0904,-0.0122,1,1,1,1,1,1,1
8.5460,sweep,2,+up,0.08488,1.41280,0.02766,1.57034,-0.04673,-0.18673,-0.00362,-0.0073,0.1832,0.0024,-0.0220,-0.0073,-0.0073,-0.0073,-0.4991,-2.6051,0.0752,2.3956,-0.0757,-0.0904,-0.0073,1,1,1,1,1,1,1
8.5863,sweep,2,+up,0.08488,1.41280,0.02766,1.57034,-0.04673,-0.18673,-0.00362,-0.0073,0.1832,0.0024,-0.0220,-0.0073,-0.0073,-0.0073,-0.4991,-2.6051,0.0752,2.3956,-0.0757,-0.0904,-0.0073,1,1,1,1,1,1,1
8.6258,sweep,2,+up,0.08488,1.42920,0.02766,1.57034,-0.04673,-0.18635,-0.00324,-0.0024,0.2125,0.0024,0.0073,-0.0073,0.0073,-0.0073,-0.4855,-3.0838,0.0615,2.4005,-0.0806,-0.0904,-0.0073,1,1,1,1,1,1,1
8.6656,sweep,2,+up,0.08488,1.42920,0.02766,1.57034,-0.04673,-0.18635,-0.00324,-0.0024,0.2125,0.0024,0.0073,-0.0073,0.0073,-0.0073,-0.4855,-3.0838,0.0615,2.4005,-0.0806,-0.0904,-0.0073,1,1,1,1,1,1,1
8.7055,sweep,2,+up,0.08488,1.42920,0.02766,1.57034,-0.04673,-0.18635,-0.00324,-0.0024,0.2125,0.0024,0.0073,-0.0073,0.0073,-0.0073,-0.4855,-3.0838,0.0615,2.4005,-0.0806,-0.0904,-0.0073,1,1,1,1,1,1,1
8.7456,sweep,2,+up,0.08488,1.45285,0.02766,1.57034,-0.04635,-0.18673,-0.00324,0.0024,0.2027,-0.0073,-0.0073,-0.0073,-0.0073,-0.0073,-0.4991,-2.9333,0.0752,2.4249,-0.0708,-0.0904,-0.0122,1,1,1,1,1,1,1
8.7855,sweep,2,+up,0.08488,1.45285,0.02766,1.57034,-0.04635,-0.18673,-0.00324,0.0024,0.2027,-0.0073,-0.0073,-0.0073,-0.0073,-0.0073,-0.4991,-2.9333,0.0752,2.4249,-0.0708,-0.0904,-0.0122,1,1,1,1,1,1,1
8.8257,sweep,2,+up,0.08488,1.46925,0.02766,1.57034,-0.04673,-0.18673,-0.00324,-0.0024,0.1978,-0.0024,-0.0073,-0.0220,-0.0073,-0.0073,-0.4718,-3.0974,0.0615,2.4298,-0.0757,-0.0855,-0.0122,1,1,1,1,1,1,1
8.8659,sweep,2,+up,0.08488,1.46925,0.02766,1.57034,-0.04673,-0.18673,-0.00324,-0.0024,0.1978,-0.0024,-0.0073,-0.0220,-0.0073,-0.0073,-0.4718,-3.0974,0.0615,2.4298,-0.0757,-0.0855,-0.0122,1,1,1,1,1,1,1
8.9059,sweep,2,+up,0.08488,1.46925,0.02766,1.57034,-0.04673,-0.18673,-0.00324,-0.0024,0.1978,-0.0024,-0.0073,-0.0220,-0.0073,-0.0073,-0.4718,-3.0974,0.0615,2.4298,-0.0757,-0.0855,-0.0122,1,1,1,1,1,1,1
8.9457,sweep,2,+up,0.08488,1.49329,0.02766,1.57034,-0.04635,-0.18673,-0.00324,-0.0024,0.2027,-0.0073,-0.0073,-0.0073,-0.0073,-0.0073,-0.4444,-3.1658,0.0615,2.4396,-0.0708,-0.0855,-0.0122,1,1,1,1,1,1,1
8.9855,sweep,2,+up,0.08488,1.49329,0.02766,1.57034,-0.04635,-0.18673,-0.00324,-0.0024,0.2027,-0.0073,-0.0073,-0.0073,-0.0073,-0.0073,-0.4444,-3.1658,0.0615,2.4396,-0.0708,-0.0855,-0.0122,1,1,1,1,1,1,1
9.0256,sweep,2,+up,0.08488,1.50931,0.02766,1.57073,-0.04673,-0.18673,-0.00362,-0.0024,0.1783,-0.0024,0.0073,-0.0220,-0.0220,-0.0073,-0.4444,-3.2068,0.0752,2.4347,-0.0757,-0.0806,-0.0122,1,1,1,1,1,1,1
9.0660,sweep,2,+up,0.08488,1.50931,0.02766,1.57073,-0.04673,-0.18673,-0.00362,-0.0024,0.1783,-0.0024,0.0073,-0.0220,-0.0220,-0.0073,-0.4444,-3.2068,0.0752,2.4347,-0.0757,-0.0806,-0.0122,1,1,1,1,1,1,1
9.1058,sweep,2,+up,0.08488,1.50931,0.02766,1.57073,-0.04673,-0.18673,-0.00362,-0.0024,0.1783,-0.0024,0.0073,-0.0220,-0.0220,-0.0073,-0.4444,-3.2068,0.0752,2.4347,-0.0757,-0.0806,-0.0122,1,1,1,1,1,1,1
9.1460,sweep,2,+up,0.08488,1.53334,0.02766,1.57073,-0.04635,-0.18673,-0.00362,-0.0073,0.2222,-0.0024,-0.0073,-0.0073,-0.0073,-0.0073,-0.4308,-3.4667,0.0615,2.4151,-0.0757,-0.0855,-0.0073,1,1,1,1,1,1,1
9.1860,sweep,2,+up,0.08488,1.53334,0.02766,1.57073,-0.04635,-0.18673,-0.00362,-0.0073,0.2222,-0.0024,-0.0073,-0.0073,-0.0073,-0.0073,-0.4308,-3.4667,0.0615,2.4151,-0.0757,-0.0855,-0.0073,1,1,1,1,1,1,1
9.2260,sweep,2,+up,0.08488,1.54936,0.02766,1.57073,-0.04673,-0.18635,-0.00324,-0.0024,0.1880,0.0024,-0.0073,-0.0073,0.0073,-0.0073,-0.4444,-3.1658,0.0752,2.4249,-0.0757,-0.0855,-0.0024,1,1,1,1,1,1,1
9.2661,sweep,2,+up,0.08488,1.54936,0.02766,1.57073,-0.04673,-0.18635,-0.00324,-0.0024,0.1880,0.0024,-0.0073,-0.0073,0.0073,-0.0073,-0.4444,-3.1658,0.0752,2.4249,-0.0757,-0.0855,-0.0024,1,1,1,1,1,1,1
9.3056,sweep,2,+up,0.08488,1.54936,0.02766,1.57073,-0.04673,-0.18635,-0.00324,-0.0024,0.1880,0.0024,-0.0073,-0.0073,0.0073,-0.0073,-0.4444,-3.1658,0.0752,2.4249,-0.0757,-0.0855,-0.0024,1,1,1,1,1,1,1
9.3459,sweep,2,+up,0.08488,1.57378,0.02766,1.57034,-0.04635,-0.18673,-0.00324,-0.0024,0.2027,-0.0024,-0.0220,0.0073,-0.0073,0.0073,-0.4308,-3.7265,0.0615,2.4151,-0.0757,-0.0806,-0.0073,1,1,1,1,1,1,1
9.3857,sweep,2,+up,0.08488,1.57378,0.02766,1.57034,-0.04635,-0.18673,-0.00324,-0.0024,0.2027,-0.0024,-0.0220,0.0073,-0.0073,0.0073,-0.4308,-3.7265,0.0615,2.4151,-0.0757,-0.0806,-0.0073,1,1,1,1,1,1,1
9.4255,sweep,2,+up,0.08488,1.58942,0.02766,1.57034,-0.04673,-0.18673,-0.00362,-0.0024,0.1783,-0.0024,-0.0220,-0.0220,0.0073,-0.0220,-0.4308,-3.3299,0.0615,2.4200,-0.0708,-0.0806,-0.0073,1,1,1,1,1,1,1
9.4656,sweep,2,+up,0.08488,1.58942,0.02766,1.57034,-0.04673,-0.18673,-0.00362,-0.0024,0.1783,-0.0024,-0.0220,-0.0220,0.0073,-0.0220,-0.4308,-3.3299,0.0615,2.4200,-0.0708,-0.0806,-0.0073,1,1,1,1,1,1,1
9.5058,sweep,2,+up,0.08488,1.58942,0.02766,1.57034,-0.04673,-0.18673,-0.00362,-0.0024,0.1783,-0.0024,-0.0220,-0.0220,0.0073,-0.0220,-0.4308,-3.3299,0.0615,2.4200,-0.0708,-0.0806,-0.0073,1,1,1,1,1,1,1
9.5455,sweep,2,+up,0.08488,1.61345,0.02766,1.57073,-0.04673,-0.18673,-0.00362,-0.0024,0.1929,-0.0024,-0.0073,-0.0073,-0.0073,-0.0220,-0.4171,-3.6581,0.0615,2.4200,-0.0757,-0.0806,-0.0073,1,1,1,1,1,1,1
9.5855,sweep,2,+up,0.08488,1.61345,0.02766,1.57073,-0.04673,-0.18673,-0.00362,-0.0024,0.1929,-0.0024,-0.0073,-0.0073,-0.0073,-0.0220,-0.4171,-3.6581,0.0615,2.4200,-0.0757,-0.0806,-0.0073,1,1,1,1,1,1,1
9.6255,sweep,2,+up,0.08488,1.62947,0.02766,1.57034,-0.04673,-0.18673,-0.00362,-0.0024,0.2076,-0.0073,-0.0073,-0.0220,0.0073,-0.0220,-0.3761,-3.3436,0.0889,2.4347,-0.0757,-0.0855,-0.0024,1,1,1,1,1,1,1
9.6655,sweep,2,+up,0.08488,1.62947,0.02766,1.57034,-0.04673,-0.18673,-0.00362,-0.0024,0.2076,-0.0073,-0.0073,-0.0220,0.0073,-0.0220,-0.3761,-3.3436,0.0889,2.4347,-0.0757,-0.0855,-0.0024,1,1,1,1,1,1,1
9.7056,sweep,2,+up,0.08488,1.62947,0.02766,1.57034,-0.04673,-0.18673,-0.00362,-0.0024,0.2076,-0.0073,-0.0073,-0.0220,0.0073,-0.0220,-0.3761,-3.3436,0.0889,2.4347,-0.0757,-0.0855,-0.0024,1,1,1,1,1,1,1
9.7457,sweep,2,+up,0.08488,1.65389,0.02766,1.57073,-0.04673,-0.18673,-0.00362,-0.0024,0.1880,-0.0024,-0.0073,-0.0073,-0.0220,-0.0073,-0.3624,-3.8496,0.0752,2.4005,-0.0757,-0.0806,-0.0073,1,1,1,1,1,1,1
9.7857,sweep,2,+up,0.08488,1.65389,0.02766,1.57073,-0.04673,-0.18673,-0.00362,-0.0024,0.1880,-0.0024,-0.0073,-0.0073,-0.0220,-0.0073,-0.3624,-3.8496,0.0752,2.4005,-0.0757,-0.0806,-0.0073,1,1,1,1,1,1,1
9.8258,sweep,2,+up,0.08488,1.66953,0.02766,1.57111,-0.04673,-0.18673,-0.00324,-0.0073,0.2125,-0.0024,-0.0073,-0.0073,0.0073,-0.0073,-0.3761,-3.8359,0.0889,2.3956,-0.0806,-0.0806,-0.0073,1,1,1,1,1,1,1
9.8658,sweep,2,+up,0.08488,1.66953,0.02766,1.57111,-0.04673,-0.18673,-0.00324,-0.0073,0.2125,-0.0024,-0.0073,-0.0073,0.0073,-0.0073,-0.3761,-3.8359,0.0889,2.3956,-0.0806,-0.0806,-0.0073,1,1,1,1,1,1,1
9.9058,sweep,2,+up,0.08488,1.66953,0.02766,1.57111,-0.04673,-0.18673,-0.00324,-0.0073,0.2125,-0.0024,-0.0073,-0.0073,0.0073,-0.0073,-0.3761,-3.8359,0.0889,2.3956,-0.0806,-0.0806,-0.0073,1,1,1,1,1,1,1
9.9456,sweep,2,+up,0.08488,1.69356,0.02766,1.57073,-0.04673,-0.18673,-0.00362,-0.0024,0.1783,-0.0024,-0.0073,-0.0073,-0.0073,-0.0073,-0.3487,-3.6855,0.1026,2.3907,-0.0855,-0.0757,-0.0073,1,1,1,1,1,1,1
9.9856,sweep,2,+up,0.08488,1.69356,0.02766,1.57073,-0.04673,-0.18673,-0.00362,-0.0024,0.1783,-0.0024,-0.0073,-0.0073,-0.0073,-0.0073,-0.3487,-3.6855,0.1026,2.3907,-0.0855,-0.0757,-0.0073,1,1,1,1,1,1,1
10.0258,sweep,2,+up,0.08488,1.70996,0.02766,1.57111,-0.04673,-0.18673,-0.00324,-0.0024,0.2125,-0.0024,0.0073,-0.0073,-0.0073,-0.0073,-0.3624,-4.0000,0.0889,2.3761,-0.0904,-0.0757,-0.0073,1,1,1,1,1,1,1
10.0659,sweep,2,+up,0.08488,1.70996,0.02766,1.57111,-0.04673,-0.18673,-0.00324,-0.0024,0.2125,-0.0024,0.0073,-0.0073,-0.0073,-0.0073,-0.3624,-4.0000,0.0889,2.3761,-0.0904,-0.0757,-0.0073,1,1,1,1,1,1,1
10.1058,sweep,2,+up,0.08488,1.70996,0.02766,1.57111,-0.04673,-0.18673,-0.00324,-0.0024,0.2125,-0.0024,0.0073,-0.0073,-0.0073,-0.0073,-0.3624,-4.0000,0.0889,2.3761,-0.0904,-0.0757,-0.0073,1,1,1,1,1,1,1
10.1458,sweep,2,+up,0.08488,1.73362,0.02766,1.57073,-0.04673,-0.18673,-0.00324,-0.0024,0.1880,-0.0024,-0.0220,-0.0073,-0.0073,-0.0073,-0.3487,-3.9453,0.0889,2.3614,-0.0904,-0.0757,-0.0073,1,1,1,1,1,1,1
10.1859,sweep,2,+up,0.08488,1.73362,0.02766,1.57073,-0.04673,-0.18673,-0.00324,-0.0024,0.1880,-0.0024,-0.0220,-0.0073,-0.0073,-0.0073,-0.3487,-3.9453,0.0889,2.3614,-0.0904,-0.0757,-0.0073,1,1,1,1,1,1,1
10.2256,sweep,2,+up,0.08488,1.75002,0.02766,1.57073,-0.04673,-0.18673,-0.00324,-0.0073,0.2125,-0.0024,0.0073,-0.0073,-0.0073,-0.0220,-0.3487,-4.3692,0.1026,2.3614,-0.0904,-0.0757,-0.0122,1,1,1,1,1,1,1
10.2658,sweep,2,+up,0.08488,1.75002,0.02766,1.57073,-0.04673,-0.18673,-0.00324,-0.0073,0.2125,-0.0024,0.0073,-0.0073,-0.0073,-0.0220,-0.3487,-4.3692,0.1026,2.3614,-0.0904,-0.0757,-0.0122,1,1,1,1,1,1,1
10.3058,sweep,2,+up,0.08488,1.75002,0.02766,1.57073,-0.04673,-0.18673,-0.00324,-0.0073,0.2125,-0.0024,0.0073,-0.0073,-0.0073,-0.0220,-0.3487,-4.3692,0.1026,2.3614,-0.0904,-0.0757,-0.0122,1,1,1,1,1,1,1
10.3458,sweep,2,+up,0.08488,1.77367,0.02766,1.57073,-0.04673,-0.18673,-0.00324,-0.0024,0.1880,-0.0024,0.0073,-0.0073,0.0073,0.0073,-0.3624,-3.9043,0.1026,2.3516,-0.0904,-0.0757,-0.0122,1,1,1,1,1,1,1
10.3857,sweep,2,+up,0.08488,1.77367,0.02766,1.57073,-0.04673,-0.18673,-0.00324,-0.0024,0.1880,-0.0024,0.0073,-0.0073,0.0073,0.0073,-0.3624,-3.9043,0.1026,2.3516,-0.0904,-0.0757,-0.0122,1,1,1,1,1,1,1
10.4256,sweep,2,+up,0.08488,1.79007,0.02766,1.57073,-0.04673,-0.18673,-0.00362,0.0024,0.1832,-0.0024,-0.0220,-0.0220,-0.0220,-0.0220,-0.3624,-4.2872,0.1162,2.3272,-0.0904,-0.0708,-0.0122,1,1,1,1,1,1,1
10.4659,sweep,2,+up,0.08488,1.79007,0.02766,1.57073,-0.04673,-0.18673,-0.00362,0.0024,0.1832,-0.0024,-0.0220,-0.0220,-0.0220,-0.0220,-0.3624,-4.2872,0.1162,2.3272,-0.0904,-0.0708,-0.0122,1,1,1,1,1,1,1
10.5057,sweep,2,+up,0.08488,1.79007,0.02766,1.57073,-0.04673,-0.18673,-0.00362,0.0024,0.1832,-0.0024,-0.0220,-0.0220,-0.0220,-0.0220,-0.3624,-4.2872,0.1162,2.3272,-0.0904,-0.0708,-0.0122,1,1,1,1,1,1,1
10.5459,sweep,2,+up,0.08488,1.81411,0.02766,1.57073,-0.04673,-0.18673,-0.00324,-0.0073,0.1978,-0.0024,-0.0073,-0.0073,-0.0073,-0.0073,-0.4034,-4.2325,0.1162,2.3272,-0.0806,-0.0659,-0.0122,1,1,1,1,1,1,1
10.5862,sweep,2,+up,0.08488,1.81411,0.02766,1.57073,-0.04673,-0.18673,-0.00324,-0.0073,0.1978,-0.0024,-0.0073,-0.0073,-0.0073,-0.0073,-0.4034,-4.2325,0.1162,2.3272,-0.0806,-0.0659,-0.0122,1,1,1,1,1,1,1
10.6258,sweep,2,+up,0.08488,1.83013,0.02766,1.57111,-0.04673,-0.18673,-0.00362,-0.0024,0.1880,-0.0024,-0.0073,-0.0220,-0.0073,-0.0220,-0.3761,-4.2051,0.1299,2.3077,-0.0806,-0.0611,-0.0171,1,1,1,1,1,1,1
10.6656,sweep,2,+up,0.08488,1.83013,0.02766,1.57111,-0.04673,-0.18673,-0.00362,-0.0024,0.1880,-0.0024,-0.0073,-0.0220,-0.0073,-0.0220,-0.3761,-4.2051,0.1299,2.3077,-0.0806,-0.0611,-0.0171,1,1,1,1,1,1,1
10.7059,sweep,2,+up,0.08488,1.83013,0.02766,1.57111,-0.04673,-0.18673,-0.00362,-0.0024,0.1880,-0.0024,-0.0073,-0.0220,-0.0073,-0.0220,-0.3761,-4.2051,0.1299,2.3077,-0.0806,-0.0611,-0.0171,1,1,1,1,1,1,1
10.7456,sweep,2,+up,0.08488,1.85416,0.02766,1.57111,-0.04673,-0.18673,-0.00362,-0.0024,0.2222,-0.0024,0.0073,-0.0073,-0.0073,-0.0073,-0.4171,-4.2188,0.1299,2.3028,-0.0757,-0.0611,-0.0122,1,1,1,1,1,1,1
10.7859,sweep,2,+up,0.08488,1.85416,0.02766,1.57111,-0.04673,-0.18673,-0.00362,-0.0024,0.2222,-0.0024,0.0073,-0.0073,-0.0073,-0.0073,-0.4171,-4.2188,0.1299,2.3028,-0.0757,-0.0611,-0.0122,1,1,1,1,1,1,1
10.8256,sweep,2,+up,0.08488,1.86942,0.02766,1.57073,-0.04673,-0.18673,-0.00324,-0.0024,0.1538,-0.0024,-0.0073,-0.0073,-0.0073,0.0073,-0.3897,-4.5607,0.1162,2.3028,-0.0806,-0.0513,-0.0073,1,1,1,1,1,1,1
10.8656,sweep,2,+up,0.08488,1.86942,0.02766,1.57073,-0.04673,-0.18673,-0.00324,-0.0024,0.1538,-0.0024,-0.0073,-0.0073,-0.0073,0.0073,-0.3897,-4.5607,0.1162,2.3028,-0.0806,-0.0513,-0.0073,1,1,1,1,1,1,1
10.9056,sweep,2,+up,0.08488,1.86942,0.02766,1.57073,-0.04673,-0.18673,-0.00324,-0.0024,0.1538,-0.0024,-0.0073,-0.0073,-0.0073,0.0073,-0.3897,-4.5607,0.1162,2.3028,-0.0806,-0.0513,-0.0073,1,1,1,1,1,1,1
10.9459,sweep,2,+up,0.08488,1.88888,0.02766,1.57073,-0.04673,-0.18673,-0.00362,-0.0024,0.1343,-0.0024,-0.0220,-0.0366,0.0073,-0.0220,-0.3897,-4.3692,0.1026,2.2833,-0.0806,-0.0513,-0.0073,1,1,1,1,1,1,1
10.9858,sweep,2,+up,0.08488,1.88888,0.02766,1.57073,-0.04673,-0.18673,-0.00362,-0.0024,0.1343,-0.0024,-0.0220,-0.0366,0.0073,-0.0220,-0.3897,-4.3692,0.1026,2.2833,-0.0806,-0.0513,-0.0073,1,1,1,1,1,1,1
11.0259,sweep,2,+up,0.08488,1.90032,0.02766,1.57111,-0.04673,-0.18673,-0.00324,-0.0073,0.1343,0.0024,-0.0366,-0.0073,-0.0220,-0.0220,-0.4034,-4.5470,0.1026,2.2589,-0.0757,-0.0464,-0.0073,1,1,1,1,1,1,1
11.0662,sweep,2,+up,0.08488,1.90032,0.02766,1.57111,-0.04673,-0.18673,-0.00324,-0.0073,0.1343,0.0024,-0.0366,-0.0073,-0.0220,-0.0220,-0.4034,-4.5470,0.1026,2.2589,-0.0757,-0.0464,-0.0073,1,1,1,1,1,1,1
11.1061,sweep,2,+up,0.08488,1.90032,0.02766,1.57111,-0.04673,-0.18673,-0.00324,-0.0073,0.1343,0.0024,-0.0366,-0.0073,-0.0220,-0.0220,-0.4034,-4.5470,0.1026,2.2589,-0.0757,-0.0464,-0.0073,1,1,1,1,1,1,1
11.1461,sweep,2,+up,0.08488,1.91520,0.02766,1.57111,-0.04635,-0.18673,-0.00324,-0.0024,0.1148,-0.0024,-0.0220,-0.0073,-0.0073,-0.0073,-0.3897,-4.4103,0.1026,2.2442,-0.0757,-0.0464,-0.0073,1,1,1,1,1,1,1
11.1862,sweep,2,+up,0.08488,1.91520,0.02766,1.57111,-0.04635,-0.18673,-0.00324,-0.0024,0.1148,-0.0024,-0.0220,-0.0073,-0.0073,-0.0073,-0.3897,-4.4103,0.1026,2.2442,-0.0757,-0.0464,-0.0073,1,1,1,1,1,1,1
11.2261,sweep,2,+up,0.08488,1.92397,0.02766,1.57073,-0.04673,-0.18673,-0.00324,-0.0024,0.1099,-0.0073,-0.0073,0.0073,-0.0220,-0.0073,-0.3761,-4.3556,0.1026,2.2393,-0.0757,-0.0513,-0.0073,1,1,1,1,1,1,1
11.2660,sweep,2,+up,0.08488,1.92397,0.02766,1.57073,-0.04673,-0.18673,-0.00324,-0.0024,0.1099,-0.0073,-0.0073,0.0073,-0.0220,-0.0073,-0.3761,-4.3556,0.1026,2.2393,-0.0757,-0.0513,-0.0073,1,1,1,1,1,1,1
11.3059,sweep,2,+up,0.08488,1.92397,0.02766,1.57073,-0.04673,-0.18673,-0.00324,-0.0024,0.1099,-0.0073,-0.0073,0.0073,-0.0220,-0.0073,-0.3761,-4.3556,0.1026,2.2393,-0.0757,-0.0513,-0.0073,1,1,1,1,1,1,1
11.3462,sweep,2,+up,0.08488,1.93542,0.02766,1.57073,-0.04673,-0.18673,-0.00324,-0.0024,0.0659,-0.0073,-0.0073,-0.0073,0.0073,0.0073,-0.3897,-4.5060,0.1026,2.2198,-0.0757,-0.0415,-0.0073,1,1,1,1,1,1,1
11.3865,sweep,2,+up,0.08488,1.93542,0.02766,1.57073,-0.04673,-0.18673,-0.00324,-0.0024,0.0659,-0.0073,-0.0073,-0.0073,0.0073,0.0073,-0.3897,-4.5060,0.1026,2.2198,-0.0757,-0.0415,-0.0073,1,1,1,1,1,1,1
11.4262,sweep,2,+up,0.08488,1.94228,0.02766,1.57073,-0.04673,-0.18673,-0.00324,-0.0073,0.0904,-0.0024,-0.0073,-0.0073,-0.0073,-0.0073,-0.4171,-4.5880,0.1162,2.2051,-0.0708,-0.0366,-0.0024,1,1,1,1,1,1,1
11.4660,sweep,2,+up,0.08488,1.94228,0.02766,1.57073,-0.04673,-0.18673,-0.00324,-0.0073,0.0904,-0.0024,-0.0073,-0.0073,-0.0073,-0.0073,-0.4171,-4.5880,0.1162,2.2051,-0.0708,-0.0366,-0.0024,1,1,1,1,1,1,1
11.5061,sweep,2,+up,0.08488,1.94228,0.02766,1.57073,-0.04673,-0.18673,-0.00324,-0.0073,0.0904,-0.0024,-0.0073,-0.0073,-0.0073,-0.0073,-0.4171,-4.5880,0.1162,2.2051,-0.0708,-0.0366,-0.0024,1,1,1,1,1,1,1
11.5458,sweep,2,+up,0.08488,1.95029,0.02766,1.57530,-0.04635,-0.18673,-0.00324,-0.0024,0.0513,-0.0024,0.0366,-0.0073,0.0073,-0.0073,-0.4171,-3.9453,0.1573,1.7851,-0.0708,-0.0366,-0.0024,1,1,1,1,1,1,1
11.5857,sweep,2,+up,0.08488,1.95029,0.02766,1.57530,-0.04635,-0.18673,-0.00324,-0.0024,0.0513,-0.0024,0.0366,-0.0073,0.0073,-0.0073,-0.4171,-3.9453,0.1573,1.7851,-0.0708,-0.0366,-0.0024,1,1,1,1,1,1,1
11.6256,sweep,2,+up,0.08488,1.95487,0.02766,1.57721,-0.04673,-0.18673,-0.00324,-0.0024,0.0659,-0.0024,0.0366,-0.0220,0.0073,-0.0073,-0.4308,-3.2889,0.1299,1.4188,-0.0708,-0.0366,-0.0024,1,1,1,1,1,1,1
11.6657,sweep,2,+up,0.08488,1.95487,0.02766,1.57721,-0.04673,-0.18673,-0.00324,-0.0024,0.0659,-0.0024,0.0366,-0.0220,0.0073,-0.0073,-0.4308,-3.2889,0.1299,1.4188,-0.0708,-0.0366,-0.0024,1,1,1,1,1,1,1
11.7058,sweep,2,+up,0.08488,1.95487,0.02766,1.57721,-0.04673,-0.18673,-0.00324,-0.0024,0.0659,-0.0024,0.0366,-0.0220,0.0073,-0.0073,-0.4308,-3.2889,0.1299,1.4188,-0.0708,-0.0366,-0.0024,1,1,1,1,1,1,1
11.7456,sweep,2,+up,0.08488,1.96136,0.02766,1.58026,-0.04673,-0.18635,-0.00324,-0.0024,0.0366,-0.0024,0.0220,-0.0073,0.0073,-0.0220,-0.4171,-2.6462,0.1436,0.7399,-0.0757,-0.0317,-0.0073,1,1,1,1,1,1,1
11.7857,sweep,2,+up,0.08488,1.96136,0.02766,1.58026,-0.04673,-0.18635,-0.00324,-0.0024,0.0366,-0.0024,0.0220,-0.0073,0.0073,-0.0220,-0.4171,-2.6462,0.1436,0.7399,-0.0757,-0.0317,-0.0073,1,1,1,1,1,1,1
11.8257,sweep,2,+up,0.08488,1.96517,0.02766,1.58141,-0.04635,-0.18673,-0.00324,-0.0024,0.0317,-0.0024,-0.0073,-0.0073,0.0073,0.0073,-0.3897,-2.5094,0.1436,0.3248,-0.0757,-0.0366,-0.0073,1,1,1,1,1,1,1
11.8657,sweep,2,+up,0.08488,1.96517,0.02766,1.58141,-0.04635,-0.18673,-0.00324,-0.0024,0.0317,-0.0024,-0.0073,-0.0073,0.0073,0.0073,-0.3897,-2.5094,0.1436,0.3248,-0.0757,-0.0366,-0.0073,1,1,1,1,1,1,1
11.9056,sweep,2,+up,0.08488,1.96517,0.02766,1.58141,-0.04635,-0.18673,-0.00324,-0.0024,0.0317,-0.0024,-0.0073,-0.0073,0.0073,0.0073,-0.3897,-2.5094,0.1436,0.3248,-0.0757,-0.0366,-0.0073,1,1,1,1,1,1,1
11.9459,sweep,2,+up,0.08488,1.97013,0.02766,1.58103,-0.04635,-0.18673,-0.00362,-0.0024,0.0415,-0.0024,-0.0220,-0.0073,-0.0073,-0.0073,-0.3487,-2.0171,0.1436,-0.0220,-0.0855,-0.0366,-0.0024,1,1,1,1,1,1,1
11.9858,sweep,2,+up,0.08488,1.97013,0.02766,1.58103,-0.04635,-0.18673,-0.00362,-0.0024,0.0415,-0.0024,-0.0220,-0.0073,-0.0073,-0.0073,-0.3487,-2.0171,0.1436,-0.0220,-0.0855,-0.0366,-0.0024,1,1,1,1,1,1,1
12.0258,sweep,2,+up,0.08488,1.97318,0.02766,1.57988,-0.04635,-0.18673,-0.00324,-0.0073,0.0415,-0.0073,-0.0220,-0.0073,-0.0220,-0.0073,-0.2940,-1.9487,0.1436,-0.1441,-0.0904,-0.0366,-0.0073,1,1,1,1,1,1,1
12.0656,sweep,2,+up,0.08488,1.97318,0.02766,1.57988,-0.04635,-0.18673,-0.00324,-0.0073,0.0415,-0.0073,-0.0220,-0.0073,-0.0220,-0.0073,-0.2940,-1.9487,0.1436,-0.1441,-0.0904,-0.0366,-0.0073,1,1,1,1,1,1,1
12.1056,sweep,2,+up,0.08488,1.97318,0.02766,1.57988,-0.04635,-0.18673,-0.00324,-0.0073,0.0415,-0.0073,-0.0220,-0.0073,-0.0220,-0.0073,-0.2940,-1.9487,0.1436,-0.1441,-0.0904,-0.0366,-0.0073,1,1,1,1,1,1,1
12.1456,sweep,2,+up,0.08488,1.97700,0.02766,1.57568,-0.04635,-0.18673,-0.00324,-0.0073,0.0366,-0.0073,-0.0366,-0.0220,-0.0073,-0.0073,-0.2667,-2.0308,0.1573,-0.1685,-0.0952,-0.0317,-0.0073,1,1,1,1,1,1,1
12.1856,sweep,2,+up,0.08488,1.97700,0.02766,1.57568,-0.04635,-0.18673,-0.00324,-0.0073,0.0366,-0.0073,-0.0366,-0.0220,-0.0073,-0.0073,-0.2667,-2.0308,0.1573,-0.1685,-0.0952,-0.0317,-0.0073,1,1,1,1,1,1,1
12.2258,sweep,2,+up,0.08488,1.97967,0.02766,1.57340,-0.04635,-0.18673,-0.00324,-0.0073,0.0269,-0.0024,-0.0513,0.0073,0.0073,-0.0073,-0.2667,-2.1949,0.1573,-0.1538,-0.1001,-0.0317,-0.0073,1,1,1,1,1,1,1
12.2655,sweep,2,+up,0.08488,1.97967,0.02766,1.57340,-0.04635,-0.18673,-0.00324,-0.0073,0.0269,-0.0024,-0.0513,0.0073,0.0073,-0.0073,-0.2667,-2.1949,0.1573,-0.1538,-0.1001,-0.0317,-0.0073,1,1,1,1,1,1,1
12.3056,sweep,2,+up,0.08488,1.97967,0.02766,1.57340,-0.04635,-0.18673,-0.00324,-0.0073,0.0269,-0.0024,-0.0513,0.0073,0.0073,-0.0073,-0.2667,-2.1949,0.1573,-0.1538,-0.1001,-0.0317,-0.0073,1,1,1,1,1,1,1
12.3459,sweep,2,+up,0.08488,1.98272,0.02766,1.57225,-0.04635,-0.18673,-0.00324,-0.0024,0.0220,-0.0024,-0.0366,-0.0073,-0.0073,-0.0073,-0.2256,-2.0581,0.1709,-0.1490,-0.1050,-0.0366,-0.0073,1,1,1,1,1,1,1
12.8489,sweep,2,-down,0.08488,1.98348,0.02766,1.57187,-0.04635,-0.18673,-0.00324,-0.0024,0.0073,-0.0024,-0.0073,-0.0073,-0.0073,0.0073,-0.1983,-1.9214,0.1846,-0.1538,-0.1050,-0.0366,-0.0122,1,1,1,1,1,1,1
12.8884,sweep,2,-down,0.08488,1.98348,0.02766,1.57187,-0.04635,-0.18673,-0.00324,-0.0024,0.0073,-0.0024,-0.0073,-0.0073,-0.0073,0.0073,-0.1983,-1.9214,0.1846,-0.1538,-0.1050,-0.0366,-0.0122,1,1,1,1,1,1,1
12.9285,sweep,2,-down,0.08488,1.98692,0.02766,1.56882,-0.04673,-0.18673,-0.00324,-0.0024,-0.2076,0.0024,-0.1245,-0.0073,-0.0220,-0.0073,-0.1573,-4.8342,0.2120,-0.1001,-0.1197,-0.0317,-0.0024,1,1,1,1,1,1,1
12.9686,sweep,2,-down,0.08488,1.98692,0.02766,1.56882,-0.04673,-0.18673,-0.00324,-0.0024,-0.2076,0.0024,-0.1245,-0.0073,-0.0220,-0.0073,-0.1573,-4.8342,0.2120,-0.1001,-0.1197,-0.0317,-0.0024,1,1,1,1,1,1,1
13.0088,sweep,2,-down,0.08488,1.98692,0.02766,1.56882,-0.04673,-0.18673,-0.00324,-0.0024,-0.2076,0.0024,-0.1245,-0.0073,-0.0220,-0.0073,-0.1573,-4.8342,0.2120,-0.1001,-0.1197,-0.0317,-0.0024,1,1,1,1,1,1,1
13.0486,sweep,2,-down,0.08488,1.96288,0.02804,1.56462,-0.04673,-0.18635,-0.00324,-0.0024,-0.1929,0.0024,-0.0073,-0.0073,-0.0220,-0.0073,-0.1573,-4.4923,0.1162,0.1490,-0.1245,-0.0317,-0.0073,1,1,1,1,1,1,1
13.0885,sweep,2,-down,0.08488,1.96288,0.02804,1.56462,-0.04673,-0.18635,-0.00324,-0.0024,-0.1929,0.0024,-0.0073,-0.0073,-0.0220,-0.0073,-0.1573,-4.4923,0.1162,0.1490,-0.1245,-0.0317,-0.0073,1,1,1,1,1,1,1
13.1288,sweep,2,-down,0.08488,1.94686,0.02804,1.56004,-0.04673,-0.18635,-0.00324,0.0024,-0.1929,-0.0024,-0.0952,-0.0220,-0.0073,-0.0073,-0.1709,-4.6838,0.0889,0.7595,-0.1099,-0.0366,-0.0024,1,1,1,1,1,1,1
13.1684,sweep,2,-down,0.08488,1.94686,0.02804,1.56004,-0.04673,-0.18635,-0.00324,0.0024,-0.1929,-0.0024,-0.0952,-0.0220,-0.0073,-0.0073,-0.1709,-4.6838,0.0889,0.7595,-0.1099,-0.0366,-0.0024,1,1,1,1,1,1,1
13.2085,sweep,2,-down,0.08488,1.94686,0.02804,1.56004,-0.04673,-0.18635,-0.00324,0.0024,-0.1929,-0.0024,-0.0952,-0.0220,-0.0073,-0.0073,-0.1709,-4.6838,0.0889,0.7595,-0.1099,-0.0366,-0.0024,1,1,1,1,1,1,1
13.2485,sweep,2,-down,0.08488,1.92512,0.02728,1.55203,-0.04673,-0.18635,-0.00324,-0.0024,-0.1832,-0.0366,0.0073,-0.0073,0.0073,-0.0073,-0.1983,-7.8017,0.6222,2.2051,-0.1001,-0.0366,-0.0024,1,1,1,1,1,1,1
13.2883,sweep,2,-down,0.08488,1.92512,0.02728,1.55203,-0.04673,-0.18635,-0.00324,-0.0024,-0.1832,-0.0366,0.0073,-0.0073,0.0073,-0.0073,-0.1983,-7.8017,0.6222,2.2051,-0.1001,-0.0366,-0.0024,1,1,1,1,1,1,1
13.3286,sweep,2,-down,0.08488,1.90871,0.02728,1.55890,-0.04673,-0.18635,-0.00324,-0.0024,-0.2027,0.0024,0.0806,-0.0073,-0.0073,0.0073,-0.1709,-7.0632,0.6359,2.2247,-0.1050,-0.0415,0.0024,1,1,1,1,1,1,1
13.3688,sweep,2,-down,0.08488,1.90871,0.02728,1.55890,-0.04673,-0.18635,-0.00324,-0.0024,-0.2027,0.0024,0.0806,-0.0073,-0.0073,0.0073,-0.1709,-7.0632,0.6359,2.2247,-0.1050,-0.0415,0.0024,1,1,1,1,1,1,1
13.4085,sweep,2,-down,0.08488,1.90871,0.02728,1.55890,-0.04673,-0.18635,-0.00324,-0.0024,-0.2027,0.0024,0.0806,-0.0073,-0.0073,0.0073,-0.1709,-7.0632,0.6359,2.2247,-0.1050,-0.0415,0.0024,1,1,1,1,1,1,1
13.4484,sweep,2,-down,0.08488,1.88506,0.02728,1.56195,-0.04673,-0.18635,-0.00324,-0.0024,-0.1783,-0.0024,0.0220,-0.0073,0.0073,0.0073,-0.1573,-7.2137,0.8274,2.4737,-0.1050,-0.0366,-0.0073,1,1,1,1,1,1,1
13.4884,sweep,2,-down,0.08488,1.88506,0.02728,1.56195,-0.04673,-0.18635,-0.00324,-0.0024,-0.1783,-0.0024,0.0220,-0.0073,0.0073,0.0073,-0.1573,-7.2137,0.8274,2.4737,-0.1050,-0.0366,-0.0073,1,1,1,1,1,1,1
13.5285,sweep,2,-down,0.08488,1.86866,0.02728,1.56615,-0.04673,-0.18635,-0.00324,-0.0024,-0.2173,-0.0024,0.0220,-0.0073,0.0073,-0.0220,-0.1709,-6.7761,0.8957,2.3956,-0.0952,-0.0366,-0.0073,1,1,1,1,1,1,1
13.5684,sweep,2,-down,0.08488,1.86866,0.02728,1.56615,-0.04673,-0.18635,-0.00324,-0.0024,-0.2173,-0.0024,0.0220,-0.0073,0.0073,-0.0220,-0.1709,-6.7761,0.8957,2.3956,-0.0952,-0.0366,-0.0073,1,1,1,1,1,1,1
13.6084,sweep,2,-down,0.08488,1.86866,0.02728,1.56615,-0.04673,-0.18635,-0.00324,-0.0024,-0.2173,-0.0024,0.0220,-0.0073,0.0073,-0.0220,-0.1709,-6.7761,0.8957,2.3956,-0.0952,-0.0366,-0.0073,1,1,1,1,1,1,1
13.6484,sweep,2,-down,0.08488,1.84501,0.02728,1.56844,-0.04673,-0.18635,-0.00324,0.0024,-0.1978,-0.0024,0.0073,-0.0073,-0.0073,-0.0073,-0.1299,-7.2274,1.0188,2.3810,-0.0952,-0.0366,-0.0024,1,1,1,1,1,1,1
13.6885,sweep,2,-down,0.08488,1.84501,0.02728,1.56844,-0.04673,-0.18635,-0.00324,0.0024,-0.1978,-0.0024,0.0073,-0.0073,-0.0073,-0.0073,-0.1299,-7.2274,1.0188,2.3810,-0.0952,-0.0366,-0.0024,1,1,1,1,1,1,1
13.7284,sweep,2,-down,0.08488,1.82860,0.02728,1.56844,-0.04673,-0.18635,-0.00324,0.0024,-0.2222,-0.0024,-0.0220,-0.0073,-0.0073,0.0073,-0.1299,-6.7487,1.0462,2.4444,-0.0904,-0.0366,-0.0024,1,1,1,1,1,1,1
13.7685,sweep,2,-down,0.08488,1.82860,0.02728,1.56844,-0.04673,-0.18635,-0.00324,0.0024,-0.2222,-0.0024,-0.0220,-0.0073,-0.0073,0.0073,-0.1299,-6.7487,1.0462,2.4444,-0.0904,-0.0366,-0.0024,1,1,1,1,1,1,1
13.8084,sweep,2,-down,0.08488,1.82860,0.02728,1.56844,-0.04673,-0.18635,-0.00324,0.0024,-0.2222,-0.0024,-0.0220,-0.0073,-0.0073,0.0073,-0.1299,-6.7487,1.0462,2.4444,-0.0904,-0.0366,-0.0024,1,1,1,1,1,1,1
13.8485,sweep,2,-down,0.08488,1.80457,0.02728,1.56882,-0.04673,-0.18635,-0.00324,0.0024,-0.2076,-0.0024,-0.0073,-0.0073,-0.0073,-0.0073,-0.1299,-6.6667,1.1282,2.4835,-0.0904,-0.0366,-0.0024,1,1,1,1,1,1,1
13.8883,sweep,2,-down,0.08488,1.80457,0.02728,1.56882,-0.04673,-0.18635,-0.00324,0.0024,-0.2076,-0.0024,-0.0073,-0.0073,-0.0073,-0.0073,-0.1299,-6.6667,1.1282,2.4835,-0.0904,-0.0366,-0.0024,1,1,1,1,1,1,1
13.9284,sweep,2,-down,0.08488,1.78817,0.02728,1.56920,-0.04673,-0.18635,-0.00324,-0.0024,-0.2125,0.0024,-0.0073,-0.0073,-0.0073,-0.0073,-0.1436,-6.4068,1.1419,2.5275,-0.0904,-0.0366,-0.0073,1,1,1,1,1,1,1
13.9684,sweep,2,-down,0.08488,1.78817,0.02728,1.56920,-0.04673,-0.18635,-0.00324,-0.0024,-0.2125,0.0024,-0.0073,-0.0073,-0.0073,-0.0073,-0.1436,-6.4068,1.1419,2.5275,-0.0904,-0.0366,-0.0073,1,1,1,1,1,1,1
14.0083,sweep,2,-down,0.08488,1.78817,0.02728,1.56920,-0.04673,-0.18635,-0.00324,-0.0024,-0.2125,0.0024,-0.0073,-0.0073,-0.0073,-0.0073,-0.1436,-6.4068,1.1419,2.5275,-0.0904,-0.0366,-0.0073,1,1,1,1,1,1,1
14.0483,sweep,2,-down,0.08488,1.76451,0.02728,1.56958,-0.04673,-0.18635,-0.00324,-0.0024,-0.2173,-0.0024,-0.0073,0.0073,-0.0073,-0.0073,-0.1299,-6.7487,1.2376,2.5470,-0.0904,-0.0415,-0.0073,1,1,1,1,1,1,1
14.0884,sweep,2,-down,0.08488,1.76451,0.02728,1.56958,-0.04673,-0.18635,-0.00324,-0.0024,-0.2173,-0.0024,-0.0073,0.0073,-0.0073,-0.0073,-0.1299,-6.7487,1.2376,2.5470,-0.0904,-0.0415,-0.0073,1,1,1,1,1,1,1
14.1285,sweep,2,-down,0.08488,1.74811,0.02728,1.56996,-0.04673,-0.18635,-0.00324,-0.0024,-0.1880,-0.0024,-0.0073,-0.0073,-0.0220,-0.0073,-0.1299,-6.3248,1.2923,2.5372,-0.0855,-0.0415,-0.0073,1,1,1,1,1,1,1
14.1683,sweep,2,-down,0.08488,1.74811,0.02728,1.56996,-0.04673,-0.18635,-0.00324,-0.0024,-0.1880,-0.0024,-0.0073,-0.0073,-0.0220,-0.0073,-0.1299,-6.3248,1.2923,2.5372,-0.0855,-0.0415,-0.0073,1,1,1,1,1,1,1
14.2084,sweep,2,-down,0.08488,1.74811,0.02728,1.56996,-0.04673,-0.18635,-0.00324,-0.0024,-0.1880,-0.0024,-0.0073,-0.0073,-0.0220,-0.0073,-0.1299,-6.3248,1.2923,2.5372,-0.0855,-0.0415,-0.0073,1,1,1,1,1,1,1
14.2484,sweep,2,-down,0.08488,1.72408,0.02728,1.57111,-0.04673,-0.18635,-0.00362,0.0024,-0.2125,-0.0024,-0.0220,-0.0073,0.0073,-0.0073,-0.1436,-5.9966,1.3880,2.4396,-0.0855,-0.0464,-0.0024,1,1,1,1,1,1,1
14.2884,sweep,2,-down,0.08488,1.72408,0.02728,1.57111,-0.04673,-0.18635,-0.00362,0.0024,-0.2125,-0.0024,-0.0220,-0.0073,0.0073,-0.0073,-0.1436,-5.9966,1.3880,2.4396,-0.0855,-0.0464,-0.0024,1,1,1,1,1,1,1
14.3287,sweep,2,-down,0.08488,1.70806,0.02728,1.57149,-0.04673,-0.18635,-0.00324,-0.0024,-0.1880,-0.0073,0.0073,-0.0073,-0.0073,0.0073,-0.1436,-6.2838,1.4291,2.3810,-0.0855,-0.0513,-0.0073,1,1,1,1,1,1,1
14.3687,sweep,2,-down,0.08488,1.70806,0.02728,1.57149,-0.04673,-0.18635,-0.00324,-0.0024,-0.1880,-0.0073,0.0073,-0.0073,-0.0073,0.0073,-0.1436,-6.2838,1.4291,2.3810,-0.0855,-0.0513,-0.0073,1,1,1,1,1,1,1
14.4086,sweep,2,-down,0.08488,1.70806,0.02728,1.57149,-0.04673,-0.18635,-0.00324,-0.0024,-0.1880,-0.0073,0.0073,-0.0073,-0.0073,0.0073,-0.1436,-6.2838,1.4291,2.3810,-0.0855,-0.0513,-0.0073,1,1,1,1,1,1,1
14.4485,sweep,2,-down,0.08488,1.68402,0.02728,1.57149,-0.04673,-0.18635,-0.00324,-0.0024,-0.2125,-0.0024,-0.0073,-0.0073,-0.0220,-0.0073,-0.1436,-6.2017,1.4838,2.3565,-0.0855,-0.0611,-0.0073,1,1,1,1,1,1,1
14.4886,sweep,2,-down,0.08488,1.68402,0.02728,1.57149,-0.04673,-0.18635,-0.00324,-0.0024,-0.2125,-0.0024,-0.0073,-0.0073,-0.0220,-0.0073,-0.1436,-6.2017,1.4838,2.3565,-0.0855,-0.0611,-0.0073,1,1,1,1,1,1,1
14.5286,sweep,2,-down,0.08488,1.66800,0.02728,1.57149,-0.04673,-0.18635,-0.00324,-0.0073,-0.2027,-0.0024,-0.0073,-0.0073,-0.0073,-0.0073,-0.1573,-6.1470,1.5111,2.3223,-0.0855,-0.0562,-0.0073,1,1,1,1,1,1,1
14.5684,sweep,2,-down,0.08488,1.66800,0.02728,1.57149,-0.04673,-0.18635,-0.00324,-0.0073,-0.2027,-0.0024,-0.0073,-0.0073,-0.0073,-0.0073,-0.1573,-6.1470,1.5111,2.3223,-0.0855,-0.0562,-0.0073,1,1,1,1,1,1,1
14.6088,sweep,2,-down,0.08488,1.66800,0.02728,1.57149,-0.04673,-0.18635,-0.00324,-0.0073,-0.2027,-0.0024,-0.0073,-0.0073,-0.0073,-0.0073,-0.1573,-6.1470,1.5111,2.3223,-0.0855,-0.0562,-0.0073,1,1,1,1,1,1,1
14.6484,sweep,2,-down,0.08488,1.64359,0.02766,1.57073,-0.04673,-0.18635,-0.00324,-0.0024,-0.1880,-0.0024,0.0073,-0.0220,-0.0220,-0.0073,-0.1436,-5.8188,1.5111,2.3370,-0.0806,-0.0659,-0.0073,1,1,1,1,1,1,1
14.6885,sweep,2,-down,0.08488,1.64359,0.02766,1.57073,-0.04673,-0.18635,-0.00324,-0.0024,-0.1880,-0.0024,0.0073,-0.0220,-0.0220,-0.0073,-0.1436,-5.8188,1.5111,2.3370,-0.0806,-0.0659,-0.0073,1,1,1,1,1,1,1
14.7287,sweep,2,-down,0.08488,1.62833,0.02766,1.57073,-0.04673,-0.18635,-0.00324,-0.0024,-0.1832,-0.0024,0.0073,0.0073,-0.0073,-0.0220,-0.1436,-6.5026,1.5521,2.3370,-0.0806,-0.0708,-0.0073,1,1,1,1,1,1,1
14.7685,sweep,2,-down,0.08488,1.62833,0.02766,1.57073,-0.04673,-0.18635,-0.00324,-0.0024,-0.1832,-0.0024,0.0073,0.0073,-0.0073,-0.0220,-0.1436,-6.5026,1.5521,2.3370,-0.0806,-0.0708,-0.0073,1,1,1,1,1,1,1
14.8085,sweep,2,-down,0.08488,1.62833,0.02766,1.57073,-0.04673,-0.18635,-0.00324,-0.0024,-0.1832,-0.0024,0.0073,0.0073,-0.0073,-0.0220,-0.1436,-6.5026,1.5521,2.3370,-0.0806,-0.0708,-0.0073,1,1,1,1,1,1,1
14.8485,sweep,2,-down,0.08488,1.60391,0.02766,1.57034,-0.04673,-0.18635,-0.00324,-0.0024,-0.1783,-0.0024,-0.0073,-0.0073,-0.0073,-0.0073,-0.1299,-5.9829,1.5521,2.3907,-0.0757,-0.0806,-0.0073,1,1,1,1,1,1,1
14.8884,sweep,2,-down,0.08488,1.60391,0.02766,1.57034,-0.04673,-0.18635,-0.00324,-0.0024,-0.1783,-0.0024,-0.0073,-0.0073,-0.0073,-0.0073,-0.1299,-5.9829,1.5521,2.3907,-0.0757,-0.0806,-0.0073,1,1,1,1,1,1,1
14.9285,sweep,2,-down,0.08488,1.58751,0.02766,1.57034,-0.04673,-0.18635,-0.00324,-0.0024,-0.2222,-0.0024,-0.0220,-0.0073,-0.0073,-0.0073,-0.1299,-5.6684,1.5795,2.4005,-0.0757,-0.0757,-0.0073,1,1,1,1,1,1,1
14.9685,sweep,2,-down,0.08488,1.58751,0.02766,1.57034,-0.04673,-0.18635,-0.00324,-0.0024,-0.2222,-0.0024,-0.0220,-0.0073,-0.0073,-0.0073,-0.1299,-5.6684,1.5795,2.4005,-0.0757,-0.0757,-0.0073,1,1,1,1,1,1,1
15.0083,sweep,2,-down,0.08488,1.58751,0.02766,1.57034,-0.04673,-0.18635,-0.00324,-0.0024,-0.2222,-0.0024,-0.0220,-0.0073,-0.0073,-0.0073,-0.1299,-5.6684,1.5795,2.4005,-0.0757,-0.0757,-0.0073,1,1,1,1,1,1,1
15.0485,sweep,2,-down,0.08488,1.56348,0.02766,1.56996,-0.04673,-0.18635,-0.00324,-0.0024,-0.1978,-0.0024,-0.0073,-0.0073,0.0073,0.0073,-0.1436,-5.4906,1.6068,2.4200,-0.0806,-0.0855,-0.0073,1,1,1,1,1,1,1
15.0891,sweep,2,-down,0.08488,1.56348,0.02766,1.56996,-0.04673,-0.18635,-0.00324,-0.0024,-0.1978,-0.0024,-0.0073,-0.0073,0.0073,0.0073,-0.1436,-5.4906,1.6068,2.4200,-0.0806,-0.0855,-0.0073,1,1,1,1,1,1,1
15.1284,sweep,2,-down,0.08488,1.54746,0.02766,1.56996,-0.04673,-0.18635,-0.00324,-0.0024,-0.2076,-0.0024,-0.0073,-0.0073,-0.0220,-0.0073,-0.1436,-5.6547,1.6068,2.4493,-0.0806,-0.0855,-0.0122,1,1,1,1,1,1,1
15.1685,sweep,2,-down,0.08488,1.54746,0.02766,1.56996,-0.04673,-0.18635,-0.00324,-0.0024,-0.2076,-0.0024,-0.0073,-0.0073,-0.0220,-0.0073,-0.1436,-5.6547,1.6068,2.4493,-0.0806,-0.0855,-0.0122,1,1,1,1,1,1,1
15.2086,sweep,2,-down,0.08488,1.54746,0.02766,1.56996,-0.04673,-0.18635,-0.00324,-0.0024,-0.2076,-0.0024,-0.0073,-0.0073,-0.0220,-0.0073,-0.1436,-5.6547,1.6068,2.4493,-0.0806,-0.0855,-0.0122,1,1,1,1,1,1,1
15.2488,sweep,2,-down,0.08488,1.52342,0.02766,1.57034,-0.04673,-0.18635,-0.00324,-0.0024,-0.2173,-0.0024,-0.0073,0.0073,-0.0073,0.0073,-0.1299,-5.5590,1.6068,2.4444,-0.0806,-0.0855,-0.0073,1,1,1,1,1,1,1
15.2885,sweep,2,-down,0.08488,1.52342,0.02766,1.57034,-0.04673,-0.18635,-0.00324,-0.0024,-0.2173,-0.0024,-0.0073,0.0073,-0.0073,0.0073,-0.1299,-5.5590,1.6068,2.4444,-0.0806,-0.0855,-0.0073,1,1,1,1,1,1,1
15.3286,sweep,2,-down,0.08488,1.50702,0.02766,1.57034,-0.04673,-0.18635,-0.00324,-0.0024,-0.2173,-0.0024,0.0073,-0.0073,0.0073,-0.0073,-0.1436,-5.2171,1.6068,2.4493,-0.0855,-0.0904,-0.0073,1,1,1,1,1,1,1
15.3686,sweep,2,-down,0.08488,1.50702,0.02766,1.57034,-0.04673,-0.18635,-0.00324,-0.0024,-0.2173,-0.0024,0.0073,-0.0073,0.0073,-0.0073,-0.1436,-5.2171,1.6068,2.4493,-0.0855,-0.0904,-0.0073,1,1,1,1,1,1,1
15.4085,sweep,2,-down,0.08488,1.50702,0.02766,1.57034,-0.04673,-0.18635,-0.00324,-0.0024,-0.2173,-0.0024,0.0073,-0.0073,0.0073,-0.0073,-0.1436,-5.2171,1.6068,2.4493,-0.0855,-0.0904,-0.0073,1,1,1,1,1,1,1
15.4485,sweep,2,-down,0.08488,1.48299,0.02766,1.57034,-0.04673,-0.18635,-0.00324,-0.0024,-0.2076,-0.0073,-0.0073,-0.0073,0.0073,0.0073,-0.1436,-5.0393,1.5658,2.4444,-0.0757,-0.0855,-0.0024,1,1,1,1,1,1,1
15.4886,sweep,2,-down,0.08488,1.48299,0.02766,1.57034,-0.04673,-0.18635,-0.00324,-0.0024,-0.2076,-0.0073,-0.0073,-0.0073,0.0073,0.0073,-0.1436,-5.0393,1.5658,2.4444,-0.0757,-0.0855,-0.0024,1,1,1,1,1,1,1
15.5285,sweep,2,-down,0.08488,1.46735,0.02766,1.57073,-0.04673,-0.18635,-0.00324,-0.0024,-0.2027,-0.0024,-0.0073,0.0073,-0.0073,-0.0073,-0.1573,-5.2308,1.6068,2.4444,-0.0806,-0.0855,-0.0073,1,1,1,1,1,1,1
15.5684,sweep,2,-down,0.08488,1.46735,0.02766,1.57073,-0.04673,-0.18635,-0.00324,-0.0024,-0.2027,-0.0024,-0.0073,0.0073,-0.0073,-0.0073,-0.1573,-5.2308,1.6068,2.4444,-0.0806,-0.0855,-0.0073,1,1,1,1,1,1,1
15.6090,sweep,2,-down,0.08488,1.46735,0.02766,1.57073,-0.04673,-0.18635,-0.00324,-0.0024,-0.2027,-0.0024,-0.0073,0.0073,-0.0073,-0.0073,-0.1573,-5.2308,1.6068,2.4444,-0.0806,-0.0855,-0.0073,1,1,1,1,1,1,1
15.6484,sweep,2,-down,0.08488,1.44293,0.02766,1.57073,-0.04673,-0.18673,-0.00324,0.0073,-0.2076,-0.0024,-0.0073,-0.0220,-0.0220,-0.0073,-0.1436,-4.9436,1.6068,2.4249,-0.0757,-0.0904,-0.0073,1,1,1,1,1,1,1
15.6885,sweep,2,-down,0.08488,1.44293,0.02766,1.57073,-0.04673,-0.18673,-0.00324,0.0073,-0.2076,-0.0024,-0.0073,-0.0220,-0.0220,-0.0073,-0.1436,-4.9436,1.6068,2.4249,-0.0757,-0.0904,-0.0073,1,1,1,1,1,1,1
15.7285,sweep,2,-down,0.08488,1.42691,0.02766,1.57073,-0.04673,-0.18635,-0.00324,-0.0024,-0.1783,-0.0024,-0.0073,-0.0073,-0.0073,-0.0073,-0.1436,-4.9983,1.5658,2.4249,-0.0757,-0.0904,-0.0073,1,1,1,1,1,1,1
15.7685,sweep,2,-down,0.08488,1.42691,0.02766,1.57073,-0.04673,-0.18635,-0.00324,-0.0024,-0.1783,-0.0024,-0.0073,-0.0073,-0.0073,-0.0073,-0.1436,-4.9983,1.5658,2.4249,-0.0757,-0.0904,-0.0073,1,1,1,1,1,1,1
15.8084,sweep,2,-down,0.08488,1.42691,0.02766,1.57073,-0.04673,-0.18635,-0.00324,-0.0024,-0.1783,-0.0024,-0.0073,-0.0073,-0.0073,-0.0073,-0.1436,-4.9983,1.5658,2.4249,-0.0757,-0.0904,-0.0073,1,1,1,1,1,1,1
15.8485,sweep,2,-down,0.08488,1.40288,0.02804,1.57073,-0.04673,-0.18635,-0.00324,-0.0024,-0.1978,0.0024,0.0220,0.0073,0.0073,0.0073,-0.1299,-4.8752,1.5248,2.4054,-0.0757,-0.0855,-0.0073,1,1,1,1,1,1,1
15.8888,sweep,2,-down,0.08488,1.40288,0.02804,1.57073,-0.04673,-0.18635,-0.00324,-0.0024,-0.1978,0.0024,0.0220,0.0073,0.0073,0.0073,-0.1299,-4.8752,1.5248,2.4054,-0.0757,-0.0855,-0.0073,1,1,1,1,1,1,1
15.9290,sweep,2,-down,0.08488,1.38685,0.02766,1.57073,-0.04635,-0.18635,-0.00362,-0.0024,-0.1880,-0.0073,-0.0073,0.0073,-0.0073,-0.0073,-0.1299,-4.9299,1.5385,2.3956,-0.0806,-0.0904,-0.0073,1,1,1,1,1,1,1
15.9685,sweep,2,-down,0.08488,1.38685,0.02766,1.57073,-0.04635,-0.18635,-0.00362,-0.0024,-0.1880,-0.0073,-0.0073,0.0073,-0.0073,-0.0073,-0.1299,-4.9299,1.5385,2.3956,-0.0806,-0.0904,-0.0073,1,1,1,1,1,1,1
16.0087,sweep,2,-down,0.08488,1.38685,0.02766,1.57073,-0.04635,-0.18635,-0.00362,-0.0024,-0.1880,-0.0073,-0.0073,0.0073,-0.0073,-0.0073,-0.1299,-4.9299,1.5385,2.3956,-0.0806,-0.0904,-0.0073,1,1,1,1,1,1,1
16.0485,sweep,2,-down,0.08488,1.36244,0.02804,1.57073,-0.04673,-0.18635,-0.00324,-0.0024,-0.2027,-0.0024,-0.0073,-0.0073,-0.0073,0.0073,-0.1436,-4.4786,1.4974,2.3858,-0.0757,-0.0855,-0.0073,1,1,1,1,1,1,1
16.0886,sweep,2,-down,0.08488,1.36244,0.02804,1.57073,-0.04673,-0.18635,-0.00324,-0.0024,-0.2027,-0.0024,-0.0073,-0.0073,-0.0073,0.0073,-0.1436,-4.4786,1.4974,2.3858,-0.0757,-0.0855,-0.0073,1,1,1,1,1,1,1
16.1285,sweep,2,-down,0.08488,1.34642,0.02804,1.57111,-0.04673,-0.18635,-0.00324,-0.0024,-0.2125,-0.0024,-0.0073,-0.0073,-0.0073,-0.0073,-0.1436,-4.3966,1.4974,2.3712,-0.0708,-0.0855,-0.0024,1,1,1,1,1,1,1
16.1684,sweep,2,-down,0.08488,1.34642,0.02804,1.57111,-0.04673,-0.18635,-0.00324,-0.0024,-0.2125,-0.0024,-0.0073,-0.0073,-0.0073,-0.0073,-0.1436,-4.3966,1.4974,2.3712,-0.0708,-0.0855,-0.0024,1,1,1,1,1,1,1
16.2085,sweep,2,-down,0.08488,1.34642,0.02804,1.57111,-0.04673,-0.18635,-0.00324,-0.0024,-0.2125,-0.0024,-0.0073,-0.0073,-0.0073,-0.0073,-0.1436,-4.3966,1.4974,2.3712,-0.0708,-0.0855,-0.0024,1,1,1,1,1,1,1
16.2485,sweep,2,-down,0.08488,1.32238,0.02804,1.57111,-0.04673,-0.18635,-0.00324,-0.0024,-0.1978,-0.0024,0.0073,0.0073,0.0073,-0.0220,-0.1436,-4.4376,1.4701,2.3761,-0.0757,-0.0904,-0.0024,1,1,1,1,1,1,1
16.2885,sweep,2,-down,0.08488,1.32238,0.02804,1.57111,-0.04673,-0.18635,-0.00324,-0.0024,-0.1978,-0.0024,0.0073,0.0073,0.0073,-0.0220,-0.1436,-4.4376,1.4701,2.3761,-0.0757,-0.0904,-0.0024,1,1,1,1,1,1,1
16.3285,sweep,2,-down,0.08488,1.30636,0.02804,1.57111,-0.04635,-0.18673,-0.00362,-0.0024,-0.2173,-0.0024,-0.0073,0.0073,-0.0220,-0.0073,-0.1436,-4.2735,1.5111,2.3516,-0.0757,-0.0904,-0.0024,1,1,1,1,1,1,1
16.3686,sweep,2,-down,0.08488,1.30636,0.02804,1.57111,-0.04635,-0.18673,-0.00362,-0.0024,-0.2173,-0.0024,-0.0073,0.0073,-0.0220,-0.0073,-0.1436,-4.2735,1.5111,2.3516,-0.0757,-0.0904,-0.0024,1,1,1,1,1,1,1
16.4087,sweep,2,-down,0.08488,1.30636,0.02804,1.57111,-0.04635,-0.18673,-0.00362,-0.0024,-0.2173,-0.0024,-0.0073,0.0073,-0.0220,-0.0073,-0.1436,-4.2735,1.5111,2.3516,-0.0757,-0.0904,-0.0024,1,1,1,1,1,1,1
16.4486,sweep,2,-down,0.08488,1.28233,0.02804,1.57111,-0.04673,-0.18635,-0.00324,-0.0024,-0.1832,0.0024,-0.0220,-0.0073,-0.0073,-0.0073,-0.1573,-4.2051,1.4974,2.3272,-0.0806,-0.0904,-0.0024,1,1,1,1,1,1,1
16.4883,sweep,2,-down,0.08488,1.28233,0.02804,1.57111,-0.04673,-0.18635,-0.00324,-0.0024,-0.1832,0.0024,-0.0220,-0.0073,-0.0073,-0.0073,-0.1573,-4.2051,1.4974,2.3272,-0.0806,-0.0904,-0.0024,1,1,1,1,1,1,1
16.5284,sweep,2,-down,0.08488,1.26593,0.02804,1.57111,-0.04673,-0.18635,-0.00324,-0.0024,-0.2222,-0.0024,-0.0220,-0.0220,-0.0073,0.0073,-0.1436,-3.7128,1.4701,2.3126,-0.0757,-0.0904,0.0024,1,1,1,1,1,1,1
16.5684,sweep,2,-down,0.08488,1.26593,0.02804,1.57111,-0.04673,-0.18635,-0.00324,-0.0024,-0.2222,-0.0024,-0.0220,-0.0220,-0.0073,0.0073,-0.1436,-3.7128,1.4701,2.3126,-0.0757,-0.0904,0.0024,1,1,1,1,1,1,1
16.6086,sweep,2,-down,0.08488,1.26593,0.02804,1.57111,-0.04673,-0.18635,-0.00324,-0.0024,-0.2222,-0.0024,-0.0220,-0.0220,-0.0073,0.0073,-0.1436,-3.7128,1.4701,2.3126,-0.0757,-0.0904,0.0024,1,1,1,1,1,1,1
16.6484,sweep,2,-down,0.08488,1.24228,0.02804,1.57111,-0.04635,-0.18635,-0.00362,-0.0024,-0.1929,-0.0024,-0.0073,0.0073,-0.0073,-0.0220,-0.1299,-3.9863,1.4564,2.2833,-0.0757,-0.0855,-0.0024,1,1,1,1,1,1,1
16.6884,sweep,2,-down,0.08488,1.24228,0.02804,1.57111,-0.04635,-0.18635,-0.00362,-0.0024,-0.1929,-0.0024,-0.0073,0.0073,-0.0073,-0.0220,-0.1299,-3.9863,1.4564,2.2833,-0.0757,-0.0855,-0.0024,1,1,1,1,1,1,1
16.7283,sweep,2,-down,0.08488,1.22587,0.02804,1.57111,-0.04635,-0.18635,-0.00324,-0.0024,-0.2222,-0.0024,-0.0073,-0.0073,0.0073,0.0073,-0.1299,-3.4803,1.4564,2.2735,-0.0757,-0.0855,-0.0073,1,1,1,1,1,1,1
16.7684,sweep,2,-down,0.08488,1.22587,0.02804,1.57111,-0.04635,-0.18635,-0.00324,-0.0024,-0.2222,-0.0024,-0.0073,-0.0073,0.0073,0.0073,-0.1299,-3.4803,1.4564,2.2735,-0.0757,-0.0855,-0.0073,1,1,1,1,1,1,1
16.8084,sweep,2,-down,0.08488,1.22587,0.02804,1.57111,-0.04635,-0.18635,-0.00324,-0.0024,-0.2222,-0.0024,-0.0073,-0.0073,0.0073,0.0073,-0.1299,-3.4803,1.4564,2.2735,-0.0757,-0.0855,-0.0073,1,1,1,1,1,1,1
16.8486,sweep,2,-down,0.08488,1.20184,0.02804,1.57111,-0.04635,-0.18635,-0.00324,0.0024,-0.2027,-0.0024,-0.0073,-0.0073,-0.0220,-0.0073,-0.1026,-3.4940,1.4838,2.2442,-0.0757,-0.0904,-0.0073,1,1,1,1,1,1,1
16.8885,sweep,2,-down,0.08488,1.20184,0.02804,1.57111,-0.04635,-0.18635,-0.00324,0.0024,-0.2027,-0.0024,-0.0073,-0.0073,-0.0220,-0.0073,-0.1026,-3.4940,1.4838,2.2442,-0.0757,-0.0904,-0.0073,1,1,1,1,1,1,1
16.9285,sweep,2,-down,0.08488,1.18544,0.02804,1.57111,-0.04673,-0.18673,-0.00324,-0.0024,-0.1929,0.0024,0.0073,-0.0073,-0.0220,-0.0073,-0.1299,-3.0701,1.5111,2.2295,-0.0806,-0.0952,-0.0073,1,1,1,1,1,1,1
16.9684,sweep,2,-down,0.08488,1.18544,0.02804,1.57111,-0.04673,-0.18673,-0.00324,-0.0024,-0.1929,0.0024,0.0073,-0.0073,-0.0220,-0.0073,-0.1299,-3.0701,1.5111,2.2295,-0.0806,-0.0952,-0.0073,1,1,1,1,1,1,1
17.0083,sweep,2,-down,0.08488,1.18544,0.02804,1.57111,-0.04673,-0.18673,-0.00324,-0.0024,-0.1929,0.0024,0.0073,-0.0073,-0.0220,-0.0073,-0.1299,-3.0701,1.5111,2.2295,-0.0806,-0.0952,-0.0073,1,1,1,1,1,1,1
17.0485,sweep,2,-down,0.08488,1.16140,0.02804,1.57111,-0.04673,-0.18635,-0.00362,-0.0073,-0.2222,-0.0024,-0.0220,0.0073,-0.0220,-0.0220,-0.1162,-3.0701,1.4838,2.2051,-0.0806,-0.0952,-0.0073,1,1,1,1,1,1,1
17.0884,sweep,2,-down,0.08488,1.16140,0.02804,1.57111,-0.04673,-0.18635,-0.00362,-0.0073,-0.2222,-0.0024,-0.0220,0.0073,-0.0220,-0.0220,-0.1162,-3.0701,1.4838,2.2051,-0.0806,-0.0952,-0.0073,1,1,1,1,1,1,1
17.1285,sweep,2,-down,0.08488,1.14576,0.02804,1.57111,-0.04673,-0.18635,-0.00362,-0.0024,-0.1734,-0.0024,-0.0220,-0.0073,-0.0073,-0.0073,-0.1026,-3.0701,1.4427,2.1856,-0.0806,-0.1001,-0.0122,1,1,1,1,1,1,1
17.1685,sweep,2,-down,0.08488,1.14576,0.02804,1.57111,-0.04673,-0.18635,-0.00362,-0.0024,-0.1734,-0.0024,-0.0220,-0.0073,-0.0073,-0.0073,-0.1026,-3.0701,1.4427,2.1856,-0.0806,-0.1001,-0.0122,1,1,1,1,1,1,1
17.2084,sweep,2,-down,0.08488,1.14576,0.02804,1.57111,-0.04673,-0.18635,-0.00362,-0.0024,-0.1734,-0.0024,-0.0220,-0.0073,-0.0073,-0.0073,-0.1026,-3.0701,1.4427,2.1856,-0.0806,-0.1001,-0.0122,1,1,1,1,1,1,1
17.2485,sweep,2,-down,0.08488,1.12135,0.02804,1.57111,-0.04673,-0.18673,-0.00324,-0.0024,-0.2125,-0.0024,-0.0073,0.0073,-0.0073,-0.0073,-0.1162,-2.6462,1.4154,2.1661,-0.0855,-0.1050,-0.0122,1,1,1,1,1,1,1
17.2885,sweep,2,-down,0.08488,1.12135,0.02804,1.57111,-0.04673,-0.18673,-0.00324,-0.0024,-0.2125,-0.0024,-0.0073,0.0073,-0.0073,-0.0073,-0.1162,-2.6462,1.4154,2.1661,-0.0855,-0.1050,-0.0122,1,1,1,1,1,1,1
17.3285,sweep,2,-down,0.08488,1.10571,0.02804,1.57111,-0.04635,-0.18635,-0.00324,-0.0024,-0.1685,-0.0024,0.0073,-0.0073,0.0073,0.0073,-0.1299,-3.1658,1.3880,2.1465,-0.0904,-0.1001,-0.0122,1,1,1,1,1,1,1
17.3686,sweep,2,-down,0.08488,1.10571,0.02804,1.57111,-0.04635,-0.18635,-0.00324,-0.0024,-0.1685,-0.0024,0.0073,-0.0073,0.0073,0.0073,-0.1299,-3.1658,1.3880,2.1465,-0.0904,-0.1001,-0.0122,1,1,1,1,1,1,1
17.4085,sweep,2,-down,0.08488,1.10571,0.02804,1.57111,-0.04635,-0.18635,-0.00324,-0.0024,-0.1685,-0.0024,0.0073,-0.0073,0.0073,0.0073,-0.1299,-3.1658,1.3880,2.1465,-0.0904,-0.1001,-0.0122,1,1,1,1,1,1,1
17.4486,sweep,2,-down,0.08488,1.08091,0.02804,1.57111,-0.04673,-0.18635,-0.00324,-0.0024,-0.2222,-0.0024,-0.0073,-0.0073,-0.0073,0.0073,-0.1026,-2.4547,1.4017,2.1123,-0.0855,-0.0952,-0.0073,1,1,1,1,1,1,1
17.4884,sweep,2,-down,0.08488,1.08091,0.02804,1.57111,-0.04673,-0.18635,-0.00324,-0.0024,-0.2222,-0.0024,-0.0073,-0.0073,-0.0073,0.0073,-0.1026,-2.4547,1.4017,2.1123,-0.0855,-0.0952,-0.0073,1,1,1,1,1,1,1
17.5283,sweep,2,-down,0.08488,1.06527,0.02804,1.57111,-0.04673,-0.18635,-0.00324,-0.0024,-0.2076,-0.0024,0.0073,-0.0220,0.0073,-0.0073,-0.1162,-2.5231,1.3880,2.0830,-0.0855,-0.1001,-0.0073,1,1,1,1,1,1,1
17.5687,sweep,2,-down,0.08488,1.06527,0.02804,1.57111,-0.04673,-0.18635,-0.00324,-0.0024,-0.2076,-0.0024,0.0073,-0.0220,0.0073,-0.0073,-0.1162,-2.5231,1.3880,2.0830,-0.0855,-0.1001,-0.0073,1,1,1,1,1,1,1
17.6085,sweep,2,-down,0.08488,1.06527,0.02804,1.57111,-0.04673,-0.18635,-0.00324,-0.0024,-0.2076,-0.0024,0.0073,-0.0220,0.0073,-0.0073,-0.1162,-2.5231,1.3880,2.0830,-0.0855,-0.1001,-0.0073,1,1,1,1,1,1,1
17.6485,sweep,2,-down,0.08488,1.04086,0.02804,1.57111,-0.04673,-0.18673,-0.00324,0.0024,-0.1734,-0.0024,0.0073,-0.0073,0.0073,0.0073,-0.1162,-2.3043,1.3880,2.0537,-0.0855,-0.1001,-0.0073,1,1,1,1,1,1,1
17.6885,sweep,2,-down,0.08488,1.04086,0.02804,1.57111,-0.04673,-0.18673,-0.00324,0.0024,-0.1734,-0.0024,0.0073,-0.0073,0.0073,0.0073,-0.1162,-2.3043,1.3880,2.0537,-0.0855,-0.1001,-0.0073,1,1,1,1,1,1,1
17.7285,sweep,2,-down,0.08488,1.02483,0.02804,1.57111,-0.04673,-0.18635,-0.00362,-0.0024,-0.2271,-0.0024,-0.0073,-0.0220,-0.0073,-0.0073,-0.1162,-2.1402,1.4291,2.0391,-0.0806,-0.1001,-0.0073,1,1,1,1,1,1,1
17.7685,sweep,2,-down,0.08488,1.02483,0.02804,1.57111,-0.04673,-0.18635,-0.00362,-0.0024,-0.2271,-0.0024,-0.0073,-0.0220,-0.0073,-0.0073,-0.1162,-2.1402,1.4291,2.0391,-0.0806,-0.1001,-0.0073,1,1,1,1,1,1,1
17.8084,sweep,2,-down,0.08488,1.02483,0.02804,1.57111,-0.04673,-0.18635,-0.00362,-0.0024,-0.2271,-0.0024,-0.0073,-0.0220,-0.0073,-0.0073,-0.1162,-2.1402,1.4291,2.0391,-0.0806,-0.1001,-0.0073,1,1,1,1,1,1,1
17.8483,sweep,2,-down,0.08488,1.00080,0.02804,1.57111,-0.04635,-0.18635,-0.00324,-0.0073,-0.1880,0.0024,0.0073,0.0073,0.0073,-0.0073,-0.1299,-2.2222,1.4017,2.0098,-0.0708,-0.1050,-0.0122,1,1,1,1,1,1,1
17.8885,sweep,2,-down,0.08488,1.00080,0.02804,1.57111,-0.04635,-0.18635,-0.00324,-0.0073,-0.1880,0.0024,0.0073,0.0073,0.0073,-0.0073,-0.1299,-2.2222,1.4017,2.0098,-0.0708,-0.1050,-0.0122,1,1,1,1,1,1,1
17.9285,sweep,2,-down,0.08488,0.98478,0.02804,1.57111,-0.04635,-0.18673,-0.00362,-0.0024,-0.2222,-0.0073,-0.0073,0.0073,-0.0073,-0.0073,-0.1299,-1.7573,1.3880,1.9805,-0.0708,-0.1001,-0.0073,1,1,1,1,1,1,1
17.9684,sweep,2,-down,0.08488,0.98478,0.02804,1.57111,-0.04635,-0.18673,-0.00362,-0.0024,-0.2222,-0.0073,-0.0073,0.0073,-0.0073,-0.0073,-0.1299,-1.7573,1.3880,1.9805,-0.0708,-0.1001,-0.0073,1,1,1,1,1,1,1
18.0084,sweep,2,-down,0.08488,0.98478,0.02804,1.57111,-0.04635,-0.18673,-0.00362,-0.0024,-0.2222,-0.0073,-0.0073,0.0073,-0.0073,-0.0073,-0.1299,-1.7573,1.3880,1.9805,-0.0708,-0.1001,-0.0073,1,1,1,1,1,1,1
18.0484,sweep,2,-down,0.08488,0.96075,0.02804,1.57149,-0.04635,-0.18673,-0.00362,-0.0024,-0.1978,-0.0024,-0.0073,-0.0073,-0.0073,-0.0220,-0.1026,-1.8120,1.4017,1.9560,-0.0855,-0.1001,-0.0073,1,1,1,1,1,1,1
18.0886,sweep,2,-down,0.08488,0.96075,0.02804,1.57149,-0.04635,-0.18673,-0.00362,-0.0024,-0.1978,-0.0024,-0.0073,-0.0073,-0.0073,-0.0220,-0.1026,-1.8120,1.4017,1.9560,-0.0855,-0.1001,-0.0073,1,1,1,1,1,1,1
18.1285,sweep,2,-down,0.08488,0.94434,0.02804,1.57149,-0.04635,-0.18673,-0.00324,-0.0024,-0.2125,-0.0024,-0.0073,0.0073,0.0073,0.0073,-0.1162,-1.4838,1.4154,1.9365,-0.0806,-0.1001,-0.0122,1,1,1,1,1,1,1
18.1685,sweep,2,-down,0.08488,0.94434,0.02804,1.57149,-0.04635,-0.18673,-0.00324,-0.0024,-0.2125,-0.0024,-0.0073,0.0073,0.0073,0.0073,-0.1162,-1.4838,1.4154,1.9365,-0.0806,-0.1001,-0.0122,1,1,1,1,1,1,1
18.2086,sweep,2,-down,0.08488,0.94434,0.02804,1.57149,-0.04635,-0.18673,-0.00324,-0.0024,-0.2125,-0.0024,-0.0073,0.0073,0.0073,0.0073,-0.1162,-1.4838,1.4154,1.9365,-0.0806,-0.1001,-0.0122,1,1,1,1,1,1,1
18.2485,sweep,2,-down,0.08488,0.92031,0.02804,1.57149,-0.04673,-0.18673,-0.00324,-0.0024,-0.2076,-0.0024,-0.0073,-0.0220,-0.0073,-0.0073,-0.1162,-1.5385,1.4154,1.8877,-0.0855,-0.0952,-0.0122,1,1,1,1,1,1,1
18.2885,sweep,2,-down,0.08488,0.92031,0.02804,1.57149,-0.04673,-0.18673,-0.00324,-0.0024,-0.2076,-0.0024,-0.0073,-0.0220,-0.0073,-0.0073,-0.1162,-1.5385,1.4154,1.8877,-0.0855,-0.0952,-0.0122,1,1,1,1,1,1,1
18.3286,sweep,2,-down,0.08488,0.90429,0.02804,1.57149,-0.04673,-0.18673,-0.00362,-0.0024,-0.2027,-0.0024,-0.0073,-0.0073,-0.0073,-0.0220,-0.1162,-1.2650,1.4017,1.8681,-0.0806,-0.0904,-0.0122,1,1,1,1,1,1,1
18.3685,sweep,2,-down,0.08488,0.90429,0.02804,1.57149,-0.04673,-0.18673,-0.00362,-0.0024,-0.2027,-0.0024,-0.0073,-0.0073,-0.0073,-0.0220,-0.1162,-1.2650,1.4017,1.8681,-0.0806,-0.0904,-0.0122,1,1,1,1,1,1,1
18.4086,sweep,2,-down,0.08488,0.90429,0.02804,1.57149,-0.04673,-0.18673,-0.00362,-0.0024,-0.2027,-0.0024,-0.0073,-0.0073,-0.0073,-0.0220,-0.1162,-1.2650,1.4017,1.8681,-0.0806,-0.0904,-0.0122,1,1,1,1,1,1,1
18.4486,sweep,2,-down,0.08488,0.88025,0.02804,1.57111,-0.04635,-0.18673,-0.00324,-0.0024,-0.2173,-0.0024,-0.0220,-0.0073,0.0073,-0.0073,-0.0889,-1.1829,1.3607,1.8291,-0.0806,-0.0904,-0.0073,1,1,1,1,1,1,1
18.4885,sweep,2,-down,0.08488,0.88025,0.02804,1.57111,-0.04635,-0.18673,-0.00324,-0.0024,-0.2173,-0.0024,-0.0220,-0.0073,0.0073,-0.0073,-0.0889,-1.1829,1.3607,1.8291,-0.0806,-0.0904,-0.0073,1,1,1,1,1,1,1
18.5283,sweep,2,-down,0.08526,0.86423,0.02804,1.57149,-0.04673,-0.18673,-0.00324,-0.0024,-0.1832,-0.0024,-0.0073,-0.0073,-0.0073,-0.0073,-0.1162,-1.1692,1.3470,1.8095,-0.0806,-0.0952,-0.0073,1,1,1,1,1,1,1
18.5683,sweep,2,-down,0.08526,0.86423,0.02804,1.57149,-0.04673,-0.18673,-0.00324,-0.0024,-0.1832,-0.0024,-0.0073,-0.0073,-0.0073,-0.0073,-0.1162,-1.1692,1.3470,1.8095,-0.0806,-0.0952,-0.0073,1,1,1,1,1,1,1
18.6085,sweep,2,-down,0.08526,0.86423,0.02804,1.57149,-0.04673,-0.18673,-0.00324,-0.0024,-0.1832,-0.0024,-0.0073,-0.0073,-0.0073,-0.0073,-0.1162,-1.1692,1.3470,1.8095,-0.0806,-0.0952,-0.0073,1,1,1,1,1,1,1
18.6485,sweep,2,-down,0.08488,0.83982,0.02804,1.57149,-0.04673,-0.18673,-0.00362,-0.0024,-0.2222,-0.0024,-0.0220,0.0073,-0.0220,-0.0220,-0.1026,-0.7179,1.3333,1.7705,-0.0757,-0.0952,-0.0024,1,1,1,1,1,1,1
18.6885,sweep,2,-down,0.08488,0.83982,0.02804,1.57149,-0.04673,-0.18673,-0.00362,-0.0024,-0.2222,-0.0024,-0.0220,0.0073,-0.0220,-0.0220,-0.1026,-0.7179,1.3333,1.7705,-0.0757,-0.0952,-0.0024,1,1,1,1,1,1,1
18.7285,sweep,2,-down,0.08526,0.82418,0.02804,1.57149,-0.04673,-0.18673,-0.00324,0.0024,-0.1832,-0.0024,-0.0220,0.0073,-0.0073,0.0073,-0.1026,-0.9641,1.3060,1.7411,-0.0806,-0.0855,-0.0073,1,1,1,1,1,1,1
18.7685,sweep,2,-down,0.08526,0.82418,0.02804,1.57149,-0.04673,-0.18673,-0.00324,0.0024,-0.1832,-0.0024,-0.0220,0.0073,-0.0073,0.0073,-0.1026,-0.9641,1.3060,1.7411,-0.0806,-0.0855,-0.0073,1,1,1,1,1,1,1
18.8084,sweep,2,-down,0.08526,0.82418,0.02804,1.57149,-0.04673,-0.18673,-0.00324,0.0024,-0.1832,-0.0024,-0.0220,0.0073,-0.0073,0.0073,-0.1026,-0.9641,1.3060,1.7411,-0.0806,-0.0855,-0.0073,1,1,1,1,1,1,1
18.8484,sweep,2,-down,0.08526,0.79976,0.02804,1.57149,-0.04673,-0.18673,-0.00324,0.0024,-0.2076,-0.0024,-0.0073,-0.0220,-0.0073,0.0073,-0.1026,-0.4855,1.3060,1.7070,-0.0757,-0.0855,-0.0073,1,1,1,1,1,1,1
18.8885,sweep,2,-down,0.08526,0.79976,0.02804,1.57149,-0.04673,-0.18673,-0.00324,0.0024,-0.2076,-0.0024,-0.0073,-0.0220,-0.0073,0.0073,-0.1026,-0.4855,1.3060,1.7070,-0.0757,-0.0855,-0.0073,1,1,1,1,1,1,1
18.9285,sweep,2,-down,0.08526,0.77573,0.02804,1.57149,-0.04673,-0.18673,-0.00324,-0.0024,-0.2173,-0.0073,-0.0073,-0.0073,-0.0220,0.0073,-0.1162,-0.4444,1.2923,1.6679,-0.0757,-0.0855,-0.0073,1,1,1,1,1,1,1
18.9686,sweep,2,-down,0.08526,0.77573,0.02804,1.57149,-0.04673,-0.18673,-0.00324,-0.0024,-0.2173,-0.0073,-0.0073,-0.0073,-0.0220,0.0073,-0.1162,-0.4444,1.2923,1.6679,-0.0757,-0.0855,-0.0073,1,1,1,1,1,1,1
19.0085,sweep,2,-down,0.08526,0.77573,0.02804,1.57149,-0.04673,-0.18673,-0.00324,-0.0024,-0.2173,-0.0073,-0.0073,-0.0073,-0.0220,0.0073,-0.1162,-0.4444,1.2923,1.6679,-0.0757,-0.0855,-0.0073,1,1,1,1,1,1,1
19.0484,sweep,2,-down,0.08488,0.75933,0.02804,1.57149,-0.04673,-0.18673,-0.00362,-0.0024,-0.1783,-0.0024,-0.0073,-0.0073,-0.0073,-0.0220,-0.1162,-0.3624,1.2786,1.6288,-0.0757,-0.0757,-0.0073,1,1,1,1,1,1,1
19.0885,sweep,2,-down,0.08488,0.75933,0.02804,1.57149,-0.04673,-0.18673,-0.00362,-0.0024,-0.1783,-0.0024,-0.0073,-0.0073,-0.0073,-0.0220,-0.1162,-0.3624,1.2786,1.6288,-0.0757,-0.0757,-0.0073,1,1,1,1,1,1,1
19.1286,sweep,2,-down,0.08526,0.73529,0.02804,1.57149,-0.04673,-0.18673,-0.00362,0.0024,-0.2271,-0.0024,-0.0220,-0.0073,0.0073,-0.0220,-0.1026,-0.1026,1.2376,1.5751,-0.0757,-0.0806,-0.0073,1,1,1,1,1,1,1
19.1687,sweep,2,-down,0.08526,0.73529,0.02804,1.57149,-0.04673,-0.18673,-0.00362,0.0024,-0.2271,-0.0024,-0.0220,-0.0073,0.0073,-0.0220,-0.1026,-0.1026,1.2376,1.5751,-0.0757,-0.0806,-0.0073,1,1,1,1,1,1,1
19.2084,sweep,2,-down,0.08526,0.73529,0.02804,1.57149,-0.04673,-0.18673,-0.00362,0.0024,-0.2271,-0.0024,-0.0220,-0.0073,0.0073,-0.0220,-0.1026,-0.1026,1.2376,1.5751,-0.0757,-0.0806,-0.0073,1,1,1,1,1,1,1
19.2484,sweep,2,-down,0.08526,0.71889,0.02804,1.57149,-0.04635,-0.18673,-0.00324,-0.0073,-0.1832,-0.0024,-0.0073,-0.0073,-0.0220,-0.0073,-0.1162,-0.0205,1.2376,1.5458,-0.0757,-0.0855,-0.0073,1,1,1,1,1,1,1
19.2886,sweep,2,-down,0.08526,0.71889,0.02804,1.57149,-0.04635,-0.18673,-0.00324,-0.0073,-0.1832,-0.0024,-0.0073,-0.0073,-0.0220,-0.0073,-0.1162,-0.0205,1.2376,1.5458,-0.0757,-0.0855,-0.0073,1,1,1,1,1,1,1
19.3285,sweep,2,-down,0.08526,0.71889,0.02804,1.57187,-0.04635,-0.18635,-0.00324,-0.0073,-0.1832,-0.0024,-0.0073,0.0073,0.0220,-0.0073,-0.1162,-0.0205,1.2376,1.4432,-0.0708,-0.0806,-0.0073,1,1,1,1,1,1,1
19.3684,sweep,2,-down,0.08526,0.69409,0.02804,1.57187,-0.04635,-0.18635,-0.00324,0.0024,-0.1978,-0.0024,-0.0073,0.0073,0.0220,-0.0073,-0.1026,0.3761,1.2376,1.4432,-0.0708,-0.0806,-0.0073,1,1,1,1,1,1,1
19.4085,sweep,2,-down,0.08526,0.69409,0.02804,1.57187,-0.04635,-0.18635,-0.00324,0.0024,-0.1978,-0.0024,-0.0073,0.0073,0.0220,-0.0073,-0.1026,0.3761,1.2376,1.4432,-0.0708,-0.0806,-0.0073,1,1,1,1,1,1,1
19.4485,sweep,2,-down,0.08526,0.67807,0.02804,1.57187,-0.04673,-0.18673,-0.00324,-0.0024,-0.2076,-0.0073,-0.0073,0.0073,-0.0220,-0.0073,-0.1026,0.1846,1.2239,1.3944,-0.0708,-0.0806,-0.0122,1,1,1,1,1,1,1
19.4886,sweep,2,-down,0.08526,0.67807,0.02804,1.57187,-0.04673,-0.18673,-0.00324,-0.0024,-0.2076,-0.0073,-0.0073,0.0073,-0.0220,-0.0073,-0.1026,0.1846,1.2239,1.3944,-0.0708,-0.0806,-0.0122,1,1,1,1,1,1,1
19.5285,sweep,2,-down,0.08526,0.67807,0.02804,1.57187,-0.04673,-0.18673,-0.00324,-0.0024,-0.2076,-0.0073,-0.0073,0.0073,-0.0073,0.0073,-0.1026,0.1846,1.2239,1.3944,-0.0708,-0.0806,-0.0073,1,1,1,1,1,1,1
19.5685,sweep,2,-down,0.08526,0.65442,0.02804,1.57187,-0.04673,-0.18673,-0.00324,-0.0024,-0.1685,-0.0024,-0.0073,0.0073,-0.0073,0.0073,-0.1162,0.2393,1.2239,1.3358,-0.0708,-0.0806,-0.0073,1,1,1,1,1,1,1
19.6086,sweep,2,-down,0.08526,0.65442,0.02804,1.57187,-0.04673,-0.18673,-0.00324,-0.0024,-0.1685,-0.0024,-0.0073,0.0073,-0.0073,0.0073,-0.1162,0.2393,1.2239,1.3358,-0.0708,-0.0806,-0.0073,1,1,1,1,1,1,1
19.6485,sweep,2,-down,0.08526,0.63764,0.02804,1.57187,-0.04635,-0.18673,-0.00324,-0.0024,-0.2369,0.0024,0.0073,-0.0073,0.0073,-0.0220,-0.1162,0.6496,1.2103,1.2918,-0.0708,-0.0806,-0.0073,1,1,1,1,1,1,1
19.6885,sweep,2,-down,0.08526,0.63764,0.02804,1.57187,-0.04635,-0.18673,-0.00324,-0.0024,-0.2369,0.0024,0.0073,-0.0073,0.0073,-0.0220,-0.1162,0.6496,1.2103,1.2918,-0.0708,-0.0806,-0.0073,1,1,1,1,1,1,1
19.7285,sweep,2,-down,0.08526,0.63764,0.02804,1.57187,-0.04635,-0.18673,-0.00324,-0.0024,-0.2369,0.0024,0.0073,-0.0073,0.0073,-0.0220,-0.1162,0.6496,1.2103,1.2918,-0.0708,-0.0806,-0.0073,1,1,1,1,1,1,1
19.7686,sweep,2,-down,0.08488,0.61360,0.02804,1.57187,-0.04673,-0.18673,-0.00324,-0.0024,-0.1978,-0.0024,0.0073,-0.0073,0.0073,-0.0073,-0.1436,0.7453,1.1966,1.2283,-0.0708,-0.0757,-0.0073,1,1,1,1,1,1,1
19.8086,sweep,2,-down,0.08488,0.61360,0.02804,1.57187,-0.04673,-0.18673,-0.00324,-0.0024,-0.1978,-0.0024,0.0073,-0.0073,0.0073,-0.0073,-0.1436,0.7453,1.1966,1.2283,-0.0708,-0.0757,-0.0073,1,1,1,1,1,1,1
19.8484,sweep,2,-down,0.08488,0.59758,0.02804,1.57187,-0.04673,-0.18673,-0.00362,-0.0073,-0.2173,0.0024,-0.0220,-0.0073,0.0073,-0.0220,-0.1299,0.9915,1.1692,1.2039,-0.0708,-0.0757,-0.0024,1,1,1,1,1,1,1
