peipl15/reBot_Arm/outputs/gravity_calib_20260621_234920.csv
t_s,phase,swept_joint,direction,q1,q2,q3,q4,q5,q6,q7,v1,v2,v3,v4,v5,v6,v7,tau1,tau2,tau3,tau4,tau5,tau6,tau7,st1,st2,st3,st4,st5,st6,st7
0.0023,approach,4,to_lo,0.04635,-0.03834,1.42920,0.07267,0.01850,0.26646,-0.00324,-0.0024,-0.0073,-0.0024,-0.0073,-0.0220,-0.0073,-0.0073,-0.0342,-0.0068,-0.0479,0.0024,0.0024,-0.0024,-0.0073,1,1,1,1,1,1,1
0.0423,approach,4,to_lo,0.04635,-0.03834,1.42920,0.07267,0.01850,0.26646,-0.00324,-0.0024,-0.0073,-0.0024,-0.0073,-0.0220,-0.0073,-0.0073,-0.0342,-0.0068,-0.0479,0.0024,0.0024,-0.0024,-0.0073,1,1,1,1,1,1,1
0.0824,approach,4,to_lo,0.04635,-0.03834,1.42920,0.07267,0.01850,0.26646,-0.00324,-0.0024,-0.0073,-0.0024,-0.0073,-0.0220,-0.0073,-0.0073,-0.0342,-0.0068,-0.0479,0.0024,0.0024,-0.0024,-0.0073,1,1,1,1,1,1,1
0.1223,approach,4,to_lo,0.04635,-0.03719,1.43072,0.06619,0.02117,0.26646,-0.00324,-0.0024,0.0220,0.0024,-0.1978,-0.0073,-0.0073,-0.0073,-0.3077,2.5778,-1.7709,-0.5641,-0.1783,0.0073,-0.0122,1,1,1,1,1,1,1
0.1624,approach,4,to_lo,0.04635,-0.03719,1.43072,0.06619,0.02117,0.26646,-0.00324,-0.0024,0.0220,0.0024,-0.1978,-0.0073,-0.0073,-0.0073,-0.3077,2.5778,-1.7709,-0.5641,-0.1783,0.0073,-0.0122,1,1,1,1,1,1,1
0.2029,approach,4,to_lo,0.04635,-0.03452,1.43072,0.04940,0.02041,0.26646,-0.00362,-0.0024,0.0317,-0.0024,-0.2711,-0.0073,-0.0073,-0.0073,-0.3487,4.0821,-2.0034,-0.4567,-0.1978,0.0073,-0.0122,1,1,1,1,1,1,1
0.2423,approach,4,to_lo,0.04635,-0.03452,1.43072,0.04940,0.02041,0.26646,-0.00362,-0.0024,0.0317,-0.0024,-0.2711,-0.0073,-0.0073,-0.0073,-0.3487,4.0821,-2.0034,-0.4567,-0.1978,0.0073,-0.0122,1,1,1,1,1,1,1
0.2824,approach,4,to_lo,0.04635,-0.03452,1.43072,0.04940,0.02041,0.26646,-0.00362,-0.0024,0.0317,-0.0024,-0.2711,-0.0073,-0.0073,-0.0073,-0.3487,4.0821,-2.0034,-0.4567,-0.1978,0.0073,-0.0122,1,1,1,1,1,1,1
0.3225,approach,4,to_lo,0.04635,-0.02995,1.43034,0.02308,0.01965,0.26646,-0.00324,-0.0024,0.0220,-0.0073,-0.2564,-0.0220,-0.0073,-0.0073,-0.3624,4.7111,-2.0308,-0.3053,-0.1978,0.0024,-0.0122,1,1,1,1,1,1,1
0.3633,approach,4,to_lo,0.04635,-0.02995,1.43034,0.02308,0.01965,0.26646,-0.00324,-0.0024,0.0220,-0.0073,-0.2564,-0.0220,-0.0073,-0.0073,-0.3624,4.7111,-2.0308,-0.3053,-0.1978,0.0024,-0.0122,1,1,1,1,1,1,1
0.4024,approach,4,to_lo,0.04635,-0.02689,1.43034,0.00858,0.01888,0.26646,-0.00324,-0.0024,0.0562,-0.0024,-0.1685,-0.0220,-0.0073,-0.0073,-0.3897,4.8205,-2.2222,-0.4225,-0.1832,0.0024,-0.0122,1,1,1,1,1,1,1
0.4424,approach,4,to_lo,0.04635,-0.02689,1.43034,0.00858,0.01888,0.26646,-0.00324,-0.0024,0.0562,-0.0024,-0.1685,-0.0220,-0.0073,-0.0073,-0.3897,4.8205,-2.2222,-0.4225,-0.1832,0.0024,-0.0122,1,1,1,1,1,1,1
0.4823,approach,4,to_lo,0.04635,-0.02689,1.43034,0.00858,0.01888,0.26646,-0.00324,-0.0024,0.0562,-0.0024,-0.1685,-0.0220,-0.0073,-0.0073,-0.3897,4.8205,-2.2222,-0.4225,-0.1832,0.0024,-0.0122,1,1,1,1,1,1,1
0.5223,approach,4,to_lo,0.04635,-0.02346,1.42996,-0.01621,0.01850,0.26646,-0.00324,-0.0122,0.0366,-0.0073,-0.1831,0.0073,-0.0220,0.0073,-0.4308,5.5453,-1.8393,-0.3443,-0.1587,0.0024,-0.0171,1,1,1,1,1,1,1
0.5623,approach,4,to_lo,0.04635,-0.02346,1.42996,-0.01621,0.01850,0.26646,-0.00324,-0.0122,0.0366,-0.0073,-0.1831,0.0073,-0.0220,0.0073,-0.4308,5.5453,-1.8393,-0.3443,-0.1587,0.0024,-0.0171,1,1,1,1,1,1,1
0.6026,approach,4,to_lo,0.04635,-0.02155,1.42996,-0.03491,0.01812,0.26646,-0.00362,-0.0024,0.0171,-0.0024,-0.1978,-0.0073,-0.0073,-0.0220,-0.4718,6.3111,-1.8393,-0.1685,-0.1538,-0.0024,-0.0122,1,1,1,1,1,1,1
0.6424,approach,4,to_lo,0.04635,-0.02155,1.42996,-0.03491,0.01812,0.26646,-0.00362,-0.0024,0.0171,-0.0024,-0.1978,-0.0073,-0.0073,-0.0220,-0.4718,6.3111,-1.8393,-0.1685,-0.1538,-0.0024,-0.0122,1,1,1,1,1,1,1
0.6823,approach,4,to_lo,0.04635,-0.02155,1.42996,-0.03491,0.01812,0.26646,-0.00362,-0.0024,0.0171,-0.0024,-0.1978,-0.0073,-0.0073,-0.0220,-0.4718,6.3111,-1.8393,-0.1685,-0.1538,-0.0024,-0.0122,1,1,1,1,1,1,1
0.7224,approach,4,to_lo,0.04635,-0.01888,1.42958,-0.05970,0.01850,0.26646,-0.00362,-0.0024,0.0220,0.0024,-0.2418,0.0073,-0.0220,-0.0220,-0.4991,7.4462,-1.8940,-0.1099,-0.1538,-0.0073,-0.0171,1,1,1,1,1,1,1
0.7624,approach,4,to_lo,0.04635,-0.01888,1.42958,-0.05970,0.01850,0.26646,-0.00362,-0.0024,0.0220,0.0024,-0.2418,0.0073,-0.0220,-0.0220,-0.4991,7.4462,-1.8940,-0.1099,-0.1538,-0.0073,-0.0171,1,1,1,1,1,1,1
0.8024,approach,4,to_lo,0.04635,-0.01774,1.42958,-0.07534,0.01812,0.26646,-0.00362,0.0024,0.0122,-0.0073,-0.2125,-0.0073,-0.0073,-0.0073,-0.4855,8.5402,-1.8530,-0.1197,-0.1490,-0.0122,-0.0122,1,1,1,1,1,1,1
0.8423,approach,4,to_lo,0.04635,-0.01774,1.42958,-0.07534,0.01812,0.26646,-0.00362,0.0024,0.0122,-0.0073,-0.2125,-0.0073,-0.0073,-0.0073,-0.4855,8.5402,-1.8530,-0.1197,-0.1490,-0.0122,-0.0122,1,1,1,1,1,1,1
0.8824,approach,4,to_lo,0.04635,-0.01774,1.42958,-0.07534,0.01812,0.26646,-0.00362,0.0024,0.0122,-0.0073,-0.2125,-0.0073,-0.0073,-0.0073,-0.4855,8.5402,-1.8530,-0.1197,-0.1490,-0.0122,-0.0122,1,1,1,1,1,1,1
0.9226,approach,4,to_lo,0.04635,-0.01659,1.42920,-0.10205,0.01812,0.26646,-0.00324,-0.0024,0.0122,-0.0024,-0.2711,-0.0073,-0.0073,-0.0073,-0.5128,10.1402,-1.4017,-0.0220,-0.1441,-0.0171,-0.0122,1,1,1,1,1,1,1
0.9628,approach,4,to_lo,0.04635,-0.01659,1.42920,-0.10205,0.01812,0.26646,-0.00324,-0.0024,0.0122,-0.0024,-0.2711,-0.0073,-0.0073,-0.0073,-0.5128,10.1402,-1.4017,-0.0220,-0.1441,-0.0171,-0.0122,1,1,1,1,1,1,1
1.0023,approach,4,to_lo,0.04635,-0.01507,1.42920,-0.12341,0.01850,0.26646,-0.00362,0.0024,0.0073,-0.0073,-0.2564,-0.0073,-0.0220,-0.0220,-0.4855,10.7145,-1.1692,0.2027,-0.1490,-0.0220,-0.0122,1,1,1,1,1,1,1
1.0424,approach,4,to_lo,0.04635,-0.01507,1.42920,-0.12341,0.01850,0.26646,-0.00362,0.0024,0.0073,-0.0073,-0.2564,-0.0073,-0.0220,-0.0220,-0.4855,10.7145,-1.1692,0.2027,-0.1490,-0.0220,-0.0122,1,1,1,1,1,1,1
1.0823,approach,4,to_lo,0.04635,-0.01507,1.42920,-0.12341,0.01850,0.26646,-0.00362,0.0024,0.0073,-0.0073,-0.2564,-0.0073,-0.0220,-0.0220,-0.4855,10.7145,-1.1692,0.2027,-0.1490,-0.0220,-0.0122,1,1,1,1,1,1,1
1.1224,approach,4,to_lo,0.04635,-0.01354,1.42882,-0.14820,0.01812,0.26646,-0.00362,-0.0024,0.0073,-0.0073,-0.1831,-0.0073,-0.0073,-0.0073,-0.4855,11.6855,-0.8821,0.2466,-0.1490,-0.0220,-0.0122,1,1,1,1,1,1,1
1.1623,approach,4,to_lo,0.04635,-0.01354,1.42882,-0.14820,0.01812,0.26646,-0.00362,-0.0024,0.0073,-0.0073,-0.1831,-0.0073,-0.0073,-0.0073,-0.4855,11.6855,-0.8821,0.2466,-0.1490,-0.0220,-0.0122,1,1,1,1,1,1,1
1.2023,approach,4,to_lo,0.04635,-0.01316,1.42882,-0.16156,0.01812,0.26646,-0.00324,-0.0024,0.0024,-0.0024,-0.2418,-0.0220,-0.0220,-0.0073,-0.4855,12.7658,-0.9778,0.0855,-0.1538,-0.0220,-0.0122,1,1,1,1,1,1,1
1.2429,approach,4,to_lo,0.04635,-0.01316,1.42882,-0.16156,0.01812,0.26646,-0.00324,-0.0024,0.0024,-0.0024,-0.2418,-0.0220,-0.0220,-0.0073,-0.4855,12.7658,-0.9778,0.0855,-0.1538,-0.0220,-0.0122,1,1,1,1,1,1,1
1.2829,approach,4,to_lo,0.04635,-0.01316,1.42882,-0.16156,0.01812,0.26646,-0.00324,-0.0024,0.0024,-0.0024,-0.2418,-0.0220,-0.0220,-0.0073,-0.4855,12.7658,-0.9778,0.0855,-0.1538,-0.0220,-0.0122,1,1,1,1,1,1,1
1.3224,approach,4,to_lo,0.04635,-0.01125,1.42882,-0.18826,0.01812,0.26646,-0.00324,-0.0073,0.0024,-0.0073,-0.3297,-0.0073,-0.0073,-0.0220,-0.4855,12.9983,-0.9778,0.2613,-0.1441,-0.0269,-0.0122,1,1,1,1,1,1,1
1.3632,approach,4,to_lo,0.04635,-0.01125,1.42882,-0.18826,0.01812,0.26646,-0.00324,-0.0073,0.0024,-0.0073,-0.3297,-0.0073,-0.0073,-0.0220,-0.4855,12.9983,-0.9778,0.2613,-0.1441,-0.0269,-0.0122,1,1,1,1,1,1,1
1.4026,approach,4,to_lo,0.04597,-0.01125,1.42882,-0.20466,0.01812,0.26646,-0.00362,0.0024,0.0073,-0.0024,-0.1538,-0.0220,-0.0073,-0.0073,-0.4718,13.5179,-0.8274,0.2613,-0.1490,-0.0269,-0.0073,1,1,1,1,1,1,1
1.4429,approach,4,to_lo,0.04597,-0.01125,1.42882,-0.20466,0.01812,0.26646,-0.00362,0.0024,0.0073,-0.0024,-0.1538,-0.0220,-0.0073,-0.0073,-0.4718,13.5179,-0.8274,0.2613,-0.1490,-0.0269,-0.0073,1,1,1,1,1,1,1
1.4824,approach,4,to_lo,0.04597,-0.01125,1.42882,-0.20466,0.01812,0.26646,-0.00362,0.0024,0.0073,-0.0024,-0.1538,-0.0220,-0.0073,-0.0073,-0.4718,13.5179,-0.8274,0.2613,-0.1490,-0.0269,-0.0073,1,1,1,1,1,1,1
1.5226,approach,4,to_lo,0.04635,-0.00935,1.42882,-0.22755,0.01812,0.26646,-0.00324,0.0024,0.0122,-0.0024,-0.1538,-0.0220,-0.0073,-0.0073,-0.4855,14.1744,-0.8000,0.2173,-0.1490,-0.0220,-0.0122,1,1,1,1,1,1,1
1.5625,approach,4,to_lo,0.04635,-0.00935,1.42882,-0.22755,0.01812,0.26646,-0.00324,0.0024,0.0122,-0.0024,-0.1538,-0.0220,-0.0073,-0.0073,-0.4855,14.1744,-0.8000,0.2173,-0.1490,-0.0220,-0.0122,1,1,1,1,1,1,1
1.6025,approach,4,to_lo,0.04635,-0.00896,1.42882,-0.24739,0.01812,0.26646,-0.00324,-0.0024,0.0024,-0.0024,-0.1978,-0.0073,-0.0073,-0.0073,-0.4991,14.9675,-0.7590,0.5006,-0.1490,-0.0220,-0.0073,1,1,1,1,1,1,1
1.6422,approach,4,to_lo,0.04635,-0.00896,1.42882,-0.24739,0.01812,0.26646,-0.00324,-0.0024,0.0024,-0.0024,-0.1978,-0.0073,-0.0073,-0.0073,-0.4991,14.9675,-0.7590,0.5006,-0.1490,-0.0220,-0.0073,1,1,1,1,1,1,1
1.6823,approach,4,to_lo,0.04635,-0.00896,1.42882,-0.24739,0.01812,0.26646,-0.00324,-0.0024,0.0024,-0.0024,-0.1978,-0.0073,-0.0073,-0.0073,-0.4991,14.9675,-0.7590,0.5006,-0.1490,-0.0220,-0.0073,1,1,1,1,1,1,1
1.7225,approach,4,to_lo,0.04597,-0.00744,1.42882,-0.27180,0.01812,0.26646,-0.00362,-0.0024,-0.0024,-0.0024,-0.2564,-0.0073,0.0073,-0.0073,-0.4444,14.7214,-0.7043,0.5543,-0.1392,-0.0269,-0.0122,1,1,1,1,1,1,1
1.7628,approach,4,to_lo,0.04597,-0.00744,1.42882,-0.27180,0.01812,0.26646,-0.00362,-0.0024,-0.0024,-0.0024,-0.2564,-0.0073,0.0073,-0.0073,-0.4444,14.7214,-0.7043,0.5543,-0.1392,-0.0269,-0.0122,1,1,1,1,1,1,1
1.8023,approach,4,to_lo,0.04597,-0.00706,1.42882,-0.28630,0.01812,0.26646,-0.00324,-0.0024,0.0073,-0.0024,-0.2418,-0.0073,-0.0073,0.0073,-0.4308,15.0496,-0.7179,0.4127,-0.1392,-0.0269,-0.0073,1,1,1,1,1,1,1
1.8425,approach,4,to_lo,0.04597,-0.00706,1.42882,-0.28630,0.01812,0.26646,-0.00324,-0.0024,0.0073,-0.0024,-0.2418,-0.0073,-0.0073,0.0073,-0.4308,15.0496,-0.7179,0.4127,-0.1392,-0.0269,-0.0073,1,1,1,1,1,1,1
1.8826,approach,4,to_lo,0.04597,-0.00706,1.42882,-0.28630,0.01812,0.26646,-0.00324,-0.0024,0.0073,-0.0024,-0.2418,-0.0073,-0.0073,0.0073,-0.4308,15.0496,-0.7179,0.4127,-0.1392,-0.0269,-0.0073,1,1,1,1,1,1,1
1.9223,approach,4,to_lo,0.04635,-0.00553,1.42882,-0.31109,0.01812,0.26646,-0.00324,0.0024,0.0073,-0.0024,-0.1392,-0.0220,-0.0073,-0.0220,-0.4308,14.5983,-0.7179,0.4762,-0.1294,-0.0269,-0.0073,1,1,1,1,1,1,1
1.9625,approach,4,to_lo,0.04635,-0.00553,1.42882,-0.31109,0.01812,0.26646,-0.00324,0.0024,0.0073,-0.0024,-0.1392,-0.0220,-0.0073,-0.0220,-0.4308,14.5983,-0.7179,0.4762,-0.1294,-0.0269,-0.0073,1,1,1,1,1,1,1
2.0023,approach,4,to_lo,0.04597,-0.00553,1.42882,-0.33017,0.01812,0.26646,-0.00324,-0.0024,-0.0024,-0.0024,-0.1978,-0.0073,-0.0073,-0.0073,-0.4308,15.1043,-0.6632,0.7057,-0.1294,-0.0269,-0.0024,1,1,1,1,1,1,1
2.0424,approach,4,to_lo,0.04597,-0.00553,1.42882,-0.33017,0.01812,0.26646,-0.00324,-0.0024,-0.0024,-0.0024,-0.1978,-0.0073,-0.0073,-0.0073,-0.4308,15.1043,-0.6632,0.7057,-0.1294,-0.0269,-0.0024,1,1,1,1,1,1,1
2.0827,approach,4,to_lo,0.04597,-0.00553,1.42882,-0.33017,0.01812,0.26646,-0.00324,-0.0024,-0.0024,-0.0024,-0.1978,-0.0073,-0.0073,-0.0073,-0.4308,15.1043,-0.6632,0.7057,-0.1294,-0.0269,-0.0024,1,1,1,1,1,1,1
2.1223,approach,4,to_lo,0.04635,-0.00477,1.42882,-0.35496,0.01812,0.26646,-0.00362,0.0024,-0.0024,-0.0024,-0.2711,-0.0073,-0.0220,-0.0220,-0.4718,15.1043,-0.6496,0.7643,-0.1197,-0.0269,0.0024,1,1,1,1,1,1,1
2.1623,approach,4,to_lo,0.04635,-0.00477,1.42882,-0.35496,0.01812,0.26646,-0.00362,0.0024,-0.0024,-0.0024,-0.2711,-0.0073,-0.0220,-0.0220,-0.4718,15.1043,-0.6496,0.7643,-0.1197,-0.0269,0.0024,1,1,1,1,1,1,1
2.2024,approach,4,to_lo,0.04597,-0.00362,1.42882,-0.36908,0.01812,0.26646,-0.00362,0.0024,0.0024,-0.0024,-0.2857,0.0073,-0.0073,-0.0073,-0.4581,14.5709,-0.6085,0.6325,-0.1197,-0.0269,0.0024,1,1,1,1,1,1,1
2.2423,approach,4,to_lo,0.04597,-0.00362,1.42882,-0.36908,0.01812,0.26646,-0.00362,0.0024,0.0024,-0.0024,-0.2857,0.0073,-0.0073,-0.0073,-0.4581,14.5709,-0.6085,0.6325,-0.1197,-0.0269,0.0024,1,1,1,1,1,1,1
2.2824,approach,4,to_lo,0.04597,-0.00362,1.42882,-0.36908,0.01812,0.26646,-0.00362,0.0024,0.0024,-0.0024,-0.2857,0.0073,-0.0073,-0.0073,-0.4581,14.5709,-0.6085,0.6325,-0.1197,-0.0269,0.0024,1,1,1,1,1,1,1
2.3223,approach,4,to_lo,0.04597,-0.00362,1.42882,-0.39349,0.01812,0.26646,-0.00362,-0.0024,0.0024,-0.0024,-0.1978,-0.0220,0.0073,-0.0073,-0.4581,14.9265,-0.5538,0.6667,-0.1197,-0.0366,-0.0024,1,1,1,1,1,1,1
2.3624,approach,4,to_lo,0.04597,-0.00362,1.42882,-0.39349,0.01812,0.26646,-0.00362,-0.0024,0.0024,-0.0024,-0.1978,-0.0220,0.0073,-0.0073,-0.4581,14.9265,-0.5538,0.6667,-0.1197,-0.0366,-0.0024,1,1,1,1,1,1,1
2.4024,approach,4,to_lo,0.04597,-0.00362,1.42882,-0.41104,0.01812,0.26646,-0.00324,-0.0024,0.0024,0.0024,-0.1538,-0.0073,-0.0073,-0.0073,-0.4444,15.3368,-0.4991,0.7692,-0.1148,-0.0366,0.0024,1,1,1,1,1,1,1
2.4422,approach,4,to_lo,0.04597,-0.00362,1.42882,-0.41104,0.01812,0.26646,-0.00324,-0.0024,0.0024,0.0024,-0.1538,-0.0073,-0.0073,-0.0073,-0.4444,15.3368,-0.4991,0.7692,-0.1148,-0.0366,0.0024,1,1,1,1,1,1,1
2.4823,approach,4,to_lo,0.04597,-0.00362,1.42882,-0.41104,0.01812,0.26646,-0.00324,-0.0024,0.0024,0.0024,-0.1538,-0.0073,-0.0073,-0.0073,-0.4444,15.3368,-0.4991,0.7692,-0.1148,-0.0366,0.0024,1,1,1,1,1,1,1
2.5226,approach,4,to_lo,0.04635,-0.00286,1.42882,-0.43584,0.01812,0.26646,-0.00324,-0.0024,0.0024,-0.0073,-0.2271,-0.0073,0.0073,-0.0220,-0.4581,14.9949,-0.4171,0.8474,-0.1148,-0.0366,-0.0024,1,1,1,1,1,1,1
2.5625,approach,4,to_lo,0.04635,-0.00286,1.42882,-0.43584,0.01812,0.26646,-0.00324,-0.0024,0.0024,-0.0073,-0.2271,-0.0073,0.0073,-0.0220,-0.4581,14.9949,-0.4171,0.8474,-0.1148,-0.0366,-0.0024,1,1,1,1,1,1,1
2.6023,approach,4,to_lo,0.04597,-0.00210,1.42882,-0.45224,0.01812,0.26646,-0.00324,-0.0024,-0.0024,-0.0024,-0.2271,0.0073,0.0073,0.0073,-0.4581,14.6940,-0.3761,0.8962,-0.1148,-0.0366,-0.0024,1,1,1,1,1,1,1
2.6424,approach,4,to_lo,0.04597,-0.00210,1.42882,-0.45224,0.01812,0.26646,-0.00324,-0.0024,-0.0024,-0.0024,-0.2271,0.0073,0.0073,0.0073,-0.4581,14.6940,-0.3761,0.8962,-0.1148,-0.0366,-0.0024,1,1,1,1,1,1,1
2.6823,approach,4,to_lo,0.04597,-0.00210,1.42882,-0.45224,0.01812,0.26646,-0.00324,-0.0024,-0.0024,-0.0024,-0.2271,0.0073,0.0073,0.0073,-0.4581,14.6940,-0.3761,0.8962,-0.1148,-0.0366,-0.0024,1,1,1,1,1,1,1
2.7223,approach,4,to_lo,0.04597,-0.00210,1.42882,-0.47704,0.01812,0.26646,-0.00324,-0.0073,0.0024,-0.0024,-0.2418,-0.0073,-0.0073,-0.0073,-0.4581,14.7624,-0.3624,0.9548,-0.1099,-0.0366,-0.0073,1,1,1,1,1,1,1
2.7627,approach,4,to_lo,0.04597,-0.00210,1.42882,-0.47704,0.01812,0.26646,-0.00324,-0.0073,0.0024,-0.0024,-0.2418,-0.0073,-0.0073,-0.0073,-0.4581,14.7624,-0.3624,0.9548,-0.1099,-0.0366,-0.0073,1,1,1,1,1,1,1
2.8025,approach,4,to_lo,0.04635,-0.00210,1.42882,-0.49229,0.01812,0.26646,-0.00324,-0.0024,-0.0024,-0.0024,-0.1685,0.0073,-0.0073,-0.0073,-0.4718,14.9402,-0.3350,0.9060,-0.1050,-0.0366,-0.0073,1,1,1,1,1,1,1
2.8426,approach,4,to_lo,0.04635,-0.00210,1.42882,-0.49229,0.01812,0.26646,-0.00324,-0.0024,-0.0024,-0.0024,-0.1685,0.0073,-0.0073,-0.0073,-0.4718,14.9402,-0.3350,0.9060,-0.1050,-0.0366,-0.0073,1,1,1,1,1,1,1
2.8825,approach,4,to_lo,0.04635,-0.00210,1.42882,-0.49229,0.01812,0.26646,-0.00324,-0.0024,-0.0024,-0.0024,-0.1685,0.0073,-0.0073,-0.0073,-0.4718,14.9402,-0.3350,0.9060,-0.1050,-0.0366,-0.0073,1,1,1,1,1,1,1
2.9223,approach,4,to_lo,0.04597,-0.00172,1.42882,-0.51671,0.01812,0.26646,-0.00324,-0.0073,0.0024,-0.0024,-0.1538,-0.0073,-0.0073,0.0073,-0.5128,14.9949,-0.2803,0.9060,-0.0952,-0.0415,-0.0073,1,1,1,1,1,1,1
2.9624,approach,4,to_lo,0.04597,-0.00172,1.42882,-0.51671,0.01812,0.26646,-0.00324,-0.0073,0.0024,-0.0024,-0.1538,-0.0073,-0.0073,0.0073,-0.5128,14.9949,-0.2803,0.9060,-0.0952,-0.0415,-0.0073,1,1,1,1,1,1,1
3.0025,approach,4,to_lo,0.04597,-0.00172,1.42882,-0.53502,0.01812,0.26646,-0.00324,-0.0024,-0.0024,-0.0024,-0.1538,-0.0073,0.0073,0.0073,-0.4991,14.8718,-0.2667,1.1355,-0.0952,-0.0415,-0.0073,1,1,1,1,1,1,1
3.0421,approach,4,to_lo,0.04597,-0.00172,1.42882,-0.53502,0.01812,0.26646,-0.00324,-0.0024,-0.0024,-0.0024,-0.1538,-0.0073,0.0073,0.0073,-0.4991,14.8718,-0.2667,1.1355,-0.0952,-0.0415,-0.0073,1,1,1,1,1,1,1
3.0824,approach,4,to_lo,0.04597,-0.00172,1.42882,-0.53502,0.01812,0.26646,-0.00324,-0.0024,-0.0024,-0.0024,-0.1538,-0.0073,0.0073,0.0073,-0.4991,14.8718,-0.2667,1.1355,-0.0952,-0.0415,-0.0073,1,1,1,1,1,1,1
3.1225,approach,4,to_lo,0.04597,-0.00057,1.42882,-0.55982,0.01812,0.26646,-0.00362,0.0024,0.0024,-0.0024,-0.1831,-0.0073,-0.0073,-0.0220,-0.4581,13.8598,-0.2120,1.1697,-0.0952,-0.0366,-0.0073,1,1,1,1,1,1,1
3.1624,approach,4,to_lo,0.04597,-0.00057,1.42882,-0.55982,0.01812,0.26646,-0.00362,0.0024,0.0024,-0.0024,-0.1831,-0.0073,-0.0073,-0.0220,-0.4581,13.8598,-0.2120,1.1697,-0.0952,-0.0366,-0.0073,1,1,1,1,1,1,1
3.2024,approach,4,to_lo,0.04597,-0.00057,1.42882,-0.57431,0.01812,0.26646,-0.00324,0.0024,-0.0024,-0.0024,-0.2271,-0.0073,-0.0220,-0.0220,-0.4581,13.7915,-0.1846,1.0672,-0.0904,-0.0415,-0.0122,1,1,1,1,1,1,1
3.2423,approach,4,to_lo,0.04597,-0.00057,1.42882,-0.57431,0.01812,0.26646,-0.00324,0.0024,-0.0024,-0.0024,-0.2271,-0.0073,-0.0220,-0.0220,-0.4581,13.7915,-0.1846,1.0672,-0.0904,-0.0415,-0.0122,1,1,1,1,1,1,1
3.2822,approach,4,to_lo,0.04597,-0.00057,1.42882,-0.57431,0.01812,0.26646,-0.00324,0.0024,-0.0024,-0.0024,-0.2271,-0.0073,-0.0220,-0.0220,-0.4581,13.7915,-0.1846,1.0672,-0.0904,-0.0415,-0.0122,1,1,1,1,1,1,1
3.3224,approach,4,to_lo,0.04597,-0.00019,1.42844,-0.59911,0.01812,0.26646,-0.00362,-0.0024,0.0024,-0.0024,-0.1831,-0.0073,-0.0073,-0.0073,-0.4308,13.7094,-0.1299,1.1160,-0.0952,-0.0415,-0.0073,1,1,1,1,1,1,1
3.3624,approach,4,to_lo,0.04597,-0.00019,1.42844,-0.59911,0.01812,0.26646,-0.00362,-0.0024,0.0024,-0.0024,-0.1831,-0.0073,-0.0073,-0.0073,-0.4308,13.7094,-0.1299,1.1160,-0.0952,-0.0415,-0.0073,1,1,1,1,1,1,1
3.4025,approach,4,to_lo,0.04597,-0.00019,1.42844,-0.61742,0.01812,0.26646,-0.00324,-0.0024,0.0024,-0.0122,-0.1831,-0.0220,0.0073,-0.0220,-0.4308,13.6000,0.1162,1.3211,-0.0904,-0.0464,-0.0073,1,1,1,1,1,1,1
3.4424,approach,4,to_lo,0.04597,-0.00019,1.42844,-0.61742,0.01812,0.26646,-0.00324,-0.0024,0.0024,-0.0122,-0.1831,-0.0220,0.0073,-0.0220,-0.4308,13.6000,0.1162,1.3211,-0.0904,-0.0464,-0.0073,1,1,1,1,1,1,1
3.4826,approach,4,to_lo,0.04597,-0.00019,1.42844,-0.61742,0.01812,0.26646,-0.00324,-0.0024,0.0024,-0.0122,-0.1831,-0.0220,0.0073,-0.0220,-0.4308,13.6000,0.1162,1.3211,-0.0904,-0.0464,-0.0073,1,1,1,1,1,1,1
3.5226,approach,4,to_lo,0.04597,0.00019,1.42729,-0.64527,0.01812,0.26646,-0.00324,-0.0024,0.0024,-0.0122,-0.2564,-0.0073,-0.0073,-0.0073,-0.4034,13.0256,1.0598,1.6190,-0.0855,-0.0513,-0.0024,1,1,1,1,1,1,1
3.5624,approach,4,to_lo,0.04597,0.00019,1.42729,-0.64527,0.01812,0.26646,-0.00324,-0.0024,0.0024,-0.0122,-0.2564,-0.0073,-0.0073,-0.0073,-0.4034,13.0256,1.0598,1.6190,-0.0855,-0.0513,-0.0024,1,1,1,1,1,1,1
3.6024,approach,4,to_lo,0.04597,0.00019,1.42729,-0.65900,0.01812,0.26646,-0.00324,-0.0024,-0.0024,0.0073,-0.2125,0.0073,0.0073,0.0073,-0.4171,12.9573,1.3607,1.4042,-0.0904,-0.0464,-0.0073,1,1,1,1,1,1,1
3.6424,approach,4,to_lo,0.04597,0.00019,1.42729,-0.65900,0.01812,0.26646,-0.00324,-0.0024,-0.0024,0.0073,-0.2125,0.0073,0.0073,0.0073,-0.4171,12.9573,1.3607,1.4042,-0.0904,-0.0464,-0.0073,1,1,1,1,1,1,1
3.6824,approach,4,to_lo,0.04597,0.00019,1.42729,-0.65900,0.01812,0.26646,-0.00324,-0.0024,-0.0024,0.0073,-0.2125,0.0073,0.0073,0.0073,-0.4171,12.9573,1.3607,1.4042,-0.0904,-0.0464,-0.0073,1,1,1,1,1,1,1
3.7222,approach,4,to_lo,0.04597,0.00019,1.42805,-0.68074,0.01812,0.26646,-0.00324,-0.0073,-0.0024,-0.0073,-0.1978,-0.0073,-0.0073,-0.0073,-0.4034,12.8752,0.8137,1.2332,-0.0952,-0.0513,-0.0073,1,1,1,1,1,1,1
3.7623,approach,4,to_lo,0.04597,0.00019,1.42805,-0.68074,0.01812,0.26646,-0.00324,-0.0073,-0.0024,-0.0073,-0.1978,-0.0073,-0.0073,-0.0073,-0.4034,12.8752,0.8137,1.2332,-0.0952,-0.0513,-0.0073,1,1,1,1,1,1,1
3.8024,approach,4,to_lo,0.04597,0.00019,1.42805,-0.69982,0.01812,0.26646,-0.00362,-0.0024,-0.0024,-0.0024,-0.1245,0.0073,0.0073,-0.0073,-0.3897,12.8615,1.0051,1.5897,-0.0855,-0.0464,-0.0073,1,1,1,1,1,1,1
3.8426,approach,4,to_lo,0.04597,0.00019,1.42805,-0.69982,0.01812,0.26646,-0.00362,-0.0024,-0.0024,-0.0024,-0.1245,0.0073,0.0073,-0.0073,-0.3897,12.8615,1.0051,1.5897,-0.0855,-0.0464,-0.0073,1,1,1,1,1,1,1
3.8824,approach,4,to_lo,0.04597,0.00019,1.42805,-0.69982,0.01812,0.26646,-0.00362,-0.0024,-0.0024,-0.0024,-0.1245,0.0073,0.0073,-0.0073,-0.3897,12.8615,1.0051,1.5897,-0.0855,-0.0464,-0.0073,1,1,1,1,1,1,1
3.9222,approach,4,to_lo,0.04597,0.00019,1.42805,-0.71355,0.01812,0.26646,-0.00324,0.0024,-0.0024,-0.0024,-0.0513,-0.0220,-0.0073,-0.0220,-0.4444,12.7385,1.1692,1.5849,-0.0952,-0.0464,-0.0024,1,1,1,1,1,1,1
4.4246,sweep,4,+up,0.04597,0.00019,1.42805,-0.71469,0.01812,0.26646,-0.00324,-0.0024,-0.0024,0.0024,-0.0220,0.0073,-0.0073,-0.0073,-0.4718,12.7385,1.2103,1.4432,-0.0904,-0.0464,-0.0073,1,1,1,1,1,1,1
4.4649,sweep,4,+up,0.04597,0.00019,1.42805,-0.71469,0.01812,0.26646,-0.00324,-0.0024,-0.0024,0.0024,-0.0220,0.0073,-0.0073,-0.0073,-0.4718,12.7385,1.2103,1.4432,-0.0904,-0.0464,-0.0073,1,1,1,1,1,1,1
4.5048,sweep,4,+up,0.04597,0.00019,1.42844,-0.72461,0.01812,0.26646,-0.00324,-0.0024,-0.0024,-0.0024,0.1392,0.0073,-0.0073,-0.0073,-0.3624,12.4376,1.6342,1.9560,-0.0757,-0.0464,-0.0122,1,1,1,1,1,1,1
4.5450,sweep,4,+up,0.04597,0.00019,1.42844,-0.72461,0.01812,0.26646,-0.00324,-0.0024,-0.0024,-0.0024,0.1392,0.0073,-0.0073,-0.0073,-0.3624,12.4376,1.6342,1.9560,-0.0757,-0.0464,-0.0122,1,1,1,1,1,1,1
4.5850,sweep,4,+up,0.04597,0.00019,1.42844,-0.72461,0.01812,0.26646,-0.00324,-0.0024,-0.0024,-0.0024,0.1392,0.0073,-0.0073,-0.0073,-0.3624,12.4376,1.6342,1.9560,-0.0757,-0.0464,-0.0122,1,1,1,1,1,1,1
4.6249,sweep,4,+up,0.04597,0.00019,1.42882,-0.69829,0.01812,0.26646,-0.00324,-0.0024,0.0024,0.0024,0.2271,0.0073,-0.0073,-0.0073,-0.3761,12.3692,1.2239,1.7705,-0.0708,-0.0562,-0.0171,1,1,1,1,1,1,1
4.6650,sweep,4,+up,0.04597,0.00019,1.42882,-0.69829,0.01812,0.26646,-0.00324,-0.0024,0.0024,0.0024,0.2271,0.0073,-0.0073,-0.0073,-0.3761,12.3692,1.2239,1.7705,-0.0708,-0.0562,-0.0171,1,1,1,1,1,1,1
4.7051,sweep,4,+up,0.04597,0.00019,1.42882,-0.68227,0.01812,0.26646,-0.00324,-0.0024,-0.0024,-0.0024,0.1099,-0.0220,0.0073,-0.0073,-0.3487,12.3282,1.0872,1.7558,-0.0708,-0.0611,-0.0122,1,1,1,1,1,1,1
4.7451,sweep,4,+up,0.04597,0.00019,1.42882,-0.68227,0.01812,0.26646,-0.00324,-0.0024,-0.0024,-0.0024,0.1099,-0.0220,0.0073,-0.0073,-0.3487,12.3282,1.0872,1.7558,-0.0708,-0.0611,-0.0122,1,1,1,1,1,1,1
4.7848,sweep,4,+up,0.04597,0.00019,1.42882,-0.68227,0.01812,0.26646,-0.00324,-0.0024,-0.0024,-0.0024,0.1099,-0.0220,0.0073,-0.0073,-0.3487,12.3282,1.0872,1.7558,-0.0708,-0.0611,-0.0122,1,1,1,1,1,1,1
4.8249,sweep,4,+up,0.04597,0.00019,1.42882,-0.65786,0.01850,0.26646,-0.00362,-0.0073,-0.0024,-0.0024,0.1245,-0.0073,-0.0220,0.0073,-0.3624,12.2462,1.1556,1.6972,-0.0757,-0.0659,-0.0171,1,1,1,1,1,1,1
4.8651,sweep,4,+up,0.04597,0.00019,1.42882,-0.65786,0.01850,0.26646,-0.00362,-0.0073,-0.0024,-0.0024,0.1245,-0.0073,-0.0220,0.0073,-0.3624,12.2462,1.1556,1.6972,-0.0757,-0.0659,-0.0171,1,1,1,1,1,1,1
4.9049,sweep,4,+up,0.04597,0.00019,1.42882,-0.63993,0.01812,0.26646,-0.00324,-0.0024,-0.0024,0.0073,0.1685,-0.0073,-0.0073,0.0073,-0.3350,12.2462,1.0598,1.5849,-0.0806,-0.0659,-0.0122,1,1,1,1,1,1,1
4.9447,sweep,4,+up,0.04597,0.00019,1.42882,-0.63993,0.01812,0.26646,-0.00324,-0.0024,-0.0024,0.0073,0.1685,-0.0073,-0.0073,0.0073,-0.3350,12.2462,1.0598,1.5849,-0.0806,-0.0659,-0.0122,1,1,1,1,1,1,1
4.9846,sweep,4,+up,0.04597,0.00019,1.42882,-0.63993,0.01812,0.26646,-0.00324,-0.0024,-0.0024,0.0073,0.1685,-0.0073,-0.0073,0.0073,-0.3350,12.2462,1.0598,1.5849,-0.0806,-0.0659,-0.0122,1,1,1,1,1,1,1
5.0250,sweep,4,+up,0.04597,0.00019,1.42882,-0.61551,0.01850,0.26608,-0.00362,-0.0073,-0.0024,-0.0024,0.2418,-0.0073,-0.0073,-0.0073,-0.3077,12.1641,1.0735,1.5165,-0.0855,-0.0757,-0.0122,1,1,1,1,1,1,1
5.0651,sweep,4,+up,0.04597,0.00019,1.42882,-0.61551,0.01850,0.26608,-0.00362,-0.0073,-0.0024,-0.0024,0.2418,-0.0073,-0.0073,-0.0073,-0.3077,12.1641,1.0735,1.5165,-0.0855,-0.0757,-0.0122,1,1,1,1,1,1,1
5.1052,sweep,4,+up,0.04597,0.00019,1.42882,-0.60140,0.01850,0.26608,-0.00362,0.0024,-0.0073,-0.0024,0.2418,-0.0073,-0.0220,-0.0220,-0.3350,12.0957,1.0598,1.6777,-0.0855,-0.0806,-0.0122,1,1,1,1,1,1,1
5.1449,sweep,4,+up,0.04597,0.00019,1.42882,-0.60140,0.01850,0.26608,-0.00362,0.0024,-0.0073,-0.0024,0.2418,-0.0073,-0.0220,-0.0220,-0.3350,12.0957,1.0598,1.6777,-0.0855,-0.0806,-0.0122,1,1,1,1,1,1,1
5.1846,sweep,4,+up,0.04597,0.00019,1.42882,-0.60140,0.01850,0.26608,-0.00362,0.0024,-0.0073,-0.0024,0.2418,-0.0073,-0.0220,-0.0220,-0.3350,12.0957,1.0598,1.6777,-0.0855,-0.0806,-0.0122,1,1,1,1,1,1,1
5.2248,sweep,4,+up,0.04597,0.00019,1.42882,-0.57851,0.01850,0.26608,-0.00324,0.0024,0.0024,-0.0024,0.1831,0.0073,-0.0073,-0.0220,-0.3214,12.0684,1.1009,1.7802,-0.0855,-0.0806,-0.0122,1,1,1,1,1,1,1
5.2647,sweep,4,+up,0.04597,0.00019,1.42882,-0.57851,0.01850,0.26608,-0.00324,0.0024,0.0024,-0.0024,0.1831,0.0073,-0.0073,-0.0220,-0.3214,12.0684,1.1009,1.7802,-0.0855,-0.0806,-0.0122,1,1,1,1,1,1,1
5.3045,sweep,4,+up,0.04597,0.00019,1.42882,-0.55829,0.01850,0.26608,-0.00362,-0.0024,0.0024,-0.0024,0.1392,-0.0073,-0.0220,-0.0073,-0.3350,12.0547,1.0598,1.4188,-0.0904,-0.0757,-0.0122,1,1,1,1,1,1,1
5.3447,sweep,4,+up,0.04597,0.00019,1.42882,-0.55829,0.01850,0.26608,-0.00362,-0.0024,0.0024,-0.0024,0.1392,-0.0073,-0.0220,-0.0073,-0.3350,12.0547,1.0598,1.4188,-0.0904,-0.0757,-0.0122,1,1,1,1,1,1,1
5.3847,sweep,4,+up,0.04597,0.00019,1.42882,-0.55829,0.01850,0.26608,-0.00362,-0.0024,0.0024,-0.0024,0.1392,-0.0073,-0.0220,-0.0073,-0.3350,12.0547,1.0598,1.4188,-0.0904,-0.0757,-0.0122,1,1,1,1,1,1,1
5.4249,sweep,4,+up,0.04597,0.00019,1.42882,-0.53273,0.01812,0.26608,-0.00362,-0.0024,-0.0024,-0.0024,0.2271,-0.0220,-0.0073,-0.0073,-0.3214,11.9726,1.0188,1.3114,-0.0904,-0.0757,-0.0171,1,1,1,1,1,1,1
5.4645,sweep,4,+up,0.04597,0.00019,1.42882,-0.53273,0.01812,0.26608,-0.00362,-0.0024,-0.0024,-0.0024,0.2271,-0.0220,-0.0073,-0.0073,-0.3214,11.9726,1.0188,1.3114,-0.0904,-0.0757,-0.0171,1,1,1,1,1,1,1
5.5050,sweep,4,+up,0.04597,0.00019,1.42882,-0.52129,0.01850,0.26608,-0.00362,0.0024,-0.0073,-0.0024,0.2418,-0.0073,-0.0073,-0.0073,-0.3214,11.9316,1.0462,1.6532,-0.1001,-0.0708,-0.0171,1,1,1,1,1,1,1
5.5448,sweep,4,+up,0.04597,0.00019,1.42882,-0.52129,0.01850,0.26608,-0.00362,0.0024,-0.0073,-0.0024,0.2418,-0.0073,-0.0073,-0.0073,-0.3214,11.9316,1.0462,1.6532,-0.1001,-0.0708,-0.0171,1,1,1,1,1,1,1
5.5850,sweep,4,+up,0.04597,0.00019,1.42882,-0.52129,0.01850,0.26608,-0.00362,0.0024,-0.0073,-0.0024,0.2418,-0.0073,-0.0073,-0.0073,-0.3214,11.9316,1.0462,1.6532,-0.1001,-0.0708,-0.0171,1,1,1,1,1,1,1
5.6248,sweep,4,+up,0.04597,0.00019,1.42882,-0.49649,0.01850,0.26608,-0.00362,-0.0073,-0.0024,-0.0024,0.2418,-0.0073,-0.0073,-0.0073,-0.3350,11.8769,0.9915,1.5946,-0.1001,-0.0659,-0.0171,1,1,1,1,1,1,1
5.6646,sweep,4,+up,0.04597,0.00019,1.42882,-0.49649,0.01850,0.26608,-0.00362,-0.0073,-0.0024,-0.0024,0.2418,-0.0073,-0.0073,-0.0073,-0.3350,11.8769,0.9915,1.5946,-0.1001,-0.0659,-0.0171,1,1,1,1,1,1,1
5.7049,sweep,4,+up,0.04597,0.00019,1.42920,-0.47704,0.01812,0.26608,-0.00324,-0.0024,-0.0073,-0.0073,0.0952,0.0073,-0.0073,-0.0073,-0.2803,11.8085,0.9504,1.3260,-0.0952,-0.0659,-0.0171,1,1,1,1,1,1,1
5.7449,sweep,4,+up,0.04597,0.00019,1.42920,-0.47704,0.01812,0.26608,-0.00324,-0.0024,-0.0073,-0.0073,0.0952,0.0073,-0.0073,-0.0073,-0.2803,11.8085,0.9504,1.3260,-0.0952,-0.0659,-0.0171,1,1,1,1,1,1,1
5.7846,sweep,4,+up,0.04597,0.00019,1.42920,-0.47704,0.01812,0.26608,-0.00324,-0.0024,-0.0073,-0.0073,0.0952,0.0073,-0.0073,-0.0073,-0.2803,11.8085,0.9504,1.3260,-0.0952,-0.0659,-0.0171,1,1,1,1,1,1,1
5.8246,sweep,4,+up,0.04597,0.00019,1.42920,-0.45262,0.01850,0.26608,-0.00324,-0.0024,-0.0024,-0.0073,0.1392,0.0073,0.0073,0.0073,-0.3077,11.7675,0.9231,1.3114,-0.1001,-0.0611,-0.0171,1,1,1,1,1,1,1
5.8647,sweep,4,+up,0.04597,0.00019,1.42920,-0.45262,0.01850,0.26608,-0.00324,-0.0024,-0.0024,-0.0073,0.1392,0.0073,0.0073,0.0073,-0.3077,11.7675,0.9231,1.3114,-0.1001,-0.0611,-0.0171,1,1,1,1,1,1,1
5.9050,sweep,4,+up,0.04597,0.00019,1.42920,-0.43622,0.01850,0.26608,-0.00324,-0.0122,-0.0024,0.0024,0.2857,-0.0220,-0.0073,-0.0073,-0.3077,11.7265,0.9231,1.2186,-0.1001,-0.0708,-0.0171,1,1,1,1,1,1,1
5.9446,sweep,4,+up,0.04597,0.00019,1.42920,-0.43622,0.01850,0.26608,-0.00324,-0.0122,-0.0024,0.0024,0.2857,-0.0220,-0.0073,-0.0073,-0.3077,11.7265,0.9231,1.2186,-0.1001,-0.0708,-0.0171,1,1,1,1,1,1,1
5.9846,sweep,4,+up,0.04597,0.00019,1.42920,-0.43622,0.01850,0.26608,-0.00324,-0.0122,-0.0024,0.0024,0.2857,-0.0220,-0.0073,-0.0073,-0.3077,11.7265,0.9231,1.2186,-0.1001,-0.0708,-0.0171,1,1,1,1,1,1,1
6.0247,sweep,4,+up,0.04597,0.00019,1.42920,-0.41180,0.01850,0.26608,-0.00362,-0.0024,-0.0024,-0.0024,0.2418,0.0073,-0.0073,-0.0073,-0.2803,11.6308,0.8821,1.1990,-0.1001,-0.0659,-0.0171,1,1,1,1,1,1,1
6.0647,sweep,4,+up,0.04597,0.00019,1.42920,-0.41180,0.01850,0.26608,-0.00362,-0.0024,-0.0024,-0.0024,0.2418,0.0073,-0.0073,-0.0073,-0.2803,11.6308,0.8821,1.1990,-0.1001,-0.0659,-0.0171,1,1,1,1,1,1,1
6.1046,sweep,4,+up,0.04597,0.00019,1.42920,-0.39731,0.01850,0.26608,-0.00324,-0.0024,-0.0024,-0.0024,0.1392,0.0073,-0.0073,-0.0073,-0.2803,11.6171,0.8957,1.3114,-0.1001,-0.0659,-0.0171,1,1,1,1,1,1,1
6.1448,sweep,4,+up,0.04597,0.00019,1.42920,-0.39731,0.01850,0.26608,-0.00324,-0.0024,-0.0024,-0.0024,0.1392,0.0073,-0.0073,-0.0073,-0.2803,11.6171,0.8957,1.3114,-0.1001,-0.0659,-0.0171,1,1,1,1,1,1,1
6.1847,sweep,4,+up,0.04597,0.00019,1.42920,-0.39731,0.01850,0.26608,-0.00324,-0.0024,-0.0024,-0.0024,0.1392,0.0073,-0.0073,-0.0073,-0.2803,11.6171,0.8957,1.3114,-0.1001,-0.0659,-0.0171,1,1,1,1,1,1,1
6.2247,sweep,4,+up,0.04597,0.00019,1.42920,-0.37175,0.01850,0.26608,-0.00324,-0.0024,-0.0024,-0.0024,0.1245,-0.0073,-0.0073,-0.0073,-0.2940,11.6034,0.8410,1.1941,-0.0952,-0.0611,-0.0171,1,1,1,1,1,1,1
6.2648,sweep,4,+up,0.04597,0.00019,1.42920,-0.37175,0.01850,0.26608,-0.00324,-0.0024,-0.0024,-0.0024,0.1245,-0.0073,-0.0073,-0.0073,-0.2940,11.6034,0.8410,1.1941,-0.0952,-0.0611,-0.0171,1,1,1,1,1,1,1
6.3052,sweep,4,+up,0.04597,0.00019,1.42920,-0.35344,0.01850,0.26608,-0.00324,-0.0024,0.0024,-0.0024,0.2271,-0.0073,-0.0220,-0.0073,-0.2803,11.6171,0.8137,0.9939,-0.0952,-0.0611,-0.0122,1,1,1,1,1,1,1
6.3448,sweep,4,+up,0.04597,0.00019,1.42920,-0.35344,0.01850,0.26608,-0.00324,-0.0024,0.0024,-0.0024,0.2271,-0.0073,-0.0220,-0.0073,-0.2803,11.6171,0.8137,0.9939,-0.0952,-0.0611,-0.0122,1,1,1,1,1,1,1
6.3848,sweep,4,+up,0.04597,0.00019,1.42920,-0.35344,0.01850,0.26608,-0.00324,-0.0024,0.0024,-0.0024,0.2271,-0.0073,-0.0220,-0.0073,-0.2803,11.6171,0.8137,0.9939,-0.0952,-0.0611,-0.0122,1,1,1,1,1,1,1
6.4247,sweep,4,+up,0.04597,0.00019,1.42920,-0.32864,0.01850,0.26608,-0.00324,-0.0073,0.0024,-0.0024,0.2564,-0.0073,0.0073,-0.0073,-0.2530,11.5761,0.7316,0.9451,-0.1001,-0.0562,-0.0171,1,1,1,1,1,1,1
6.4648,sweep,4,+up,0.04597,0.00019,1.42920,-0.32864,0.01850,0.26608,-0.00324,-0.0073,0.0024,-0.0024,0.2564,-0.0073,0.0073,-0.0073,-0.2530,11.5761,0.7316,0.9451,-0.1001,-0.0562,-0.0171,1,1,1,1,1,1,1
6.5046,sweep,4,+up,0.04597,0.00019,1.42920,-0.31529,0.01850,0.26608,-0.00324,-0.0024,-0.0024,-0.0024,0.2271,-0.0073,-0.0220,0.0220,-0.2530,11.5487,0.7316,1.1404,-0.1001,-0.0611,-0.0122,1,1,1,1,1,1,1
6.5447,sweep,4,+up,0.04597,0.00019,1.42920,-0.31529,0.01850,0.26608,-0.00324,-0.0024,-0.0024,-0.0024,0.2271,-0.0073,-0.0220,0.0220,-0.2530,11.5487,0.7316,1.1404,-0.1001,-0.0611,-0.0122,1,1,1,1,1,1,1
6.5848,sweep,4,+up,0.04597,0.00019,1.42920,-0.31529,0.01850,0.26608,-0.00324,-0.0024,-0.0024,-0.0024,0.2271,-0.0073,-0.0220,0.0220,-0.2530,11.5487,0.7316,1.1404,-0.1001,-0.0611,-0.0122,1,1,1,1,1,1,1
6.6248,sweep,4,+up,0.04635,0.00019,1.42920,-0.29126,0.01850,0.26608,-0.00362,0.0024,-0.0024,-0.0073,0.1831,0.0073,-0.0073,-0.0073,-0.2667,11.4530,0.6496,1.1209,-0.1001,-0.0562,-0.0122,1,1,1,1,1,1,1
6.6647,sweep,4,+up,0.04635,0.00019,1.42920,-0.29126,0.01850,0.26608,-0.00362,0.0024,-0.0024,-0.0073,0.1831,0.0073,-0.0073,-0.0073,-0.2667,11.4530,0.6496,1.1209,-0.1001,-0.0562,-0.0122,1,1,1,1,1,1,1
6.7049,sweep,4,+up,0.04597,0.00019,1.42920,-0.27256,0.01850,0.26608,-0.00362,-0.0024,0.0024,-0.0024,0.1538,-0.0073,-0.0073,-0.0073,-0.2803,11.4120,0.6085,0.9353,-0.1099,-0.0562,-0.0122,1,1,1,1,1,1,1
6.7454,sweep,4,+up,0.04597,0.00019,1.42920,-0.27256,0.01850,0.26608,-0.00362,-0.0024,0.0024,-0.0024,0.1538,-0.0073,-0.0073,-0.0073,-0.2803,11.4120,0.6085,0.9353,-0.1099,-0.0562,-0.0122,1,1,1,1,1,1,1
6.7848,sweep,4,+up,0.04597,0.00019,1.42920,-0.27256,0.01850,0.26608,-0.00362,-0.0024,0.0024,-0.0024,0.1538,-0.0073,-0.0073,-0.0073,-0.2803,11.4120,0.6085,0.9353,-0.1099,-0.0562,-0.0122,1,1,1,1,1,1,1
6.8247,sweep,4,+up,0.04597,0.00019,1.42920,-0.24701,0.01850,0.26608,-0.00324,-0.0024,-0.0024,-0.0024,0.1245,-0.0073,-0.0073,0.0073,-0.2803,11.3573,0.5675,0.7985,-0.1148,-0.0562,-0.0073,1,1,1,1,1,1,1
6.8648,sweep,4,+up,0.04597,0.00019,1.42920,-0.24701,0.01850,0.26608,-0.00324,-0.0024,-0.0024,-0.0024,0.1245,-0.0073,-0.0073,0.0073,-0.2803,11.3573,0.5675,0.7985,-0.1148,-0.0562,-0.0073,1,1,1,1,1,1,1
6.9046,sweep,4,+up,0.04597,0.00019,1.42920,-0.23251,0.01850,0.26608,-0.00324,-0.0024,-0.0073,-0.0024,0.2271,0.0073,-0.0073,-0.0073,-0.2940,11.3162,0.5402,0.9255,-0.1099,-0.0562,-0.0024,1,1,1,1,1,1,1
6.9449,sweep,4,+up,0.04597,0.00019,1.42920,-0.23251,0.01850,0.26608,-0.00324,-0.0024,-0.0073,-0.0024,0.2271,0.0073,-0.0073,-0.0073,-0.2940,11.3162,0.5402,0.9255,-0.1099,-0.0562,-0.0024,1,1,1,1,1,1,1
6.9848,sweep,4,+up,0.04597,0.00019,1.42920,-0.23251,0.01850,0.26608,-0.00324,-0.0024,-0.0073,-0.0024,0.2271,0.0073,-0.0073,-0.0073,-0.2940,11.3162,0.5402,0.9255,-0.1099,-0.0562,-0.0024,1,1,1,1,1,1,1
7.0249,sweep,4,+up,0.04597,0.00019,1.42920,-0.20733,0.01850,0.26608,-0.00324,0.0024,-0.0024,-0.0024,0.2271,0.0073,-0.0220,-0.0220,-0.3214,11.2752,0.4855,0.8230,-0.1099,-0.0513,-0.0024,1,1,1,1,1,1,1
7.0651,sweep,4,+up,0.04597,0.00019,1.42920,-0.20733,0.01850,0.26608,-0.00324,0.0024,-0.0024,-0.0024,0.2271,0.0073,-0.0220,-0.0220,-0.3214,11.2752,0.4855,0.8230,-0.1099,-0.0513,-0.0024,1,1,1,1,1,1,1
7.1053,sweep,4,+up,0.04597,0.00019,1.42920,-0.19093,0.01850,0.26608,-0.00324,-0.0024,-0.0024,-0.0024,0.1685,-0.0073,-0.0073,-0.0073,-0.3077,11.2479,0.4581,0.8132,-0.1099,-0.0513,-0.0073,1,1,1,1,1,1,1
7.1448,sweep,4,+up,0.04597,0.00019,1.42920,-0.19093,0.01850,0.26608,-0.00324,-0.0024,-0.0024,-0.0024,0.1685,-0.0073,-0.0073,-0.0073,-0.3077,11.2479,0.4581,0.8132,-0.1099,-0.0513,-0.0073,1,1,1,1,1,1,1
7.1847,sweep,4,+up,0.04597,0.00019,1.42920,-0.19093,0.01850,0.26608,-0.00324,-0.0024,-0.0024,-0.0024,0.1685,-0.0073,-0.0073,-0.0073,-0.3077,11.2479,0.4581,0.8132,-0.1099,-0.0513,-0.0073,1,1,1,1,1,1,1
7.2250,sweep,4,+up,0.04597,0.00019,1.42920,-0.16613,0.01850,0.26608,-0.00324,-0.0024,0.0024,-0.0024,0.1245,0.0073,-0.0073,-0.0073,-0.3077,11.2068,0.4308,0.7204,-0.1197,-0.0464,-0.0073,1,1,1,1,1,1,1
7.2649,sweep,4,+up,0.04597,0.00019,1.42920,-0.16613,0.01850,0.26608,-0.00324,-0.0024,0.0024,-0.0024,0.1245,0.0073,-0.0073,-0.0073,-0.3077,11.2068,0.4308,0.7204,-0.1197,-0.0464,-0.0073,1,1,1,1,1,1,1
7.3049,sweep,4,+up,0.04597,0.00019,1.42920,-0.14782,0.01850,0.26608,-0.00362,-0.0024,0.0024,0.0024,0.2564,-0.0073,-0.0073,-0.0220,-0.3214,11.2205,0.3350,0.5397,-0.1197,-0.0464,-0.0073,1,1,1,1,1,1,1
7.3450,sweep,4,+up,0.04597,0.00019,1.42920,-0.14782,0.01850,0.26608,-0.00362,-0.0024,0.0024,0.0024,0.2564,-0.0073,-0.0073,-0.0220,-0.3214,11.2205,0.3350,0.5397,-0.1197,-0.0464,-0.0073,1,1,1,1,1,1,1
7.3848,sweep,4,+up,0.04597,0.00019,1.42920,-0.14782,0.01850,0.26608,-0.00362,-0.0024,0.0024,0.0024,0.2564,-0.0073,-0.0073,-0.0220,-0.3214,11.2205,0.3350,0.5397,-0.1197,-0.0464,-0.0073,1,1,1,1,1,1,1
7.4249,sweep,4,+up,0.04597,0.00019,1.43072,-0.12264,0.01850,0.26608,-0.00324,0.0024,-0.0024,0.0073,0.2125,0.0073,-0.0073,-0.0073,-0.3077,11.2342,-0.5675,0.4371,-0.1294,-0.0415,-0.0073,1,1,1,1,1,1,1
7.4650,sweep,4,+up,0.04597,0.00019,1.43072,-0.12264,0.01850,0.26608,-0.00324,0.0024,-0.0024,0.0073,0.2125,0.0073,-0.0073,-0.0073,-0.3077,11.2342,-0.5675,0.4371,-0.1294,-0.0415,-0.0073,1,1,1,1,1,1,1
7.5047,sweep,4,+up,0.04597,0.00019,1.43111,-0.10319,0.01850,0.26608,-0.00324,0.0024,-0.0024,-0.0073,0.2271,-0.0073,-0.0073,-0.0073,-0.3214,11.2205,-1.1419,0.1685,-0.1294,-0.0415,-0.0122,1,1,1,1,1,1,1
7.5449,sweep,4,+up,0.04597,0.00019,1.43111,-0.10319,0.01850,0.26608,-0.00324,0.0024,-0.0024,-0.0073,0.2271,-0.0073,-0.0073,-0.0073,-0.3214,11.2205,-1.1419,0.1685,-0.1294,-0.0415,-0.0122,1,1,1,1,1,1,1
7.5851,sweep,4,+up,0.04597,0.00019,1.43111,-0.10319,0.01850,0.26608,-0.00324,0.0024,-0.0024,-0.0073,0.2271,-0.0073,-0.0073,-0.0073,-0.3214,11.2205,-1.1419,0.1685,-0.1294,-0.0415,-0.0122,1,1,1,1,1,1,1
7.6248,sweep,4,+up,0.04597,0.00019,1.43072,-0.08106,0.01850,0.26608,-0.00324,0.0024,-0.0024,-0.0024,0.1245,-0.0073,0.0073,0.0073,-0.3077,11.1658,-1.2650,0.3199,-0.1245,-0.0366,-0.0024,1,1,1,1,1,1,1
7.6646,sweep,4,+up,0.04597,0.00019,1.43072,-0.08106,0.01850,0.26608,-0.00324,0.0024,-0.0024,-0.0024,0.1245,-0.0073,0.0073,0.0073,-0.3077,11.1658,-1.2650,0.3199,-0.1245,-0.0366,-0.0024,1,1,1,1,1,1,1
7.7048,sweep,4,+up,0.04597,0.00019,1.43034,-0.06542,0.01812,0.26608,-0.00324,-0.0073,0.0024,-0.0073,0.2564,-0.0220,-0.0220,-0.0073,-0.3214,11.0974,-0.9094,0.3346,-0.1343,-0.0415,-0.0073,1,1,1,1,1,1,1
7.7448,sweep,4,+up,0.04597,0.00019,1.43034,-0.06542,0.01812,0.26608,-0.00324,-0.0073,0.0024,-0.0073,0.2564,-0.0220,-0.0220,-0.0073,-0.3214,11.0974,-0.9094,0.3346,-0.1343,-0.0415,-0.0073,1,1,1,1,1,1,1
7.7847,sweep,4,+up,0.04597,0.00019,1.43034,-0.06542,0.01812,0.26608,-0.00324,-0.0073,0.0024,-0.0073,0.2564,-0.0220,-0.0220,-0.0073,-0.3214,11.0974,-0.9094,0.3346,-0.1343,-0.0415,-0.0073,1,1,1,1,1,1,1
7.8249,sweep,4,+up,0.04597,0.00019,1.43034,-0.03834,0.01850,0.26608,-0.00362,-0.0073,-0.0073,-0.0024,0.2418,0.0073,0.0073,-0.0073,-0.3350,11.0427,-1.1829,0.1245,-0.1343,-0.0269,-0.0073,1,1,1,1,1,1,1
7.8649,sweep,4,+up,0.04597,0.00019,1.43034,-0.03834,0.01850,0.26608,-0.00362,-0.0073,-0.0073,-0.0024,0.2418,0.0073,0.0073,-0.0073,-0.3350,11.0427,-1.1829,0.1245,-0.1343,-0.0269,-0.0073,1,1,1,1,1,1,1
7.9048,sweep,4,+up,0.04597,0.00019,1.43034,-0.02117,0.01812,0.26608,-0.00324,-0.0024,-0.0024,-0.0024,0.2711,0.0073,0.0073,0.0073,-0.3214,11.0154,-1.3744,0.0513,-0.1294,-0.0220,-0.0073,1,1,1,1,1,1,1
7.9449,sweep,4,+up,0.04597,0.00019,1.43034,-0.02117,0.01812,0.26608,-0.00324,-0.0024,-0.0024,-0.0024,0.2711,0.0073,0.0073,0.0073,-0.3214,11.0154,-1.3744,0.0513,-0.1294,-0.0220,-0.0073,1,1,1,1,1,1,1
7.9846,sweep,4,+up,0.04597,0.00019,1.43034,-0.02117,0.01812,0.26608,-0.00324,-0.0024,-0.0024,-0.0024,0.2711,0.0073,0.0073,0.0073,-0.3214,11.0154,-1.3744,0.0513,-0.1294,-0.0220,-0.0073,1,1,1,1,1,1,1
8.0247,sweep,4,+up,0.04597,0.00019,1.43034,0.00172,0.01812,0.26608,-0.00362,-0.0073,0.0024,0.0024,0.2271,-0.0073,-0.0073,-0.0220,-0.3214,11.0154,-1.5521,0.1050,-0.1392,-0.0220,-0.0073,1,1,1,1,1,1,1
8.0647,sweep,4,+up,0.04597,0.00019,1.43034,0.00172,0.01812,0.26608,-0.00362,-0.0073,0.0024,0.0024,0.2271,-0.0073,-0.0073,-0.0220,-0.3214,11.0154,-1.5521,0.1050,-0.1392,-0.0220,-0.0073,1,1,1,1,1,1,1
8.1046,sweep,4,+up,0.04635,0.00019,1.43034,0.01888,0.01850,0.26608,-0.00324,-0.0024,-0.0024,-0.0073,0.1978,-0.0073,-0.0073,-0.0073,-0.3487,10.9744,-1.6342,0.0513,-0.1343,-0.0269,-0.0122,1,1,1,1,1,1,1
8.1448,sweep,4,+up,0.04635,0.00019,1.43034,0.01888,0.01850,0.26608,-0.00324,-0.0024,-0.0024,-0.0073,0.1978,-0.0073,-0.0073,-0.0073,-0.3487,10.9744,-1.6342,0.0513,-0.1343,-0.0269,-0.0122,1,1,1,1,1,1,1
8.1848,sweep,4,+up,0.04635,0.00019,1.43034,0.01888,0.01850,0.26608,-0.00324,-0.0024,-0.0024,-0.0073,0.1978,-0.0073,-0.0073,-0.0073,-0.3487,10.9744,-1.6342,0.0513,-0.1343,-0.0269,-0.0122,1,1,1,1,1,1,1
8.2247,sweep,4,+up,0.04597,0.00019,1.42996,0.04749,0.01850,0.26608,-0.00324,-0.0024,-0.0024,-0.0024,0.2857,-0.0073,-0.0073,0.0073,-0.3624,10.9197,-1.6889,-0.0757,-0.1441,-0.0220,-0.0073,1,1,1,1,1,1,1
8.2647,sweep,4,+up,0.04597,0.00019,1.42996,0.04749,0.01850,0.26608,-0.00324,-0.0024,-0.0024,-0.0024,0.2857,-0.0073,-0.0073,0.0073,-0.3624,10.9197,-1.6889,-0.0757,-0.1441,-0.0220,-0.0073,1,1,1,1,1,1,1
8.3048,sweep,4,+up,0.04597,0.00019,1.42996,0.06619,0.01850,0.26608,-0.00324,0.0024,-0.0073,-0.0024,0.2271,-0.0073,-0.0073,-0.0220,-0.3624,10.8923,-1.7983,-0.2369,-0.1392,-0.0220,-0.0073,1,1,1,1,1,1,1
8.3448,sweep,4,+up,0.04597,0.00019,1.42996,0.06619,0.01850,0.26608,-0.00324,0.0024,-0.0073,-0.0024,0.2271,-0.0073,-0.0073,-0.0220,-0.3624,10.8923,-1.7983,-0.2369,-0.1392,-0.0220,-0.0073,1,1,1,1,1,1,1
8.3847,sweep,4,+up,0.04597,0.00019,1.42996,0.06619,0.01850,0.26608,-0.00324,0.0024,-0.0073,-0.0024,0.2271,-0.0073,-0.0073,-0.0220,-0.3624,10.8923,-1.7983,-0.2369,-0.1392,-0.0220,-0.0073,1,1,1,1,1,1,1
8.4248,sweep,4,+up,0.04597,0.00019,1.42996,0.09022,0.01850,0.26608,-0.00324,-0.0024,-0.0024,-0.0073,0.2125,-0.0073,-0.0073,-0.0073,-0.3897,10.8239,-1.9761,-0.2369,-0.1441,-0.0122,-0.0073,1,1,1,1,1,1,1
8.4648,sweep,4,+up,0.04597,0.00019,1.42996,0.09022,0.01850,0.26608,-0.00324,-0.0024,-0.0024,-0.0073,0.2125,-0.0073,-0.0073,-0.0073,-0.3897,10.8239,-1.9761,-0.2369,-0.1441,-0.0122,-0.0073,1,1,1,1,1,1,1
8.5048,sweep,4,+up,0.04597,0.00019,1.42996,0.10357,0.01850,0.26608,-0.00324,-0.0024,-0.0024,-0.0024,0.1831,0.0073,-0.0220,-0.0073,-0.3897,10.8376,-1.8393,-0.0904,-0.1441,-0.0122,-0.0024,1,1,1,1,1,1,1
8.5447,sweep,4,+up,0.04597,0.00019,1.42996,0.10357,0.01850,0.26608,-0.00324,-0.0024,-0.0024,-0.0024,0.1831,0.0073,-0.0220,-0.0073,-0.3897,10.8376,-1.8393,-0.0904,-0.1441,-0.0122,-0.0024,1,1,1,1,1,1,1
8.5847,sweep,4,+up,0.04597,0.00019,1.42996,0.10357,0.01850,0.26608,-0.00324,-0.0024,-0.0024,-0.0024,0.1831,0.0073,-0.0220,-0.0073,-0.3897,10.8376,-1.8393,-0.0904,-0.1441,-0.0122,-0.0024,1,1,1,1,1,1,1
8.6248,sweep,4,+up,0.04597,0.00019,1.42996,0.12951,0.01850,0.26608,-0.00324,-0.0073,-0.0024,-0.0024,0.2125,0.0073,-0.0073,-0.0073,-0.3761,10.8103,-1.9761,-0.2027,-0.1490,-0.0073,-0.0073,1,1,1,1,1,1,1
8.6647,sweep,4,+up,0.04597,0.00019,1.42996,0.12951,0.01850,0.26608,-0.00324,-0.0073,-0.0024,-0.0024,0.2125,0.0073,-0.0073,-0.0073,-0.3761,10.8103,-1.9761,-0.2027,-0.1490,-0.0073,-0.0073,1,1,1,1,1,1,1
8.7047,sweep,4,+up,0.04597,0.00019,1.42996,0.14668,0.01850,0.26608,-0.00362,-0.0024,-0.0024,-0.0024,0.0952,-0.0073,-0.0220,-0.0220,-0.3761,10.7829,-2.0718,-0.2759,-0.1587,0.0024,-0.0073,1,1,1,1,1,1,1
8.7447,sweep,4,+up,0.04597,0.00019,1.42996,0.14668,0.01850,0.26608,-0.00362,-0.0024,-0.0024,-0.0024,0.0952,-0.0073,-0.0220,-0.0220,-0.3761,10.7829,-2.0718,-0.2759,-0.1587,0.0024,-0.0073,1,1,1,1,1,1,1
8.7847,sweep,4,+up,0.04597,0.00019,1.42996,0.14668,0.01850,0.26608,-0.00362,-0.0024,-0.0024,-0.0024,0.0952,-0.0073,-0.0220,-0.0220,-0.3761,10.7829,-2.0718,-0.2759,-0.1587,0.0024,-0.0073,1,1,1,1,1,1,1
8.8247,sweep,4,+up,0.04597,0.00019,1.42958,0.17109,0.01850,0.26608,-0.00324,0.0024,0.0024,-0.0024,0.1538,-0.0073,-0.0073,0.0073,-0.3487,10.7556,-2.0991,-0.3004,-0.1587,-0.0024,-0.0073,1,1,1,1,1,1,1
8.8647,sweep,4,+up,0.04597,0.00019,1.42958,0.17109,0.01850,0.26608,-0.00324,0.0024,0.0024,-0.0024,0.1538,-0.0073,-0.0073,0.0073,-0.3487,10.7556,-2.0991,-0.3004,-0.1587,-0.0024,-0.0073,1,1,1,1,1,1,1
8.9048,sweep,4,+up,0.04597,0.00019,1.42958,0.18826,0.01850,0.26608,-0.00324,-0.0024,-0.0073,-0.0024,0.2418,-0.0073,-0.0073,-0.0073,-0.3350,10.6872,-2.2085,-0.4127,-0.1636,0.0024,-0.0073,1,1,1,1,1,1,1
8.9446,sweep,4,+up,0.04597,0.00019,1.42958,0.18826,0.01850,0.26608,-0.00324,-0.0024,-0.0073,-0.0024,0.2418,-0.0073,-0.0073,-0.0073,-0.3350,10.6872,-2.2085,-0.4127,-0.1636,0.0024,-0.0073,1,1,1,1,1,1,1
8.9847,sweep,4,+up,0.04597,0.00019,1.42958,0.18826,0.01850,0.26608,-0.00324,-0.0024,-0.0073,-0.0024,0.2418,-0.0073,-0.0073,-0.0073,-0.3350,10.6872,-2.2085,-0.4127,-0.1636,0.0024,-0.0073,1,1,1,1,1,1,1
9.0247,sweep,4,+up,0.04635,-0.00019,1.42958,0.21153,0.01850,0.26608,-0.00324,0.0073,-0.0024,-0.0024,0.2271,-0.0220,-0.0073,-0.0073,-0.3214,10.6598,-2.3316,-0.3541,-0.1636,0.0073,-0.0073,1,1,1,1,1,1,1
9.0648,sweep,4,+up,0.04635,-0.00019,1.42958,0.21153,0.01850,0.26608,-0.00324,0.0073,-0.0024,-0.0024,0.2271,-0.0220,-0.0073,-0.0073,-0.3214,10.6598,-2.3316,-0.3541,-0.1636,0.0073,-0.0073,1,1,1,1,1,1,1
9.1048,sweep,4,+up,0.04597,-0.00019,1.42958,0.23556,0.01850,0.26608,-0.00324,-0.0024,-0.0024,-0.0024,0.1831,-0.0073,-0.0073,-0.0073,-0.3487,10.5915,-2.3043,-0.3785,-0.1783,-0.0024,-0.0073,1,1,1,1,1,1,1
9.1448,sweep,4,+up,0.04597,-0.00019,1.42958,0.23556,0.01850,0.26608,-0.00324,-0.0024,-0.0024,-0.0024,0.1831,-0.0073,-0.0073,-0.0073,-0.3487,10.5915,-2.3043,-0.3785,-0.1783,-0.0024,-0.0073,1,1,1,1,1,1,1
9.1848,sweep,4,+up,0.04597,-0.00019,1.42958,0.23556,0.01850,0.26608,-0.00324,-0.0024,-0.0024,-0.0024,0.1831,-0.0073,-0.0073,-0.0073,-0.3487,10.5915,-2.3043,-0.3785,-0.1783,-0.0024,-0.0073,1,1,1,1,1,1,1
9.2248,sweep,4,+up,0.04597,-0.00019,1.42958,0.25235,0.01850,0.26608,-0.00324,-0.0024,-0.0024,-0.0024,0.1392,0.0073,-0.0073,-0.0073,-0.3761,10.6051,-2.3590,-0.4029,-0.1685,0.0024,-0.0024,1,1,1,1,1,1,1
9.2646,sweep,4,+up,0.04597,-0.00019,1.42958,0.25235,0.01850,0.26608,-0.00324,-0.0024,-0.0024,-0.0024,0.1392,0.0073,-0.0073,-0.0073,-0.3761,10.6051,-2.3590,-0.4029,-0.1685,0.0024,-0.0024,1,1,1,1,1,1,1
9.3046,sweep,4,+up,0.04597,-0.00019,1.42920,0.27714,0.01812,0.26608,-0.00324,-0.0024,-0.0024,-0.0024,0.1685,0.0073,-0.0073,-0.0073,-0.3761,10.6051,-2.2359,-0.4567,-0.1783,-0.0024,0.0024,1,1,1,1,1,1,1
9.3448,sweep,4,+up,0.04597,-0.00019,1.42920,0.27714,0.01812,0.26608,-0.00324,-0.0073,-0.0024,-0.0024,0.1685,0.0073,-0.0073,-0.0073,-0.3624,10.5778,-2.2359,-0.4567,-0.1783,-0.0024,0.0024,1,1,1,1,1,1,1
9.3848,sweep,4,+up,0.04597,-0.00019,1.42920,0.27714,0.01812,0.26608,-0.00324,-0.0073,-0.0024,-0.0024,0.1685,0.0073,-0.0073,-0.0073,-0.3624,10.5778,-2.2359,-0.4567,-0.1783,-0.0024,0.0024,1,1,1,1,1,1,1
9.4247,sweep,4,+up,0.04597,-0.00019,1.42920,0.29393,0.01812,0.26608,-0.00324,-0.0024,-0.0073,-0.0024,0.2711,-0.0073,-0.0073,-0.0073,-0.3350,10.5641,-2.2085,-0.5250,-0.1832,0.0073,-0.0024,1,1,1,1,1,1,1
9.4648,sweep,4,+up,0.04597,-0.00019,1.42920,0.29393,0.01812,0.26608,-0.00324,-0.0024,-0.0073,-0.0024,0.2711,-0.0073,-0.0073,-0.0073,-0.3350,10.5641,-2.2085,-0.5250,-0.1832,0.0073,-0.0024,1,1,1,1,1,1,1
9.5047,sweep,4,+up,0.04597,-0.00019,1.42920,0.29393,0.01812,0.26608,-0.00362,-0.0024,-0.0073,-0.0024,0.2711,-0.0073,-0.0073,-0.0220,-0.3350,10.5641,-2.2085,-0.5250,-0.1832,0.0073,-0.0024,1,1,1,1,1,1,1
9.5446,sweep,4,+up,0.04597,-0.00019,1.42920,0.31720,0.01850,0.26608,-0.00362,-0.0073,-0.0024,-0.0024,0.2271,0.0073,-0.0073,-0.0220,-0.3487,10.4957,-2.2085,-0.5201,-0.1832,0.0073,-0.0024,1,1,1,1,1,1,1
9.5847,sweep,4,+up,0.04597,-0.00019,1.42920,0.31720,0.01850,0.26608,-0.00362,-0.0073,-0.0024,-0.0024,0.2271,0.0073,-0.0073,-0.0220,-0.3487,10.4957,-2.2085,-0.5201,-0.1832,0.0073,-0.0024,1,1,1,1,1,1,1
9.6247,sweep,4,+up,0.04597,-0.00019,1.42920,0.33284,0.01812,0.26608,-0.00362,-0.0073,-0.0024,0.0024,0.1685,-0.0220,-0.0073,-0.0073,-0.3487,10.4957,-2.2359,-0.4713,-0.1832,0.0073,-0.0024,1,1,1,1,1,1,1
9.6647,sweep,4,+up,0.04597,-0.00019,1.42920,0.33284,0.01812,0.26608,-0.00362,-0.0073,-0.0024,0.0024,0.1685,-0.0220,-0.0073,-0.0073,-0.3487,10.4957,-2.2359,-0.4713,-0.1832,0.0073,-0.0024,1,1,1,1,1,1,1
9.7048,sweep,4,+up,0.04597,-0.00019,1.42920,0.33284,0.01812,0.26608,-0.00324,-0.0073,-0.0024,0.0024,0.1685,-0.0220,-0.0220,-0.0073,-0.3487,10.4957,-2.2359,-0.4713,-0.1832,0.0073,-0.0024,1,1,1,1,1,1,1
9.7447,sweep,4,+up,0.04597,-0.00019,1.42920,0.35763,0.01812,0.26608,-0.00324,-0.0073,0.0024,-0.0024,0.1831,0.0073,-0.0220,-0.0073,-0.3487,10.5231,-2.3043,-0.5250,-0.1832,0.0073,-0.0024,1,1,1,1,1,1,1
9.7845,sweep,4,+up,0.04597,-0.00019,1.42920,0.35763,0.01812,0.26608,-0.00324,-0.0073,0.0024,-0.0024,0.1831,0.0073,-0.0220,-0.0073,-0.3487,10.5231,-2.3043,-0.5250,-0.1832,0.0073,-0.0024,1,1,1,1,1,1,1
9.8248,sweep,4,+up,0.04597,-0.00019,1.42920,0.37480,0.01812,0.26608,-0.00324,-0.0073,-0.0024,-0.0024,0.2418,-0.0073,-0.0073,-0.0073,-0.3624,10.5504,-2.3179,-0.5885,-0.1832,0.0073,-0.0073,1,1,1,1,1,1,1
9.8649,sweep,4,+up,0.04597,-0.00019,1.42920,0.37480,0.01812,0.26608,-0.00324,-0.0073,-0.0024,-0.0024,0.2418,-0.0073,-0.0073,-0.0073,-0.3624,10.5504,-2.3179,-0.5885,-0.1832,0.0073,-0.0073,1,1,1,1,1,1,1
9.9050,sweep,4,+up,0.04597,-0.00019,1.42920,0.37480,0.01812,0.26608,-0.00362,-0.0073,-0.0024,-0.0024,0.2418,-0.0073,-0.0073,-0.0073,-0.3624,10.5504,-2.3179,-0.5885,-0.1832,0.0122,-0.0073,1,1,1,1,1,1,1
9.9450,sweep,4,+up,0.04597,-0.00019,1.42920,0.39845,0.01812,0.26608,-0.00362,0.0024,-0.0024,0.0024,0.2271,0.0073,-0.0073,-0.0073,-0.3214,10.5641,-2.3590,-0.5739,-0.1880,0.0122,-0.0073,1,1,1,1,1,1,1
9.9848,sweep,4,+up,0.04597,-0.00019,1.42920,0.39845,0.01812,0.26608,-0.00362,0.0024,-0.0024,0.0024,0.2271,0.0073,-0.0073,-0.0073,-0.3214,10.5641,-2.3590,-0.5739,-0.1880,0.0122,-0.0073,1,1,1,1,1,1,1
10.0248,sweep,4,+up,0.04597,-0.00019,1.42920,0.41524,0.01850,0.26608,-0.00324,-0.0073,-0.0024,-0.0024,0.1685,-0.0073,-0.0220,0.0073,-0.3077,10.5368,-2.3453,-0.6325,-0.1783,0.0122,-0.0024,1,1,1,1,1,1,1
10.0646,sweep,4,+up,0.04597,-0.00019,1.42920,0.41524,0.01850,0.26608,-0.00324,-0.0073,-0.0024,-0.0024,0.1685,-0.0073,-0.0220,0.0073,-0.3077,10.5368,-2.3453,-0.6325,-0.1783,0.0122,-0.0024,1,1,1,1,1,1,1
10.1050,sweep,4,+up,0.04597,-0.00019,1.42920,0.41524,0.01850,0.26608,-0.00324,-0.0073,-0.0024,-0.0024,0.1685,-0.0073,-0.0220,0.0073,-0.3077,10.5368,-2.3453,-0.6325,-0.1783,0.0122,-0.0024,1,1,1,1,1,1,1
10.1448,sweep,4,+up,0.04597,-0.00019,1.42920,0.43965,0.01812,0.26608,-0.00324,-0.0073,-0.0024,-0.0024,0.1685,-0.0073,-0.0220,0.0073,-0.3350,10.6188,-2.3727,-0.6276,-0.1783,0.0122,-0.0024,1,1,1,1,1,1,1
10.1848,sweep,4,+up,0.04597,-0.00019,1.42920,0.43965,0.01812,0.26608,-0.00324,-0.0073,-0.0024,-0.0024,0.1685,-0.0073,-0.0220,0.0073,-0.3350,10.6188,-2.3727,-0.6276,-0.1783,0.0122,-0.0024,1,1,1,1,1,1,1
10.2248,sweep,4,+up,0.04597,-0.00019,1.42920,0.45758,0.01812,0.26608,-0.00324,-0.0024,-0.0024,-0.0024,0.1831,-0.0073,-0.0073,-0.0073,-0.3350,10.6188,-2.4137,-0.8083,-0.1832,0.0122,-0.0073,1,1,1,1,1,1,1
10.2652,sweep,4,+up,0.04597,-0.00019,1.42920,0.45758,0.01812,0.26608,-0.00324,-0.0024,-0.0024,-0.0024,0.1831,-0.0073,-0.0073,-0.0073,-0.3350,10.6188,-2.4137,-0.8083,-0.1832,0.0122,-0.0073,1,1,1,1,1,1,1
10.3050,sweep,4,+up,0.04597,-0.00019,1.42920,0.45758,0.01812,0.26608,-0.00324,-0.0024,-0.0024,-0.0024,0.1831,-0.0073,-0.0073,-0.0073,-0.3350,10.6188,-2.4137,-0.8083,-0.1832,0.0122,-0.0024,1,1,1,1,1,1,1
10.3448,sweep,4,+up,0.04597,-0.00019,1.42920,0.48276,0.01850,0.26608,-0.00324,0.0024,-0.0024,-0.0024,0.1685,-0.0073,0.0073,-0.0073,-0.3487,10.5778,-2.4410,-0.9206,-0.1880,0.0122,-0.0073,1,1,1,1,1,1,1
10.3847,sweep,4,+up,0.04597,-0.00019,1.42920,0.48276,0.01850,0.26608,-0.00324,0.0024,-0.0024,-0.0024,0.1685,-0.0073,0.0073,-0.0073,-0.3487,10.5778,-2.4410,-0.9206,-0.1880,0.0122,-0.0073,1,1,1,1,1,1,1
10.4249,sweep,4,+up,0.04635,-0.00019,1.42920,0.49840,0.01850,0.26608,-0.00362,0.0024,-0.0024,0.0024,0.1831,-0.0073,0.0073,-0.0220,-0.3624,10.6325,-2.4684,-0.9060,-0.1832,0.0171,-0.0073,1,1,1,1,1,1,1
10.4649,sweep,4,+up,0.04635,-0.00019,1.42920,0.49840,0.01850,0.26608,-0.00362,0.0024,-0.0024,0.0024,0.1831,-0.0073,0.0073,-0.0220,-0.3624,10.6325,-2.4684,-0.9060,-0.1832,0.0171,-0.0073,1,1,1,1,1,1,1
10.5049,sweep,4,+up,0.04635,-0.00019,1.42920,0.49840,0.01850,0.26608,-0.00362,0.0024,-0.0024,0.0024,0.1831,-0.0073,0.0073,-0.0220,-0.3624,10.6325,-2.4684,-0.9060,-0.1832,0.0171,-0.0073,1,1,1,1,1,1,1
10.5448,sweep,4,+up,0.04597,-0.00019,1.42920,0.52548,0.01850,0.26608,-0.00324,-0.0024,-0.0024,-0.0073,0.2418,-0.0073,-0.0073,-0.0073,-0.3350,10.6325,-2.5231,-1.1306,-0.1978,0.0171,-0.0073,1,1,1,1,1,1,1
10.5847,sweep,4,+up,0.04597,-0.00019,1.42920,0.52548,0.01850,0.26608,-0.00324,-0.0024,-0.0024,-0.0073,0.2418,-0.0073,-0.0073,-0.0073,-0.3350,10.6325,-2.5231,-1.1306,-0.1978,0.0171,-0.0073,1,1,1,1,1,1,1
10.6250,sweep,4,+up,0.04597,-0.00019,1.42920,0.54189,0.01850,0.26608,-0.00324,-0.0024,0.0024,-0.0024,0.1392,-0.0073,-0.0073,0.0073,-0.3624,10.6598,-2.5504,-1.1941,-0.1978,0.0171,-0.0024,1,1,1,1,1,1,1
10.6647,sweep,4,+up,0.04597,-0.00019,1.42920,0.54189,0.01850,0.26608,-0.00324,-0.0024,0.0024,-0.0024,0.1392,-0.0073,-0.0073,0.0073,-0.3624,10.6598,-2.5504,-1.1941,-0.1978,0.0171,-0.0024,1,1,1,1,1,1,1
10.7047,sweep,4,+up,0.04597,-0.00019,1.42920,0.54189,0.01850,0.26608,-0.00324,-0.0024,0.0024,-0.0024,0.1392,-0.0073,-0.0073,0.0073,-0.3624,10.6598,-2.5504,-1.1941,-0.1978,0.0171,-0.0024,1,1,1,1,1,1,1
10.7448,sweep,4,+up,0.04597,-0.00019,1.42920,0.56592,0.01812,0.26608,-0.00324,-0.0024,-0.0073,-0.0024,0.1685,0.0073,-0.0073,-0.0073,-0.3487,10.6188,-2.6598,-1.2039,-0.1832,0.0269,-0.0073,1,1,1,1,1,1,1
10.7846,sweep,4,+up,0.04597,-0.00019,1.42920,0.56592,0.01812,0.26608,-0.00324,-0.0024,-0.0073,-0.0024,0.1685,0.0073,-0.0073,-0.0073,-0.3487,10.6188,-2.6598,-1.2039,-0.1832,0.0269,-0.0073,1,1,1,1,1,1,1
10.8249,sweep,4,+up,0.04597,-0.00019,1.42920,0.58309,0.01812,0.26608,-0.00324,-0.0073,-0.0024,-0.0024,0.2418,-0.0220,-0.0073,-0.0073,-0.3761,10.6462,-2.6872,-1.2869,-0.1783,0.0269,-0.0024,1,1,1,1,1,1,1
10.8648,sweep,4,+up,0.04597,-0.00019,1.42920,0.58309,0.01812,0.26608,-0.00324,-0.0073,-0.0024,-0.0024,0.2418,-0.0220,-0.0073,-0.0073,-0.3761,10.6462,-2.6872,-1.2869,-0.1783,0.0269,-0.0024,1,1,1,1,1,1,1
10.9047,sweep,4,+up,0.04597,-0.00019,1.42920,0.58309,0.01812,0.26608,-0.00324,-0.0073,-0.0024,-0.0024,0.2418,-0.0220,-0.0073,-0.0073,-0.3761,10.6462,-2.6872,-1.2869,-0.1783,0.0269,-0.0024,1,1,1,1,1,1,1
10.9450,sweep,4,+up,0.04597,-0.00019,1.42920,0.60750,0.01812,0.26608,-0.00324,-0.0024,-0.0024,-0.0073,0.2418,-0.0073,-0.0073,-0.0073,-0.3487,10.6735,-2.6598,-1.3358,-0.1636,0.0366,-0.0073,1,1,1,1,1,1,1
10.9846,sweep,4,+up,0.04597,-0.00019,1.42920,0.60750,0.01812,0.26608,-0.00324,-0.0024,-0.0024,-0.0073,0.2418,-0.0073,-0.0073,-0.0073,-0.3487,10.6735,-2.6598,-1.3358,-0.1636,0.0366,-0.0073,1,1,1,1,1,1,1
11.0248,sweep,4,+up,0.04597,-0.00019,1.42920,0.62276,0.01812,0.26608,-0.00324,-0.0073,-0.0024,-0.0073,0.2125,0.0073,-0.0073,-0.0073,-0.3214,10.6598,-2.7009,-1.2625,-0.1587,0.0366,-0.0073,1,1,1,1,1,1,1
11.0648,sweep,4,+up,0.04597,-0.00019,1.42920,0.62276,0.01812,0.26608,-0.00324,-0.0073,-0.0024,-0.0073,0.2125,0.0073,-0.0073,-0.0073,-0.3214,10.6598,-2.7009,-1.2625,-0.1587,0.0366,-0.0073,1,1,1,1,1,1,1
11.1051,sweep,4,+up,0.04597,-0.00019,1.42920,0.62276,0.01812,0.26608,-0.00324,-0.0073,-0.0024,-0.0073,0.2125,0.0073,-0.0073,-0.0073,-0.3214,10.6598,-2.7009,-1.2625,-0.1587,0.0366,-0.0073,1,1,1,1,1,1,1
11.1448,sweep,4,+up,0.04597,-0.00019,1.42920,0.64870,0.01812,0.26608,-0.00324,-0.0024,-0.0073,-0.0024,0.1978,-0.0073,-0.0073,-0.0073,-0.3487,10.6735,-2.6872,-1.4286,-0.1441,0.0415,-0.0024,1,1,1,1,1,1,1
11.1849,sweep,4,+up,0.04597,-0.00019,1.42920,0.64870,0.01812,0.26608,-0.00324,-0.0024,-0.0073,-0.0024,0.1978,-0.0073,-0.0073,-0.0073,-0.3487,10.6735,-2.6872,-1.4286,-0.1441,0.0415,-0.0024,1,1,1,1,1,1,1
11.2248,sweep,4,+up,0.04597,-0.00019,1.42920,0.66510,0.01812,0.26608,-0.00362,-0.0024,-0.0024,-0.0024,0.1831,-0.0220,0.0073,-0.0073,-0.3487,10.7009,-2.7282,-1.4676,-0.1392,0.0415,-0.0024,1,1,1,1,1,1,1
11.2648,sweep,4,+up,0.04597,-0.00019,1.42920,0.66510,0.01812,0.26608,-0.00362,-0.0024,-0.0024,-0.0024,0.1831,-0.0220,0.0073,-0.0073,-0.3487,10.7009,-2.7282,-1.4676,-0.1392,0.0415,-0.0024,1,1,1,1,1,1,1
11.3052,sweep,4,+up,0.04597,-0.00019,1.42920,0.66510,0.01812,0.26608,-0.00362,-0.0024,-0.0024,-0.0024,0.1831,-0.0220,0.0073,-0.0073,-0.3487,10.7009,-2.7282,-1.4676,-0.1392,0.0415,-0.0024,1,1,1,1,1,1,1
11.3449,sweep,4,+up,0.04597,-0.00019,1.42920,0.68875,0.01812,0.26608,-0.00324,-0.0024,-0.0024,0.0024,0.2125,-0.0073,-0.0073,-0.0073,-0.3761,10.6598,-2.7829,-1.4383,-0.1343,0.0464,-0.0024,1,1,1,1,1,1,1
11.3851,sweep,4,+up,0.04597,-0.00019,1.42920,0.68875,0.01812,0.26608,-0.00324,-0.0024,-0.0024,0.0024,0.2125,-0.0073,-0.0073,-0.0073,-0.3761,10.6598,-2.7829,-1.4383,-0.1343,0.0464,-0.0024,1,1,1,1,1,1,1
11.4248,sweep,4,+up,0.04597,-0.00019,1.42920,0.70554,0.01812,0.26608,-0.00324,-0.0073,-0.0024,-0.0024,0.2125,-0.0073,-0.0073,-0.0073,-0.3624,10.6872,-2.7966,-1.5263,-0.1294,0.0513,-0.0024,1,1,1,1,1,1,1
11.4648,sweep,4,+up,0.04597,-0.00019,1.42920,0.70554,0.01812,0.26608,-0.00324,-0.0073,-0.0024,-0.0024,0.2125,-0.0073,-0.0073,-0.0073,-0.3624,10.6872,-2.7966,-1.5263,-0.1294,0.0513,-0.0024,1,1,1,1,1,1,1
11.5049,sweep,4,+up,0.04597,-0.00019,1.42920,0.70554,0.01812,0.26608,-0.00324,-0.0073,-0.0024,-0.0024,0.2125,-0.0073,-0.0073,-0.0073,-0.3624,10.6872,-2.7966,-1.5263,-0.1294,0.0513,-0.0024,1,1,1,1,1,1,1
11.5449,sweep,4,+up,0.04597,-0.00019,1.42920,0.72919,0.01812,0.26608,-0.00324,-0.0024,-0.0024,-0.0024,0.1831,-0.0073,-0.0220,0.0073,-0.3487,10.6872,-2.8650,-1.4921,-0.1245,0.0562,-0.0024,1,1,1,1,1,1,1
11.5846,sweep,4,+up,0.04597,-0.00019,1.42920,0.72919,0.01812,0.26608,-0.00324,-0.0024,-0.0024,-0.0024,0.1831,-0.0073,-0.0220,0.0073,-0.3487,10.6872,-2.8650,-1.4921,-0.1245,0.0562,-0.0024,1,1,1,1,1,1,1
11.6248,sweep,4,+up,0.04597,-0.00019,1.42920,0.74674,0.01812,0.26608,-0.00324,-0.0024,-0.0024,0.0024,0.2125,-0.0073,0.0073,-0.0073,-0.3487,10.6872,-2.8786,-1.6044,-0.1148,0.0611,-0.0024,1,1,1,1,1,1,1
11.6647,sweep,4,+up,0.04597,-0.00019,1.42920,0.74674,0.01812,0.26608,-0.00324,-0.0024,-0.0024,0.0024,0.2125,-0.0073,0.0073,-0.0073,-0.3487,10.6872,-2.8786,-1.6044,-0.1148,0.0611,-0.0024,1,1,1,1,1,1,1
11.7049,sweep,4,+up,0.04597,-0.00019,1.42920,0.74674,0.01812,0.26608,-0.00324,-0.0024,-0.0024,0.0024,0.2125,-0.0073,0.0073,-0.0073,-0.3487,10.6872,-2.8786,-1.6044,-0.1148,0.0611,-0.0024,1,1,1,1,1,1,1
11.7450,sweep,4,+up,0.04597,-0.00019,1.42920,0.77192,0.01812,0.26608,-0.00362,-0.0024,-0.0073,-0.0073,0.1685,0.0073,0.0073,-0.0073,-0.3350,10.7009,-2.9060,-1.7216,-0.1099,0.0611,-0.0073,1,1,1,1,1,1,1
11.7847,sweep,4,+up,0.04597,-0.00019,1.42920,0.77192,0.01812,0.26608,-0.00362,-0.0024,-0.0073,-0.0073,0.1685,0.0073,0.0073,-0.0073,-0.3350,10.7009,-2.9060,-1.7216,-0.1099,0.0611,-0.0073,1,1,1,1,1,1,1
11.8249,sweep,4,+up,0.04597,-0.00019,1.42920,0.78603,0.01812,0.26608,-0.00324,-0.0122,-0.0073,-0.0024,0.1831,-0.0073,-0.0073,-0.0073,-0.3487,10.7692,-2.9744,-1.5702,-0.1050,0.0611,-0.0073,1,1,1,1,1,1,1
11.8650,sweep,4,+up,0.04597,-0.00019,1.42920,0.78603,0.01812,0.26608,-0.00324,-0.0122,-0.0073,-0.0024,0.1831,-0.0073,-0.0073,-0.0073,-0.3487,10.7692,-2.9744,-1.5702,-0.1050,0.0611,-0.0073,1,1,1,1,1,1,1
11.9050,sweep,4,+up,0.04597,-0.00019,1.42920,0.78603,0.01812,0.26608,-0.00324,-0.0122,-0.0073,-0.0024,0.1831,-0.0073,-0.0073,-0.0073,-0.3487,10.7692,-2.9744,-1.5702,-0.1050,0.0611,-0.0073,1,1,1,1,1,1,1
11.9450,sweep,4,+up,0.04597,-0.00019,1.42920,0.81083,0.01812,0.26608,-0.00362,-0.0073,-0.0024,-0.0024,0.2418,-0.0073,-0.0073,0.0073,-0.3350,10.7282,-2.9880,-1.6190,-0.1001,0.0659,-0.0073,1,1,1,1,1,1,1
11.9849,sweep,4,+up,0.04597,-0.00019,1.42920,0.81083,0.01812,0.26608,-0.00362,-0.0073,-0.0024,-0.0024,0.2418,-0.0073,-0.0073,0.0073,-0.3350,10.7282,-2.9880,-1.6190,-0.1001,0.0659,-0.0073,1,1,1,1,1,1,1
12.0249,sweep,4,+up,0.04597,-0.00019,1.42920,0.82761,0.01812,0.26608,-0.00362,-0.0024,-0.0073,-0.0024,0.1099,-0.0073,0.0073,-0.0073,-0.3350,10.7009,-3.0017,-1.6825,-0.0952,0.0708,-0.0122,1,1,1,1,1,1,1
12.0650,sweep,4,+up,0.04597,-0.00019,1.42920,0.82761,0.01812,0.26608,-0.00362,-0.0024,-0.0073,-0.0024,0.1099,-0.0073,0.0073,-0.0073,-0.3350,10.7009,-3.0017,-1.6825,-0.0952,0.0708,-0.0122,1,1,1,1,1,1,1
12.1046,sweep,4,+up,0.04597,-0.00019,1.42920,0.82761,0.01812,0.26608,-0.00362,-0.0024,-0.0073,-0.0024,0.1099,-0.0073,0.0073,-0.0073,-0.3350,10.7009,-3.0017,-1.6825,-0.0952,0.0708,-0.0122,1,1,1,1,1,1,1
12.1446,sweep,4,+up,0.04597,-0.00019,1.42920,0.84897,0.01812,0.26608,-0.00324,-0.0024,-0.0024,0.0024,0.1538,0.0073,-0.0073,-0.0073,-0.3350,10.7009,-3.0291,-1.7167,-0.1001,0.0708,-0.0073,1,1,1,1,1,1,1
12.1847,sweep,4,+up,0.04597,-0.00019,1.42920,0.84897,0.01812,0.26608,-0.00324,-0.0024,-0.0024,0.0024,0.1538,0.0073,-0.0073,-0.0073,-0.3350,10.7009,-3.0291,-1.7167,-0.1001,0.0708,-0.0073,1,1,1,1,1,1,1
12.2248,sweep,4,+up,0.04597,-0.00019,1.42920,0.85699,0.01812,0.26608,-0.00324,-0.0024,-0.0073,-0.0024,0.0513,-0.0073,-0.0073,-0.0073,-0.3487,10.7009,-2.9607,-1.6728,-0.1001,0.0708,-0.0024,1,1,1,1,1,1,1
12.7272,sweep,4,-down,0.04597,-0.00019,1.42920,0.86080,0.01812,0.26608,-0.00324,-0.0073,0.0024,-0.0073,0.1099,-0.0073,-0.0073,0.0073,-0.3624,10.7282,-2.9470,-1.7265,-0.1001,0.0757,-0.0024,1,1,1,1,1,1,1
12.7675,sweep,4,-down,0.04597,-0.00019,1.42920,0.86080,0.01812,0.26608,-0.00324,-0.0073,0.0024,-0.0073,0.1099,-0.0073,-0.0073,0.0073,-0.3624,10.7282,-2.9470,-1.7265,-0.1001,0.0757,-0.0024,1,1,1,1,1,1,1
12.8073,sweep,4,-down,0.04597,-0.00019,1.42920,0.86080,0.01812,0.26608,-0.00324,-0.0073,0.0024,-0.0073,0.1099,-0.0073,-0.0073,0.0073,-0.3624,10.7282,-2.9470,-1.7265,-0.1001,0.0757,-0.0024,1,1,1,1,1,1,1
12.8473,sweep,4,-down,0.04597,-0.00019,1.42920,0.85966,0.01812,0.26608,-0.00324,-0.0024,-0.0024,-0.0024,-0.2418,-0.0220,-0.0073,-0.0220,-0.3350,10.8650,-3.0701,-2.0537,-0.1001,0.0952,-0.0024,1,1,1,1,1,1,1
12.8872,sweep,4,-down,0.04597,-0.00019,1.42920,0.85966,0.01812,0.26608,-0.00324,-0.0024,-0.0024,-0.0024,-0.2418,-0.0220,-0.0073,-0.0220,-0.3350,10.8650,-3.0701,-2.0537,-0.1001,0.0952,-0.0024,1,1,1,1,1,1,1
12.9273,sweep,4,-down,0.04597,-0.00019,1.42920,0.84325,0.01812,0.26646,-0.00324,-0.0024,-0.0024,-0.0073,-0.2418,-0.0073,0.0073,-0.0073,-0.3214,10.8923,-3.1248,-1.9951,-0.1001,0.0855,-0.0024,1,1,1,1,1,1,1
12.9675,sweep,4,-down,0.04597,-0.00019,1.42920,0.84325,0.01812,0.26646,-0.00324,-0.0024,-0.0024,-0.0073,-0.2418,-0.0073,0.0073,-0.0073,-0.3214,10.8923,-3.1248,-1.9951,-0.1001,0.0855,-0.0024,1,1,1,1,1,1,1
13.0075,sweep,4,-down,0.04597,-0.00019,1.42920,0.84325,0.01812,0.26646,-0.00324,-0.0024,-0.0024,-0.0073,-0.2418,-0.0073,0.0073,-0.0073,-0.3214,10.8923,-3.1248,-1.9951,-0.1001,0.0855,-0.0024,1,1,1,1,1,1,1
13.0473,sweep,4,-down,0.04597,-0.00019,1.42920,0.81960,0.01812,0.26646,-0.00324,-0.0024,-0.0073,-0.0024,-0.1392,-0.0073,0.0073,-0.0073,-0.3077,10.8923,-3.0838,-2.0586,-0.1050,0.0952,-0.0024,1,1,1,1,1,1,1
13.0875,sweep,4,-down,0.04597,-0.00019,1.42920,0.81960,0.01812,0.26646,-0.00324,-0.0024,-0.0073,-0.0024,-0.1392,-0.0073,0.0073,-0.0073,-0.3077,10.8923,-3.0838,-2.0586,-0.1050,0.0952,-0.0024,1,1,1,1,1,1,1
13.1272,sweep,4,-down,0.04597,-0.00019,1.42920,0.80243,0.01812,0.26608,-0.00362,-0.0073,-0.0024,-0.0024,-0.2271,-0.0073,-0.0220,-0.0073,-0.3214,10.8786,-3.0974,-1.9463,-0.1099,0.0904,-0.0024,1,1,1,1,1,1,1
13.1672,sweep,4,-down,0.04597,-0.00019,1.42920,0.80243,0.01812,0.26608,-0.00362,-0.0073,-0.0024,-0.0024,-0.2271,-0.0073,-0.0220,-0.0073,-0.3214,10.8786,-3.0974,-1.9463,-0.1099,0.0904,-0.0024,1,1,1,1,1,1,1
13.2072,sweep,4,-down,0.04597,-0.00019,1.42920,0.80243,0.01812,0.26608,-0.00362,-0.0073,-0.0024,-0.0024,-0.2271,-0.0073,-0.0220,-0.0073,-0.3214,10.8786,-3.0974,-1.9463,-0.1099,0.0904,-0.0024,1,1,1,1,1,1,1
13.2473,sweep,4,-down,0.04597,-0.00019,1.42920,0.77573,0.01812,0.26646,-0.00324,-0.0024,-0.0024,0.0024,-0.2564,0.0073,0.0073,0.0073,-0.3214,10.8786,-3.0701,-1.7509,-0.1050,0.0952,-0.0073,1,1,1,1,1,1,1
13.2875,sweep,4,-down,0.04597,-0.00019,1.42920,0.77573,0.01812,0.26646,-0.00324,-0.0024,-0.0024,0.0024,-0.2564,0.0073,0.0073,0.0073,-0.3214,10.8786,-3.0701,-1.7509,-0.1050,0.0952,-0.0073,1,1,1,1,1,1,1
13.3273,sweep,4,-down,0.04597,-0.00019,1.42920,0.76238,0.01850,0.26646,-0.00324,-0.0024,-0.0024,-0.0024,-0.1831,0.0073,-0.0073,-0.0073,-0.3487,10.8923,-3.1248,-1.9316,-0.1050,0.0904,-0.0024,1,1,1,1,1,1,1
13.3678,sweep,4,-down,0.04597,-0.00019,1.42920,0.76238,0.01850,0.26646,-0.00324,-0.0024,-0.0024,-0.0024,-0.1831,0.0073,-0.0073,-0.0073,-0.3487,10.8923,-3.1248,-1.9316,-0.1050,0.0904,-0.0024,1,1,1,1,1,1,1
13.4074,sweep,4,-down,0.04597,-0.00019,1.42920,0.76238,0.01850,0.26646,-0.00324,-0.0024,-0.0024,-0.0024,-0.1831,0.0073,-0.0073,-0.0073,-0.3487,10.8923,-3.1248,-1.9316,-0.1050,0.0904,-0.0024,1,1,1,1,1,1,1
13.4473,sweep,4,-down,0.04597,-0.00019,1.42920,0.73796,0.01850,0.26608,-0.00324,-0.0122,0.0024,-0.0073,-0.2271,-0.0073,-0.0073,-0.0073,-0.3214,10.9333,-3.1658,-1.9267,-0.1050,0.0855,-0.0073,1,1,1,1,1,1,1
13.4872,sweep,4,-down,0.04597,-0.00019,1.42920,0.73796,0.01850,0.26608,-0.00324,-0.0122,0.0024,-0.0073,-0.2271,-0.0073,-0.0073,-0.0073,-0.3214,10.9333,-3.1658,-1.9267,-0.1050,0.0855,-0.0073,1,1,1,1,1,1,1
13.5271,sweep,4,-down,0.04597,-0.00019,1.42920,0.72004,0.01812,0.26646,-0.00324,-0.0024,-0.0024,-0.0073,-0.1831,-0.0073,-0.0073,-0.0073,-0.3077,10.9470,-3.1521,-1.7753,-0.0952,0.0806,-0.0122,1,1,1,1,1,1,1
13.5674,sweep,4,-down,0.04597,-0.00019,1.42920,0.72004,0.01812,0.26646,-0.00324,-0.0024,-0.0024,-0.0073,-0.1831,-0.0073,-0.0073,-0.0073,-0.3077,10.9470,-3.1521,-1.7753,-0.0952,0.0806,-0.0122,1,1,1,1,1,1,1
13.6075,sweep,4,-down,0.04597,-0.00019,1.42920,0.72004,0.01812,0.26646,-0.00324,-0.0024,-0.0024,-0.0073,-0.1831,-0.0073,-0.0073,-0.0073,-0.3077,10.9470,-3.1521,-1.7753,-0.0952,0.0806,-0.0122,1,1,1,1,1,1,1
13.6473,sweep,4,-down,0.04635,-0.00019,1.42920,0.69676,0.01850,0.26646,-0.00324,-0.0073,-0.0024,0.0024,-0.1831,-0.0073,0.0073,-0.0220,-0.2940,10.9607,-3.1932,-1.8486,-0.1001,0.0757,-0.0073,1,1,1,1,1,1,1
13.6879,sweep,4,-down,0.04635,-0.00019,1.42920,0.69676,0.01850,0.26646,-0.00324,-0.0073,-0.0024,0.0024,-0.1831,-0.0073,0.0073,-0.0220,-0.2940,10.9607,-3.1932,-1.8486,-0.1001,0.0757,-0.0073,1,1,1,1,1,1,1
13.7276,sweep,4,-down,0.04597,-0.00019,1.42920,0.67998,0.01850,0.26646,-0.00362,0.0024,-0.0024,0.0024,-0.2125,0.0073,-0.0073,-0.0073,-0.3077,11.0017,-3.1658,-1.7656,-0.1050,0.0806,-0.0073,1,1,1,1,1,1,1
13.7677,sweep,4,-down,0.04597,-0.00019,1.42920,0.67998,0.01850,0.26646,-0.00362,0.0024,-0.0024,0.0024,-0.2125,0.0073,-0.0073,-0.0073,-0.3077,11.0017,-3.1658,-1.7656,-0.1050,0.0806,-0.0073,1,1,1,1,1,1,1
13.8072,sweep,4,-down,0.04597,-0.00019,1.42920,0.67998,0.01850,0.26646,-0.00362,0.0024,-0.0024,0.0024,-0.2125,0.0073,-0.0073,-0.0073,-0.3077,11.0017,-3.1658,-1.7656,-0.1050,0.0806,-0.0073,1,1,1,1,1,1,1
13.8472,sweep,4,-down,0.04597,-0.00019,1.42920,0.65518,0.01850,0.26646,-0.00324,-0.0073,0.0024,-0.0073,-0.2271,-0.0073,-0.0073,-0.0073,-0.3214,11.0564,-3.1795,-1.7118,-0.1050,0.0757,-0.0073,1,1,1,1,1,1,1
13.8874,sweep,4,-down,0.04597,-0.00019,1.42920,0.65518,0.01850,0.26646,-0.00324,-0.0073,0.0024,-0.0073,-0.2271,-0.0073,-0.0073,-0.0073,-0.3214,11.0564,-3.1795,-1.7118,-0.1050,0.0757,-0.0073,1,1,1,1,1,1,1
13.9272,sweep,4,-down,0.04597,-0.00019,1.42920,0.63993,0.01850,0.26646,-0.00324,-0.0024,-0.0024,-0.0024,-0.1831,0.0073,-0.0073,0.0073,-0.3350,11.0427,-3.1658,-1.7851,-0.1245,0.0757,-0.0024,1,1,1,1,1,1,1
13.9674,sweep,4,-down,0.04597,-0.00019,1.42920,0.63993,0.01850,0.26646,-0.00324,-0.0024,-0.0024,-0.0024,-0.1831,0.0073,-0.0073,0.0073,-0.3350,11.0427,-3.1658,-1.7851,-0.1245,0.0757,-0.0024,1,1,1,1,1,1,1
14.0072,sweep,4,-down,0.04597,-0.00019,1.42920,0.63993,0.01850,0.26646,-0.00324,-0.0024,-0.0024,-0.0024,-0.1831,0.0073,-0.0073,0.0073,-0.3350,11.0427,-3.1658,-1.7851,-0.1245,0.0757,-0.0024,1,1,1,1,1,1,1
14.0476,sweep,4,-down,0.04597,-0.00019,1.42920,0.61513,0.01888,0.26646,-0.00324,-0.0024,-0.0024,-0.0073,-0.1831,-0.0220,-0.0220,-0.0220,-0.3487,11.1111,-3.1385,-1.7070,-0.1490,0.0757,-0.0073,1,1,1,1,1,1,1
14.0875,sweep,4,-down,0.04597,-0.00019,1.42920,0.61513,0.01888,0.26646,-0.00324,-0.0024,-0.0024,-0.0073,-0.1831,-0.0220,-0.0220,-0.0220,-0.3487,11.1111,-3.1385,-1.7070,-0.1490,0.0757,-0.0073,1,1,1,1,1,1,1
14.1276,sweep,4,-down,0.04597,-0.00019,1.42920,0.59834,0.01888,0.26646,-0.00324,-0.0024,-0.0024,-0.0024,-0.2711,-0.0073,-0.0073,-0.0220,-0.2940,11.0974,-3.1385,-1.6288,-0.1636,0.0757,-0.0024,1,1,1,1,1,1,1
14.1672,sweep,4,-down,0.04597,-0.00019,1.42920,0.59834,0.01888,0.26646,-0.00324,-0.0024,-0.0024,-0.0024,-0.2711,-0.0073,-0.0073,-0.0220,-0.2940,11.0974,-3.1385,-1.6288,-0.1636,0.0757,-0.0024,1,1,1,1,1,1,1
14.2072,sweep,4,-down,0.04597,-0.00019,1.42920,0.59834,0.01888,0.26646,-0.00324,-0.0024,-0.0024,-0.0024,-0.2711,-0.0073,-0.0073,-0.0220,-0.2940,11.0974,-3.1385,-1.6288,-0.1636,0.0757,-0.0024,1,1,1,1,1,1,1
14.2489,sweep,4,-down,0.04635,-0.00019,1.42920,0.57393,0.01888,0.26646,-0.00362,0.0024,-0.0024,0.0024,-0.2564,-0.0073,0.0073,-0.0073,-0.2667,11.1385,-3.0291,-1.6239,-0.1880,0.0708,-0.0073,1,1,1,1,1,1,1
14.2874,sweep,4,-down,0.04635,-0.00019,1.42920,0.57393,0.01888,0.26646,-0.00362,0.0024,-0.0024,0.0024,-0.2564,-0.0073,0.0073,-0.0073,-0.2667,11.1385,-3.0291,-1.6239,-0.1880,0.0708,-0.0073,1,1,1,1,1,1,1
14.3274,sweep,4,-down,0.04597,-0.00019,1.42920,0.55867,0.01888,0.26646,-0.00324,-0.0024,-0.0024,-0.0024,-0.1978,-0.0073,-0.0073,-0.0220,-0.2803,11.1521,-2.9744,-1.6777,-0.2027,0.0659,-0.0122,1,1,1,1,1,1,1
14.3677,sweep,4,-down,0.04597,-0.00019,1.42920,0.55867,0.01888,0.26646,-0.00324,-0.0024,-0.0024,-0.0024,-0.1978,-0.0073,-0.0073,-0.0220,-0.2803,11.1521,-2.9744,-1.6777,-0.2027,0.0659,-0.0122,1,1,1,1,1,1,1
14.4075,sweep,4,-down,0.04597,-0.00019,1.42920,0.55867,0.01888,0.26646,-0.00324,-0.0024,-0.0024,-0.0024,-0.1978,-0.0073,-0.0073,-0.0220,-0.2803,11.1521,-2.9744,-1.6777,-0.2027,0.0659,-0.0122,1,1,1,1,1,1,1
14.4475,sweep,4,-down,0.04597,-0.00019,1.42920,0.53349,0.01888,0.26646,-0.00324,-0.0024,-0.0024,0.0024,-0.2125,-0.0073,-0.0073,0.0073,-0.2803,11.1521,-2.9880,-1.5995,-0.2222,0.0611,-0.0122,1,1,1,1,1,1,1
14.4873,sweep,4,-down,0.04597,-0.00019,1.42920,0.53349,0.01888,0.26646,-0.00324,-0.0024,-0.0024,0.0024,-0.2125,-0.0073,-0.0073,0.0073,-0.2803,11.1521,-2.9880,-1.5995,-0.2222,0.0611,-0.0122,1,1,1,1,1,1,1
14.5272,sweep,4,-down,0.04597,-0.00019,1.42882,0.51671,0.01850,0.26646,-0.00324,0.0024,0.0024,-0.0024,-0.2271,-0.0073,0.0073,0.0073,-0.2667,11.1932,-2.9470,-1.5018,-0.2369,0.0562,-0.0122,1,1,1,1,1,1,1
14.5672,sweep,4,-down,0.04597,-0.00019,1.42882,0.51671,0.01850,0.26646,-0.00324,0.0024,0.0024,-0.0024,-0.2271,-0.0073,0.0073,0.0073,-0.2667,11.1932,-2.9470,-1.5018,-0.2369,0.0562,-0.0122,1,1,1,1,1,1,1
14.6074,sweep,4,-down,0.04597,-0.00019,1.42882,0.51671,0.01850,0.26646,-0.00324,0.0024,0.0024,-0.0024,-0.2271,-0.0073,0.0073,0.0073,-0.2667,11.1932,-2.9470,-1.5018,-0.2369,0.0562,-0.0122,1,1,1,1,1,1,1
14.6474,sweep,4,-down,0.04597,-0.00019,1.42920,0.49191,0.01850,0.26646,-0.00324,-0.0024,-0.0024,-0.0073,-0.2711,0.0073,-0.0073,-0.0073,-0.2667,11.1932,-2.8513,-1.4383,-0.2564,0.0513,-0.0171,1,1,1,1,1,1,1
14.6873,sweep,4,-down,0.04597,-0.00019,1.42920,0.49191,0.01850,0.26646,-0.00324,-0.0024,-0.0024,-0.0073,-0.2711,0.0073,-0.0073,-0.0073,-0.2667,11.1932,-2.8513,-1.4383,-0.2564,0.0513,-0.0171,1,1,1,1,1,1,1
14.7275,sweep,4,-down,0.04597,-0.00019,1.42882,0.47627,0.01850,0.26646,-0.00324,-0.0024,-0.0024,-0.0073,-0.1831,-0.0073,-0.0073,0.0073,-0.2940,11.2342,-2.8239,-1.4725,-0.2515,0.0562,-0.0122,1,1,1,1,1,1,1
14.7676,sweep,4,-down,0.04597,-0.00019,1.42882,0.47627,0.01850,0.26646,-0.00324,-0.0024,-0.0024,-0.0073,-0.1831,-0.0073,-0.0073,0.0073,-0.2940,11.2342,-2.8239,-1.4725,-0.2515,0.0562,-0.0122,1,1,1,1,1,1,1
14.8072,sweep,4,-down,0.04597,-0.00019,1.42882,0.47627,0.01850,0.26646,-0.00324,-0.0024,-0.0024,-0.0073,-0.1831,-0.0073,-0.0073,0.0073,-0.2940,11.2342,-2.8239,-1.4725,-0.2515,0.0562,-0.0122,1,1,1,1,1,1,1
14.8475,sweep,4,-down,0.04597,-0.00019,1.42882,0.45262,0.01850,0.26646,-0.00324,-0.0073,-0.0073,-0.0024,-0.1685,0.0073,-0.0073,-0.0073,-0.2940,11.2205,-2.8103,-1.5165,-0.2466,0.0513,-0.0122,1,1,1,1,1,1,1
14.8873,sweep,4,-down,0.04597,-0.00019,1.42882,0.45262,0.01850,0.26646,-0.00324,-0.0073,-0.0073,-0.0024,-0.1685,0.0073,-0.0073,-0.0073,-0.2940,11.2205,-2.8103,-1.5165,-0.2466,0.0513,-0.0122,1,1,1,1,1,1,1
14.9275,sweep,4,-down,0.04597,-0.00019,1.42882,0.43393,0.01812,0.26646,-0.00324,-0.0024,-0.0024,-0.0024,-0.1831,-0.0073,-0.0073,-0.0073,-0.2803,11.2479,-2.8103,-1.3162,-0.2466,0.0562,-0.0171,1,1,1,1,1,1,1
14.9673,sweep,4,-down,0.04597,-0.00019,1.42882,0.43393,0.01812,0.26646,-0.00324,-0.0024,-0.0024,-0.0024,-0.1831,-0.0073,-0.0073,-0.0073,-0.2803,11.2479,-2.8103,-1.3162,-0.2466,0.0562,-0.0171,1,1,1,1,1,1,1
15.0073,sweep,4,-down,0.04597,-0.00019,1.42882,0.43393,0.01812,0.26646,-0.00324,-0.0024,-0.0024,-0.0024,-0.1831,-0.0073,-0.0073,-0.0073,-0.2803,11.2479,-2.8103,-1.3162,-0.2466,0.0562,-0.0171,1,1,1,1,1,1,1
15.0475,sweep,4,-down,0.04597,-0.00019,1.42882,0.40990,0.01812,0.26646,-0.00324,0.0024,0.0024,-0.0024,-0.1538,0.0073,-0.0220,-0.0073,-0.2530,11.2889,-2.7829,-1.3016,-0.2369,0.0562,-0.0171,1,1,1,1,1,1,1
15.0885,sweep,4,-down,0.04597,-0.00019,1.42882,0.40990,0.01812,0.26646,-0.00324,0.0024,0.0024,-0.0024,-0.1538,0.0073,-0.0220,-0.0073,-0.2530,11.2889,-2.7829,-1.3016,-0.2369,0.0562,-0.0171,1,1,1,1,1,1,1
15.1274,sweep,4,-down,0.04597,-0.00019,1.42882,0.39349,0.01812,0.26646,-0.00324,0.0024,-0.0024,-0.0073,-0.2125,-0.0073,0.0073,-0.0073,-0.2393,11.3026,-2.7829,-1.2918,-0.2222,0.0562,-0.0122,1,1,1,1,1,1,1
15.1680,sweep,4,-down,0.04597,-0.00019,1.42882,0.39349,0.01812,0.26646,-0.00324,0.0024,-0.0024,-0.0073,-0.2125,-0.0073,0.0073,-0.0073,-0.2393,11.3026,-2.7829,-1.2918,-0.2222,0.0562,-0.0122,1,1,1,1,1,1,1
15.2073,sweep,4,-down,0.04597,-0.00019,1.42882,0.39349,0.01812,0.26646,-0.00324,0.0024,-0.0024,-0.0073,-0.2125,-0.0073,0.0073,-0.0073,-0.2393,11.3026,-2.7829,-1.2918,-0.2222,0.0562,-0.0122,1,1,1,1,1,1,1
15.2475,sweep,4,-down,0.04597,-0.00019,1.42882,0.36908,0.01812,0.26646,-0.00362,-0.0024,-0.0024,-0.0073,-0.2271,0.0073,-0.0073,-0.0220,-0.2530,11.2752,-2.7145,-1.2625,-0.2222,0.0562,-0.0122,1,1,1,1,1,1,1
15.2872,sweep,4,-down,0.04597,-0.00019,1.42882,0.36908,0.01812,0.26646,-0.00362,-0.0024,-0.0024,-0.0073,-0.2271,0.0073,-0.0073,-0.0220,-0.2530,11.2752,-2.7145,-1.2625,-0.2222,0.0562,-0.0122,1,1,1,1,1,1,1
15.3273,sweep,4,-down,0.04635,-0.00019,1.42882,0.35267,0.01812,0.26646,-0.00324,-0.0024,-0.0024,-0.0073,-0.1978,0.0073,-0.0073,-0.0073,-0.2667,11.2889,-2.6598,-1.2234,-0.2173,0.0513,-0.0171,1,1,1,1,1,1,1
15.3673,sweep,4,-down,0.04635,-0.00019,1.42882,0.35267,0.01812,0.26646,-0.00324,-0.0024,-0.0024,-0.0073,-0.1978,0.0073,-0.0073,-0.0073,-0.2667,11.2889,-2.6598,-1.2234,-0.2173,0.0513,-0.0171,1,1,1,1,1,1,1
15.4078,sweep,4,-down,0.04635,-0.00019,1.42882,0.35267,0.01812,0.26646,-0.00324,-0.0024,-0.0024,-0.0073,-0.1978,0.0073,-0.0073,-0.0073,-0.2667,11.2889,-2.6598,-1.2234,-0.2173,0.0513,-0.0171,1,1,1,1,1,1,1
15.4478,sweep,4,-down,0.04597,-0.00019,1.42882,0.32826,0.01812,0.26646,-0.00324,-0.0073,-0.0024,-0.0024,-0.2125,-0.0220,-0.0073,-0.0073,-0.2803,11.3709,-2.6325,-1.1746,-0.2222,0.0464,-0.0122,1,1,1,1,1,1,1
15.4873,sweep,4,-down,0.04597,-0.00019,1.42882,0.32826,0.01812,0.26646,-0.00324,-0.0073,-0.0024,-0.0024,-0.2125,-0.0220,-0.0073,-0.0073,-0.2803,11.3709,-2.6325,-1.1746,-0.2222,0.0464,-0.0122,1,1,1,1,1,1,1
15.5274,sweep,4,-down,0.04597,-0.00019,1.42882,0.32139,0.01812,0.26646,-0.00362,0.0024,-0.0073,0.0024,-0.1685,0.0073,-0.0220,-0.0073,-0.2667,11.3709,-2.6188,-1.2527,-0.2173,0.0513,-0.0171,1,1,1,1,1,1,1
15.5677,sweep,4,-down,0.04597,-0.00019,1.42882,0.32139,0.01812,0.26646,-0.00362,0.0024,-0.0073,0.0024,-0.1685,0.0073,-0.0220,-0.0073,-0.2667,11.3709,-2.6188,-1.2527,-0.2173,0.0513,-0.0171,1,1,1,1,1,1,1
15.6073,sweep,4,-down,0.04597,-0.00019,1.42882,0.32139,0.01812,0.26646,-0.00362,0.0024,-0.0073,0.0024,-0.1685,0.0073,-0.0220,-0.0073,-0.2667,11.3709,-2.6188,-1.2527,-0.2173,0.0513,-0.0171,1,1,1,1,1,1,1
15.6472,sweep,4,-down,0.04597,-0.00019,1.42882,0.28897,0.01812,0.26646,-0.00324,-0.0024,0.0024,-0.0073,-0.2418,-0.0220,-0.0220,0.0073,-0.2667,11.3846,-2.5504,-1.2186,-0.2173,0.0415,-0.0171,1,1,1,1,1,1,1
15.6873,sweep,4,-down,0.04597,-0.00019,1.42882,0.28897,0.01812,0.26646,-0.00324,-0.0024,0.0024,-0.0073,-0.2418,-0.0220,-0.0220,0.0073,-0.2667,11.3846,-2.5504,-1.2186,-0.2173,0.0415,-0.0171,1,1,1,1,1,1,1
15.7274,sweep,4,-down,0.04635,-0.00019,1.42882,0.27218,0.01812,0.26646,-0.00362,-0.0024,-0.0024,-0.0073,-0.1538,-0.0073,-0.0073,-0.0073,-0.2667,11.3846,-2.4821,-1.1844,-0.2125,0.0464,-0.0122,1,1,1,1,1,1,1
15.7674,sweep,4,-down,0.04635,-0.00019,1.42882,0.27218,0.01812,0.26646,-0.00362,-0.0024,-0.0024,-0.0073,-0.1538,-0.0073,-0.0073,-0.0073,-0.2667,11.3846,-2.4821,-1.1844,-0.2125,0.0464,-0.0122,1,1,1,1,1,1,1
15.8077,sweep,4,-down,0.04635,-0.00019,1.42882,0.27218,0.01812,0.26646,-0.00362,-0.0024,-0.0024,-0.0073,-0.1538,-0.0073,-0.0073,-0.0073,-0.2667,11.3846,-2.4821,-1.1844,-0.2125,0.0464,-0.0122,1,1,1,1,1,1,1
15.8473,sweep,4,-down,0.04597,-0.00019,1.42882,0.24701,0.01812,0.26646,-0.00362,-0.0073,-0.0024,-0.0024,-0.1685,0.0073,-0.0073,-0.0073,-0.2530,11.3983,-2.4000,-1.0623,-0.2222,0.0415,-0.0122,1,1,1,1,1,1,1
15.8873,sweep,4,-down,0.04597,-0.00019,1.42882,0.24701,0.01812,0.26646,-0.00362,-0.0073,-0.0024,-0.0024,-0.1685,0.0073,-0.0073,-0.0073,-0.2530,11.3983,-2.4000,-1.0623,-0.2222,0.0415,-0.0122,1,1,1,1,1,1,1
15.9273,sweep,4,-down,0.04597,-0.00019,1.42882,0.22984,0.01812,0.26646,-0.00324,-0.0024,0.0024,-0.0024,-0.2418,-0.0073,-0.0220,-0.0073,-0.2393,11.3846,-2.3590,-0.9548,-0.2173,0.0415,-0.0073,1,1,1,1,1,1,1
15.9673,sweep,4,-down,0.04597,-0.00019,1.42882,0.22984,0.01812,0.26646,-0.00324,-0.0024,0.0024,-0.0024,-0.2418,-0.0073,-0.0220,-0.0073,-0.2393,11.3846,-2.3590,-0.9548,-0.2173,0.0415,-0.0073,1,1,1,1,1,1,1
16.0073,sweep,4,-down,0.04597,-0.00019,1.42882,0.22984,0.01812,0.26646,-0.00324,-0.0024,0.0024,-0.0024,-0.2418,-0.0073,-0.0220,-0.0073,-0.2393,11.3846,-2.3590,-0.9548,-0.2173,0.0415,-0.0073,1,1,1,1,1,1,1
16.0471,sweep,4,-down,0.04635,-0.00019,1.42882,0.20504,0.01850,0.26646,-0.00324,0.0024,-0.0024,-0.0024,-0.2418,0.0073,-0.0073,-0.0073,-0.2803,11.3983,-2.3179,-0.9255,-0.2173,0.0415,-0.0122,1,1,1,1,1,1,1
16.0873,sweep,4,-down,0.04635,-0.00019,1.42882,0.20504,0.01850,0.26646,-0.00324,0.0024,-0.0024,-0.0024,-0.2418,0.0073,-0.0073,-0.0073,-0.2803,11.3983,-2.3179,-0.9255,-0.2173,0.0415,-0.0122,1,1,1,1,1,1,1
16.1273,sweep,4,-down,0.04597,-0.00019,1.42882,0.18902,0.01850,0.26646,-0.00324,-0.0024,-0.0024,-0.0024,-0.2271,0.0073,-0.0073,0.0073,-0.2803,11.3846,-2.3043,-0.9548,-0.2173,0.0366,-0.0073,1,1,1,1,1,1,1
16.1672,sweep,4,-down,0.04597,-0.00019,1.42882,0.18902,0.01850,0.26646,-0.00324,-0.0024,-0.0024,-0.0024,-0.2271,0.0073,-0.0073,0.0073,-0.2803,11.3846,-2.3043,-0.9548,-0.2173,0.0366,-0.0073,1,1,1,1,1,1,1
16.2071,sweep,4,-down,0.04597,-0.00019,1.42882,0.18902,0.01850,0.26646,-0.00324,-0.0024,-0.0024,-0.0024,-0.2271,0.0073,-0.0073,0.0073,-0.2803,11.3846,-2.3043,-0.9548,-0.2173,0.0366,-0.0073,1,1,1,1,1,1,1
16.2474,sweep,4,-down,0.04597,-0.00019,1.42882,0.16499,0.01812,0.26646,-0.00324,-0.0024,-0.0073,-0.0024,-0.1685,-0.0366,-0.0073,-0.0073,-0.2803,11.4120,-2.2769,-0.9255,-0.2125,0.0366,-0.0073,1,1,1,1,1,1,1
16.2873,sweep,4,-down,0.04597,-0.00019,1.42882,0.16499,0.01812,0.26646,-0.00324,-0.0024,-0.0073,-0.0024,-0.1685,-0.0366,-0.0073,-0.0073,-0.2803,11.4120,-2.2769,-0.9255,-0.2125,0.0366,-0.0073,1,1,1,1,1,1,1
16.3274,sweep,4,-down,0.04597,-0.00019,1.42882,0.14668,0.01812,0.26646,-0.00324,-0.0024,0.0024,-0.0024,-0.2564,-0.0073,-0.0073,-0.0073,-0.2803,11.4393,-2.3179,-0.7253,-0.2125,0.0366,-0.0073,1,1,1,1,1,1,1
16.3673,sweep,4,-down,0.04597,-0.00019,1.42882,0.14668,0.01812,0.26646,-0.00324,-0.0024,0.0024,-0.0024,-0.2564,-0.0073,-0.0073,-0.0073,-0.2803,11.4393,-2.3179,-0.7253,-0.2125,0.0366,-0.0073,1,1,1,1,1,1,1
16.4071,sweep,4,-down,0.04597,-0.00019,1.42882,0.14668,0.01812,0.26646,-0.00324,-0.0024,0.0024,-0.0024,-0.2564,-0.0073,-0.0073,-0.0073,-0.2803,11.4393,-2.3179,-0.7253,-0.2125,0.0366,-0.0073,1,1,1,1,1,1,1
16.4473,sweep,4,-down,0.04635,-0.00019,1.42882,0.12074,0.01812,0.26646,-0.00324,-0.0024,-0.0024,-0.0024,-0.1978,-0.0220,0.0073,0.0073,-0.2803,11.4530,-2.2769,-0.5739,-0.2076,0.0366,-0.0073,1,1,1,1,1,1,1
16.4872,sweep,4,-down,0.04635,-0.00019,1.42882,0.12074,0.01812,0.26646,-0.00324,-0.0024,-0.0024,-0.0024,-0.1978,-0.0220,0.0073,0.0073,-0.2803,11.4530,-2.2769,-0.5739,-0.2076,0.0366,-0.0073,1,1,1,1,1,1,1
16.5273,sweep,4,-down,0.04597,-0.00019,1.42882,0.10662,0.01812,0.26646,-0.00324,-0.0024,0.0024,-0.0024,-0.2711,-0.0073,-0.0220,-0.0073,-0.2940,11.4120,-2.2085,-0.7253,-0.2027,0.0366,-0.0073,1,1,1,1,1,1,1
16.5673,sweep,4,-down,0.04597,-0.00019,1.42882,0.10662,0.01812,0.26646,-0.00324,-0.0024,0.0024,-0.0024,-0.2711,-0.0073,-0.0220,-0.0073,-0.2940,11.4120,-2.2085,-0.7253,-0.2027,0.0366,-0.0073,1,1,1,1,1,1,1
16.6075,sweep,4,-down,0.04597,-0.00019,1.42882,0.10662,0.01812,0.26646,-0.00324,-0.0024,0.0024,-0.0024,-0.2711,-0.0073,-0.0220,-0.0073,-0.2940,11.4120,-2.2085,-0.7253,-0.2027,0.0366,-0.0073,1,1,1,1,1,1,1
16.6473,sweep,4,-down,0.04635,-0.00019,1.42882,0.08183,0.01812,0.26646,-0.00324,-0.0024,-0.0073,-0.0024,-0.2564,-0.0220,-0.0073,-0.0073,-0.3077,11.4530,-2.1675,-0.6520,-0.1880,0.0366,-0.0073,1,1,1,1,1,1,1
16.6873,sweep,4,-down,0.04635,-0.00019,1.42882,0.08183,0.01812,0.26646,-0.00324,-0.0024,-0.0073,-0.0024,-0.2564,-0.0220,-0.0073,-0.0073,-0.3077,11.4530,-2.1675,-0.6520,-0.1880,0.0366,-0.0073,1,1,1,1,1,1,1
16.7274,sweep,4,-down,0.04597,-0.00019,1.42882,0.06466,0.01812,0.26646,-0.00362,0.0024,-0.0024,-0.0024,-0.1831,-0.0073,-0.0073,-0.0073,-0.2940,11.4393,-2.1265,-0.5885,-0.1783,0.0317,-0.0073,1,1,1,1,1,1,1
16.7677,sweep,4,-down,0.04597,-0.00019,1.42882,0.06466,0.01812,0.26646,-0.00362,0.0024,-0.0024,-0.0024,-0.1831,-0.0073,-0.0073,-0.0073,-0.2940,11.4393,-2.1265,-0.5885,-0.1783,0.0317,-0.0073,1,1,1,1,1,1,1
16.8073,sweep,4,-down,0.04597,-0.00019,1.42882,0.06466,0.01812,0.26646,-0.00362,0.0024,-0.0024,-0.0024,-0.1831,-0.0073,-0.0073,-0.0073,-0.2940,11.4393,-2.1265,-0.5885,-0.1783,0.0317,-0.0073,1,1,1,1,1,1,1
16.8472,sweep,4,-down,0.04597,-0.00019,1.42882,0.04025,0.01812,0.26646,-0.00324,0.0024,-0.0024,-0.0024,-0.1978,-0.0073,0.0073,0.0073,-0.3350,11.4803,-2.1128,-0.5397,-0.1734,0.0317,-0.0122,1,1,1,1,1,1,1
16.8872,sweep,4,-down,0.04597,-0.00019,1.42882,0.04025,0.01812,0.26646,-0.00324,0.0024,-0.0024,-0.0024,-0.1978,-0.0073,0.0073,0.0073,-0.3350,11.4803,-2.1128,-0.5397,-0.1734,0.0317,-0.0122,1,1,1,1,1,1,1
16.9273,sweep,4,-down,0.04597,-0.00019,1.42882,0.02346,0.01812,0.26646,-0.00362,-0.0024,-0.0024,-0.0024,-0.2564,0.0073,-0.0073,-0.0073,-0.3487,11.5077,-2.1128,-0.4762,-0.1734,0.0269,-0.0073,1,1,1,1,1,1,1
16.9673,sweep,4,-down,0.04597,-0.00019,1.42882,0.02346,0.01812,0.26646,-0.00362,-0.0024,-0.0024,-0.0024,-0.2564,0.0073,-0.0073,-0.0073,-0.3487,11.5077,-2.1128,-0.4762,-0.1734,0.0269,-0.0073,1,1,1,1,1,1,1
17.0072,sweep,4,-down,0.04597,-0.00019,1.42882,0.02346,0.01812,0.26646,-0.00362,-0.0024,-0.0024,-0.0024,-0.2564,0.0073,-0.0073,-0.0073,-0.3487,11.5077,-2.1128,-0.4762,-0.1734,0.0269,-0.0073,1,1,1,1,1,1,1
17.0472,sweep,4,-down,0.04597,-0.00019,1.42882,-0.00134,0.01812,0.26646,-0.00324,-0.0024,0.0024,0.0024,-0.1978,-0.0073,-0.0073,0.0073,-0.3624,11.4667,-2.0308,-0.4225,-0.1587,0.0269,-0.0073,1,1,1,1,1,1,1
17.0873,sweep,4,-down,0.04597,-0.00019,1.42882,-0.00134,0.01812,0.26646,-0.00324,-0.0024,0.0024,0.0024,-0.1978,-0.0073,-0.0073,0.0073,-0.3624,11.4667,-2.0308,-0.4225,-0.1587,0.0269,-0.0073,1,1,1,1,1,1,1
17.1273,sweep,4,-down,0.04597,-0.00019,1.42882,-0.01774,0.01812,0.26646,-0.00324,-0.0024,-0.0024,-0.0024,-0.1685,-0.0220,-0.0073,-0.0073,-0.3897,11.5214,-2.0034,-0.4078,-0.1587,0.0269,-0.0122,1,1,1,1,1,1,1
17.1673,sweep,4,-down,0.04597,-0.00019,1.42882,-0.01774,0.01812,0.26646,-0.00324,-0.0024,-0.0024,-0.0024,-0.1685,-0.0220,-0.0073,-0.0073,-0.3897,11.5214,-2.0034,-0.4078,-0.1587,0.0269,-0.0122,1,1,1,1,1,1,1
17.2072,sweep,4,-down,0.04597,-0.00019,1.42882,-0.01774,0.01812,0.26646,-0.00324,-0.0024,-0.0024,-0.0024,-0.1685,-0.0220,-0.0073,-0.0073,-0.3897,11.5214,-2.0034,-0.4078,-0.1587,0.0269,-0.0122,1,1,1,1,1,1,1
17.2472,sweep,4,-down,0.04597,-0.00019,1.42882,-0.04330,0.01812,0.26646,-0.00362,0.0024,-0.0024,-0.0024,-0.1978,-0.0220,-0.0073,-0.0073,-0.3897,11.5761,-1.9624,-0.2515,-0.1587,0.0269,-0.0073,1,1,1,1,1,1,1
17.2875,sweep,4,-down,0.04597,-0.00019,1.42882,-0.04330,0.01812,0.26646,-0.00362,0.0024,-0.0024,-0.0024,-0.1978,-0.0220,-0.0073,-0.0073,-0.3897,11.5761,-1.9624,-0.2515,-0.1587,0.0269,-0.0073,1,1,1,1,1,1,1
17.3273,sweep,4,-down,0.04597,-0.00019,1.42882,-0.06085,0.01812,0.26646,-0.00362,-0.0073,-0.0073,-0.0024,-0.1685,-0.0073,-0.0220,-0.0073,-0.3897,11.5761,-1.8940,-0.1490,-0.1392,0.0269,-0.0122,1,1,1,1,1,1,1
17.3673,sweep,4,-down,0.04597,-0.00019,1.42882,-0.06085,0.01812,0.26646,-0.00362,-0.0073,-0.0073,-0.0024,-0.1685,-0.0073,-0.0220,-0.0073,-0.3897,11.5761,-1.8940,-0.1490,-0.1392,0.0269,-0.0122,1,1,1,1,1,1,1
17.4073,sweep,4,-down,0.04597,-0.00019,1.42882,-0.06085,0.01812,0.26646,-0.00362,-0.0073,-0.0073,-0.0024,-0.1685,-0.0073,-0.0220,-0.0073,-0.3897,11.5761,-1.8940,-0.1490,-0.1392,0.0269,-0.0122,1,1,1,1,1,1,1
17.4472,sweep,4,-down,0.04597,-0.00019,1.42882,-0.08755,0.01812,0.26646,-0.00324,-0.0024,-0.0024,0.0024,-0.1685,-0.0220,-0.0073,-0.0073,-0.4171,11.6171,-1.7573,-0.0317,-0.1392,0.0220,-0.0122,1,1,1,1,1,1,1
17.4873,sweep,4,-down,0.04597,-0.00019,1.42882,-0.08755,0.01812,0.26646,-0.00324,-0.0024,-0.0024,0.0024,-0.1685,-0.0220,-0.0073,-0.0073,-0.4171,11.6171,-1.7573,-0.0317,-0.1392,0.0220,-0.0122,1,1,1,1,1,1,1
17.5273,sweep,4,-down,0.04597,-0.00019,1.42882,-0.10586,0.01812,0.26646,-0.00324,-0.0024,-0.0073,-0.0024,-0.3150,-0.0220,-0.0220,0.0073,-0.4308,11.6581,-1.7026,0.0317,-0.1343,0.0220,-0.0122,1,1,1,1,1,1,1
17.5671,sweep,4,-down,0.04597,-0.00019,1.42882,-0.10586,0.01812,0.26646,-0.00324,-0.0024,-0.0073,-0.0024,-0.3150,-0.0220,-0.0220,0.0073,-0.4308,11.6581,-1.7026,0.0317,-0.1343,0.0220,-0.0122,1,1,1,1,1,1,1
17.6073,sweep,4,-down,0.04597,-0.00019,1.42882,-0.10586,0.01812,0.26646,-0.00324,-0.0024,-0.0073,-0.0024,-0.3150,-0.0220,-0.0220,0.0073,-0.4308,11.6581,-1.7026,0.0317,-0.1343,0.0220,-0.0122,1,1,1,1,1,1,1
17.6476,sweep,4,-down,0.04597,-0.00019,1.42805,-0.13371,0.01812,0.26646,-0.00324,-0.0024,0.0024,-0.0024,-0.2564,-0.0073,0.0073,-0.0073,-0.3761,11.6718,-0.9368,0.2173,-0.1245,0.0171,-0.0122,1,1,1,1,1,1,1
17.6872,sweep,4,-down,0.04597,-0.00019,1.42805,-0.13371,0.01812,0.26646,-0.00324,-0.0024,0.0024,-0.0024,-0.2564,-0.0073,0.0073,-0.0073,-0.3761,11.6718,-0.9368,0.2173,-0.1245,0.0171,-0.0122,1,1,1,1,1,1,1
17.7279,sweep,4,-down,0.04597,-0.00019,1.42805,-0.14858,0.01812,0.26646,-0.00362,-0.0024,-0.0073,0.0024,-0.1538,-0.0073,-0.0220,-0.0073,-0.3897,11.6718,-0.8821,0.1538,-0.1343,0.0122,-0.0122,1,1,1,1,1,1,1
17.7675,sweep,4,-down,0.04597,-0.00019,1.42805,-0.14858,0.01812,0.26646,-0.00362,-0.0024,-0.0073,0.0024,-0.1538,-0.0073,-0.0220,-0.0073,-0.3897,11.6718,-0.8821,0.1538,-0.1343,0.0122,-0.0122,1,1,1,1,1,1,1
17.8072,sweep,4,-down,0.04597,-0.00019,1.42805,-0.14858,0.01812,0.26646,-0.00362,-0.0024,-0.0073,0.0024,-0.1538,-0.0073,-0.0220,-0.0073,-0.3897,11.6718,-0.8821,0.1538,-0.1343,0.0122,-0.0122,1,1,1,1,1,1,1
17.8471,sweep,4,-down,0.04597,-0.00019,1.42844,-0.17414,0.01812,0.26646,-0.00324,-0.0024,-0.0024,-0.0073,-0.1978,-0.0220,-0.0073,-0.0073,-0.3624,11.7402,-0.8274,0.2320,-0.1294,0.0073,-0.0122,1,1,1,1,1,1,1
17.8875,sweep,4,-down,0.04597,-0.00019,1.42844,-0.17414,0.01812,0.26646,-0.00324,-0.0024,-0.0024,-0.0073,-0.1978,-0.0220,-0.0073,-0.0073,-0.3624,11.7402,-0.8274,0.2320,-0.1294,0.0073,-0.0122,1,1,1,1,1,1,1
17.9275,sweep,4,-down,0.04597,-0.00019,1.42844,-0.19207,0.01812,0.26646,-0.00362,-0.0024,-0.0024,-0.0024,-0.2711,-0.0220,-0.0073,-0.0220,-0.3350,11.7538,-0.7453,0.3883,-0.1245,0.0073,-0.0171,1,1,1,1,1,1,1
17.9678,sweep,4,-down,0.04597,-0.00019,1.42844,-0.19207,0.01812,0.26646,-0.00362,-0.0024,-0.0024,-0.0024,-0.2711,-0.0220,-0.0073,-0.0220,-0.3350,11.7538,-0.7453,0.3883,-0.1245,0.0073,-0.0171,1,1,1,1,1,1,1
18.0072,sweep,4,-down,0.04597,-0.00019,1.42844,-0.19207,0.01812,0.26646,-0.00362,-0.0024,-0.0024,-0.0024,-0.2711,-0.0220,-0.0073,-0.0220,-0.3350,11.7538,-0.7453,0.3883,-0.1245,0.0073,-0.0171,1,1,1,1,1,1,1
18.0474,sweep,4,-down,0.04597,-0.00019,1.42844,-0.21611,0.01812,0.26646,-0.00362,-0.0024,-0.0024,-0.0024,-0.2857,-0.0073,-0.0073,-0.0073,-0.3214,11.7812,-0.6496,0.3883,-0.1392,0.0024,-0.0171,1,1,1,1,1,1,1
18.0878,sweep,4,-down,0.04597,-0.00019,1.42844,-0.21611,0.01812,0.26646,-0.00362,-0.0024,-0.0024,-0.0024,-0.2857,-0.0073,-0.0073,-0.0073,-0.3214,11.7812,-0.6496,0.3883,-0.1392,0.0024,-0.0171,1,1,1,1,1,1,1
18.1275,sweep,4,-down,0.04597,-0.00019,1.42844,-0.23022,0.01812,0.26646,-0.00362,-0.0024,-0.0024,-0.0024,-0.2418,0.0073,-0.0073,-0.0220,-0.3487,11.7402,-0.5675,0.2515,-0.1343,-0.0024,-0.0171,1,1,1,1,1,1,1
18.1673,sweep,4,-down,0.04597,-0.00019,1.42844,-0.23022,0.01812,0.26646,-0.00362,-0.0024,-0.0024,-0.0024,-0.2418,0.0073,-0.0073,-0.0220,-0.3487,11.7402,-0.5675,0.2515,-0.1343,-0.0024,-0.0171,1,1,1,1,1,1,1
18.2072,sweep,4,-down,0.04597,-0.00019,1.42844,-0.23022,0.01812,0.26646,-0.00362,-0.0024,-0.0024,-0.0024,-0.2418,0.0073,-0.0073,-0.0220,-0.3487,11.7402,-0.5675,0.2515,-0.1343,-0.0024,-0.0171,1,1,1,1,1,1,1
18.2474,sweep,4,-down,0.04597,-0.00019,1.42844,-0.25540,0.01812,0.26646,-0.00362,-0.0024,-0.0073,-0.0024,-0.1978,-0.0073,0.0073,-0.0073,-0.3077,11.7402,-0.4855,0.3248,-0.1197,-0.0024,-0.0122,1,1,1,1,1,1,1
18.2877,sweep,4,-down,0.04597,-0.00019,1.42844,-0.25540,0.01812,0.26646,-0.00362,-0.0024,-0.0073,-0.0024,-0.1978,-0.0073,0.0073,-0.0073,-0.3077,11.7402,-0.4855,0.3248,-0.1197,-0.0024,-0.0122,1,1,1,1,1,1,1
18.3277,sweep,4,-down,0.04597,-0.00019,1.42844,-0.27371,0.01812,0.26646,-0.00362,0.0024,-0.0024,-0.0024,-0.1392,-0.0073,-0.0073,-0.0220,-0.2940,11.7675,-0.4034,0.5153,-0.1294,-0.0024,-0.0122,1,1,1,1,1,1,1
18.3674,sweep,4,-down,0.04597,-0.00019,1.42844,-0.27371,0.01812,0.26646,-0.00362,0.0024,-0.0024,-0.0024,-0.1392,-0.0073,-0.0073,-0.0220,-0.2940,11.7675,-0.4034,0.5153,-0.1294,-0.0024,-0.0122,1,1,1,1,1,1,1
18.4075,sweep,4,-down,0.04597,-0.00019,1.42844,-0.27371,0.01812,0.26646,-0.00362,0.0024,-0.0024,-0.0024,-0.1392,-0.0073,-0.0073,-0.0220,-0.2940,11.7675,-0.4034,0.5153,-0.1294,-0.0024,-0.0122,1,1,1,1,1,1,1
18.4474,sweep,4,-down,0.04597,-0.00019,1.42844,-0.29889,0.01812,0.26646,-0.00362,-0.0024,-0.0024,-0.0073,-0.2271,-0.0220,-0.0073,-0.0073,-0.2940,11.7949,-0.3487,0.5983,-0.1294,-0.0171,-0.0122,1,1,1,1,1,1,1
18.4873,sweep,4,-down,0.04597,-0.00019,1.42844,-0.29889,0.01812,0.26646,-0.00362,-0.0024,-0.0024,-0.0073,-0.2271,-0.0220,-0.0073,-0.0073,-0.2940,11.7949,-0.3487,0.5983,-0.1294,-0.0171,-0.0122,1,1,1,1,1,1,1
18.5272,sweep,4,-down,0.04597,-0.00019,1.42844,-0.31338,0.01812,0.26646,-0.00324,-0.0024,-0.0024,-0.0024,-0.2418,0.0073,-0.0073,-0.0073,-0.2940,11.7538,-0.3214,0.4908,-0.1294,-0.0171,-0.0073,1,1,1,1,1,1,1
18.5674,sweep,4,-down,0.04597,-0.00019,1.42844,-0.31338,0.01812,0.26646,-0.00324,-0.0024,-0.0024,-0.0024,-0.2418,0.0073,-0.0073,-0.0073,-0.2940,11.7538,-0.3214,0.4908,-0.1294,-0.0171,-0.0073,1,1,1,1,1,1,1
18.6075,sweep,4,-down,0.04597,-0.00019,1.42844,-0.31338,0.01812,0.26646,-0.00324,-0.0024,-0.0024,-0.0024,-0.2418,0.0073,-0.0073,-0.0073,-0.2940,11.7538,-0.3214,0.4908,-0.1294,-0.0171,-0.0073,1,1,1,1,1,1,1
18.6473,sweep,4,-down,0.04597,-0.00019,1.42844,-0.33703,0.01812,0.26646,-0.00324,-0.0024,-0.0024,-0.0024,-0.1831,-0.0073,-0.0073,-0.0220,-0.2803,11.8085,-0.2530,0.4713,-0.1245,-0.0220,-0.0073,1,1,1,1,1,1,1
18.6873,sweep,4,-down,0.04597,-0.00019,1.42844,-0.33703,0.01812,0.26646,-0.00324,-0.0024,-0.0024,-0.0024,-0.1831,-0.0073,-0.0073,-0.0220,-0.2803,11.8085,-0.2530,0.4713,-0.1245,-0.0220,-0.0073,1,1,1,1,1,1,1
18.7273,sweep,4,-down,0.04597,-0.00019,1.42844,-0.35649,0.01812,0.26646,-0.00324,-0.0024,-0.0024,-0.0024,-0.1538,-0.0073,-0.0073,-0.0073,-0.2940,11.8085,-0.2393,0.7399,-0.1197,-0.0220,-0.0024,1,1,1,1,1,1,1
18.7677,sweep,4,-down,0.04597,-0.00019,1.42844,-0.35649,0.01812,0.26646,-0.00324,-0.0024,-0.0024,-0.0024,-0.1538,-0.0073,-0.0073,-0.0073,-0.2940,11.8085,-0.2393,0.7399,-0.1197,-0.0220,-0.0024,1,1,1,1,1,1,1
18.8076,sweep,4,-down,0.04597,-0.00019,1.42844,-0.35649,0.01812,0.26646,-0.00324,-0.0024,-0.0024,-0.0024,-0.1538,-0.0073,-0.0073,-0.0073,-0.2940,11.8085,-0.2393,0.7399,-0.1197,-0.0220,-0.0024,1,1,1,1,1,1,1
18.8474,sweep,4,-down,0.04597,-0.00019,1.42844,-0.38128,0.01812,0.26646,-0.00362,-0.0024,-0.0073,-0.0024,-0.1978,-0.0073,-0.0073,-0.0220,-0.2803,11.8085,-0.1709,0.7741,-0.1148,-0.0220,-0.0024,1,1,1,1,1,1,1
18.8874,sweep,4,-down,0.04597,-0.00019,1.42844,-0.38128,0.01812,0.26646,-0.00362,-0.0024,-0.0073,-0.0024,-0.1978,-0.0073,-0.0073,-0.0220,-0.2803,11.8085,-0.1709,0.7741,-0.1148,-0.0220,-0.0024,1,1,1,1,1,1,1
18.9272,sweep,4,-down,0.04597,-0.00019,1.42844,-0.39654,0.01812,0.26646,-0.00324,0.0024,-0.0024,-0.0024,-0.3004,-0.0220,-0.0073,-0.0073,-0.2803,11.8496,-0.1436,0.7253,-0.1099,-0.0269,-0.0073,1,1,1,1,1,1,1
18.9672,sweep,4,-down,0.04597,-0.00019,1.42844,-0.39654,0.01812,0.26646,-0.00324,0.0024,-0.0024,-0.0024,-0.3004,-0.0220,-0.0073,-0.0073,-0.2803,11.8496,-0.1436,0.7253,-0.1099,-0.0269,-0.0073,1,1,1,1,1,1,1
19.0072,sweep,4,-down,0.04597,-0.00019,1.42844,-0.39654,0.01812,0.26646,-0.00324,0.0024,-0.0024,-0.0024,-0.3004,-0.0220,-0.0073,-0.0073,-0.2803,11.8496,-0.1436,0.7253,-0.1099,-0.0269,-0.0073,1,1,1,1,1,1,1
19.0473,sweep,4,-down,0.04597,-0.00019,1.42844,-0.42096,0.01812,0.26646,-0.00362,-0.0024,-0.0024,-0.0024,-0.2564,-0.0220,-0.0073,-0.0073,-0.2803,11.8632,-0.0752,0.7546,-0.1001,-0.0220,-0.0024,1,1,1,1,1,1,1
19.0871,sweep,4,-down,0.04597,-0.00019,1.42844,-0.42096,0.01812,0.26646,-0.00362,-0.0024,-0.0024,-0.0024,-0.2564,-0.0220,-0.0073,-0.0073,-0.2803,11.8632,-0.0752,0.7546,-0.1001,-0.0220,-0.0024,1,1,1,1,1,1,1
19.1273,sweep,4,-down,0.04597,-0.00019,1.42844,-0.43736,0.01812,0.26646,-0.00362,-0.0073,-0.0024,-0.0024,-0.1392,-0.0220,-0.0073,-0.0220,-0.3077,11.8359,-0.0479,0.8132,-0.1050,-0.0269,-0.0073,1,1,1,1,1,1,1
19.1672,sweep,4,-down,0.04597,-0.00019,1.42844,-0.43736,0.01812,0.26646,-0.00362,-0.0073,-0.0024,-0.0024,-0.1392,-0.0220,-0.0073,-0.0220,-0.3077,11.8359,-0.0479,0.8132,-0.1050,-0.0269,-0.0073,1,1,1,1,1,1,1
19.2073,sweep,4,-down,0.04597,-0.00019,1.42844,-0.43736,0.01812,0.26646,-0.00362,-0.0073,-0.0024,-0.0024,-0.1392,-0.0220,-0.0073,-0.0220,-0.3077,11.8359,-0.0479,0.8132,-0.1050,-0.0269,-0.0073,1,1,1,1,1,1,1
19.2472,sweep,4,-down,0.04597,-0.00019,1.42844,-0.46254,0.01812,0.26646,-0.00362,0.0024,-0.0024,-0.0024,-0.1685,-0.0073,-0.0073,-0.0073,-0.2803,11.8496,0.0205,0.8962,-0.1099,-0.0269,-0.0024,1,1,1,1,1,1,1
19.2875,sweep,4,-down,0.04597,-0.00019,1.42844,-0.46254,0.01812,0.26646,-0.00362,0.0024,-0.0024,-0.0024,-0.1685,-0.0073,-0.0073,-0.0073,-0.2803,11.8496,0.0205,0.8962,-0.1099,-0.0269,-0.0024,1,1,1,1,1,1,1
19.3273,sweep,4,-down,0.04635,-0.00019,1.42844,-0.47971,0.01812,0.26646,-0.00324,0.0024,-0.0024,-0.0024,-0.2418,-0.0073,-0.0073,-0.0220,-0.2667,11.8906,0.0479,0.9890,-0.1001,-0.0269,-0.0024,1,1,1,1,1,1,1
19.3673,sweep,4,-down,0.04635,-0.00019,1.42844,-0.47971,0.01812,0.26646,-0.00324,0.0024,-0.0024,-0.0024,-0.2418,-0.0073,-0.0073,-0.0220,-0.2667,11.8906,0.0479,0.9890,-0.1001,-0.0269,-0.0024,1,1,1,1,1,1,1
19.4073,sweep,4,-down,0.04635,-0.00019,1.42844,-0.47971,0.01812,0.26646,-0.00324,0.0024,-0.0024,-0.0024,-0.2418,-0.0073,-0.0073,-0.0220,-0.2667,11.8906,0.0479,0.9890,-0.1001,-0.0269,-0.0024,1,1,1,1,1,1,1
19.4477,sweep,4,-down,0.04597,-0.00019,1.42844,-0.50374,0.01812,0.26646,-0.00324,-0.0024,-0.0024,0.0024,-0.2857,-0.0073,-0.0073,-0.0073,-0.2667,11.8496,0.1026,1.0232,-0.1050,-0.0317,-0.0024,1,1,1,1,1,1,1
19.4875,sweep,4,-down,0.04597,-0.00019,1.42844,-0.50374,0.01812,0.26646,-0.00324,-0.0024,-0.0024,0.0024,-0.2857,-0.0073,-0.0073,-0.0073,-0.2667,11.8496,0.1026,1.0232,-0.1050,-0.0317,-0.0024,1,1,1,1,1,1,1
19.5274,sweep,4,-down,0.04597,-0.00019,1.42844,-0.51862,0.01812,0.26646,-0.00362,-0.0073,0.0024,-0.0073,-0.2125,-0.0073,-0.0073,-0.0220,-0.2530,11.9043,0.1299,0.9060,-0.0952,-0.0317,-0.0073,1,1,1,1,1,1,1
19.5672,sweep,4,-down,0.04597,-0.00019,1.42844,-0.51862,0.01812,0.26646,-0.00362,-0.0073,0.0024,-0.0073,-0.2125,-0.0073,-0.0073,-0.0220,-0.2530,11.9043,0.1299,0.9060,-0.0952,-0.0317,-0.0073,1,1,1,1,1,1,1
19.6072,sweep,4,-down,0.04597,-0.00019,1.42844,-0.51862,0.01812,0.26646,-0.00362,-0.0073,0.0024,-0.0073,-0.2125,-0.0073,-0.0073,-0.0220,-0.2530,11.9043,0.1299,0.9060,-0.0952,-0.0317,-0.0073,1,1,1,1,1,1,1
19.6472,sweep,4,-down,0.04635,-0.00019,1.42844,-0.54418,0.01812,0.26646,-0.00324,-0.0024,-0.0024,-0.0024,-0.1685,-0.0073,-0.0073,0.0073,-0.2667,11.8769,0.1846,1.0427,-0.0952,-0.0317,-0.0073,1,1,1,1,1,1,1
19.6873,sweep,4,-down,0.04635,-0.00019,1.42844,-0.54418,0.01812,0.26646,-0.00324,-0.0024,-0.0024,-0.0024,-0.1685,-0.0073,-0.0073,0.0073,-0.2667,11.8769,0.1846,1.0427,-0.0952,-0.0317,-0.0073,1,1,1,1,1,1,1
19.7274,sweep,4,-down,0.04597,-0.00019,1.42844,-0.56210,0.01812,0.26646,-0.00362,-0.0024,-0.0024,-0.0024,-0.2125,-0.0073,-0.0073,-0.0073,-0.2667,11.8496,0.2120,1.1844,-0.0952,-0.0317,-0.0122,1,1,1,1,1,1,1
19.7672,sweep,4,-down,0.04597,-0.00019,1.42844,-0.56210,0.01812,0.26646,-0.00362,-0.0024,-0.0024,-0.0024,-0.2125,-0.0073,-0.0073,-0.0073,-0.2667,11.8496,0.2120,1.1844,-0.0952,-0.0317,-0.0122,1,1,1,1,1,1,1
19.8072,sweep,4,-down,0.04597,-0.00019,1.42844,-0.56210,0.01812,0.26646,-0.00362,-0.0024,-0.0024,-0.0024,-0.2125,-0.0073,-0.0073,-0.0073,-0.2667,11.8496,0.2120,1.1844,-0.0952,-0.0317,-0.0122,1,1,1,1,1,1,1
19.8474,sweep,4,-down,0.04635,-0.00019,1.42844,-0.58728,0.01812,0.26646,-0.00324,0.0024,-0.0024,-0.0073,-0.2711,-0.0220,-0.0073,-0.0073,-0.2667,11.8769,0.2940,1.3016,-0.0855,-0.0366,-0.0073,1,1,1,1,1,1,1
19.8873,sweep,4,-down,0.04635,-0.00019,1.42844,-0.58728,0.01812,0.26646,-0.00324,0.0024,-0.0024,-0.0073,-0.2711,-0.0220,-0.0073,-0.0073,-0.2667,11.8769,0.2940,1.3016,-0.0855,-0.0366,-0.0073,1,1,1,1,1,1,1
19.9274,sweep,4,-down,0.04635,-0.00019,1.42844,-0.60102,0.01812,0.26646,-0.00324,0.0024,-0.0024,0.0024,-0.2125,-0.0073,0.0073,-0.0073,-0.2530,11.8769,0.3624,1.1062,-0.0904,-0.0317,-0.0073,1,1,1,1,1,1,1
19.9673,sweep,4,-down,0.04635,-0.00019,1.42844,-0.60102,0.01812,0.26646,-0.00324,0.0024,-0.0024,0.0024,-0.2125,-0.0073,0.0073,-0.0073,-0.2530,11.8769,0.3624,1.1062,-0.0904,-0.0317,-0.0073,1,1,1,1,1,1,1
20.0073,sweep,4,-down,0.04635,-0.00019,1.42844,-0.60102,0.01812,0.26646,-0.00324,0.0024,-0.0024,0.0024,-0.2125,-0.0073,0.0073,-0.0073,-0.2530,11.8769,0.3624,1.1062,-0.0904,-0.0317,-0.0073,1,1,1,1,1,1,1
20.0471,sweep,4,-down,0.04597,-0.00019,1.42805,-0.62696,0.01812,0.26646,-0.00324,-0.0024,-0.0024,-0.0073,-0.1538,-0.0073,-0.0073,0.0073,-0.2667,11.9179,0.7179,1.2723,-0.0904,-0.0317,-0.0122,1,1,1,1,1,1,1
20.0878,sweep,4,-down,0.04597,-0.00019,1.42805,-0.62696,0.01812,0.26646,-0.00324,-0.0024,-0.0024,-0.0073,-0.1538,-0.0073,-0.0073,0.0073,-0.2667,11.9179,0.7179,1.2723,-0.0904,-0.0317,-0.0122,1,1,1,1,1,1,1
20.1273,sweep,4,-down,0.04597,-0.00019,1.42767,-0.64832,0.01812,0.26646,-0.00324,0.0024,-0.0024,-0.0024,-0.1978,0.0073,-0.0220,-0.0073,-0.2667,11.8906,1.1556,1.6630,-0.0855,-0.0317,-0.0073,1,1,1,1,1,1,1
20.1676,sweep,4,-down,0.04597,-0.00019,1.42767,-0.64832,0.01812,0.26646,-0.00324,0.0024,-0.0024,-0.0024,-0.1978,0.0073,-0.0220,-0.0073,-0.2667,11.8906,1.1556,1.6630,-0.0855,-0.0317,-0.0073,1,1,1,1,1,1,1
20.2075,sweep,4,-down,0.04597,-0.00019,1.42767,-0.64832,0.01812,0.26646,-0.00324,0.0024,-0.0024,-0.0024,-0.1978,0.0073,-0.0220,-0.0073,-0.2667,11.8906,1.1556,1.6630,-0.0855,-0.0317,-0.0073,1,1,1,1,1,1,1
20.2475,sweep,4,-down,0.04635,-0.00019,1.42844,-0.66930,0.01812,0.26646,-0.00324,-0.0073,-0.0024,-0.0024,-0.2418,-0.0073,-0.0073,-0.0073,-0.2940,11.8906,0.7179,1.4579,-0.0904,-0.0366,-0.0122,1,1,1,1,1,1,1
20.2874,sweep,4,-down,0.04635,-0.00019,1.42844,-0.66930,0.01812,0.26646,-0.00324,-0.0073,-0.0024,-0.0024,-0.2418,-0.0073,-0.0073,-0.0073,-0.2940,11.8906,0.7179,1.4579,-0.0904,-0.0366,-0.0122,1,1,1,1,1,1,1
20.3274,sweep,4,-down,0.04597,-0.00019,1.42844,-0.68418,0.01812,0.26646,-0.00362,-0.0024,-0.0024,-0.0024,-0.3297,-0.0220,-0.0073,-0.0220,-0.2530,11.8769,0.8957,1.3700,-0.0855,-0.0415,-0.0122,1,1,1,1,1,1,1
20.3673,sweep,4,-down,0.04597,-0.00019,1.42844,-0.68418,0.01812,0.26646,-0.00362,-0.0024,-0.0024,-0.0024,-0.3297,-0.0220,-0.0073,-0.0220,-0.2530,11.8769,0.8957,1.3700,-0.0855,-0.0415,-0.0122,1,1,1,1,1,1,1
20.4073,sweep,4,-down,0.04597,-0.00019,1.42844,-0.68418,0.01812,0.26646,-0.00362,-0.0024,-0.0024,-0.0024,-0.3297,-0.0220,-0.0073,-0.0220,-0.2530,11.8769,0.8957,1.3700,-0.0855,-0.0415,-0.0122,1,1,1,1,1,1,1
20.4473,sweep,4,-down,0.04635,-0.00019,1.42805,-0.70401,0.01812,0.26608,-0.00324,-0.0024,-0.0024,-0.0024,-0.1245,-0.0073,-0.0220,-0.0073,-0.2803,11.9179,1.1556,1.3407,-0.0806,-0.0415,-0.0122,1,1,1,1,1,1,1
20.4881,sweep,4,-down,0.04635,-0.00019,1.42805,-0.70401,0.01812,0.26608,-0.00324,-0.0024,-0.0024,-0.0024,-0.1245,-0.0073,-0.0220,-0.0073,-0.2803,11.9179,1.1556,1.3407,-0.0806,-0.0415,-0.0122,1,1,1,1,1,1,1
