peipl15/reBot_Arm/outputs/gravity_calib_20260622_153134.csv
t_s,phase,swept_joint,direction,q1,q2,q3,q4,q5,q6,q7,v1,v2,v3,v4,v5,v6,v7,tau1,tau2,tau3,tau4,tau5,tau6,tau7,st1,st2,st3,st4,st5,st6,st7
0.0026,approach,2,to_lo,0.08602,-0.00095,1.14004,1.60964,-0.05322,-0.28477,-0.00324,-0.0024,-0.0024,-0.0073,0.0073,-0.0073,-0.0073,-0.0073,0.0889,0.0342,-0.0205,-0.0073,-0.0171,-0.0024,-0.0073,1,1,1,1,1,1,1
0.0424,approach,2,to_lo,0.08602,-0.00095,1.14004,1.60964,-0.05322,-0.28477,-0.00324,-0.0024,-0.0024,-0.0073,0.0073,-0.0073,-0.0073,-0.0073,0.0889,0.0342,-0.0205,-0.0073,-0.0171,-0.0024,-0.0073,1,1,1,1,1,1,1
0.0826,approach,2,to_lo,0.08602,0.00210,1.14080,1.60811,-0.05322,-0.28477,-0.00324,-0.0024,0.0659,-0.0024,-0.0806,-0.0073,-0.0073,-0.0073,0.1846,2.4821,-0.5402,-0.3150,-0.0171,-0.0024,-0.0024,1,1,1,1,1,1,1
0.1226,approach,2,to_lo,0.08602,0.00210,1.14080,1.60811,-0.05322,-0.28477,-0.00324,-0.0024,0.0659,-0.0024,-0.0806,-0.0073,-0.0073,-0.0073,0.1846,2.4821,-0.5402,-0.3150,-0.0171,-0.0024,-0.0024,1,1,1,1,1,1,1
0.1625,approach,2,to_lo,0.08602,0.00210,1.14080,1.60811,-0.05322,-0.28477,-0.00324,-0.0024,0.0659,-0.0024,-0.0806,-0.0073,-0.0073,-0.0073,0.1846,2.4821,-0.5402,-0.3150,-0.0171,-0.0024,-0.0024,1,1,1,1,1,1,1
0.2025,approach,2,to_lo,0.08602,0.01812,1.14080,1.59323,-0.05283,-0.28477,-0.00324,-0.0073,0.1050,-0.0024,-0.1099,-0.0073,0.0073,-0.0220,0.1709,4.9709,-0.7590,-0.7009,-0.0171,-0.0073,-0.0024,1,1,1,1,1,1,1
0.2423,approach,2,to_lo,0.08602,0.01812,1.14080,1.59323,-0.05283,-0.28477,-0.00324,-0.0073,0.1050,-0.0024,-0.1099,-0.0073,0.0073,-0.0220,0.1709,4.9709,-0.7590,-0.7009,-0.0171,-0.0073,-0.0024,1,1,1,1,1,1,1
0.2825,approach,2,to_lo,0.08602,0.02651,1.14080,1.58637,-0.05283,-0.28477,-0.00324,0.0024,0.0904,-0.0024,-0.0513,0.0073,0.0073,-0.0073,0.1436,7.8701,-0.8547,-0.7985,-0.0220,-0.0073,0.0024,1,1,1,1,1,1,1
0.3224,approach,2,to_lo,0.08602,0.02651,1.14080,1.58637,-0.05283,-0.28477,-0.00324,0.0024,0.0904,-0.0024,-0.0513,0.0073,0.0073,-0.0073,0.1436,7.8701,-0.8547,-0.7985,-0.0220,-0.0073,0.0024,1,1,1,1,1,1,1
0.3624,approach,2,to_lo,0.08602,0.02651,1.14080,1.58637,-0.05283,-0.28477,-0.00324,0.0024,0.0904,-0.0024,-0.0513,0.0073,0.0073,-0.0073,0.1436,7.8701,-0.8547,-0.7985,-0.0220,-0.0073,0.0024,1,1,1,1,1,1,1
0.4023,approach,2,to_lo,0.08602,0.03758,1.14080,1.58026,-0.05283,-0.28477,-0.00324,-0.0024,0.0952,-0.0024,-0.0220,0.0073,-0.0073,-0.0073,0.1573,11.7402,-1.0051,-0.9695,-0.0317,-0.0024,-0.0024,1,1,1,1,1,1,1
0.4427,approach,2,to_lo,0.08602,0.03758,1.14080,1.58026,-0.05283,-0.28477,-0.00324,-0.0024,0.0952,-0.0024,-0.0220,0.0073,-0.0073,-0.0073,0.1573,11.7402,-1.0051,-0.9695,-0.0317,-0.0024,-0.0024,1,1,1,1,1,1,1
0.4825,approach,2,to_lo,0.08602,0.04521,1.14080,1.57912,-0.05322,-0.28477,-0.00324,-0.0024,0.0904,-0.0024,-0.0220,-0.0073,-0.0073,-0.0220,0.1436,13.1350,-1.0872,-1.1893,-0.0317,-0.0073,-0.0024,1,1,1,1,1,1,1
0.5225,approach,2,to_lo,0.08602,0.04521,1.14080,1.57912,-0.05322,-0.28477,-0.00324,-0.0024,0.0904,-0.0024,-0.0220,-0.0073,-0.0073,-0.0220,0.1436,13.1350,-1.0872,-1.1893,-0.0317,-0.0073,-0.0024,1,1,1,1,1,1,1
0.5625,approach,2,to_lo,0.08602,0.04521,1.14080,1.57912,-0.05322,-0.28477,-0.00324,-0.0024,0.0904,-0.0024,-0.0220,-0.0073,-0.0073,-0.0220,0.1436,13.1350,-1.0872,-1.1893,-0.0317,-0.0073,-0.0024,1,1,1,1,1,1,1
0.6025,approach,2,to_lo,0.08602,0.05550,1.14080,1.57797,-0.05322,-0.28477,-0.00324,-0.0073,0.1001,-0.0073,-0.0220,-0.0220,-0.0220,-0.0073,0.1436,14.4752,-1.1966,-1.5067,-0.0317,-0.0024,-0.0073,1,1,1,1,1,1,1
0.6426,approach,2,to_lo,0.08602,0.05550,1.14080,1.57797,-0.05322,-0.28477,-0.00324,-0.0073,0.1001,-0.0073,-0.0220,-0.0220,-0.0220,-0.0073,0.1436,14.4752,-1.1966,-1.5067,-0.0317,-0.0024,-0.0073,1,1,1,1,1,1,1
0.6825,approach,2,to_lo,0.08602,0.06199,1.14080,1.57721,-0.05322,-0.28477,-0.00324,-0.0024,0.0611,-0.0024,-0.0073,-0.0220,-0.0073,-0.0073,0.1436,14.4615,-1.1829,-1.6777,-0.0366,-0.0024,-0.0073,1,1,1,1,1,1,1
0.7226,approach,2,to_lo,0.08602,0.06199,1.14080,1.57721,-0.05322,-0.28477,-0.00324,-0.0024,0.0611,-0.0024,-0.0073,-0.0220,-0.0073,-0.0073,0.1436,14.4615,-1.1829,-1.6777,-0.0366,-0.0024,-0.0073,1,1,1,1,1,1,1
0.7628,approach,2,to_lo,0.08602,0.06199,1.14080,1.57721,-0.05322,-0.28477,-0.00324,-0.0024,0.0611,-0.0024,-0.0073,-0.0220,-0.0073,-0.0073,0.1436,14.4615,-1.1829,-1.6777,-0.0366,-0.0024,-0.0073,1,1,1,1,1,1,1
0.8029,approach,2,to_lo,0.08602,0.07000,1.14042,1.57645,-0.05322,-0.28515,-0.00362,0.0024,0.0562,-0.0024,-0.0073,-0.0073,-0.0073,-0.0073,0.1436,15.7607,-1.0051,-1.9316,-0.0415,-0.0024,-0.0073,1,1,1,1,1,1,1
0.8429,approach,2,to_lo,0.08602,0.07000,1.14042,1.57645,-0.05322,-0.28515,-0.00362,0.0024,0.0562,-0.0024,-0.0073,-0.0073,-0.0073,-0.0073,0.1436,15.7607,-1.0051,-1.9316,-0.0415,-0.0024,-0.0073,1,1,1,1,1,1,1
0.8826,approach,2,to_lo,0.08602,0.07610,1.14004,1.57607,-0.05322,-0.28515,-0.00324,-0.0024,0.0611,-0.0122,-0.0073,-0.0073,-0.0220,-0.0073,0.1436,14.4342,-0.8000,-2.1026,-0.0415,0.0024,-0.0073,1,1,1,1,1,1,1
0.9225,approach,2,to_lo,0.08602,0.07610,1.14004,1.57607,-0.05322,-0.28515,-0.00324,-0.0024,0.0611,-0.0122,-0.0073,-0.0073,-0.0220,-0.0073,0.1436,14.4342,-0.8000,-2.1026,-0.0415,0.0024,-0.0073,1,1,1,1,1,1,1
0.9626,approach,2,to_lo,0.08602,0.07610,1.14004,1.57607,-0.05322,-0.28515,-0.00324,-0.0024,0.0611,-0.0122,-0.0073,-0.0073,-0.0220,-0.0073,0.1436,14.4342,-0.8000,-2.1026,-0.0415,0.0024,-0.0073,1,1,1,1,1,1,1
1.0025,approach,2,to_lo,0.08602,0.08183,1.14004,1.57530,-0.05322,-0.28515,-0.00324,-0.0024,0.0464,-0.0024,-0.0220,-0.0073,-0.0073,-0.0073,0.1436,15.2274,-0.7179,-2.3126,-0.0415,-0.0024,-0.0024,1,1,1,1,1,1,1
1.0423,approach,2,to_lo,0.08602,0.08183,1.14004,1.57530,-0.05322,-0.28515,-0.00324,-0.0024,0.0464,-0.0024,-0.0220,-0.0073,-0.0073,-0.0073,0.1436,15.2274,-0.7179,-2.3126,-0.0415,-0.0024,-0.0024,1,1,1,1,1,1,1
1.0825,approach,2,to_lo,0.08602,0.08526,1.14004,1.57492,-0.05322,-0.28477,-0.00324,-0.0024,0.0659,-0.0024,-0.0220,-0.0073,-0.0073,-0.0073,0.1436,15.8701,-0.7590,-2.4542,-0.0464,-0.0024,-0.0073,1,1,1,1,1,1,1
1.1224,approach,2,to_lo,0.08602,0.08526,1.14004,1.57492,-0.05322,-0.28477,-0.00324,-0.0024,0.0659,-0.0024,-0.0220,-0.0073,-0.0073,-0.0073,0.1436,15.8701,-0.7590,-2.4542,-0.0464,-0.0024,-0.0073,1,1,1,1,1,1,1
1.1625,approach,2,to_lo,0.08602,0.08526,1.14004,1.57492,-0.05322,-0.28477,-0.00324,-0.0024,0.0659,-0.0024,-0.0220,-0.0073,-0.0073,-0.0073,0.1436,15.8701,-0.7590,-2.4542,-0.0464,-0.0024,-0.0073,1,1,1,1,1,1,1
1.2026,approach,2,to_lo,0.08602,0.09174,1.14004,1.57225,-0.05322,-0.28515,-0.00362,0.0024,0.0220,-0.0024,-0.0366,0.0073,-0.0073,-0.0073,0.1299,14.1880,-0.7590,-2.3565,-0.0513,-0.0024,-0.0073,1,1,1,1,1,1,1
1.2427,approach,2,to_lo,0.08602,0.09174,1.14004,1.57225,-0.05322,-0.28515,-0.00362,0.0024,0.0220,-0.0024,-0.0366,0.0073,-0.0073,-0.0073,0.1299,14.1880,-0.7590,-2.3565,-0.0513,-0.0024,-0.0073,1,1,1,1,1,1,1
1.2824,approach,2,to_lo,0.08602,0.09556,1.14004,1.57149,-0.05322,-0.28515,-0.00362,-0.0024,0.0220,-0.0024,-0.0220,0.0073,-0.0220,-0.0220,0.1299,14.9265,-0.7316,-2.3614,-0.0562,-0.0024,-0.0024,1,1,1,1,1,1,1
1.3226,approach,2,to_lo,0.08602,0.09556,1.14004,1.57149,-0.05322,-0.28515,-0.00362,-0.0024,0.0220,-0.0024,-0.0220,0.0073,-0.0220,-0.0220,0.1299,14.9265,-0.7316,-2.3614,-0.0562,-0.0024,-0.0024,1,1,1,1,1,1,1
1.3624,approach,2,to_lo,0.08602,0.09556,1.14004,1.57149,-0.05322,-0.28515,-0.00362,-0.0024,0.0220,-0.0024,-0.0220,0.0073,-0.0220,-0.0220,0.1299,14.9265,-0.7316,-2.3614,-0.0562,-0.0024,-0.0024,1,1,1,1,1,1,1
1.4025,approach,2,to_lo,0.08602,0.09747,1.14004,1.57149,-0.05322,-0.28515,-0.00324,-0.0024,0.0171,-0.0024,-0.0220,-0.0073,-0.0073,-0.0073,0.1162,15.4872,-0.7863,-2.4200,-0.0513,-0.0024,-0.0073,1,1,1,1,1,1,1
1.4426,approach,2,to_lo,0.08602,0.09747,1.14004,1.57149,-0.05322,-0.28515,-0.00324,-0.0024,0.0171,-0.0024,-0.0220,-0.0073,-0.0073,-0.0073,0.1162,15.4872,-0.7863,-2.4200,-0.0513,-0.0024,-0.0073,1,1,1,1,1,1,1
1.4825,approach,2,to_lo,0.08602,0.10090,1.14004,1.57073,-0.05322,-0.28515,-0.00362,-0.0024,0.0171,-0.0024,-0.0220,-0.0073,0.0073,-0.0220,0.1299,15.1726,-0.7453,-2.4103,-0.0562,-0.0024,-0.0073,1,1,1,1,1,1,1
1.9852,sweep,2,+up,0.08602,0.10090,1.14004,1.57111,-0.05322,-0.28515,-0.00324,-0.0073,0.0171,-0.0024,-0.0073,-0.0073,-0.0073,-0.0073,0.1299,15.1863,-0.7453,-2.4103,-0.0562,-0.0073,-0.0073,1,1,1,1,1,1,1
2.0251,sweep,2,+up,0.08602,0.10090,1.14004,1.57111,-0.05322,-0.28515,-0.00324,-0.0073,0.0171,-0.0024,-0.0073,-0.0073,-0.0073,-0.0073,0.1299,15.1863,-0.7453,-2.4103,-0.0562,-0.0073,-0.0073,1,1,1,1,1,1,1
2.0651,sweep,2,+up,0.08602,0.10090,1.14004,1.57111,-0.05322,-0.28515,-0.00324,-0.0073,0.0171,-0.0024,-0.0073,-0.0073,-0.0073,-0.0073,0.1299,15.1863,-0.7453,-2.4103,-0.0562,-0.0073,-0.0073,1,1,1,1,1,1,1
2.1050,sweep,2,+up,0.08602,0.12455,1.14004,1.57301,-0.05322,-0.28515,-0.00324,-0.0073,0.1929,0.0073,-0.0513,0.0073,0.0073,-0.0073,0.1162,16.0342,-1.1009,-2.4982,-0.0757,0.0073,-0.0024,1,1,1,1,1,1,1
2.1453,sweep,2,+up,0.08602,0.12455,1.14004,1.57301,-0.05322,-0.28515,-0.00324,-0.0073,0.1929,0.0073,-0.0513,0.0073,0.0073,-0.0073,0.1162,16.0342,-1.1009,-2.4982,-0.0757,0.0073,-0.0024,1,1,1,1,1,1,1
2.1852,sweep,2,+up,0.08602,0.14248,1.13966,1.57111,-0.05360,-0.28515,-0.00362,-0.0024,0.2271,-0.0073,-0.0659,0.0073,-0.0220,-0.0220,0.1299,13.6137,-0.6632,-2.4298,-0.0659,0.0073,-0.0073,1,1,1,1,1,1,1
2.2253,sweep,2,+up,0.08602,0.14248,1.13966,1.57111,-0.05360,-0.28515,-0.00362,-0.0024,0.2271,-0.0073,-0.0659,0.0073,-0.0220,-0.0220,0.1299,13.6137,-0.6632,-2.4298,-0.0659,0.0073,-0.0073,1,1,1,1,1,1,1
2.2652,sweep,2,+up,0.08602,0.14248,1.13966,1.57111,-0.05360,-0.28515,-0.00362,-0.0024,0.2271,-0.0073,-0.0659,0.0073,-0.0220,-0.0220,0.1299,13.6137,-0.6632,-2.4298,-0.0659,0.0073,-0.0073,1,1,1,1,1,1,1
2.3052,sweep,2,+up,0.08602,0.16613,1.13890,1.56882,-0.05322,-0.28515,-0.00324,-0.0024,0.1880,0.0024,0.0073,0.0073,-0.0220,-0.0220,0.1162,14.3111,-0.0889,-2.1221,-0.0708,0.0073,-0.0073,1,1,1,1,1,1,1
2.3454,sweep,2,+up,0.08602,0.16613,1.13890,1.56882,-0.05322,-0.28515,-0.00324,-0.0024,0.1880,0.0024,0.0073,0.0073,-0.0220,-0.0220,0.1162,14.3111,-0.0889,-2.1221,-0.0708,0.0073,-0.0073,1,1,1,1,1,1,1
2.3854,sweep,2,+up,0.08602,0.18254,1.13890,1.56882,-0.05360,-0.28515,-0.00362,0.0024,0.1636,-0.0073,-0.0366,-0.0073,-0.0220,-0.0073,0.1026,13.7368,-0.0068,-2.0391,-0.0611,0.0073,-0.0073,1,1,1,1,1,1,1
2.4252,sweep,2,+up,0.08602,0.18254,1.13890,1.56882,-0.05360,-0.28515,-0.00362,0.0024,0.1636,-0.0073,-0.0366,-0.0073,-0.0220,-0.0073,0.1026,13.7368,-0.0068,-2.0391,-0.0611,0.0073,-0.0073,1,1,1,1,1,1,1
2.4654,sweep,2,+up,0.08602,0.18254,1.13890,1.56882,-0.05360,-0.28515,-0.00362,0.0024,0.1636,-0.0073,-0.0366,-0.0073,-0.0220,-0.0073,0.1026,13.7368,-0.0068,-2.0391,-0.0611,0.0073,-0.0073,1,1,1,1,1,1,1
2.5053,sweep,2,+up,0.08602,0.20733,1.13813,1.56958,-0.05360,-0.28515,-0.00324,-0.0024,0.2076,0.0024,-0.0220,0.0073,-0.0220,-0.0073,0.0752,12.3145,0.8274,-2.0440,-0.0611,0.0122,-0.0073,1,1,1,1,1,1,1
2.5452,sweep,2,+up,0.08602,0.20733,1.13813,1.56958,-0.05360,-0.28515,-0.00324,-0.0024,0.2076,0.0024,-0.0220,0.0073,-0.0220,-0.0073,0.0752,12.3145,0.8274,-2.0440,-0.0611,0.0122,-0.0073,1,1,1,1,1,1,1
2.5854,sweep,2,+up,0.08602,0.22488,1.13775,1.56806,-0.05360,-0.28515,-0.00324,-0.0024,0.2173,-0.0073,-0.0073,-0.0220,0.0073,-0.0220,0.0479,10.5504,1.3744,-1.8828,-0.0611,0.0122,-0.0073,1,1,1,1,1,1,1
2.6254,sweep,2,+up,0.08602,0.22488,1.13775,1.56806,-0.05360,-0.28515,-0.00324,-0.0024,0.2173,-0.0073,-0.0073,-0.0220,0.0073,-0.0220,0.0479,10.5504,1.3744,-1.8828,-0.0611,0.0122,-0.0073,1,1,1,1,1,1,1
2.6651,sweep,2,+up,0.08602,0.22488,1.13775,1.56806,-0.05360,-0.28515,-0.00324,-0.0024,0.2173,-0.0073,-0.0073,-0.0220,0.0073,-0.0220,0.0479,10.5504,1.3744,-1.8828,-0.0611,0.0122,-0.0073,1,1,1,1,1,1,1
2.7051,sweep,2,+up,0.08602,0.24662,1.13851,1.57301,-0.05322,-0.28515,-0.00324,-0.0024,0.1587,-0.0024,-0.0073,-0.0220,-0.0073,-0.0073,0.0479,13.6547,1.0872,-2.2198,-0.0611,0.0122,-0.0073,1,1,1,1,1,1,1
2.7453,sweep,2,+up,0.08602,0.24662,1.13851,1.57301,-0.05322,-0.28515,-0.00324,-0.0024,0.1587,-0.0024,-0.0073,-0.0220,-0.0073,-0.0073,0.0479,13.6547,1.0872,-2.2198,-0.0611,0.0122,-0.0073,1,1,1,1,1,1,1
2.7853,sweep,2,+up,0.08602,0.27218,1.13813,1.57149,-0.05360,-0.28515,-0.00324,-0.0024,0.2173,0.0024,-0.0220,-0.0073,-0.0073,0.0073,0.0479,10.9197,1.5932,-2.1856,-0.0611,0.0122,-0.0073,1,1,1,1,1,1,1
2.8253,sweep,2,+up,0.08602,0.27218,1.13813,1.57149,-0.05360,-0.28515,-0.00324,-0.0024,0.2173,0.0024,-0.0220,-0.0073,-0.0073,0.0073,0.0479,10.9197,1.5932,-2.1856,-0.0611,0.0122,-0.0073,1,1,1,1,1,1,1
2.8654,sweep,2,+up,0.08602,0.27218,1.13813,1.57149,-0.05360,-0.28515,-0.00324,-0.0024,0.2173,0.0024,-0.0220,-0.0073,-0.0073,0.0073,0.0479,10.9197,1.5932,-2.1856,-0.0611,0.0122,-0.0073,1,1,1,1,1,1,1
2.9055,sweep,2,+up,0.08602,0.28821,1.13813,1.56844,-0.05322,-0.28515,-0.00324,-0.0024,0.2076,-0.0024,0.0366,0.0073,-0.0073,-0.0073,0.0068,11.0017,1.8120,-1.9365,-0.0659,0.0171,-0.0122,1,1,1,1,1,1,1
2.9453,sweep,2,+up,0.08602,0.28821,1.13813,1.56844,-0.05322,-0.28515,-0.00324,-0.0024,0.2076,-0.0024,0.0366,0.0073,-0.0073,-0.0073,0.0068,11.0017,1.8120,-1.9365,-0.0659,0.0171,-0.0122,1,1,1,1,1,1,1
2.9852,sweep,2,+up,0.08602,0.28821,1.13851,1.56920,-0.05322,-0.28515,-0.00324,-0.0024,0.2076,0.0024,-0.0073,-0.0073,-0.0073,-0.0073,0.0068,11.0017,1.9897,-1.9121,-0.0659,0.0171,-0.0073,1,1,1,1,1,1,1
3.0252,sweep,2,+up,0.08602,0.31147,1.13851,1.56920,-0.05322,-0.28515,-0.00324,-0.0073,0.1734,0.0024,-0.0073,-0.0073,-0.0073,-0.0073,0.0068,11.7949,1.9897,-1.9121,-0.0659,0.0171,-0.0073,1,1,1,1,1,1,1
3.0656,sweep,2,+up,0.08602,0.31147,1.13851,1.56920,-0.05322,-0.28515,-0.00324,-0.0073,0.1734,0.0024,-0.0073,-0.0073,-0.0073,-0.0073,0.0068,11.7949,1.9897,-1.9121,-0.0659,0.0171,-0.0073,1,1,1,1,1,1,1
3.1053,sweep,2,+up,0.08602,0.32864,1.13813,1.56920,-0.05360,-0.28515,-0.00362,0.0024,0.2027,-0.0024,0.0073,0.0073,0.0073,-0.0073,0.0342,11.0017,2.1812,-1.8779,-0.0611,0.0171,-0.0073,1,1,1,1,1,1,1
3.1453,sweep,2,+up,0.08602,0.32864,1.13813,1.56920,-0.05360,-0.28515,-0.00362,0.0024,0.2027,-0.0024,0.0073,0.0073,0.0073,-0.0073,0.0342,11.0017,2.1812,-1.8779,-0.0611,0.0171,-0.0073,1,1,1,1,1,1,1
3.1854,sweep,2,+up,0.08602,0.32864,1.13813,1.56920,-0.05360,-0.28515,-0.00324,0.0024,0.2027,-0.0024,0.0073,0.0073,0.0073,0.0073,0.0342,11.0017,2.1812,-1.8779,-0.0611,0.0220,-0.0073,1,1,1,1,1,1,1
3.2255,sweep,2,+up,0.08602,0.35267,1.13851,1.56958,-0.05322,-0.28515,-0.00324,-0.0024,0.1978,-0.0024,-0.0073,-0.0073,0.0073,0.0073,0.0342,10.5915,2.4684,-1.8339,-0.0708,0.0220,-0.0073,1,1,1,1,1,1,1
3.2651,sweep,2,+up,0.08602,0.35267,1.13851,1.56958,-0.05322,-0.28515,-0.00324,-0.0024,0.1978,-0.0024,-0.0073,-0.0073,0.0073,0.0073,0.0342,10.5915,2.4684,-1.8339,-0.0708,0.0220,-0.0073,1,1,1,1,1,1,1
3.3053,sweep,2,+up,0.08602,0.36908,1.13851,1.56958,-0.05360,-0.28515,-0.00362,0.0024,0.2222,-0.0024,-0.0073,-0.0073,-0.0073,-0.0073,0.0205,10.0991,2.6872,-1.8095,-0.0708,0.0220,-0.0122,1,1,1,1,1,1,1
3.3453,sweep,2,+up,0.08602,0.36908,1.13851,1.56958,-0.05360,-0.28515,-0.00362,0.0024,0.2222,-0.0024,-0.0073,-0.0073,-0.0073,-0.0073,0.0205,10.0991,2.6872,-1.8095,-0.0708,0.0220,-0.0122,1,1,1,1,1,1,1
3.3852,sweep,2,+up,0.08602,0.36908,1.13851,1.56958,-0.05360,-0.28515,-0.00362,0.0024,0.2222,-0.0024,-0.0073,-0.0073,-0.0073,-0.0073,0.0205,10.0991,2.6872,-1.8095,-0.0708,0.0220,-0.0122,1,1,1,1,1,1,1
3.4250,sweep,2,+up,0.08602,0.39273,1.13851,1.56996,-0.05360,-0.28515,-0.00324,-0.0073,0.2076,0.0024,-0.0073,0.0073,0.0073,-0.0073,0.0342,10.3863,2.9470,-1.7851,-0.0708,0.0220,-0.0073,1,1,1,1,1,1,1
3.4653,sweep,2,+up,0.08602,0.39273,1.13851,1.56996,-0.05360,-0.28515,-0.00324,-0.0073,0.2076,0.0024,-0.0073,0.0073,0.0073,-0.0073,0.0342,10.3863,2.9470,-1.7851,-0.0708,0.0220,-0.0073,1,1,1,1,1,1,1
3.5053,sweep,2,+up,0.08602,0.40913,1.13851,1.57034,-0.05360,-0.28515,-0.00324,0.0024,0.1832,-0.0073,-0.0073,-0.0220,-0.0220,-0.0220,0.0342,9.9487,3.1248,-1.7802,-0.0708,0.0220,-0.0073,1,1,1,1,1,1,1
3.5454,sweep,2,+up,0.08602,0.40913,1.13851,1.57034,-0.05360,-0.28515,-0.00324,0.0024,0.1832,-0.0073,-0.0073,-0.0220,-0.0220,-0.0220,0.0342,9.9487,3.1248,-1.7802,-0.0708,0.0220,-0.0073,1,1,1,1,1,1,1
3.5853,sweep,2,+up,0.08602,0.40913,1.13851,1.57034,-0.05360,-0.28515,-0.00324,0.0024,0.1832,-0.0073,-0.0073,-0.0220,-0.0220,-0.0220,0.0342,9.9487,3.1248,-1.7802,-0.0708,0.0220,-0.0073,1,1,1,1,1,1,1
3.6251,sweep,2,+up,0.08602,0.43355,1.13851,1.57034,-0.05360,-0.28515,-0.00324,-0.0024,0.2222,-0.0073,0.0073,-0.0073,-0.0073,0.0073,0.0205,9.2650,3.4120,-1.7558,-0.0855,0.0220,-0.0073,1,1,1,1,1,1,1
3.6661,sweep,2,+up,0.08602,0.43355,1.13851,1.57034,-0.05360,-0.28515,-0.00324,-0.0024,0.2222,-0.0073,0.0073,-0.0073,-0.0073,0.0073,0.0205,9.2650,3.4120,-1.7558,-0.0855,0.0220,-0.0073,1,1,1,1,1,1,1
3.7058,sweep,2,+up,0.08602,0.44995,1.13851,1.57034,-0.05360,-0.28515,-0.00324,-0.0024,0.2027,-0.0024,-0.0073,-0.0220,-0.0073,-0.0073,0.0205,9.4017,3.5761,-1.7411,-0.0855,0.0220,-0.0122,1,1,1,1,1,1,1
3.7452,sweep,2,+up,0.08602,0.44995,1.13851,1.57034,-0.05360,-0.28515,-0.00324,-0.0024,0.2027,-0.0024,-0.0073,-0.0220,-0.0073,-0.0073,0.0205,9.4017,3.5761,-1.7411,-0.0855,0.0220,-0.0122,1,1,1,1,1,1,1
3.7852,sweep,2,+up,0.08602,0.44995,1.13851,1.57034,-0.05360,-0.28515,-0.00324,-0.0024,0.2027,-0.0024,-0.0073,-0.0220,-0.0073,-0.0073,0.0205,9.4017,3.5761,-1.7411,-0.0855,0.0220,-0.0122,1,1,1,1,1,1,1
3.8251,sweep,2,+up,0.08602,0.47398,1.13851,1.57034,-0.05322,-0.28515,-0.00324,-0.0024,0.1978,-0.0024,0.0073,-0.0220,-0.0220,-0.0073,0.0068,8.9504,3.7675,-1.7216,-0.0855,0.0269,-0.0122,1,1,1,1,1,1,1
3.8651,sweep,2,+up,0.08602,0.47398,1.13851,1.57034,-0.05322,-0.28515,-0.00324,-0.0024,0.1978,-0.0024,0.0073,-0.0220,-0.0220,-0.0073,0.0068,8.9504,3.7675,-1.7216,-0.0855,0.0269,-0.0122,1,1,1,1,1,1,1
3.9051,sweep,2,+up,0.08602,0.49001,1.13851,1.56996,-0.05360,-0.28515,-0.00324,-0.0024,0.1880,-0.0073,0.0073,-0.0073,-0.0073,-0.0073,-0.0068,8.8684,3.9043,-1.6972,-0.0806,0.0317,-0.0122,1,1,1,1,1,1,1
3.9452,sweep,2,+up,0.08602,0.49001,1.13851,1.56996,-0.05360,-0.28515,-0.00324,-0.0024,0.1880,-0.0073,0.0073,-0.0073,-0.0073,-0.0073,-0.0068,8.8684,3.9043,-1.6972,-0.0806,0.0317,-0.0122,1,1,1,1,1,1,1
3.9853,sweep,2,+up,0.08602,0.49001,1.13851,1.56996,-0.05360,-0.28515,-0.00324,-0.0024,0.1880,-0.0073,0.0073,-0.0073,-0.0073,-0.0073,-0.0068,8.8684,3.9043,-1.6972,-0.0806,0.0317,-0.0122,1,1,1,1,1,1,1
4.0252,sweep,2,+up,0.08602,0.51442,1.13851,1.56996,-0.05360,-0.28515,-0.00362,0.0024,0.2027,-0.0024,0.0073,-0.0073,-0.0073,-0.0220,-0.0342,8.3487,4.1368,-1.6679,-0.0806,0.0317,-0.0073,1,1,1,1,1,1,1
4.0651,sweep,2,+up,0.08602,0.51442,1.13851,1.56996,-0.05360,-0.28515,-0.00362,0.0024,0.2027,-0.0024,0.0073,-0.0073,-0.0073,-0.0220,-0.0342,8.3487,4.1368,-1.6679,-0.0806,0.0317,-0.0073,1,1,1,1,1,1,1
4.1051,sweep,2,+up,0.08602,0.53044,1.13851,1.56996,-0.05360,-0.28515,-0.00362,-0.0024,0.2222,0.0024,-0.0073,-0.0220,-0.0073,-0.0073,-0.0342,8.0615,4.3009,-1.6581,-0.0904,0.0317,-0.0122,1,1,1,1,1,1,1
4.1452,sweep,2,+up,0.08602,0.53044,1.13851,1.56996,-0.05360,-0.28515,-0.00362,-0.0024,0.2222,0.0024,-0.0073,-0.0220,-0.0073,-0.0073,-0.0342,8.0615,4.3009,-1.6581,-0.0904,0.0317,-0.0122,1,1,1,1,1,1,1
4.1851,sweep,2,+up,0.08602,0.53044,1.13851,1.56996,-0.05360,-0.28515,-0.00362,-0.0024,0.2222,0.0024,-0.0073,-0.0220,-0.0073,-0.0073,-0.0342,8.0615,4.3009,-1.6581,-0.0904,0.0317,-0.0122,1,1,1,1,1,1,1
4.2251,sweep,2,+up,0.08602,0.55486,1.13890,1.56996,-0.05322,-0.28515,-0.00324,0.0024,0.1783,0.0024,-0.0220,-0.0073,-0.0073,-0.0073,-0.0205,7.7744,4.4650,-1.6142,-0.0855,0.0317,-0.0122,1,1,1,1,1,1,1
4.2652,sweep,2,+up,0.08602,0.55486,1.13890,1.56996,-0.05322,-0.28515,-0.00324,0.0024,0.1783,0.0024,-0.0220,-0.0073,-0.0073,-0.0073,-0.0205,7.7744,4.4650,-1.6142,-0.0855,0.0317,-0.0122,1,1,1,1,1,1,1
4.3055,sweep,2,+up,0.08602,0.57126,1.13890,1.56996,-0.05322,-0.28515,-0.00324,-0.0024,0.2125,-0.0024,-0.0073,-0.0220,0.0220,-0.0073,-0.0342,7.1726,4.6154,-1.5849,-0.0806,0.0317,-0.0122,1,1,1,1,1,1,1
4.3453,sweep,2,+up,0.08602,0.57126,1.13890,1.56996,-0.05322,-0.28515,-0.00324,-0.0024,0.2125,-0.0024,-0.0073,-0.0220,0.0220,-0.0073,-0.0342,7.1726,4.6154,-1.5849,-0.0806,0.0317,-0.0122,1,1,1,1,1,1,1
4.3854,sweep,2,+up,0.08602,0.57126,1.13890,1.56996,-0.05322,-0.28515,-0.00324,-0.0024,0.2125,-0.0024,-0.0073,-0.0220,0.0220,-0.0073,-0.0342,7.1726,4.6154,-1.5849,-0.0806,0.0317,-0.0122,1,1,1,1,1,1,1
4.4254,sweep,2,+up,0.08602,0.59529,1.13890,1.56996,-0.05360,-0.28515,-0.00324,0.0024,0.2125,-0.0073,-0.0220,-0.0073,-0.0073,-0.0073,-0.0342,7.1316,4.8205,-1.5458,-0.0855,0.0317,-0.0122,1,1,1,1,1,1,1
4.4656,sweep,2,+up,0.08602,0.59529,1.13890,1.56996,-0.05360,-0.28515,-0.00324,0.0024,0.2125,-0.0073,-0.0220,-0.0073,-0.0073,-0.0073,-0.0342,7.1316,4.8205,-1.5458,-0.0855,0.0317,-0.0122,1,1,1,1,1,1,1
4.5051,sweep,2,+up,0.08602,0.61170,1.13890,1.56996,-0.05322,-0.28515,-0.00324,-0.0073,0.2125,-0.0024,-0.0073,0.0073,0.0073,-0.0073,-0.0205,6.7761,4.9436,-1.5214,-0.0855,0.0269,-0.0122,1,1,1,1,1,1,1
4.5453,sweep,2,+up,0.08602,0.61170,1.13890,1.56996,-0.05322,-0.28515,-0.00324,-0.0073,0.2125,-0.0024,-0.0073,0.0073,0.0073,-0.0073,-0.0205,6.7761,4.9436,-1.5214,-0.0855,0.0269,-0.0122,1,1,1,1,1,1,1
4.5852,sweep,2,+up,0.08602,0.61170,1.13890,1.56996,-0.05322,-0.28515,-0.00324,-0.0073,0.2125,-0.0024,-0.0073,0.0073,0.0073,-0.0073,-0.0205,6.7761,4.9436,-1.5214,-0.0855,0.0269,-0.0122,1,1,1,1,1,1,1
4.6254,sweep,2,+up,0.08602,0.63611,1.13890,1.56996,-0.05360,-0.28515,-0.00362,0.0024,0.2125,-0.0024,-0.0073,-0.0073,-0.0073,-0.0220,-0.0068,6.3111,5.1214,-1.4774,-0.0952,0.0317,-0.0122,1,1,1,1,1,1,1
4.6653,sweep,2,+up,0.08602,0.63611,1.13890,1.56996,-0.05360,-0.28515,-0.00362,0.0024,0.2125,-0.0024,-0.0073,-0.0073,-0.0073,-0.0220,-0.0068,6.3111,5.1214,-1.4774,-0.0952,0.0317,-0.0122,1,1,1,1,1,1,1
4.7051,sweep,2,+up,0.08602,0.65213,1.13890,1.56958,-0.05360,-0.28515,-0.00362,-0.0024,0.1783,-0.0073,-0.0073,-0.0073,-0.0220,-0.0220,-0.0205,6.2427,5.2034,-1.4335,-0.0952,0.0317,-0.0171,1,1,1,1,1,1,1
4.7452,sweep,2,+up,0.08602,0.65213,1.13890,1.56958,-0.05360,-0.28515,-0.00362,-0.0024,0.1783,-0.0073,-0.0073,-0.0073,-0.0220,-0.0220,-0.0205,6.2427,5.2034,-1.4335,-0.0952,0.0317,-0.0171,1,1,1,1,1,1,1
4.7853,sweep,2,+up,0.08602,0.65213,1.13890,1.56958,-0.05360,-0.28515,-0.00362,-0.0024,0.1783,-0.0073,-0.0073,-0.0073,-0.0220,-0.0220,-0.0205,6.2427,5.2034,-1.4335,-0.0952,0.0317,-0.0171,1,1,1,1,1,1,1
4.8251,sweep,2,+up,0.08602,0.67655,1.13890,1.56958,-0.05360,-0.28515,-0.00324,-0.0024,0.2222,-0.0073,-0.0220,-0.0220,-0.0073,-0.0073,-0.0342,5.7641,5.3402,-1.3993,-0.0952,0.0317,-0.0122,1,1,1,1,1,1,1
4.8651,sweep,2,+up,0.08602,0.67655,1.13890,1.56958,-0.05360,-0.28515,-0.00324,-0.0024,0.2222,-0.0073,-0.0220,-0.0220,-0.0073,-0.0073,-0.0342,5.7641,5.3402,-1.3993,-0.0952,0.0317,-0.0122,1,1,1,1,1,1,1
4.9053,sweep,2,+up,0.08602,0.69219,1.13890,1.56958,-0.05322,-0.28515,-0.00362,-0.0024,0.1929,-0.0073,-0.0220,0.0073,-0.0073,-0.0220,-0.0342,5.8872,5.4906,-1.3651,-0.1099,0.0317,-0.0171,1,1,1,1,1,1,1
4.9454,sweep,2,+up,0.08602,0.69219,1.13890,1.56958,-0.05322,-0.28515,-0.00362,-0.0024,0.1929,-0.0073,-0.0220,0.0073,-0.0073,-0.0220,-0.0342,5.8872,5.4906,-1.3651,-0.1099,0.0317,-0.0171,1,1,1,1,1,1,1
4.9853,sweep,2,+up,0.08602,0.69219,1.13890,1.56958,-0.05322,-0.28515,-0.00362,-0.0024,0.1929,-0.0073,-0.0220,0.0073,-0.0073,-0.0220,-0.0342,5.8872,5.4906,-1.3651,-0.1099,0.0317,-0.0171,1,1,1,1,1,1,1
5.0251,sweep,2,+up,0.08602,0.71698,1.13890,1.56958,-0.05322,-0.28515,-0.00324,-0.0024,0.1929,-0.0073,-0.0073,0.0073,-0.0073,-0.0073,-0.0479,5.0393,5.6684,-1.3162,-0.1050,0.0317,-0.0122,1,1,1,1,1,1,1
5.0651,sweep,2,+up,0.08602,0.71698,1.13890,1.56958,-0.05322,-0.28515,-0.00324,-0.0024,0.1929,-0.0073,-0.0073,0.0073,-0.0073,-0.0073,-0.0479,5.0393,5.6684,-1.3162,-0.1050,0.0317,-0.0122,1,1,1,1,1,1,1
5.1054,sweep,2,+up,0.08602,0.73301,1.13890,1.56958,-0.05360,-0.28515,-0.00324,-0.0073,0.2076,-0.0024,-0.0073,-0.0073,0.0073,-0.0073,-0.0342,4.7658,5.8462,-1.2821,-0.1148,0.0317,-0.0122,1,1,1,1,1,1,1
5.1452,sweep,2,+up,0.08602,0.73301,1.13890,1.56958,-0.05360,-0.28515,-0.00324,-0.0073,0.2076,-0.0024,-0.0073,-0.0073,0.0073,-0.0073,-0.0342,4.7658,5.8462,-1.2821,-0.1148,0.0317,-0.0122,1,1,1,1,1,1,1
5.1853,sweep,2,+up,0.08602,0.73301,1.13890,1.56958,-0.05360,-0.28515,-0.00324,-0.0073,0.2076,-0.0024,-0.0073,-0.0073,0.0073,-0.0073,-0.0342,4.7658,5.8462,-1.2821,-0.1148,0.0317,-0.0122,1,1,1,1,1,1,1
5.2252,sweep,2,+up,0.08602,0.75704,1.13890,1.56996,-0.05360,-0.28515,-0.00324,-0.0024,0.1783,-0.0024,-0.0220,-0.0073,-0.0220,-0.0073,-0.0342,4.6974,6.0239,-1.2381,-0.1197,0.0317,-0.0122,1,1,1,1,1,1,1
5.2655,sweep,2,+up,0.08602,0.75704,1.13890,1.56996,-0.05360,-0.28515,-0.00324,-0.0024,0.1783,-0.0024,-0.0220,-0.0073,-0.0220,-0.0073,-0.0342,4.6974,6.0239,-1.2381,-0.1197,0.0317,-0.0122,1,1,1,1,1,1,1
5.3055,sweep,2,+up,0.08602,0.77344,1.13890,1.56958,-0.05360,-0.28515,-0.00324,-0.0024,0.2076,-0.0024,-0.0073,-0.0073,-0.0220,0.0073,-0.0342,4.3009,6.1744,-1.2039,-0.1148,0.0317,-0.0122,1,1,1,1,1,1,1
5.3454,sweep,2,+up,0.08602,0.77344,1.13890,1.56958,-0.05360,-0.28515,-0.00324,-0.0024,0.2076,-0.0024,-0.0073,-0.0073,-0.0220,0.0073,-0.0342,4.3009,6.1744,-1.2039,-0.1148,0.0317,-0.0122,1,1,1,1,1,1,1
5.3857,sweep,2,+up,0.08602,0.77344,1.13890,1.56958,-0.05360,-0.28515,-0.00324,-0.0024,0.2076,-0.0024,-0.0073,-0.0073,-0.0220,0.0073,-0.0342,4.3009,6.1744,-1.2039,-0.1148,0.0317,-0.0122,1,1,1,1,1,1,1
5.4256,sweep,2,+up,0.08602,0.79786,1.13890,1.56958,-0.05360,-0.28515,-0.00324,-0.0024,0.1978,0.0024,-0.0220,-0.0073,-0.0220,-0.0073,-0.0205,3.7949,6.3248,-1.1648,-0.1197,0.0366,-0.0122,1,1,1,1,1,1,1
5.4656,sweep,2,+up,0.08602,0.79786,1.13890,1.56958,-0.05360,-0.28515,-0.00324,-0.0024,0.1978,0.0024,-0.0220,-0.0073,-0.0220,-0.0073,-0.0205,3.7949,6.3248,-1.1648,-0.1197,0.0366,-0.0122,1,1,1,1,1,1,1
5.5053,sweep,2,+up,0.08602,0.81426,1.13890,1.56958,-0.05360,-0.28515,-0.00362,-0.0024,0.2027,-0.0073,-0.0073,-0.0220,-0.0073,-0.0073,-0.0479,3.3162,6.4615,-1.1209,-0.1245,0.0366,-0.0073,1,1,1,1,1,1,1
5.5453,sweep,2,+up,0.08602,0.81426,1.13890,1.56958,-0.05360,-0.28515,-0.00362,-0.0024,0.2027,-0.0073,-0.0073,-0.0220,-0.0073,-0.0073,-0.0479,3.3162,6.4615,-1.1209,-0.1245,0.0366,-0.0073,1,1,1,1,1,1,1
5.5853,sweep,2,+up,0.08602,0.81426,1.13890,1.56958,-0.05360,-0.28515,-0.00362,-0.0024,0.2027,-0.0073,-0.0073,-0.0220,-0.0073,-0.0073,-0.0479,3.3162,6.4615,-1.1209,-0.1245,0.0366,-0.0073,1,1,1,1,1,1,1
5.6258,sweep,2,+up,0.08602,0.83829,1.13890,1.56958,-0.05322,-0.28515,-0.00324,-0.0024,0.2027,-0.0024,-0.0073,-0.0220,0.0073,-0.0073,-0.0615,3.3299,6.6803,-1.0769,-0.1245,0.0366,-0.0073,1,1,1,1,1,1,1
5.6651,sweep,2,+up,0.08602,0.83829,1.13890,1.56958,-0.05322,-0.28515,-0.00324,-0.0024,0.2027,-0.0024,-0.0073,-0.0220,0.0073,-0.0073,-0.0615,3.3299,6.6803,-1.0769,-0.1245,0.0366,-0.0073,1,1,1,1,1,1,1
5.7054,sweep,2,+up,0.08602,0.85431,1.13890,1.56958,-0.05360,-0.28515,-0.00324,-0.0024,0.1880,-0.0024,-0.0073,-0.0220,-0.0073,-0.0073,-0.0752,3.0154,6.7761,-1.0476,-0.1245,0.0366,-0.0073,1,1,1,1,1,1,1
5.7455,sweep,2,+up,0.08602,0.85431,1.13890,1.56958,-0.05360,-0.28515,-0.00324,-0.0024,0.1880,-0.0024,-0.0073,-0.0220,-0.0073,-0.0073,-0.0752,3.0154,6.7761,-1.0476,-0.1245,0.0366,-0.0073,1,1,1,1,1,1,1
5.7857,sweep,2,+up,0.08602,0.85431,1.13890,1.56958,-0.05360,-0.28515,-0.00324,-0.0024,0.1880,-0.0024,-0.0073,-0.0220,-0.0073,-0.0073,-0.0752,3.0154,6.7761,-1.0476,-0.1245,0.0366,-0.0073,1,1,1,1,1,1,1
5.8252,sweep,2,+up,0.08602,0.87949,1.13890,1.56958,-0.05322,-0.28515,-0.00324,-0.0073,0.2320,-0.0024,-0.0073,-0.0073,-0.0073,0.0073,-0.0752,2.0991,6.9402,-0.9792,-0.1197,0.0366,-0.0073,1,1,1,1,1,1,1
5.8653,sweep,2,+up,0.08602,0.87949,1.13890,1.56958,-0.05322,-0.28515,-0.00324,-0.0073,0.2320,-0.0024,-0.0073,-0.0073,-0.0073,0.0073,-0.0752,2.0991,6.9402,-0.9792,-0.1197,0.0366,-0.0073,1,1,1,1,1,1,1
5.9052,sweep,2,+up,0.08602,0.89551,1.13890,1.56920,-0.05360,-0.28515,-0.00324,-0.0073,0.1783,0.0024,-0.0073,-0.0220,-0.0073,-0.0073,-0.0752,1.8667,7.0496,-0.9158,-0.1148,0.0415,-0.0073,1,1,1,1,1,1,1
5.9456,sweep,2,+up,0.08602,0.89551,1.13890,1.56920,-0.05360,-0.28515,-0.00324,-0.0073,0.1783,0.0024,-0.0073,-0.0220,-0.0073,-0.0073,-0.0752,1.8667,7.0496,-0.9158,-0.1148,0.0415,-0.0073,1,1,1,1,1,1,1
5.9852,sweep,2,+up,0.08602,0.89551,1.13890,1.56920,-0.05360,-0.28515,-0.00324,-0.0073,0.1783,0.0024,-0.0073,-0.0220,-0.0073,-0.0073,-0.0752,1.8667,7.0496,-0.9158,-0.1148,0.0415,-0.0073,1,1,1,1,1,1,1
6.0253,sweep,2,+up,0.08602,0.91955,1.13890,1.56920,-0.05360,-0.28515,-0.00324,-0.0024,0.1832,0.0024,-0.0073,-0.0220,-0.0073,-0.0073,-0.0752,1.5385,7.2547,-0.8669,-0.1245,0.0415,-0.0122,1,1,1,1,1,1,1
6.0651,sweep,2,+up,0.08602,0.91955,1.13890,1.56920,-0.05360,-0.28515,-0.00324,-0.0024,0.1832,0.0024,-0.0073,-0.0220,-0.0073,-0.0073,-0.0752,1.5385,7.2547,-0.8669,-0.1245,0.0415,-0.0122,1,1,1,1,1,1,1
6.1053,sweep,2,+up,0.08602,0.93557,1.13890,1.56958,-0.05360,-0.28477,-0.00362,-0.0073,0.1978,-0.0024,-0.0073,-0.0220,0.0220,-0.0220,-0.0889,1.6889,7.3504,-0.8181,-0.1294,0.0415,-0.0122,1,1,1,1,1,1,1
6.1450,sweep,2,+up,0.08602,0.93557,1.13890,1.56958,-0.05360,-0.28477,-0.00362,-0.0073,0.1978,-0.0024,-0.0073,-0.0220,0.0220,-0.0220,-0.0889,1.6889,7.3504,-0.8181,-0.1294,0.0415,-0.0122,1,1,1,1,1,1,1
6.1852,sweep,2,+up,0.08602,0.93557,1.13890,1.56958,-0.05360,-0.28477,-0.00362,-0.0073,0.1978,-0.0024,-0.0073,-0.0220,0.0220,-0.0220,-0.0889,1.6889,7.3504,-0.8181,-0.1294,0.0415,-0.0122,1,1,1,1,1,1,1
6.2259,sweep,2,+up,0.08602,0.95998,1.13890,1.56958,-0.05322,-0.28515,-0.00324,-0.0024,0.1880,-0.0024,-0.0073,0.0073,-0.0220,-0.0073,-0.1026,0.9778,7.5145,-0.7497,-0.1294,0.0464,-0.0073,1,1,1,1,1,1,1
6.2657,sweep,2,+up,0.08602,0.95998,1.13890,1.56958,-0.05322,-0.28515,-0.00324,-0.0024,0.1880,-0.0024,-0.0073,0.0073,-0.0220,-0.0073,-0.1026,0.9778,7.5145,-0.7497,-0.1294,0.0464,-0.0073,1,1,1,1,1,1,1
6.3054,sweep,2,+up,0.08602,0.97677,1.13890,1.56958,-0.05322,-0.28515,-0.00324,-0.0024,0.2125,0.0024,-0.0073,-0.0073,-0.0220,0.0073,-0.1026,0.4855,7.6376,-0.7155,-0.1294,0.0464,-0.0024,1,1,1,1,1,1,1
6.3454,sweep,2,+up,0.08602,0.97677,1.13890,1.56958,-0.05322,-0.28515,-0.00324,-0.0024,0.2125,0.0024,-0.0073,-0.0073,-0.0220,0.0073,-0.1026,0.4855,7.6376,-0.7155,-0.1294,0.0464,-0.0024,1,1,1,1,1,1,1
6.3854,sweep,2,+up,0.08602,0.97677,1.13890,1.56958,-0.05322,-0.28515,-0.00324,-0.0024,0.2125,0.0024,-0.0073,-0.0073,-0.0220,0.0073,-0.1026,0.4855,7.6376,-0.7155,-0.1294,0.0464,-0.0024,1,1,1,1,1,1,1
6.4255,sweep,2,+up,0.08602,1.00042,1.13890,1.56958,-0.05360,-0.28477,-0.00324,-0.0024,0.1880,-0.0024,-0.0073,-0.0220,0.0073,-0.0073,-0.1162,0.5265,7.8017,-0.6569,-0.1392,0.0464,-0.0073,1,1,1,1,1,1,1
6.4652,sweep,2,+up,0.08602,1.00042,1.13890,1.56958,-0.05360,-0.28477,-0.00324,-0.0024,0.1880,-0.0024,-0.0073,-0.0220,0.0073,-0.0073,-0.1162,0.5265,7.8017,-0.6569,-0.1392,0.0464,-0.0073,1,1,1,1,1,1,1
6.5053,sweep,2,+up,0.08602,1.01682,1.13928,1.56958,-0.05322,-0.28515,-0.00324,-0.0024,0.2222,-0.0024,0.0073,-0.0073,-0.0073,-0.0073,-0.1026,0.1299,7.8701,-0.6276,-0.1343,0.0464,-0.0073,1,1,1,1,1,1,1
6.5454,sweep,2,+up,0.08602,1.01682,1.13928,1.56958,-0.05322,-0.28515,-0.00324,-0.0024,0.2222,-0.0024,0.0073,-0.0073,-0.0073,-0.0073,-0.1026,0.1299,7.8701,-0.6276,-0.1343,0.0464,-0.0073,1,1,1,1,1,1,1
6.5854,sweep,2,+up,0.08602,1.01682,1.13928,1.56958,-0.05322,-0.28515,-0.00324,-0.0024,0.2222,-0.0024,0.0073,-0.0073,-0.0073,-0.0073,-0.1026,0.1299,7.8701,-0.6276,-0.1343,0.0464,-0.0073,1,1,1,1,1,1,1
6.6253,sweep,2,+up,0.08602,1.04124,1.13928,1.56958,-0.05322,-0.28515,-0.00324,-0.0073,0.2027,-0.0024,-0.0220,-0.0073,-0.0073,0.0073,-0.1299,0.0752,7.9795,-0.5836,-0.1343,0.0513,-0.0073,1,1,1,1,1,1,1
6.6656,sweep,2,+up,0.08602,1.04124,1.13928,1.56958,-0.05322,-0.28515,-0.00324,-0.0073,0.2027,-0.0024,-0.0220,-0.0073,-0.0073,0.0073,-0.1299,0.0752,7.9795,-0.5836,-0.1343,0.0513,-0.0073,1,1,1,1,1,1,1
6.7053,sweep,2,+up,0.08564,1.05840,1.13928,1.56958,-0.05322,-0.28515,-0.00324,-0.0073,0.1929,-0.0024,-0.0073,-0.0073,-0.0073,0.0073,-0.1162,-0.5949,7.9795,-0.5446,-0.1392,0.0513,-0.0122,1,1,1,1,1,1,1
6.7454,sweep,2,+up,0.08564,1.05840,1.13928,1.56958,-0.05322,-0.28515,-0.00324,-0.0073,0.1929,-0.0024,-0.0073,-0.0073,-0.0073,0.0073,-0.1162,-0.5949,7.9795,-0.5446,-0.1392,0.0513,-0.0122,1,1,1,1,1,1,1
6.7854,sweep,2,+up,0.08564,1.05840,1.13928,1.56958,-0.05322,-0.28515,-0.00324,-0.0073,0.1929,-0.0024,-0.0073,-0.0073,-0.0073,0.0073,-0.1162,-0.5949,7.9795,-0.5446,-0.1392,0.0513,-0.0122,1,1,1,1,1,1,1
6.8255,sweep,2,+up,0.08564,1.08358,1.13928,1.56806,-0.05322,-0.28515,-0.00324,-0.0024,0.2027,-0.0024,-0.0366,-0.0073,-0.0073,0.0073,-0.0889,-2.3179,8.1436,-0.3492,-0.1490,0.0513,-0.0073,1,1,1,1,1,1,1
6.8653,sweep,2,+up,0.08564,1.08358,1.13928,1.56806,-0.05322,-0.28515,-0.00324,-0.0024,0.2027,-0.0024,-0.0366,-0.0073,-0.0073,0.0073,-0.0889,-2.3179,8.1436,-0.3492,-0.1490,0.0513,-0.0073,1,1,1,1,1,1,1
6.9055,sweep,2,+up,0.08564,1.10037,1.13928,1.56500,-0.05322,-0.28515,-0.00324,-0.0024,0.1832,-0.0024,-0.0220,-0.0073,-0.0220,0.0073,-0.0752,-3.0017,8.2120,-0.0611,-0.1538,0.0562,-0.0073,1,1,1,1,1,1,1
6.9453,sweep,2,+up,0.08564,1.10037,1.13928,1.56500,-0.05322,-0.28515,-0.00324,-0.0024,0.1832,-0.0024,-0.0220,-0.0073,-0.0220,0.0073,-0.0752,-3.0017,8.2120,-0.0611,-0.1538,0.0562,-0.0073,1,1,1,1,1,1,1
6.9859,sweep,2,+up,0.08564,1.10037,1.13928,1.56500,-0.05322,-0.28515,-0.00324,-0.0024,0.1832,-0.0024,-0.0220,-0.0073,-0.0220,0.0073,-0.0752,-3.0017,8.2120,-0.0611,-0.1538,0.0562,-0.0073,1,1,1,1,1,1,1
7.0254,sweep,2,+up,0.08564,1.12325,1.13928,1.57378,-0.05360,-0.28515,-0.00324,0.0024,0.1832,0.0024,0.1245,-0.0366,-0.0073,-0.0073,-0.0752,-1.5795,8.3350,-0.5055,-0.1538,0.0513,-0.0073,1,1,1,1,1,1,1
7.0652,sweep,2,+up,0.08564,1.12325,1.13928,1.57378,-0.05360,-0.28515,-0.00324,0.0024,0.1832,0.0024,0.1245,-0.0366,-0.0073,-0.0073,-0.0752,-1.5795,8.3350,-0.5055,-0.1538,0.0513,-0.0073,1,1,1,1,1,1,1
7.1052,sweep,2,+up,0.08564,1.13890,1.13928,1.57301,-0.05322,-0.28515,-0.00324,0.0024,0.2125,-0.0073,0.0073,-0.0220,-0.0220,-0.0073,-0.0889,-1.3607,8.3761,-0.5250,-0.1587,0.0513,-0.0073,1,1,1,1,1,1,1
7.1451,sweep,2,+up,0.08564,1.13890,1.13928,1.57301,-0.05322,-0.28515,-0.00324,0.0024,0.2125,-0.0073,0.0073,-0.0220,-0.0220,-0.0073,-0.0889,-1.3607,8.3761,-0.5250,-0.1587,0.0513,-0.0073,1,1,1,1,1,1,1
7.1855,sweep,2,+up,0.08564,1.13890,1.13928,1.57301,-0.05322,-0.28515,-0.00324,0.0024,0.2125,-0.0073,0.0073,-0.0220,-0.0220,-0.0073,-0.0889,-1.3607,8.3761,-0.5250,-0.1587,0.0513,-0.0073,1,1,1,1,1,1,1
7.2253,sweep,2,+up,0.08564,1.16407,1.13928,1.56844,-0.05322,-0.28515,-0.00324,-0.0024,0.1978,-0.0024,-0.0220,-0.0073,-0.0073,-0.0073,-0.0752,-2.9744,8.5265,-0.1636,-0.1636,0.0513,-0.0073,1,1,1,1,1,1,1
7.2653,sweep,2,+up,0.08564,1.16407,1.13928,1.56844,-0.05322,-0.28515,-0.00324,-0.0024,0.1978,-0.0024,-0.0220,-0.0073,-0.0073,-0.0073,-0.0752,-2.9744,8.5265,-0.1636,-0.1636,0.0513,-0.0073,1,1,1,1,1,1,1
7.3055,sweep,2,+up,0.08564,1.18009,1.13928,1.56844,-0.05322,-0.28515,-0.00324,-0.0073,0.2076,0.0024,0.0073,-0.0073,-0.0073,-0.0073,-0.0889,-2.9197,8.5812,-0.1148,-0.1587,0.0513,-0.0073,1,1,1,1,1,1,1
7.3457,sweep,2,+up,0.08564,1.18009,1.13928,1.56844,-0.05322,-0.28515,-0.00324,-0.0073,0.2076,0.0024,0.0073,-0.0073,-0.0073,-0.0073,-0.0889,-2.9197,8.5812,-0.1148,-0.1587,0.0513,-0.0073,1,1,1,1,1,1,1
7.3853,sweep,2,+up,0.08564,1.18009,1.13928,1.56844,-0.05322,-0.28515,-0.00324,-0.0073,0.2076,0.0024,0.0073,-0.0073,-0.0073,-0.0073,-0.0889,-2.9197,8.5812,-0.1148,-0.1587,0.0513,-0.0073,1,1,1,1,1,1,1
7.4253,sweep,2,+up,0.08564,1.20413,1.13928,1.56920,-0.05322,-0.28515,-0.00362,0.0024,0.2222,0.0024,-0.0073,-0.0073,-0.0073,-0.0073,-0.0752,-2.6325,8.6769,-0.1001,-0.1734,0.0513,-0.0073,1,1,1,1,1,1,1
7.4656,sweep,2,+up,0.08564,1.20413,1.13928,1.56920,-0.05322,-0.28515,-0.00362,0.0024,0.2222,0.0024,-0.0073,-0.0073,-0.0073,-0.0073,-0.0752,-2.6325,8.6769,-0.1001,-0.1734,0.0513,-0.0073,1,1,1,1,1,1,1
7.5053,sweep,2,+up,0.08564,1.22053,1.13928,1.56882,-0.05322,-0.28515,-0.00324,-0.0024,0.2076,-0.0024,-0.0220,-0.0220,-0.0073,0.0073,-0.0615,-3.3709,8.7726,-0.0611,-0.1734,0.0513,-0.0073,1,1,1,1,1,1,1
7.5456,sweep,2,+up,0.08564,1.22053,1.13928,1.56882,-0.05322,-0.28515,-0.00324,-0.0024,0.2076,-0.0024,-0.0220,-0.0220,-0.0073,0.0073,-0.0615,-3.3709,8.7726,-0.0611,-0.1734,0.0513,-0.0073,1,1,1,1,1,1,1
7.5856,sweep,2,+up,0.08564,1.22053,1.13928,1.56882,-0.05322,-0.28515,-0.00324,-0.0024,0.2076,-0.0024,-0.0220,-0.0220,-0.0073,0.0073,-0.0615,-3.3709,8.7726,-0.0611,-0.1734,0.0513,-0.0073,1,1,1,1,1,1,1
7.6258,sweep,2,+up,0.08564,1.24456,1.13928,1.56882,-0.05322,-0.28515,-0.00362,-0.0024,0.2125,-0.0024,0.0073,0.0220,-0.0073,-0.0220,-0.0205,-3.3983,8.8820,-0.0317,-0.1783,0.0562,-0.0073,1,1,1,1,1,1,1
7.6657,sweep,2,+up,0.08564,1.24456,1.13928,1.56882,-0.05322,-0.28515,-0.00362,-0.0024,0.2125,-0.0024,0.0073,0.0220,-0.0073,-0.0220,-0.0205,-3.3983,8.8820,-0.0317,-0.1783,0.0562,-0.0073,1,1,1,1,1,1,1
7.7063,sweep,2,+up,0.08564,1.26059,1.13928,1.56882,-0.05322,-0.28515,-0.00324,0.0024,0.1880,-0.0073,-0.0073,-0.0220,-0.0073,-0.0073,-0.0068,-3.5624,8.9504,-0.0073,-0.1734,0.0513,-0.0073,1,1,1,1,1,1,1
7.7457,sweep,2,+up,0.08564,1.26059,1.13928,1.56882,-0.05322,-0.28515,-0.00324,0.0024,0.1880,-0.0073,-0.0073,-0.0220,-0.0073,-0.0073,-0.0068,-3.5624,8.9504,-0.0073,-0.1734,0.0513,-0.0073,1,1,1,1,1,1,1
7.7859,sweep,2,+up,0.08564,1.26059,1.13928,1.56882,-0.05322,-0.28515,-0.00324,0.0024,0.1880,-0.0073,-0.0073,-0.0220,-0.0073,-0.0073,-0.0068,-3.5624,8.9504,-0.0073,-0.1734,0.0513,-0.0073,1,1,1,1,1,1,1
7.8251,sweep,2,+up,0.08564,1.28500,1.13928,1.56882,-0.05322,-0.28515,-0.00324,-0.0024,0.2125,-0.0024,-0.0073,-0.0220,-0.0073,-0.0073,-0.0068,-3.8906,9.1145,0.0317,-0.1783,0.0513,-0.0122,1,1,1,1,1,1,1
7.8653,sweep,2,+up,0.08564,1.28500,1.13928,1.56882,-0.05322,-0.28515,-0.00324,-0.0024,0.2125,-0.0024,-0.0073,-0.0220,-0.0073,-0.0073,-0.0068,-3.8906,9.1145,0.0317,-0.1783,0.0513,-0.0122,1,1,1,1,1,1,1
7.9056,sweep,2,+up,0.08564,1.30102,1.13928,1.56844,-0.05322,-0.28515,-0.00362,-0.0024,0.1880,-0.0024,-0.0220,0.0073,-0.0073,-0.0073,0.0205,-3.7675,9.2103,0.0611,-0.1832,0.0562,-0.0122,1,1,1,1,1,1,1
7.9456,sweep,2,+up,0.08564,1.30102,1.13928,1.56844,-0.05322,-0.28515,-0.00362,-0.0024,0.1880,-0.0024,-0.0220,0.0073,-0.0073,-0.0073,0.0205,-3.7675,9.2103,0.0611,-0.1832,0.0562,-0.0122,1,1,1,1,1,1,1
7.9852,sweep,2,+up,0.08564,1.30102,1.13928,1.56844,-0.05322,-0.28515,-0.00362,-0.0024,0.1880,-0.0024,-0.0220,0.0073,-0.0073,-0.0073,0.0205,-3.7675,9.2103,0.0611,-0.1832,0.0562,-0.0122,1,1,1,1,1,1,1
8.0252,sweep,2,+up,0.08564,1.32544,1.13928,1.56806,-0.05322,-0.28515,-0.00324,-0.0024,0.1978,0.0024,-0.0220,0.0073,0.0073,-0.0073,0.0205,-4.4650,9.3333,0.1392,-0.1880,0.0562,-0.0122,1,1,1,1,1,1,1
8.0651,sweep,2,+up,0.08564,1.32544,1.13928,1.56806,-0.05322,-0.28515,-0.00324,-0.0024,0.1978,0.0024,-0.0220,0.0073,0.0073,-0.0073,0.0205,-4.4650,9.3333,0.1392,-0.1880,0.0562,-0.0122,1,1,1,1,1,1,1
8.1050,sweep,2,+up,0.08564,1.34184,1.13928,1.56806,-0.05322,-0.28477,-0.00362,-0.0024,0.2027,-0.0024,-0.0073,-0.0073,0.0073,-0.0073,0.0068,-4.9846,9.4154,0.2515,-0.1880,0.0659,-0.0122,1,1,1,1,1,1,1
8.1454,sweep,2,+up,0.08564,1.34184,1.13928,1.56806,-0.05322,-0.28477,-0.00362,-0.0024,0.2027,-0.0024,-0.0073,-0.0073,0.0073,-0.0073,0.0068,-4.9846,9.4154,0.2515,-0.1880,0.0659,-0.0122,1,1,1,1,1,1,1
8.1851,sweep,2,+up,0.08564,1.34184,1.13928,1.56806,-0.05322,-0.28477,-0.00362,-0.0024,0.2027,-0.0024,-0.0073,-0.0073,0.0073,-0.0073,0.0068,-4.9846,9.4154,0.2515,-0.1880,0.0659,-0.0122,1,1,1,1,1,1,1
8.2254,sweep,2,+up,0.08564,1.36549,1.13928,1.56844,-0.05322,-0.28477,-0.00362,-0.0024,0.1685,-0.0024,-0.0073,-0.0073,-0.0073,-0.0073,-0.0205,-4.6017,9.5111,0.3150,-0.2027,0.0659,-0.0073,1,1,1,1,1,1,1
8.2652,sweep,2,+up,0.08564,1.36549,1.13928,1.56844,-0.05322,-0.28477,-0.00362,-0.0024,0.1685,-0.0024,-0.0073,-0.0073,-0.0073,-0.0073,-0.0205,-4.6017,9.5111,0.3150,-0.2027,0.0659,-0.0073,1,1,1,1,1,1,1
8.3055,sweep,2,+up,0.08564,1.38151,1.13928,1.56844,-0.05322,-0.28515,-0.00362,-0.0073,0.2076,-0.0024,-0.0073,0.0073,-0.0220,-0.0220,0.0068,-4.9846,9.5521,0.3834,-0.2027,0.0659,-0.0073,1,1,1,1,1,1,1
8.3457,sweep,2,+up,0.08564,1.38151,1.13928,1.56844,-0.05322,-0.28515,-0.00362,-0.0073,0.2076,-0.0024,-0.0073,0.0073,-0.0220,-0.0220,0.0068,-4.9846,9.5521,0.3834,-0.2027,0.0659,-0.0073,1,1,1,1,1,1,1
8.3855,sweep,2,+up,0.08564,1.38151,1.13928,1.56844,-0.05322,-0.28515,-0.00362,-0.0073,0.2076,-0.0024,-0.0073,0.0073,-0.0220,-0.0220,0.0068,-4.9846,9.5521,0.3834,-0.2027,0.0659,-0.0073,1,1,1,1,1,1,1
8.4250,sweep,2,+up,0.08564,1.40593,1.13928,1.56844,-0.05322,-0.28477,-0.00324,0.0024,0.2027,-0.0024,-0.0073,0.0073,-0.0073,-0.0073,0.0068,-5.4359,9.6889,0.4860,-0.2222,0.0611,-0.0073,1,1,1,1,1,1,1
8.4651,sweep,2,+up,0.08564,1.40593,1.13928,1.56844,-0.05322,-0.28477,-0.00324,0.0024,0.2027,-0.0024,-0.0073,0.0073,-0.0073,-0.0073,0.0068,-5.4359,9.6889,0.4860,-0.2222,0.0611,-0.0073,1,1,1,1,1,1,1
8.5058,sweep,2,+up,0.08564,1.42233,1.13928,1.56882,-0.05322,-0.28477,-0.00324,-0.0024,0.2173,-0.0024,-0.0220,0.0073,0.0073,-0.0073,0.0068,-5.8325,9.7709,0.5250,-0.2222,0.0611,-0.0122,1,1,1,1,1,1,1
8.5453,sweep,2,+up,0.08564,1.42233,1.13928,1.56882,-0.05322,-0.28477,-0.00324,-0.0024,0.2173,-0.0024,-0.0220,0.0073,0.0073,-0.0073,0.0068,-5.8325,9.7709,0.5250,-0.2222,0.0611,-0.0122,1,1,1,1,1,1,1
8.5853,sweep,2,+up,0.08564,1.42233,1.13928,1.56882,-0.05322,-0.28477,-0.00324,-0.0024,0.2173,-0.0024,-0.0220,0.0073,0.0073,-0.0073,0.0068,-5.8325,9.7709,0.5250,-0.2222,0.0611,-0.0122,1,1,1,1,1,1,1
8.6254,sweep,2,+up,0.08564,1.44636,1.13928,1.56920,-0.05322,-0.28515,-0.00324,-0.0024,0.1978,-0.0024,-0.0073,-0.0073,-0.0073,0.0073,0.0205,-5.6000,9.8530,0.5836,-0.2418,0.0562,-0.0122,1,1,1,1,1,1,1
8.6653,sweep,2,+up,0.08564,1.44636,1.13928,1.56920,-0.05322,-0.28515,-0.00324,-0.0024,0.1978,-0.0024,-0.0073,-0.0073,-0.0073,0.0073,0.0205,-5.6000,9.8530,0.5836,-0.2418,0.0562,-0.0122,1,1,1,1,1,1,1
8.7051,sweep,2,+up,0.08564,1.46239,1.13928,1.56920,-0.05322,-0.28515,-0.00324,-0.0024,0.1978,-0.0024,-0.0073,-0.0220,-0.0073,-0.0073,0.0205,-6.0239,9.8940,0.6129,-0.2466,0.0611,-0.0122,1,1,1,1,1,1,1
8.7450,sweep,2,+up,0.08564,1.46239,1.13928,1.56920,-0.05322,-0.28515,-0.00324,-0.0024,0.1978,-0.0024,-0.0073,-0.0220,-0.0073,-0.0073,0.0205,-6.0239,9.8940,0.6129,-0.2466,0.0611,-0.0122,1,1,1,1,1,1,1
8.7857,sweep,2,+up,0.08564,1.46239,1.13928,1.56920,-0.05322,-0.28515,-0.00324,-0.0024,0.1978,-0.0024,-0.0073,-0.0220,-0.0073,-0.0073,0.0205,-6.0239,9.8940,0.6129,-0.2466,0.0611,-0.0122,1,1,1,1,1,1,1
8.8253,sweep,2,+up,0.08564,1.48680,1.13928,1.56958,-0.05322,-0.28477,-0.00324,-0.0024,0.2076,0.0024,-0.0073,0.0073,-0.0073,-0.0073,0.0205,-6.3658,9.9214,0.6618,-0.2564,0.0611,-0.0073,1,1,1,1,1,1,1
8.8652,sweep,2,+up,0.08564,1.48680,1.13928,1.56958,-0.05322,-0.28477,-0.00324,-0.0024,0.2076,0.0024,-0.0073,0.0073,-0.0073,-0.0073,0.0205,-6.3658,9.9214,0.6618,-0.2564,0.0611,-0.0073,1,1,1,1,1,1,1
8.9051,sweep,2,+up,0.08564,1.50282,1.13928,1.56920,-0.05322,-0.28515,-0.00324,-0.0024,0.1929,-0.0024,-0.0073,-0.0220,-0.0073,0.0073,0.0342,-6.5026,9.9077,0.6960,-0.2662,0.0611,-0.0122,1,1,1,1,1,1,1
8.9454,sweep,2,+up,0.08564,1.50282,1.13928,1.56920,-0.05322,-0.28515,-0.00324,-0.0024,0.1929,-0.0024,-0.0073,-0.0220,-0.0073,0.0073,0.0342,-6.5026,9.9077,0.6960,-0.2662,0.0611,-0.0122,1,1,1,1,1,1,1
8.9852,sweep,2,+up,0.08564,1.50282,1.13928,1.56920,-0.05322,-0.28515,-0.00324,-0.0024,0.1929,-0.0024,-0.0073,-0.0220,-0.0073,0.0073,0.0342,-6.5026,9.9077,0.6960,-0.2662,0.0611,-0.0122,1,1,1,1,1,1,1
9.0253,sweep,2,+up,0.08564,1.52724,1.13966,1.56958,-0.05322,-0.28515,-0.00362,0.0024,0.2222,-0.0024,-0.0073,0.0073,-0.0073,-0.0073,0.0342,-6.6530,9.6752,0.7595,-0.2711,0.0659,-0.0073,1,1,1,1,1,1,1
9.0657,sweep,2,+up,0.08564,1.52724,1.13966,1.56958,-0.05322,-0.28515,-0.00362,0.0024,0.2222,-0.0024,-0.0073,0.0073,-0.0073,-0.0073,0.0342,-6.6530,9.6752,0.7595,-0.2711,0.0659,-0.0073,1,1,1,1,1,1,1
9.1057,sweep,2,+up,0.08564,1.54288,1.13966,1.56958,-0.05360,-0.28477,-0.00362,-0.0024,0.1832,0.0024,-0.0073,-0.0073,0.0073,-0.0220,0.0068,-6.5983,9.5795,0.8034,-0.2711,0.0659,-0.0073,1,1,1,1,1,1,1
9.1454,sweep,2,+up,0.08564,1.54288,1.13966,1.56958,-0.05360,-0.28477,-0.00362,-0.0024,0.1832,0.0024,-0.0073,-0.0073,0.0073,-0.0220,0.0068,-6.5983,9.5795,0.8034,-0.2711,0.0659,-0.0073,1,1,1,1,1,1,1
9.1855,sweep,2,+up,0.08564,1.54288,1.13966,1.56958,-0.05360,-0.28477,-0.00362,-0.0024,0.1832,0.0024,-0.0073,-0.0073,0.0073,-0.0220,0.0068,-6.5983,9.5795,0.8034,-0.2711,0.0659,-0.0073,1,1,1,1,1,1,1
9.2255,sweep,2,+up,0.08564,1.56767,1.13966,1.56958,-0.05360,-0.28477,-0.00362,-0.0024,0.1880,-0.0024,0.0073,0.0220,0.0073,-0.0220,0.0068,-7.2410,9.5111,0.8620,-0.2662,0.0659,-0.0073,1,1,1,1,1,1,1
9.2652,sweep,2,+up,0.08564,1.56767,1.13966,1.56958,-0.05360,-0.28477,-0.00362,-0.0024,0.1880,-0.0024,0.0073,0.0220,0.0073,-0.0220,0.0068,-7.2410,9.5111,0.8620,-0.2662,0.0659,-0.0073,1,1,1,1,1,1,1
9.3054,sweep,2,+up,0.08564,1.58370,1.13966,1.56920,-0.05322,-0.28477,-0.00362,-0.0024,0.2027,-0.0024,0.0073,-0.0073,0.0073,0.0073,0.0068,-7.3778,9.5111,0.9158,-0.2613,0.0659,-0.0073,1,1,1,1,1,1,1
9.3453,sweep,2,+up,0.08564,1.58370,1.13966,1.56920,-0.05322,-0.28477,-0.00362,-0.0024,0.2027,-0.0024,0.0073,-0.0073,0.0073,0.0073,0.0068,-7.3778,9.5111,0.9158,-0.2613,0.0659,-0.0073,1,1,1,1,1,1,1
9.3854,sweep,2,+up,0.08564,1.58370,1.13966,1.56920,-0.05322,-0.28477,-0.00362,-0.0024,0.2027,-0.0024,0.0073,-0.0073,0.0073,0.0073,0.0068,-7.3778,9.5111,0.9158,-0.2613,0.0659,-0.0073,1,1,1,1,1,1,1
9.4257,sweep,2,+up,0.08564,1.60773,1.13966,1.56958,-0.05360,-0.28477,-0.00324,-0.0024,0.1880,-0.0024,0.0073,-0.0220,-0.0220,-0.0073,0.0068,-7.3231,9.4974,0.9548,-0.2515,0.0611,-0.0073,1,1,1,1,1,1,1
9.4653,sweep,2,+up,0.08564,1.60773,1.13966,1.56958,-0.05360,-0.28477,-0.00324,-0.0024,0.1880,-0.0024,0.0073,-0.0220,-0.0220,-0.0073,0.0068,-7.3231,9.4974,0.9548,-0.2515,0.0611,-0.0073,1,1,1,1,1,1,1
9.5054,sweep,2,+up,0.08564,1.62375,1.14004,1.56958,-0.05322,-0.28477,-0.00324,-0.0024,0.1832,-0.0024,-0.0220,-0.0073,-0.0073,0.0073,0.0342,-7.3368,9.5111,0.9939,-0.2662,0.0611,-0.0073,1,1,1,1,1,1,1
9.5454,sweep,2,+up,0.08564,1.62375,1.14004,1.56958,-0.05322,-0.28477,-0.00324,-0.0024,0.1832,-0.0024,-0.0220,-0.0073,-0.0073,0.0073,0.0342,-7.3368,9.5111,0.9939,-0.2662,0.0611,-0.0073,1,1,1,1,1,1,1
9.5857,sweep,2,+up,0.08564,1.62375,1.14004,1.56958,-0.05322,-0.28477,-0.00324,-0.0024,0.1832,-0.0024,-0.0220,-0.0073,-0.0073,0.0073,0.0342,-7.3368,9.5111,0.9939,-0.2662,0.0611,-0.0073,1,1,1,1,1,1,1
9.6251,sweep,2,+up,0.08564,1.64816,1.13966,1.56996,-0.05322,-0.28477,-0.00324,-0.0024,0.1783,-0.0024,0.0073,-0.0073,-0.0073,-0.0073,0.0205,-7.8838,9.5111,1.0232,-0.2711,0.0562,-0.0073,1,1,1,1,1,1,1
9.6655,sweep,2,+up,0.08564,1.64816,1.13966,1.56996,-0.05322,-0.28477,-0.00324,-0.0024,0.1783,-0.0024,0.0073,-0.0073,-0.0073,-0.0073,0.0205,-7.8838,9.5111,1.0232,-0.2711,0.0562,-0.0073,1,1,1,1,1,1,1
9.7053,sweep,2,+up,0.08564,1.66419,1.13966,1.56996,-0.05322,-0.28477,-0.00324,-0.0024,0.2369,-0.0024,-0.0073,-0.0073,0.0073,-0.0073,0.0205,-8.2393,9.4838,1.0427,-0.2662,0.0562,-0.0073,1,1,1,1,1,1,1
9.7453,sweep,2,+up,0.08564,1.66419,1.13966,1.56996,-0.05322,-0.28477,-0.00324,-0.0024,0.2369,-0.0024,-0.0073,-0.0073,0.0073,-0.0073,0.0205,-8.2393,9.4838,1.0427,-0.2662,0.0562,-0.0073,1,1,1,1,1,1,1
9.7857,sweep,2,+up,0.08564,1.66419,1.13966,1.56996,-0.05322,-0.28477,-0.00324,-0.0024,0.2369,-0.0024,-0.0073,-0.0073,0.0073,-0.0073,0.0205,-8.2393,9.4838,1.0427,-0.2662,0.0562,-0.0073,1,1,1,1,1,1,1
9.8252,sweep,2,+up,0.08564,1.68822,1.14004,1.57073,-0.05322,-0.28477,-0.00324,-0.0073,0.1929,-0.0024,-0.0073,-0.0073,0.0073,-0.0073,0.0205,-8.1162,9.4427,1.0183,-0.2711,0.0562,-0.0024,1,1,1,1,1,1,1
9.8651,sweep,2,+up,0.08564,1.68822,1.14004,1.57073,-0.05322,-0.28477,-0.00324,-0.0073,0.1929,-0.0024,-0.0073,-0.0073,0.0073,-0.0073,0.0205,-8.1162,9.4427,1.0183,-0.2711,0.0562,-0.0024,1,1,1,1,1,1,1
9.9051,sweep,2,+up,0.08564,1.70462,1.14004,1.57034,-0.05322,-0.28477,-0.00324,-0.0073,0.2173,-0.0024,-0.0073,0.0073,-0.0073,-0.0073,0.0479,-8.7043,9.4427,1.0379,-0.2613,0.0562,-0.0073,1,1,1,1,1,1,1
9.9453,sweep,2,+up,0.08564,1.70462,1.14004,1.57034,-0.05322,-0.28477,-0.00324,-0.0073,0.2173,-0.0024,-0.0073,0.0073,-0.0073,-0.0073,0.0479,-8.7043,9.4427,1.0379,-0.2613,0.0562,-0.0073,1,1,1,1,1,1,1
9.9852,sweep,2,+up,0.08564,1.70462,1.14004,1.57034,-0.05322,-0.28477,-0.00324,-0.0073,0.2173,-0.0024,-0.0073,0.0073,-0.0073,-0.0073,0.0479,-8.7043,9.4427,1.0379,-0.2613,0.0562,-0.0073,1,1,1,1,1,1,1
10.0251,sweep,2,+up,0.08564,1.72866,1.14004,1.56996,-0.05322,-0.28477,-0.00362,-0.0024,0.2076,-0.0073,-0.0073,0.0073,-0.0073,-0.0073,0.0479,-8.6359,9.4838,1.0916,-0.2613,0.0513,-0.0024,1,1,1,1,1,1,1
10.0653,sweep,2,+up,0.08564,1.72866,1.14004,1.56996,-0.05322,-0.28477,-0.00362,-0.0024,0.2076,-0.0073,-0.0073,0.0073,-0.0073,-0.0073,0.0479,-8.6359,9.4838,1.0916,-0.2613,0.0513,-0.0024,1,1,1,1,1,1,1
10.1057,sweep,2,+up,0.08564,1.74468,1.14004,1.56996,-0.05322,-0.28515,-0.00362,-0.0024,0.2125,-0.0024,-0.0073,-0.0073,-0.0073,-0.0220,0.0479,-8.6769,9.4564,1.1209,-0.2466,0.0464,-0.0122,1,1,1,1,1,1,1
10.1455,sweep,2,+up,0.08564,1.74468,1.14004,1.56996,-0.05322,-0.28515,-0.00362,-0.0024,0.2125,-0.0024,-0.0073,-0.0073,-0.0073,-0.0220,0.0479,-8.6769,9.4564,1.1209,-0.2466,0.0464,-0.0122,1,1,1,1,1,1,1
10.1854,sweep,2,+up,0.08564,1.74468,1.14004,1.56996,-0.05322,-0.28515,-0.00362,-0.0024,0.2125,-0.0024,-0.0073,-0.0073,-0.0073,-0.0220,0.0479,-8.6769,9.4564,1.1209,-0.2466,0.0464,-0.0122,1,1,1,1,1,1,1
10.2253,sweep,2,+up,0.08564,1.76871,1.14004,1.56996,-0.05360,-0.28477,-0.00324,0.0024,0.2076,-0.0024,-0.0220,-0.0073,-0.0073,-0.0073,0.0205,-9.0598,9.4017,1.1502,-0.2662,0.0464,-0.0073,1,1,1,1,1,1,1
10.2653,sweep,2,+up,0.08564,1.76871,1.14004,1.56996,-0.05360,-0.28477,-0.00324,0.0024,0.2076,-0.0024,-0.0220,-0.0073,-0.0073,-0.0073,0.0205,-9.0598,9.4017,1.1502,-0.2662,0.0464,-0.0073,1,1,1,1,1,1,1
10.3057,sweep,2,+up,0.08564,1.78473,1.14004,1.56996,-0.05322,-0.28515,-0.00362,-0.0024,0.1832,-0.0024,-0.0073,-0.0220,-0.0220,-0.0220,0.0068,-9.1556,9.3880,1.1648,-0.2662,0.0464,-0.0122,1,1,1,1,1,1,1
10.3460,sweep,2,+up,0.08564,1.78473,1.14004,1.56996,-0.05322,-0.28515,-0.00362,-0.0024,0.1832,-0.0024,-0.0073,-0.0220,-0.0220,-0.0220,0.0068,-9.1556,9.3880,1.1648,-0.2662,0.0464,-0.0122,1,1,1,1,1,1,1
10.3854,sweep,2,+up,0.08564,1.78473,1.14004,1.56996,-0.05322,-0.28515,-0.00362,-0.0024,0.1832,-0.0024,-0.0073,-0.0220,-0.0220,-0.0220,0.0068,-9.1556,9.3880,1.1648,-0.2662,0.0464,-0.0122,1,1,1,1,1,1,1
10.4255,sweep,2,+up,0.08564,1.80877,1.14004,1.56958,-0.05322,-0.28477,-0.00362,-0.0024,0.2125,-0.0024,-0.0220,0.0073,-0.0073,-0.0073,0.0205,-8.8821,9.3607,1.2283,-0.2711,0.0513,-0.0073,1,1,1,1,1,1,1
10.4653,sweep,2,+up,0.08564,1.80877,1.14004,1.56958,-0.05322,-0.28477,-0.00362,-0.0024,0.2125,-0.0024,-0.0220,0.0073,-0.0073,-0.0073,0.0205,-8.8821,9.3607,1.2283,-0.2711,0.0513,-0.0073,1,1,1,1,1,1,1
10.5053,sweep,2,+up,0.08564,1.82441,1.14004,1.56958,-0.05322,-0.28515,-0.00324,-0.0024,0.1783,-0.0024,-0.0073,-0.0073,-0.0073,-0.0073,-0.0068,-8.5128,9.3333,1.2430,-0.2808,0.0513,-0.0122,1,1,1,1,1,1,1
10.5455,sweep,2,+up,0.08564,1.82441,1.14004,1.56958,-0.05322,-0.28515,-0.00324,-0.0024,0.1783,-0.0024,-0.0073,-0.0073,-0.0073,-0.0073,-0.0068,-8.5128,9.3333,1.2430,-0.2808,0.0513,-0.0122,1,1,1,1,1,1,1
10.5854,sweep,2,+up,0.08564,1.82441,1.14004,1.56958,-0.05322,-0.28515,-0.00324,-0.0024,0.1783,-0.0024,-0.0073,-0.0073,-0.0073,-0.0073,-0.0068,-8.5128,9.3333,1.2430,-0.2808,0.0513,-0.0122,1,1,1,1,1,1,1
10.6257,sweep,2,+up,0.08564,1.84920,1.14004,1.56958,-0.05322,-0.28515,-0.00324,-0.0024,0.2125,0.0024,-0.0073,-0.0220,-0.0220,-0.0220,0.0479,-9.5248,9.3060,1.2967,-0.2857,0.0513,-0.0171,1,1,1,1,1,1,1
10.6654,sweep,2,+up,0.08564,1.84920,1.14004,1.56958,-0.05322,-0.28515,-0.00324,-0.0024,0.2125,0.0024,-0.0073,-0.0220,-0.0220,-0.0220,0.0479,-9.5248,9.3060,1.2967,-0.2857,0.0513,-0.0171,1,1,1,1,1,1,1
10.7052,sweep,2,+up,0.08564,1.86484,1.14004,1.56958,-0.05322,-0.28515,-0.00324,-0.0073,0.1880,-0.0024,-0.0073,-0.0220,-0.0073,0.0073,0.0479,-9.7846,9.2786,1.3211,-0.2759,0.0513,-0.0122,1,1,1,1,1,1,1
10.7450,sweep,2,+up,0.08564,1.86484,1.14004,1.56958,-0.05322,-0.28515,-0.00324,-0.0073,0.1880,-0.0024,-0.0073,-0.0220,-0.0073,0.0073,0.0479,-9.7846,9.2786,1.3211,-0.2759,0.0513,-0.0122,1,1,1,1,1,1,1
10.7853,sweep,2,+up,0.08564,1.86484,1.14004,1.56958,-0.05322,-0.28515,-0.00324,-0.0073,0.1880,-0.0024,-0.0073,-0.0220,-0.0073,0.0073,0.0479,-9.7846,9.2786,1.3211,-0.2759,0.0513,-0.0122,1,1,1,1,1,1,1
10.8252,sweep,2,+up,0.08564,1.88506,1.14004,1.56958,-0.05322,-0.28515,-0.00362,-0.0024,0.1490,-0.0024,-0.0073,-0.0073,-0.0073,-0.0220,0.0342,-9.7026,9.2376,1.3993,-0.2662,0.0464,-0.0024,1,1,1,1,1,1,1
10.8651,sweep,2,+up,0.08564,1.88506,1.14004,1.56958,-0.05322,-0.28515,-0.00362,-0.0024,0.1490,-0.0024,-0.0073,-0.0073,-0.0073,-0.0220,0.0342,-9.7026,9.2376,1.3993,-0.2662,0.0464,-0.0024,1,1,1,1,1,1,1
10.9055,sweep,2,+up,0.08564,1.89689,1.14004,1.56958,-0.05322,-0.28515,-0.00324,-0.0024,0.1294,-0.0024,-0.0073,-0.0073,-0.0073,-0.0220,0.0615,-9.5385,9.2239,1.4188,-0.2857,0.0464,-0.0024,1,1,1,1,1,1,1
10.9454,sweep,2,+up,0.08564,1.89689,1.14004,1.56958,-0.05322,-0.28515,-0.00324,-0.0024,0.1294,-0.0024,-0.0073,-0.0073,-0.0073,-0.0220,0.0615,-9.5385,9.2239,1.4188,-0.2857,0.0464,-0.0024,1,1,1,1,1,1,1
10.9855,sweep,2,+up,0.08564,1.89689,1.14004,1.56958,-0.05322,-0.28515,-0.00324,-0.0024,0.1294,-0.0024,-0.0073,-0.0073,-0.0073,-0.0220,0.0615,-9.5385,9.2239,1.4188,-0.2857,0.0464,-0.0024,1,1,1,1,1,1,1
11.0252,sweep,2,+up,0.08564,1.91291,1.14004,1.56996,-0.05322,-0.28515,-0.00324,-0.0073,0.1441,-0.0024,0.0073,-0.0220,-0.0073,-0.0073,0.0615,-10.2632,9.2103,1.4432,-0.2857,0.0464,-0.0073,1,1,1,1,1,1,1
11.0653,sweep,2,+up,0.08564,1.91291,1.14004,1.56996,-0.05322,-0.28515,-0.00324,-0.0073,0.1441,-0.0024,0.0073,-0.0220,-0.0073,-0.0073,0.0615,-10.2632,9.2103,1.4432,-0.2857,0.0464,-0.0073,1,1,1,1,1,1,1
11.1054,sweep,2,+up,0.08564,1.92092,1.14004,1.56996,-0.05322,-0.28515,-0.00362,-0.0024,0.0855,-0.0024,0.0073,0.0073,-0.0073,-0.0073,0.0752,-9.1419,9.1692,1.4530,-0.2857,0.0464,-0.0073,1,1,1,1,1,1,1
11.1452,sweep,2,+up,0.08564,1.92092,1.14004,1.56996,-0.05322,-0.28515,-0.00362,-0.0024,0.0855,-0.0024,0.0073,0.0073,-0.0073,-0.0073,0.0752,-9.1419,9.1692,1.4530,-0.2857,0.0464,-0.0073,1,1,1,1,1,1,1
11.1852,sweep,2,+up,0.08564,1.92092,1.14004,1.56996,-0.05322,-0.28515,-0.00362,-0.0024,0.0855,-0.0024,0.0073,0.0073,-0.0073,-0.0073,0.0752,-9.1419,9.1692,1.4530,-0.2857,0.0464,-0.0073,1,1,1,1,1,1,1
11.2252,sweep,2,+up,0.08564,1.93351,1.14004,1.57111,-0.05322,-0.28515,-0.00324,-0.0024,0.0562,-0.0024,-0.0073,-0.0073,-0.0073,-0.0073,0.1162,-10.0991,9.1556,1.3895,-0.2955,0.0513,-0.0073,1,1,1,1,1,1,1
11.2651,sweep,2,+up,0.08564,1.93351,1.14004,1.57111,-0.05322,-0.28515,-0.00324,-0.0024,0.0562,-0.0024,-0.0073,-0.0073,-0.0073,-0.0073,0.1162,-10.0991,9.1556,1.3895,-0.2955,0.0513,-0.0073,1,1,1,1,1,1,1
11.3054,sweep,2,+up,0.08564,1.94038,1.14004,1.57034,-0.05322,-0.28515,-0.00324,-0.0024,0.1001,-0.0024,-0.0073,-0.0073,-0.0073,0.0073,0.1299,-10.3043,9.0872,1.4335,-0.3004,0.0513,-0.0073,1,1,1,1,1,1,1
11.3457,sweep,2,+up,0.08564,1.94038,1.14004,1.57034,-0.05322,-0.28515,-0.00324,-0.0024,0.1001,-0.0024,-0.0073,-0.0073,-0.0073,0.0073,0.1299,-10.3043,9.0872,1.4335,-0.3004,0.0513,-0.0073,1,1,1,1,1,1,1
11.3852,sweep,2,+up,0.08564,1.94038,1.14004,1.57034,-0.05322,-0.28515,-0.00324,-0.0024,0.1001,-0.0024,-0.0073,-0.0073,-0.0073,0.0073,0.1299,-10.3043,9.0872,1.4335,-0.3004,0.0513,-0.0073,1,1,1,1,1,1,1
11.4253,sweep,2,+up,0.08564,1.94915,1.14004,1.57073,-0.05322,-0.28515,-0.00324,-0.0073,0.0806,-0.0024,-0.0220,-0.0220,-0.0073,-0.0220,0.1299,-9.5932,9.0462,1.4188,-0.3053,0.0513,-0.0073,1,1,1,1,1,1,1
11.4655,sweep,2,+up,0.08564,1.94915,1.14004,1.57073,-0.05322,-0.28515,-0.00324,-0.0073,0.0806,-0.0024,-0.0220,-0.0220,-0.0073,-0.0220,0.1299,-9.5932,9.0462,1.4188,-0.3053,0.0513,-0.0073,1,1,1,1,1,1,1
11.5052,sweep,2,+up,0.08564,1.95411,1.14004,1.57034,-0.05360,-0.28515,-0.00362,-0.0024,0.0415,-0.0073,-0.0073,-0.0220,-0.0220,-0.0073,0.1299,-9.4564,9.0188,1.4530,-0.3199,0.0513,-0.0073,1,1,1,1,1,1,1
11.5452,sweep,2,+up,0.08564,1.95411,1.14004,1.57034,-0.05360,-0.28515,-0.00362,-0.0024,0.0415,-0.0073,-0.0073,-0.0220,-0.0220,-0.0073,0.1299,-9.4564,9.0188,1.4530,-0.3199,0.0513,-0.0073,1,1,1,1,1,1,1
11.5853,sweep,2,+up,0.08564,1.95411,1.14004,1.57034,-0.05360,-0.28515,-0.00362,-0.0024,0.0415,-0.0073,-0.0073,-0.0220,-0.0220,-0.0073,0.1299,-9.4564,9.0188,1.4530,-0.3199,0.0513,-0.0073,1,1,1,1,1,1,1
11.6255,sweep,2,+up,0.08564,1.96136,1.14004,1.57073,-0.05322,-0.28515,-0.00324,-0.0073,0.0269,-0.0024,-0.0073,-0.0220,-0.0220,-0.0073,0.1436,-9.8530,8.9915,1.4335,-0.3053,0.0513,-0.0073,1,1,1,1,1,1,1
11.6653,sweep,2,+up,0.08564,1.96136,1.14004,1.57073,-0.05322,-0.28515,-0.00324,-0.0073,0.0269,-0.0024,-0.0073,-0.0220,-0.0220,-0.0073,0.1436,-9.8530,8.9915,1.4335,-0.3053,0.0513,-0.0073,1,1,1,1,1,1,1
11.7055,sweep,2,+up,0.08564,1.96517,1.14004,1.57034,-0.05322,-0.28515,-0.00362,-0.0024,0.0415,-0.0024,-0.0073,-0.0220,-0.0073,-0.0220,0.1573,-9.8940,9.0051,1.4432,-0.3053,0.0562,-0.0073,1,1,1,1,1,1,1
11.7455,sweep,2,+up,0.08564,1.96517,1.14004,1.57034,-0.05322,-0.28515,-0.00362,-0.0024,0.0415,-0.0024,-0.0073,-0.0220,-0.0073,-0.0220,0.1573,-9.8940,9.0051,1.4432,-0.3053,0.0562,-0.0073,1,1,1,1,1,1,1
11.7854,sweep,2,+up,0.08564,1.96517,1.14004,1.57034,-0.05322,-0.28515,-0.00362,-0.0024,0.0415,-0.0024,-0.0073,-0.0220,-0.0073,-0.0220,0.1573,-9.8940,9.0051,1.4432,-0.3053,0.0562,-0.0073,1,1,1,1,1,1,1
11.8251,sweep,2,+up,0.08564,1.97013,1.14004,1.57073,-0.05322,-0.28515,-0.00324,0.0024,0.0464,0.0024,0.0073,-0.0220,-0.0073,-0.0073,0.1709,-9.3333,8.9778,1.4335,-0.3053,0.0513,-0.0073,1,1,1,1,1,1,1
11.8652,sweep,2,+up,0.08564,1.97013,1.14004,1.57073,-0.05322,-0.28515,-0.00324,0.0024,0.0464,0.0024,0.0073,-0.0220,-0.0073,-0.0073,0.1709,-9.3333,8.9778,1.4335,-0.3053,0.0513,-0.0073,1,1,1,1,1,1,1
11.9051,sweep,2,+up,0.08564,1.97356,1.14004,1.57073,-0.05322,-0.28515,-0.00324,-0.0024,0.0611,-0.0024,-0.0073,-0.0073,0.0073,0.0073,0.1846,-10.0034,8.9231,1.4383,-0.3150,0.0513,-0.0073,1,1,1,1,1,1,1
11.9451,sweep,2,+up,0.08564,1.97356,1.14004,1.57073,-0.05322,-0.28515,-0.00324,-0.0024,0.0611,-0.0024,-0.0073,-0.0073,0.0073,0.0073,0.1846,-10.0034,8.9231,1.4383,-0.3150,0.0513,-0.0073,1,1,1,1,1,1,1
11.9852,sweep,2,+up,0.08564,1.97356,1.14004,1.57073,-0.05322,-0.28515,-0.00324,-0.0024,0.0611,-0.0024,-0.0073,-0.0073,0.0073,0.0073,0.1846,-10.0034,8.9231,1.4383,-0.3150,0.0513,-0.0073,1,1,1,1,1,1,1
12.0251,sweep,2,+up,0.08564,1.97776,1.14004,1.57073,-0.05322,-0.28515,-0.00324,0.0024,0.0415,-0.0024,0.0073,0.0073,-0.0073,0.0073,0.1846,-10.4684,8.8957,1.4335,-0.3150,0.0513,-0.0073,1,1,1,1,1,1,1
12.0651,sweep,2,+up,0.08564,1.97776,1.14004,1.57073,-0.05322,-0.28515,-0.00324,0.0024,0.0415,-0.0024,0.0073,0.0073,-0.0073,0.0073,0.1846,-10.4684,8.8957,1.4335,-0.3150,0.0513,-0.0073,1,1,1,1,1,1,1
12.1052,sweep,2,+up,0.08564,1.97967,1.14004,1.57073,-0.05322,-0.28477,-0.00362,-0.0024,0.0122,-0.0024,-0.0073,-0.0073,-0.0073,-0.0073,0.1709,-10.0855,8.8410,1.4335,-0.3248,0.0562,-0.0073,1,1,1,1,1,1,1
12.1455,sweep,2,+up,0.08564,1.97967,1.14004,1.57073,-0.05322,-0.28477,-0.00362,-0.0024,0.0122,-0.0024,-0.0073,-0.0073,-0.0073,-0.0073,0.1709,-10.0855,8.8410,1.4335,-0.3248,0.0562,-0.0073,1,1,1,1,1,1,1
12.1851,sweep,2,+up,0.08564,1.97967,1.14004,1.57073,-0.05322,-0.28477,-0.00362,-0.0024,0.0122,-0.0024,-0.0073,-0.0073,-0.0073,-0.0073,0.1709,-10.0855,8.8410,1.4335,-0.3248,0.0562,-0.0073,1,1,1,1,1,1,1
12.2255,sweep,2,+up,0.08564,1.98272,1.14004,1.57073,-0.05322,-0.28515,-0.00324,0.0024,0.0269,-0.0024,-0.0073,-0.0073,-0.0073,-0.0220,0.1983,-9.9624,8.8000,1.4188,-0.3248,0.0611,-0.0122,1,1,1,1,1,1,1
12.7281,sweep,2,-down,0.08564,1.98348,1.14004,1.57073,-0.05360,-0.28515,-0.00324,-0.0024,0.0073,-0.0024,-0.0073,-0.0073,-0.0073,-0.0073,0.1983,-9.7026,8.8000,1.4286,-0.3346,0.0659,-0.0073,1,1,1,1,1,1,1
12.7683,sweep,2,-down,0.08564,1.98348,1.14004,1.57073,-0.05360,-0.28515,-0.00324,-0.0024,0.0073,-0.0024,-0.0073,-0.0073,-0.0073,-0.0073,0.1983,-9.7026,8.8000,1.4286,-0.3346,0.0659,-0.0073,1,1,1,1,1,1,1
12.8083,sweep,2,-down,0.08564,1.99035,1.14004,1.57034,-0.05360,-0.28515,-0.00324,-0.0024,-0.1001,-0.0073,-0.0220,-0.0073,-0.0220,-0.0073,0.2393,-17.1282,8.5128,1.4628,-0.3346,0.0659,-0.0171,1,1,1,1,1,1,1
12.8479,sweep,2,-down,0.08564,1.99035,1.14004,1.57034,-0.05360,-0.28515,-0.00324,-0.0024,-0.1001,-0.0073,-0.0220,-0.0073,-0.0220,-0.0073,0.2393,-17.1282,8.5128,1.4628,-0.3346,0.0659,-0.0171,1,1,1,1,1,1,1
12.8883,sweep,2,-down,0.08564,1.99035,1.14004,1.57034,-0.05360,-0.28515,-0.00324,-0.0024,-0.1001,-0.0073,-0.0220,-0.0073,-0.0220,-0.0073,0.2393,-17.1282,8.5128,1.4628,-0.3346,0.0659,-0.0171,1,1,1,1,1,1,1
12.9281,sweep,2,-down,0.08564,1.96555,1.14004,1.56882,-0.05360,-0.28477,-0.00324,-0.0024,-0.2711,-0.0024,0.0659,-0.0073,0.0073,0.0073,0.2393,-15.9521,8.4991,1.7021,-0.3199,0.0611,-0.0171,1,1,1,1,1,1,1
12.9679,sweep,2,-down,0.08564,1.96555,1.14004,1.56882,-0.05360,-0.28477,-0.00324,-0.0024,-0.2711,-0.0024,0.0659,-0.0073,0.0073,0.0073,0.2393,-15.9521,8.4991,1.7021,-0.3199,0.0611,-0.0171,1,1,1,1,1,1,1
13.0082,sweep,2,-down,0.08564,1.94724,1.14004,1.57530,-0.05360,-0.28477,-0.00324,0.0024,-0.2320,-0.0073,-0.0073,-0.0220,-0.0073,-0.0073,0.2256,-12.9299,8.4034,1.1404,-0.2906,0.0562,-0.0171,1,1,1,1,1,1,1
13.0483,sweep,2,-down,0.08564,1.94724,1.14004,1.57530,-0.05360,-0.28477,-0.00324,0.0024,-0.2320,-0.0073,-0.0073,-0.0220,-0.0073,-0.0073,0.2256,-12.9299,8.4034,1.1404,-0.2906,0.0562,-0.0171,1,1,1,1,1,1,1
13.0881,sweep,2,-down,0.08564,1.94724,1.14004,1.57530,-0.05360,-0.28477,-0.00324,0.0024,-0.2320,-0.0073,-0.0073,-0.0220,-0.0073,-0.0073,0.2256,-12.9299,8.4034,1.1404,-0.2906,0.0562,-0.0171,1,1,1,1,1,1,1
13.1282,sweep,2,-down,0.08564,1.92626,1.14004,1.56729,-0.05360,-0.28477,-0.00324,-0.0073,-0.1441,-0.0024,-0.0220,-0.0073,-0.0073,-0.0220,0.2393,-16.8137,8.3350,1.6923,-0.2906,0.0611,-0.0122,1,1,1,1,1,1,1
13.1682,sweep,2,-down,0.08564,1.92626,1.14004,1.56729,-0.05360,-0.28477,-0.00324,-0.0073,-0.1441,-0.0024,-0.0220,-0.0073,-0.0073,-0.0220,0.2393,-16.8137,8.3350,1.6923,-0.2906,0.0611,-0.0122,1,1,1,1,1,1,1
13.2085,sweep,2,-down,0.08564,1.90948,1.14004,1.56882,-0.05360,-0.28477,-0.00324,-0.0024,-0.2320,-0.0024,0.0073,0.0073,-0.0220,-0.0220,0.2530,-15.6239,8.3077,1.6386,-0.2662,0.0513,-0.0073,1,1,1,1,1,1,1
13.2481,sweep,2,-down,0.08564,1.90948,1.14004,1.56882,-0.05360,-0.28477,-0.00324,-0.0024,-0.2320,-0.0024,0.0073,0.0073,-0.0220,-0.0220,0.2530,-15.6239,8.3077,1.6386,-0.2662,0.0513,-0.0073,1,1,1,1,1,1,1
13.2883,sweep,2,-down,0.08564,1.90948,1.14004,1.56882,-0.05360,-0.28477,-0.00324,-0.0024,-0.2320,-0.0024,0.0073,0.0073,-0.0220,-0.0220,0.2530,-15.6239,8.3077,1.6386,-0.2662,0.0513,-0.0073,1,1,1,1,1,1,1
13.3285,sweep,2,-down,0.08602,1.88506,1.14004,1.57149,-0.05398,-0.28477,-0.00362,-0.0024,-0.1734,-0.0024,-0.0073,-0.0220,-0.0220,0.0073,0.2803,-14.9675,8.2803,1.4188,-0.2564,0.0415,-0.0073,1,1,1,1,1,1,1
13.3684,sweep,2,-down,0.08602,1.88506,1.14004,1.57149,-0.05398,-0.28477,-0.00362,-0.0024,-0.1734,-0.0024,-0.0073,-0.0220,-0.0220,0.0073,0.2803,-14.9675,8.2803,1.4188,-0.2564,0.0415,-0.0073,1,1,1,1,1,1,1
13.4082,sweep,2,-down,0.08564,1.86904,1.14004,1.57073,-0.05360,-0.28477,-0.00362,-0.0024,-0.1929,-0.0024,-0.0073,-0.0073,0.0073,-0.0073,0.2530,-15.4462,8.2393,1.4774,-0.2466,0.0415,-0.0073,1,1,1,1,1,1,1
13.4482,sweep,2,-down,0.08564,1.86904,1.14004,1.57073,-0.05360,-0.28477,-0.00362,-0.0024,-0.1929,-0.0024,-0.0073,-0.0073,0.0073,-0.0073,0.2530,-15.4462,8.2393,1.4774,-0.2466,0.0415,-0.0073,1,1,1,1,1,1,1
13.4887,sweep,2,-down,0.08564,1.86904,1.14004,1.57073,-0.05360,-0.28477,-0.00362,-0.0024,-0.1929,-0.0024,-0.0073,-0.0073,0.0073,-0.0073,0.2530,-15.4462,8.2393,1.4774,-0.2466,0.0415,-0.0073,1,1,1,1,1,1,1
13.5282,sweep,2,-down,0.08602,1.84424,1.14004,1.57187,-0.05360,-0.28477,-0.00324,-0.0024,-0.2125,-0.0024,-0.0073,-0.0073,-0.0220,-0.0220,0.2940,-14.1470,8.1983,1.3797,-0.2369,0.0317,-0.0122,1,1,1,1,1,1,1
13.5682,sweep,2,-down,0.08602,1.84424,1.14004,1.57187,-0.05360,-0.28477,-0.00324,-0.0024,-0.2125,-0.0024,-0.0073,-0.0073,-0.0220,-0.0220,0.2940,-14.1470,8.1983,1.3797,-0.2369,0.0317,-0.0122,1,1,1,1,1,1,1
13.6086,sweep,2,-down,0.08564,1.82898,1.14004,1.57149,-0.05360,-0.28477,-0.00324,-0.0073,-0.2076,-0.0073,-0.0073,0.0220,0.0073,-0.0220,0.2940,-14.8444,8.1573,1.3651,-0.2222,0.0269,-0.0122,1,1,1,1,1,1,1
13.6484,sweep,2,-down,0.08564,1.82898,1.14004,1.57149,-0.05360,-0.28477,-0.00324,-0.0073,-0.2076,-0.0073,-0.0073,0.0220,0.0073,-0.0220,0.2940,-14.8444,8.1573,1.3651,-0.2222,0.0269,-0.0122,1,1,1,1,1,1,1
13.6882,sweep,2,-down,0.08564,1.82898,1.14004,1.57149,-0.05360,-0.28477,-0.00324,-0.0073,-0.2076,-0.0073,-0.0073,0.0220,0.0073,-0.0220,0.2940,-14.8444,8.1573,1.3651,-0.2222,0.0269,-0.0122,1,1,1,1,1,1,1
13.7283,sweep,2,-down,0.08602,1.80419,1.14004,1.57149,-0.05360,-0.28477,-0.00324,-0.0024,-0.2125,-0.0024,-0.0220,-0.0220,-0.0073,0.0073,0.2803,-13.9829,8.1299,1.3162,-0.2125,0.0220,-0.0122,1,1,1,1,1,1,1
13.7682,sweep,2,-down,0.08602,1.80419,1.14004,1.57149,-0.05360,-0.28477,-0.00324,-0.0024,-0.2125,-0.0024,-0.0220,-0.0220,-0.0073,0.0073,0.2803,-13.9829,8.1299,1.3162,-0.2125,0.0220,-0.0122,1,1,1,1,1,1,1
13.8081,sweep,2,-down,0.08602,1.78779,1.14004,1.57149,-0.05360,-0.28477,-0.00362,-0.0024,-0.1685,0.0024,-0.0220,-0.0220,-0.0220,-0.0073,0.3077,-13.5863,8.1162,1.2869,-0.2076,0.0220,-0.0122,1,1,1,1,1,1,1
13.8479,sweep,2,-down,0.08602,1.78779,1.14004,1.57149,-0.05360,-0.28477,-0.00362,-0.0024,-0.1685,0.0024,-0.0220,-0.0220,-0.0220,-0.0073,0.3077,-13.5863,8.1162,1.2869,-0.2076,0.0220,-0.0122,1,1,1,1,1,1,1
13.8881,sweep,2,-down,0.08602,1.78779,1.14004,1.57149,-0.05360,-0.28477,-0.00362,-0.0024,-0.1685,0.0024,-0.0220,-0.0220,-0.0220,-0.0073,0.3077,-13.5863,8.1162,1.2869,-0.2076,0.0220,-0.0122,1,1,1,1,1,1,1
13.9279,sweep,2,-down,0.08602,1.76451,1.14004,1.57111,-0.05360,-0.28477,-0.00324,0.0024,-0.2125,-0.0024,-0.0073,-0.0220,-0.0366,-0.0073,0.3214,-14.3385,8.0479,1.2821,-0.1929,0.0171,-0.0073,1,1,1,1,1,1,1
13.9679,sweep,2,-down,0.08602,1.76451,1.14004,1.57111,-0.05360,-0.28477,-0.00324,0.0024,-0.2125,-0.0024,-0.0073,-0.0220,-0.0366,-0.0073,0.3214,-14.3385,8.0479,1.2821,-0.1929,0.0171,-0.0073,1,1,1,1,1,1,1
14.0082,sweep,2,-down,0.08602,1.74773,1.14004,1.57111,-0.05360,-0.28477,-0.00324,-0.0073,-0.1978,-0.0024,-0.0073,-0.0073,-0.0073,-0.0073,0.3350,-13.3402,8.0068,1.2479,-0.1978,0.0122,-0.0073,1,1,1,1,1,1,1
14.0481,sweep,2,-down,0.08602,1.74773,1.14004,1.57111,-0.05360,-0.28477,-0.00324,-0.0073,-0.1978,-0.0024,-0.0073,-0.0073,-0.0073,-0.0073,0.3350,-13.3402,8.0068,1.2479,-0.1978,0.0122,-0.0073,1,1,1,1,1,1,1
14.0885,sweep,2,-down,0.08602,1.74773,1.14004,1.57111,-0.05360,-0.28477,-0.00324,-0.0073,-0.1978,-0.0024,-0.0073,-0.0073,-0.0073,-0.0073,0.3350,-13.3402,8.0068,1.2479,-0.1978,0.0122,-0.0073,1,1,1,1,1,1,1
14.1283,sweep,2,-down,0.08602,1.72293,1.14004,1.57149,-0.05360,-0.28477,-0.00324,-0.0024,-0.1978,-0.0024,-0.0073,-0.0220,-0.0073,-0.0073,0.3214,-12.7111,7.9521,1.1795,-0.1880,0.0024,-0.0073,1,1,1,1,1,1,1
14.1680,sweep,2,-down,0.08602,1.72293,1.14004,1.57149,-0.05360,-0.28477,-0.00324,-0.0024,-0.1978,-0.0024,-0.0073,-0.0220,-0.0073,-0.0073,0.3214,-12.7111,7.9521,1.1795,-0.1880,0.0024,-0.0073,1,1,1,1,1,1,1
14.2080,sweep,2,-down,0.08602,1.70729,1.14004,1.57149,-0.05360,-0.28477,-0.00324,-0.0024,-0.1929,-0.0024,-0.0220,-0.0220,-0.0073,-0.0073,0.3214,-12.9299,7.9385,1.1648,-0.1832,0.0024,-0.0073,1,1,1,1,1,1,1
14.2484,sweep,2,-down,0.08602,1.70729,1.14004,1.57149,-0.05360,-0.28477,-0.00324,-0.0024,-0.1929,-0.0024,-0.0220,-0.0220,-0.0073,-0.0073,0.3214,-12.9299,7.9385,1.1648,-0.1832,0.0024,-0.0073,1,1,1,1,1,1,1
14.2882,sweep,2,-down,0.08602,1.70729,1.14004,1.57149,-0.05360,-0.28477,-0.00324,-0.0024,-0.1929,-0.0024,-0.0220,-0.0220,-0.0073,-0.0073,0.3214,-12.9299,7.9385,1.1648,-0.1832,0.0024,-0.0073,1,1,1,1,1,1,1
14.3284,sweep,2,-down,0.08602,1.68326,1.14004,1.57149,-0.05360,-0.28477,-0.00324,-0.0024,-0.2076,-0.0024,-0.0220,-0.0220,-0.0220,-0.0073,0.2940,-12.7521,7.8974,1.1209,-0.1832,-0.0073,-0.0073,1,1,1,1,1,1,1
14.3682,sweep,2,-down,0.08602,1.68326,1.14004,1.57149,-0.05360,-0.28477,-0.00324,-0.0024,-0.2076,-0.0024,-0.0220,-0.0220,-0.0220,-0.0073,0.2940,-12.7521,7.8974,1.1209,-0.1832,-0.0073,-0.0073,1,1,1,1,1,1,1
14.4079,sweep,2,-down,0.08602,1.66686,1.14004,1.57149,-0.05360,-0.28477,-0.00362,-0.0024,-0.2222,-0.0024,-0.0073,-0.0073,-0.0220,-0.0073,0.2940,-12.5880,7.8838,1.0916,-0.1783,-0.0024,-0.0122,1,1,1,1,1,1,1
14.4479,sweep,2,-down,0.08602,1.66686,1.14004,1.57149,-0.05360,-0.28477,-0.00362,-0.0024,-0.2222,-0.0024,-0.0073,-0.0073,-0.0220,-0.0073,0.2940,-12.5880,7.8838,1.0916,-0.1783,-0.0024,-0.0122,1,1,1,1,1,1,1
14.4884,sweep,2,-down,0.08602,1.66686,1.14004,1.57149,-0.05360,-0.28477,-0.00362,-0.0024,-0.2222,-0.0024,-0.0073,-0.0073,-0.0220,-0.0073,0.2940,-12.5880,7.8838,1.0916,-0.1783,-0.0024,-0.0122,1,1,1,1,1,1,1
14.5282,sweep,2,-down,0.08602,1.64244,1.14004,1.57149,-0.05360,-0.28477,-0.00362,-0.0024,-0.2076,0.0024,-0.0073,-0.0073,-0.0073,-0.0073,0.3077,-11.7949,7.8427,1.0427,-0.1783,-0.0073,-0.0122,1,1,1,1,1,1,1
14.5679,sweep,2,-down,0.08602,1.64244,1.14004,1.57149,-0.05360,-0.28477,-0.00362,-0.0024,-0.2076,0.0024,-0.0073,-0.0073,-0.0073,-0.0073,0.3077,-11.7949,7.8427,1.0427,-0.1783,-0.0073,-0.0122,1,1,1,1,1,1,1
14.6080,sweep,2,-down,0.08602,1.62680,1.14004,1.57149,-0.05360,-0.28477,-0.00324,-0.0024,-0.1685,-0.0024,-0.0073,0.0073,-0.0073,0.0073,0.3350,-12.2188,7.7880,1.0134,-0.1685,-0.0122,-0.0073,1,1,1,1,1,1,1
14.6479,sweep,2,-down,0.08602,1.62680,1.14004,1.57149,-0.05360,-0.28477,-0.00324,-0.0024,-0.1685,-0.0024,-0.0073,0.0073,-0.0073,0.0073,0.3350,-12.2188,7.7880,1.0134,-0.1685,-0.0122,-0.0073,1,1,1,1,1,1,1
14.6880,sweep,2,-down,0.08602,1.62680,1.14004,1.57149,-0.05360,-0.28477,-0.00324,-0.0024,-0.1685,-0.0024,-0.0073,0.0073,-0.0073,0.0073,0.3350,-12.2188,7.7880,1.0134,-0.1685,-0.0122,-0.0073,1,1,1,1,1,1,1
14.7282,sweep,2,-down,0.08602,1.60277,1.14004,1.57111,-0.05360,-0.28477,-0.00324,-0.0024,-0.2222,-0.0024,-0.0073,0.0073,-0.0366,-0.0220,0.3487,-12.1504,7.7880,0.9939,-0.1734,-0.0171,-0.0073,1,1,1,1,1,1,1
14.7679,sweep,2,-down,0.08602,1.60277,1.14004,1.57111,-0.05360,-0.28477,-0.00324,-0.0024,-0.2222,-0.0024,-0.0073,0.0073,-0.0366,-0.0220,0.3487,-12.1504,7.7880,0.9939,-0.1734,-0.0171,-0.0073,1,1,1,1,1,1,1
14.8080,sweep,2,-down,0.08602,1.58560,1.14004,1.57149,-0.05360,-0.28477,-0.00324,0.0024,-0.2271,-0.0024,-0.0220,-0.0073,-0.0073,-0.0073,0.3487,-10.8786,7.7470,0.9499,-0.1783,-0.0220,-0.0073,1,1,1,1,1,1,1
14.8481,sweep,2,-down,0.08602,1.58560,1.14004,1.57149,-0.05360,-0.28477,-0.00324,0.0024,-0.2271,-0.0024,-0.0220,-0.0073,-0.0073,-0.0073,0.3487,-10.8786,7.7470,0.9499,-0.1783,-0.0220,-0.0073,1,1,1,1,1,1,1
14.8880,sweep,2,-down,0.08602,1.58560,1.14004,1.57149,-0.05360,-0.28477,-0.00324,0.0024,-0.2271,-0.0024,-0.0220,-0.0073,-0.0073,-0.0073,0.3487,-10.8786,7.7470,0.9499,-0.1783,-0.0220,-0.0073,1,1,1,1,1,1,1
14.9281,sweep,2,-down,0.08602,1.56157,1.14004,1.57149,-0.05360,-0.28477,-0.00362,-0.0024,-0.2173,-0.0024,-0.0073,-0.0073,-0.0220,-0.0073,0.3624,-10.7966,7.6650,0.9060,-0.1783,-0.0171,-0.0073,1,1,1,1,1,1,1
14.9681,sweep,2,-down,0.08602,1.56157,1.14004,1.57149,-0.05360,-0.28477,-0.00362,-0.0024,-0.2173,-0.0024,-0.0073,-0.0073,-0.0220,-0.0073,0.3624,-10.7966,7.6650,0.9060,-0.1783,-0.0171,-0.0073,1,1,1,1,1,1,1
15.0079,sweep,2,-down,0.08602,1.54593,1.14004,1.57149,-0.05360,-0.28515,-0.00324,-0.0024,-0.1880,-0.0024,-0.0220,-0.0073,-0.0220,-0.0220,0.3624,-11.3709,7.6786,0.8864,-0.1734,-0.0220,-0.0122,1,1,1,1,1,1,1
15.0480,sweep,2,-down,0.08602,1.54593,1.14004,1.57149,-0.05360,-0.28515,-0.00324,-0.0024,-0.1880,-0.0024,-0.0220,-0.0073,-0.0220,-0.0220,0.3624,-11.3709,7.6786,0.8864,-0.1734,-0.0220,-0.0122,1,1,1,1,1,1,1
15.0880,sweep,2,-down,0.08602,1.54593,1.14004,1.57149,-0.05360,-0.28515,-0.00324,-0.0024,-0.1880,-0.0024,-0.0220,-0.0073,-0.0220,-0.0220,0.3624,-11.3709,7.6786,0.8864,-0.1734,-0.0220,-0.0122,1,1,1,1,1,1,1
15.1280,sweep,2,-down,0.08602,1.52113,1.14004,1.57149,-0.05360,-0.28477,-0.00324,-0.0024,-0.2320,-0.0024,-0.0073,-0.0220,-0.0220,-0.0073,0.3624,-10.3316,7.6513,0.8474,-0.1636,-0.0220,-0.0073,1,1,1,1,1,1,1
15.1682,sweep,2,-down,0.08602,1.52113,1.14004,1.57149,-0.05360,-0.28477,-0.00324,-0.0024,-0.2320,-0.0024,-0.0073,-0.0220,-0.0220,-0.0073,0.3624,-10.3316,7.6513,0.8474,-0.1636,-0.0220,-0.0073,1,1,1,1,1,1,1
15.2082,sweep,2,-down,0.08602,1.50511,1.14004,1.57149,-0.05360,-0.28477,-0.00324,-0.0024,-0.1832,-0.0073,-0.0220,0.0073,-0.0220,-0.0073,0.3761,-10.2359,7.5966,0.8132,-0.1490,-0.0220,-0.0073,1,1,1,1,1,1,1
15.2480,sweep,2,-down,0.08602,1.50511,1.14004,1.57149,-0.05360,-0.28477,-0.00324,-0.0024,-0.1832,-0.0073,-0.0220,0.0073,-0.0220,-0.0073,0.3761,-10.2359,7.5966,0.8132,-0.1490,-0.0220,-0.0073,1,1,1,1,1,1,1
15.2879,sweep,2,-down,0.08602,1.50511,1.14004,1.57149,-0.05360,-0.28477,-0.00324,-0.0024,-0.1832,-0.0073,-0.0220,0.0073,-0.0220,-0.0073,0.3761,-10.2359,7.5966,0.8132,-0.1490,-0.0220,-0.0073,1,1,1,1,1,1,1
15.3282,sweep,2,-down,0.08602,1.48070,1.14004,1.57149,-0.05360,-0.28477,-0.00324,-0.0024,-0.1929,0.0024,-0.0073,0.0220,-0.0073,-0.0073,0.3624,-9.7299,7.6650,0.7741,-0.1392,-0.0269,-0.0073,1,1,1,1,1,1,1
15.3681,sweep,2,-down,0.08602,1.48070,1.14004,1.57149,-0.05360,-0.28477,-0.00324,-0.0024,-0.1929,0.0024,-0.0073,0.0220,-0.0073,-0.0073,0.3624,-9.7299,7.6650,0.7741,-0.1392,-0.0269,-0.0073,1,1,1,1,1,1,1
15.4081,sweep,2,-down,0.08602,1.46506,1.14004,1.57149,-0.05360,-0.28515,-0.00324,-0.0024,-0.1832,-0.0073,0.0073,0.0073,-0.0220,-0.0220,0.3624,-10.3316,7.6376,0.7399,-0.1392,-0.0269,-0.0024,1,1,1,1,1,1,1
15.4483,sweep,2,-down,0.08602,1.46506,1.14004,1.57149,-0.05360,-0.28515,-0.00324,-0.0024,-0.1832,-0.0073,0.0073,0.0073,-0.0220,-0.0220,0.3624,-10.3316,7.6376,0.7399,-0.1392,-0.0269,-0.0024,1,1,1,1,1,1,1
15.4882,sweep,2,-down,0.08602,1.46506,1.14004,1.57149,-0.05360,-0.28515,-0.00324,-0.0024,-0.1832,-0.0073,0.0073,0.0073,-0.0220,-0.0220,0.3624,-10.3316,7.6376,0.7399,-0.1392,-0.0269,-0.0024,1,1,1,1,1,1,1
15.5280,sweep,2,-down,0.08602,1.44026,1.14004,1.57149,-0.05360,-0.28477,-0.00324,-0.0073,-0.2173,-0.0024,-0.0073,-0.0073,0.0073,-0.0073,0.3761,-9.2786,7.5966,0.6911,-0.1343,-0.0220,-0.0024,1,1,1,1,1,1,1
15.5680,sweep,2,-down,0.08602,1.44026,1.14004,1.57149,-0.05360,-0.28477,-0.00324,-0.0073,-0.2173,-0.0024,-0.0073,-0.0073,0.0073,-0.0073,0.3761,-9.2786,7.5966,0.6911,-0.1343,-0.0220,-0.0024,1,1,1,1,1,1,1
15.6080,sweep,2,-down,0.08602,1.42386,1.14004,1.57187,-0.05360,-0.28515,-0.00324,-0.0073,-0.2418,-0.0073,-0.0073,0.0073,-0.0220,-0.0073,0.3761,-8.5675,7.5419,0.6471,-0.1245,-0.0220,-0.0024,1,1,1,1,1,1,1
15.6478,sweep,2,-down,0.08602,1.42386,1.14004,1.57187,-0.05360,-0.28515,-0.00324,-0.0073,-0.2418,-0.0073,-0.0073,0.0073,-0.0220,-0.0073,0.3761,-8.5675,7.5419,0.6471,-0.1245,-0.0220,-0.0024,1,1,1,1,1,1,1
15.6882,sweep,2,-down,0.08602,1.42386,1.14004,1.57187,-0.05360,-0.28515,-0.00324,-0.0073,-0.2418,-0.0073,-0.0073,0.0073,-0.0220,-0.0073,0.3761,-8.5675,7.5419,0.6471,-0.1245,-0.0220,-0.0024,1,1,1,1,1,1,1
15.7281,sweep,2,-down,0.08602,1.40021,1.14004,1.57187,-0.05360,-0.28515,-0.00324,-0.0024,-0.1783,-0.0024,0.0073,-0.0073,0.0073,-0.0073,0.3761,-9.2376,7.5282,0.5983,-0.1197,-0.0171,-0.0073,1,1,1,1,1,1,1
15.7681,sweep,2,-down,0.08602,1.40021,1.14004,1.57187,-0.05360,-0.28515,-0.00324,-0.0024,-0.1783,-0.0024,0.0073,-0.0073,0.0073,-0.0073,0.3761,-9.2376,7.5282,0.5983,-0.1197,-0.0171,-0.0073,1,1,1,1,1,1,1
15.8079,sweep,2,-down,0.08602,1.38380,1.14004,1.57149,-0.05360,-0.28477,-0.00362,0.0024,-0.2173,-0.0073,-0.0073,-0.0220,-0.0073,-0.0220,0.4034,-8.6906,7.5282,0.5592,-0.1197,-0.0122,-0.0122,1,1,1,1,1,1,1
15.8482,sweep,2,-down,0.08602,1.38380,1.14004,1.57149,-0.05360,-0.28477,-0.00362,0.0024,-0.2173,-0.0073,-0.0073,-0.0220,-0.0073,-0.0220,0.4034,-8.6906,7.5282,0.5592,-0.1197,-0.0122,-0.0122,1,1,1,1,1,1,1
15.8879,sweep,2,-down,0.08602,1.38380,1.14004,1.57149,-0.05360,-0.28477,-0.00362,0.0024,-0.2173,-0.0073,-0.0073,-0.0220,-0.0073,-0.0220,0.4034,-8.6906,7.5282,0.5592,-0.1197,-0.0122,-0.0122,1,1,1,1,1,1,1
15.9279,sweep,2,-down,0.08602,1.35939,1.14004,1.57149,-0.05360,-0.28477,-0.00362,-0.0073,-0.2271,-0.0024,-0.0073,-0.0073,-0.0073,-0.0073,0.3897,-7.9658,7.5009,0.5006,-0.1099,-0.0171,-0.0073,1,1,1,1,1,1,1
15.9682,sweep,2,-down,0.08602,1.35939,1.14004,1.57149,-0.05360,-0.28477,-0.00362,-0.0073,-0.2271,-0.0024,-0.0073,-0.0073,-0.0073,-0.0073,0.3897,-7.9658,7.5009,0.5006,-0.1099,-0.0171,-0.0073,1,1,1,1,1,1,1
16.0082,sweep,2,-down,0.08602,1.34298,1.14004,1.57187,-0.05360,-0.28477,-0.00324,-0.0024,-0.2222,-0.0024,0.0220,-0.0220,-0.0220,-0.0073,0.3761,-7.2957,7.4872,0.4567,-0.1148,-0.0171,-0.0024,1,1,1,1,1,1,1
16.0480,sweep,2,-down,0.08602,1.34298,1.14004,1.57187,-0.05360,-0.28477,-0.00324,-0.0024,-0.2222,-0.0024,0.0220,-0.0220,-0.0220,-0.0073,0.3761,-7.2957,7.4872,0.4567,-0.1148,-0.0171,-0.0024,1,1,1,1,1,1,1
16.0880,sweep,2,-down,0.08602,1.34298,1.14004,1.57187,-0.05360,-0.28477,-0.00324,-0.0024,-0.2222,-0.0024,0.0220,-0.0220,-0.0220,-0.0073,0.3761,-7.2957,7.4872,0.4567,-0.1148,-0.0171,-0.0024,1,1,1,1,1,1,1
16.1280,sweep,2,-down,0.08602,1.31933,1.14004,1.57149,-0.05360,-0.28477,-0.00324,-0.0024,-0.2027,-0.0024,0.0073,-0.0073,-0.0073,0.0073,0.3487,-7.6513,7.4735,0.4078,-0.1050,-0.0171,-0.0024,1,1,1,1,1,1,1
16.1684,sweep,2,-down,0.08602,1.31933,1.14004,1.57149,-0.05360,-0.28477,-0.00324,-0.0024,-0.2027,-0.0024,0.0073,-0.0073,-0.0073,0.0073,0.3487,-7.6513,7.4735,0.4078,-0.1050,-0.0171,-0.0024,1,1,1,1,1,1,1
16.2085,sweep,2,-down,0.08602,1.30293,1.14004,1.57149,-0.05360,-0.28515,-0.00324,-0.0073,-0.1832,-0.0024,-0.0073,-0.0073,-0.0220,-0.0073,0.3624,-7.5419,7.5009,0.3736,-0.1050,-0.0171,-0.0024,1,1,1,1,1,1,1
16.2481,sweep,2,-down,0.08602,1.30293,1.14004,1.57149,-0.05360,-0.28515,-0.00324,-0.0073,-0.1832,-0.0024,-0.0073,-0.0073,-0.0220,-0.0073,0.3624,-7.5419,7.5009,0.3736,-0.1050,-0.0171,-0.0024,1,1,1,1,1,1,1
16.2882,sweep,2,-down,0.08602,1.30293,1.14004,1.57149,-0.05360,-0.28515,-0.00324,-0.0073,-0.1832,-0.0024,-0.0073,-0.0073,-0.0220,-0.0073,0.3624,-7.5419,7.5009,0.3736,-0.1050,-0.0171,-0.0024,1,1,1,1,1,1,1
16.3280,sweep,2,-down,0.08602,1.28653,1.14004,1.57187,-0.05360,-0.28515,-0.00324,-0.0024,-0.2222,0.0024,-0.0073,-0.0220,0.0073,0.0073,0.3214,-6.5983,7.4598,0.3101,-0.1001,-0.0171,-0.0024,1,1,1,1,1,1,1
16.3680,sweep,2,-down,0.08602,1.28653,1.14004,1.57187,-0.05360,-0.28515,-0.00324,-0.0024,-0.2222,0.0024,-0.0073,-0.0220,0.0073,0.0073,0.3214,-6.5983,7.4598,0.3101,-0.1001,-0.0171,-0.0024,1,1,1,1,1,1,1
16.4080,sweep,2,-down,0.08602,1.26249,1.14004,1.57187,-0.05360,-0.28477,-0.00362,0.0024,-0.1880,0.0024,-0.0073,-0.0073,-0.0073,-0.0073,0.3487,-6.9538,7.4188,0.2857,-0.1001,-0.0171,-0.0073,1,1,1,1,1,1,1
16.4480,sweep,2,-down,0.08602,1.26249,1.14004,1.57187,-0.05360,-0.28477,-0.00362,0.0024,-0.1880,0.0024,-0.0073,-0.0073,-0.0073,-0.0073,0.3487,-6.9538,7.4188,0.2857,-0.1001,-0.0171,-0.0073,1,1,1,1,1,1,1
16.4880,sweep,2,-down,0.08602,1.26249,1.14004,1.57187,-0.05360,-0.28477,-0.00362,0.0024,-0.1880,0.0024,-0.0073,-0.0073,-0.0073,-0.0073,0.3487,-6.9538,7.4188,0.2857,-0.1001,-0.0171,-0.0073,1,1,1,1,1,1,1
16.5282,sweep,2,-down,0.08602,1.23808,1.14004,1.57187,-0.05360,-0.28477,-0.00324,-0.0024,-0.2076,-0.0024,0.0073,-0.0073,0.0073,-0.0073,0.3897,-6.3658,7.3778,0.2369,-0.1001,-0.0220,-0.0073,1,1,1,1,1,1,1
16.5681,sweep,2,-down,0.08602,1.23808,1.14004,1.57187,-0.05360,-0.28477,-0.00324,-0.0024,-0.2076,-0.0024,0.0073,-0.0073,0.0073,-0.0073,0.3897,-6.3658,7.3778,0.2369,-0.1001,-0.0220,-0.0073,1,1,1,1,1,1,1
16.6080,sweep,2,-down,0.08602,1.22206,1.14004,1.57187,-0.05360,-0.28477,-0.00324,-0.0024,-0.2222,-0.0024,0.0073,0.0073,-0.0073,-0.0073,0.4581,-5.9556,7.3504,0.2125,-0.0952,-0.0171,-0.0073,1,1,1,1,1,1,1
16.6481,sweep,2,-down,0.08602,1.22206,1.14004,1.57187,-0.05360,-0.28477,-0.00324,-0.0024,-0.2222,-0.0024,0.0073,0.0073,-0.0073,-0.0073,0.4581,-5.9556,7.3504,0.2125,-0.0952,-0.0171,-0.0073,1,1,1,1,1,1,1
16.6880,sweep,2,-down,0.08602,1.22206,1.14004,1.57187,-0.05360,-0.28477,-0.00324,-0.0024,-0.2222,-0.0024,0.0073,0.0073,-0.0073,-0.0073,0.4581,-5.9556,7.3504,0.2125,-0.0952,-0.0171,-0.0073,1,1,1,1,1,1,1
16.7279,sweep,2,-down,0.08602,1.19764,1.14004,1.57187,-0.05360,-0.28515,-0.00362,0.0024,-0.1783,0.0024,-0.0073,-0.0073,-0.0073,-0.0073,0.4308,-5.6137,7.3504,0.1587,-0.1001,-0.0171,-0.0073,1,1,1,1,1,1,1
16.7681,sweep,2,-down,0.08602,1.19764,1.14004,1.57187,-0.05360,-0.28515,-0.00362,0.0024,-0.1783,0.0024,-0.0073,-0.0073,-0.0073,-0.0073,0.4308,-5.6137,7.3504,0.1587,-0.1001,-0.0171,-0.0073,1,1,1,1,1,1,1
16.8079,sweep,2,-down,0.08602,1.18124,1.14004,1.57187,-0.05360,-0.28515,-0.00362,-0.0024,-0.2076,-0.0073,-0.0073,-0.0073,-0.0073,-0.0073,0.4308,-5.0256,7.3231,0.1245,-0.1001,-0.0171,-0.0024,1,1,1,1,1,1,1
16.8479,sweep,2,-down,0.08602,1.18124,1.14004,1.57187,-0.05360,-0.28515,-0.00362,-0.0024,-0.2076,-0.0073,-0.0073,-0.0073,-0.0073,-0.0073,0.4308,-5.0256,7.3231,0.1245,-0.1001,-0.0171,-0.0024,1,1,1,1,1,1,1
16.8881,sweep,2,-down,0.08602,1.18124,1.14004,1.57187,-0.05360,-0.28515,-0.00362,-0.0024,-0.2076,-0.0073,-0.0073,-0.0073,-0.0073,-0.0073,0.4308,-5.0256,7.3231,0.1245,-0.1001,-0.0171,-0.0024,1,1,1,1,1,1,1
16.9280,sweep,2,-down,0.08602,1.15759,1.14004,1.57187,-0.05360,-0.28477,-0.00324,-0.0024,-0.2027,-0.0024,-0.0220,0.0073,-0.0073,-0.0073,0.4171,-5.2581,7.3094,0.0855,-0.0952,-0.0171,-0.0024,1,1,1,1,1,1,1
16.9680,sweep,2,-down,0.08602,1.15759,1.14004,1.57187,-0.05360,-0.28477,-0.00324,-0.0024,-0.2027,-0.0024,-0.0220,0.0073,-0.0073,-0.0073,0.4171,-5.2581,7.3094,0.0855,-0.0952,-0.0171,-0.0024,1,1,1,1,1,1,1
17.0081,sweep,2,-down,0.08602,1.14080,1.14004,1.57187,-0.05360,-0.28477,-0.00324,0.0024,-0.2173,-0.0024,-0.0073,-0.0073,-0.0073,0.0073,0.4171,-4.3556,7.2547,0.0562,-0.0904,-0.0171,-0.0024,1,1,1,1,1,1,1
17.0482,sweep,2,-down,0.08602,1.14080,1.14004,1.57187,-0.05360,-0.28477,-0.00324,0.0024,-0.2173,-0.0024,-0.0073,-0.0073,-0.0073,0.0073,0.4171,-4.3556,7.2547,0.0562,-0.0904,-0.0171,-0.0024,1,1,1,1,1,1,1
17.0881,sweep,2,-down,0.08602,1.14080,1.14004,1.57187,-0.05360,-0.28477,-0.00324,0.0024,-0.2173,-0.0024,-0.0073,-0.0073,-0.0073,0.0073,0.4171,-4.3556,7.2547,0.0562,-0.0904,-0.0171,-0.0024,1,1,1,1,1,1,1
17.1285,sweep,2,-down,0.08602,1.11677,1.14004,1.57225,-0.05360,-0.28477,-0.00324,-0.0073,-0.2076,-0.0024,-0.0073,-0.0073,0.0073,-0.0073,0.4171,-4.5744,7.2000,0.0269,-0.0904,-0.0171,-0.0073,1,1,1,1,1,1,1
17.1682,sweep,2,-down,0.08602,1.11677,1.14004,1.57225,-0.05360,-0.28477,-0.00324,-0.0073,-0.2076,-0.0024,-0.0073,-0.0073,0.0073,-0.0073,0.4171,-4.5744,7.2000,0.0269,-0.0904,-0.0171,-0.0073,1,1,1,1,1,1,1
17.2083,sweep,2,-down,0.08602,1.10037,1.14004,1.57187,-0.05360,-0.28515,-0.00324,-0.0024,-0.2027,-0.0024,-0.0073,0.0073,-0.0220,-0.0073,0.4308,-4.0410,7.1863,0.0073,-0.0855,-0.0171,-0.0024,1,1,1,1,1,1,1
17.2485,sweep,2,-down,0.08602,1.10037,1.14004,1.57187,-0.05360,-0.28515,-0.00324,-0.0024,-0.2027,-0.0024,-0.0073,0.0073,-0.0220,-0.0073,0.4308,-4.0410,7.1863,0.0073,-0.0855,-0.0171,-0.0024,1,1,1,1,1,1,1
17.2883,sweep,2,-down,0.08602,1.10037,1.14004,1.57187,-0.05360,-0.28515,-0.00324,-0.0024,-0.2027,-0.0024,-0.0073,0.0073,-0.0220,-0.0073,0.4308,-4.0410,7.1863,0.0073,-0.0855,-0.0171,-0.0024,1,1,1,1,1,1,1
17.3281,sweep,2,-down,0.08602,1.07595,1.14004,1.57225,-0.05360,-0.28477,-0.00362,-0.0024,-0.2125,-0.0024,-0.0073,-0.0073,-0.0073,-0.0073,0.4581,-3.5487,7.2137,-0.0269,-0.0904,-0.0220,-0.0024,1,1,1,1,1,1,1
17.3680,sweep,2,-down,0.08602,1.07595,1.14004,1.57225,-0.05360,-0.28477,-0.00362,-0.0024,-0.2125,-0.0024,-0.0073,-0.0073,-0.0073,-0.0073,0.4581,-3.5487,7.2137,-0.0269,-0.0904,-0.0220,-0.0024,1,1,1,1,1,1,1
17.4079,sweep,2,-down,0.08602,1.05993,1.14004,1.57683,-0.05360,-0.28515,-0.00324,-0.0024,-0.1978,0.0024,0.0806,-0.0220,0.0073,-0.0073,0.4171,-3.2342,7.1863,-0.3394,-0.0806,-0.0220,-0.0024,1,1,1,1,1,1,1
17.4482,sweep,2,-down,0.08602,1.05993,1.14004,1.57683,-0.05360,-0.28515,-0.00324,-0.0024,-0.1978,0.0024,0.0806,-0.0220,0.0073,-0.0073,0.4171,-3.2342,7.1863,-0.3394,-0.0806,-0.0220,-0.0024,1,1,1,1,1,1,1
17.4880,sweep,2,-down,0.08602,1.05993,1.14004,1.57683,-0.05360,-0.28515,-0.00324,-0.0024,-0.1978,0.0024,0.0806,-0.0220,0.0073,-0.0073,0.4171,-3.2342,7.1863,-0.3394,-0.0806,-0.0220,-0.0024,1,1,1,1,1,1,1
17.5281,sweep,2,-down,0.08602,1.03475,1.14004,1.57568,-0.05360,-0.28515,-0.00324,-0.0073,-0.1832,0.0024,-0.0366,-0.0073,-0.0073,0.0073,0.3761,-1.8393,7.1453,-0.5446,-0.0855,-0.0220,-0.0024,1,1,1,1,1,1,1
17.5684,sweep,2,-down,0.08602,1.03475,1.14004,1.57568,-0.05360,-0.28515,-0.00324,-0.0073,-0.1832,0.0024,-0.0366,-0.0073,-0.0073,0.0073,0.3761,-1.8393,7.1453,-0.5446,-0.0855,-0.0220,-0.0024,1,1,1,1,1,1,1
17.6086,sweep,2,-down,0.08602,1.01911,1.14004,1.57187,-0.05360,-0.28477,-0.00324,-0.0024,-0.2027,-0.0024,-0.0659,0.0073,-0.0073,-0.0073,0.3761,-2.5368,7.1453,-0.3736,-0.0855,-0.0220,-0.0073,1,1,1,1,1,1,1
17.6480,sweep,2,-down,0.08602,1.01911,1.14004,1.57187,-0.05360,-0.28477,-0.00324,-0.0024,-0.2027,-0.0024,-0.0659,0.0073,-0.0073,-0.0073,0.3761,-2.5368,7.1453,-0.3736,-0.0855,-0.0220,-0.0073,1,1,1,1,1,1,1
17.6884,sweep,2,-down,0.08602,1.01911,1.14004,1.57187,-0.05360,-0.28477,-0.00324,-0.0024,-0.2027,-0.0024,-0.0659,0.0073,-0.0073,-0.0073,0.3761,-2.5368,7.1453,-0.3736,-0.0855,-0.0220,-0.0073,1,1,1,1,1,1,1
17.7284,sweep,2,-down,0.08602,0.99508,1.14004,1.57187,-0.05360,-0.28515,-0.00324,0.0024,-0.1978,-0.0073,0.0073,-0.0073,-0.0073,-0.0220,0.3350,-2.0581,7.1180,-0.4127,-0.0757,-0.0269,-0.0073,1,1,1,1,1,1,1
17.7682,sweep,2,-down,0.08602,0.99508,1.14004,1.57187,-0.05360,-0.28515,-0.00324,0.0024,-0.1978,-0.0073,0.0073,-0.0073,-0.0073,-0.0220,0.3350,-2.0581,7.1180,-0.4127,-0.0757,-0.0269,-0.0073,1,1,1,1,1,1,1
17.8083,sweep,2,-down,0.08602,0.97791,1.14004,1.57225,-0.05360,-0.28515,-0.00324,-0.0024,-0.2320,-0.0024,-0.0220,-0.0073,0.0073,-0.0073,0.3487,-1.0188,7.0769,-0.4860,-0.0757,-0.0269,-0.0073,1,1,1,1,1,1,1
17.8483,sweep,2,-down,0.08602,0.97791,1.14004,1.57225,-0.05360,-0.28515,-0.00324,-0.0024,-0.2320,-0.0024,-0.0220,-0.0073,0.0073,-0.0073,0.3487,-1.0188,7.0769,-0.4860,-0.0757,-0.0269,-0.0073,1,1,1,1,1,1,1
17.8883,sweep,2,-down,0.08602,0.97791,1.14004,1.57225,-0.05360,-0.28515,-0.00324,-0.0024,-0.2320,-0.0024,-0.0220,-0.0073,0.0073,-0.0073,0.3487,-1.0188,7.0769,-0.4860,-0.0757,-0.0269,-0.0073,1,1,1,1,1,1,1
17.9280,sweep,2,-down,0.08602,0.95464,1.14004,1.57187,-0.05360,-0.28477,-0.00324,-0.0024,-0.1783,-0.0024,-0.0073,-0.0073,0.0073,-0.0073,0.3214,-1.8256,7.0632,-0.5348,-0.0757,-0.0269,-0.0024,1,1,1,1,1,1,1
17.9681,sweep,2,-down,0.08602,0.95464,1.14004,1.57187,-0.05360,-0.28477,-0.00324,-0.0024,-0.1783,-0.0024,-0.0073,-0.0073,0.0073,-0.0073,0.3214,-1.8256,7.0632,-0.5348,-0.0757,-0.0269,-0.0024,1,1,1,1,1,1,1
18.0080,sweep,2,-down,0.08602,0.93824,1.14004,1.57187,-0.05360,-0.28477,-0.00324,-0.0024,-0.2222,-0.0024,-0.0073,-0.0220,-0.0220,-0.0073,0.3077,-1.1009,7.0496,-0.5690,-0.0708,-0.0317,-0.0024,1,1,1,1,1,1,1
18.0480,sweep,2,-down,0.08602,0.93824,1.14004,1.57187,-0.05360,-0.28477,-0.00324,-0.0024,-0.2222,-0.0024,-0.0073,-0.0220,-0.0220,-0.0073,0.3077,-1.1009,7.0496,-0.5690,-0.0708,-0.0317,-0.0024,1,1,1,1,1,1,1
18.0880,sweep,2,-down,0.08602,0.93824,1.14004,1.57187,-0.05360,-0.28477,-0.00324,-0.0024,-0.2222,-0.0024,-0.0073,-0.0220,-0.0220,-0.0073,0.3077,-1.1009,7.0496,-0.5690,-0.0708,-0.0317,-0.0024,1,1,1,1,1,1,1
18.1279,sweep,2,-down,0.08602,0.91383,1.14004,1.57187,-0.05360,-0.28515,-0.00324,-0.0024,-0.2076,-0.0024,0.0073,-0.0220,-0.0073,-0.0073,0.3077,-0.5675,7.0769,-0.6471,-0.0708,-0.0269,-0.0073,1,1,1,1,1,1,1
18.1680,sweep,2,-down,0.08602,0.91383,1.14004,1.57187,-0.05360,-0.28515,-0.00324,-0.0024,-0.2076,-0.0024,0.0073,-0.0220,-0.0073,-0.0073,0.3077,-0.5675,7.0769,-0.6471,-0.0708,-0.0269,-0.0073,1,1,1,1,1,1,1
18.2081,sweep,2,-down,0.08602,0.89742,1.14004,1.57187,-0.05360,-0.28515,-0.00362,-0.0024,-0.1978,-0.0024,0.0073,-0.0073,-0.0073,-0.0073,0.3214,-0.2530,7.0359,-0.6911,-0.0708,-0.0269,-0.0073,1,1,1,1,1,1,1
18.2480,sweep,2,-down,0.08602,0.89742,1.14004,1.57187,-0.05360,-0.28515,-0.00362,-0.0024,-0.1978,-0.0024,0.0073,-0.0073,-0.0073,-0.0073,0.3214,-0.2530,7.0359,-0.6911,-0.0708,-0.0269,-0.0073,1,1,1,1,1,1,1
18.2881,sweep,2,-down,0.08602,0.89742,1.14004,1.57187,-0.05360,-0.28515,-0.00362,-0.0024,-0.1978,-0.0024,0.0073,-0.0073,-0.0073,-0.0073,0.3214,-0.2530,7.0359,-0.6911,-0.0708,-0.0269,-0.0073,1,1,1,1,1,1,1
18.3281,sweep,2,-down,0.08602,0.87301,1.14004,1.57187,-0.05360,-0.28515,-0.00324,-0.0024,-0.2369,-0.0024,-0.0073,-0.0073,-0.0220,0.0073,0.3350,-0.0752,7.0222,-0.7497,-0.0659,-0.0269,-0.0073,1,1,1,1,1,1,1
18.3682,sweep,2,-down,0.08602,0.87301,1.14004,1.57187,-0.05360,-0.28515,-0.00324,-0.0024,-0.2369,-0.0024,-0.0073,-0.0073,-0.0220,0.0073,0.3350,-0.0752,7.0222,-0.7497,-0.0659,-0.0269,-0.0073,1,1,1,1,1,1,1
18.4081,sweep,2,-down,0.08602,0.85622,1.14004,1.57187,-0.05360,-0.28477,-0.00362,-0.0073,-0.1978,0.0024,-0.0220,-0.0073,0.0073,-0.0073,0.3350,0.1709,7.0085,-0.7839,-0.0659,-0.0269,-0.0073,1,1,1,1,1,1,1
18.4480,sweep,2,-down,0.08602,0.85622,1.14004,1.57187,-0.05360,-0.28477,-0.00362,-0.0073,-0.1978,0.0024,-0.0220,-0.0073,0.0073,-0.0073,0.3350,0.1709,7.0085,-0.7839,-0.0659,-0.0269,-0.0073,1,1,1,1,1,1,1
18.4880,sweep,2,-down,0.08602,0.85622,1.14004,1.57187,-0.05360,-0.28477,-0.00362,-0.0073,-0.1978,0.0024,-0.0220,-0.0073,0.0073,-0.0073,0.3350,0.1709,7.0085,-0.7839,-0.0659,-0.0269,-0.0073,1,1,1,1,1,1,1
18.5281,sweep,2,-down,0.08602,0.83181,1.14004,1.57187,-0.05360,-0.28477,-0.00324,-0.0024,-0.1929,0.0073,0.0073,-0.0073,-0.0073,-0.0073,0.3077,0.8684,6.9265,-0.8620,-0.0562,-0.0269,-0.0122,1,1,1,1,1,1,1
18.5681,sweep,2,-down,0.08602,0.83181,1.14004,1.57187,-0.05360,-0.28477,-0.00324,-0.0024,-0.1929,0.0073,0.0073,-0.0073,-0.0073,-0.0073,0.3077,0.8684,6.9265,-0.8620,-0.0562,-0.0269,-0.0122,1,1,1,1,1,1,1
18.6080,sweep,2,-down,0.08602,0.81426,1.14042,1.57301,-0.05360,-0.28477,-0.00362,-0.0024,-0.2515,0.0073,0.0073,-0.0220,0.0073,-0.0073,0.3214,2.4684,6.5026,-1.0085,-0.0562,-0.0269,-0.0073,1,1,1,1,1,1,1
18.6481,sweep,2,-down,0.08602,0.81426,1.14042,1.57301,-0.05360,-0.28477,-0.00362,-0.0024,-0.2515,0.0073,0.0073,-0.0220,0.0073,-0.0073,0.3214,2.4684,6.5026,-1.0085,-0.0562,-0.0269,-0.0073,1,1,1,1,1,1,1
18.6881,sweep,2,-down,0.08602,0.81426,1.14042,1.57301,-0.05360,-0.28477,-0.00362,-0.0024,-0.2515,0.0073,0.0073,-0.0220,0.0073,-0.0073,0.3214,2.4684,6.5026,-1.0085,-0.0562,-0.0269,-0.0073,1,1,1,1,1,1,1
18.7280,sweep,2,-down,0.08602,0.79023,1.14118,1.57416,-0.05360,-0.28515,-0.00324,0.0024,-0.1832,-0.0024,-0.0659,0.0073,-0.0073,-0.0073,0.3214,2.4821,5.4769,-1.3260,-0.0562,-0.0269,-0.0122,1,1,1,1,1,1,1
18.7681,sweep,2,-down,0.08602,0.79023,1.14118,1.57416,-0.05360,-0.28515,-0.00324,0.0024,-0.1832,-0.0024,-0.0659,0.0073,-0.0073,-0.0073,0.3214,2.4821,5.4769,-1.3260,-0.0562,-0.0269,-0.0122,1,1,1,1,1,1,1
18.8081,sweep,2,-down,0.08602,0.77497,1.14080,1.56958,-0.05360,-0.28515,-0.00324,-0.0024,-0.2271,-0.0024,-0.0073,-0.0220,-0.0073,-0.0073,0.3214,1.6889,5.3675,-0.9939,-0.0611,-0.0269,-0.0122,1,1,1,1,1,1,1
18.8482,sweep,2,-down,0.08602,0.77497,1.14080,1.56958,-0.05360,-0.28515,-0.00324,-0.0024,-0.2271,-0.0024,-0.0073,-0.0220,-0.0073,-0.0073,0.3214,1.6889,5.3675,-0.9939,-0.0611,-0.0269,-0.0122,1,1,1,1,1,1,1
18.8881,sweep,2,-down,0.08602,0.77497,1.14080,1.56958,-0.05360,-0.28515,-0.00324,-0.0024,-0.2271,-0.0024,-0.0073,-0.0220,-0.0073,-0.0073,0.3214,1.6889,5.3675,-0.9939,-0.0611,-0.0269,-0.0122,1,1,1,1,1,1,1
18.9280,sweep,2,-down,0.08602,0.75093,1.14080,1.56996,-0.05360,-0.28515,-0.00362,-0.0024,-0.1978,0.0024,0.0073,-0.0073,0.0073,-0.0073,0.3350,1.7026,5.2034,-0.9890,-0.0562,-0.0220,-0.0122,1,1,1,1,1,1,1
18.9683,sweep,2,-down,0.08602,0.75093,1.14080,1.56996,-0.05360,-0.28515,-0.00362,-0.0024,-0.1978,0.0024,0.0073,-0.0073,0.0073,-0.0073,0.3350,1.7026,5.2034,-0.9890,-0.0562,-0.0220,-0.0122,1,1,1,1,1,1,1
19.0080,sweep,2,-down,0.08602,0.73377,1.14080,1.57263,-0.05360,-0.28477,-0.00324,-0.0073,-0.2222,-0.0024,0.0659,-0.0073,-0.0073,-0.0073,0.3350,3.3846,5.0393,-1.2186,-0.0611,-0.0220,-0.0122,1,1,1,1,1,1,1
19.0479,sweep,2,-down,0.08602,0.73377,1.14080,1.57263,-0.05360,-0.28477,-0.00324,-0.0073,-0.2222,-0.0024,0.0659,-0.0073,-0.0073,-0.0073,0.3350,3.3846,5.0393,-1.2186,-0.0611,-0.0220,-0.0122,1,1,1,1,1,1,1
19.0880,sweep,2,-down,0.08602,0.73377,1.14080,1.57263,-0.05360,-0.28477,-0.00324,-0.0073,-0.2222,-0.0024,0.0659,-0.0073,-0.0073,-0.0073,0.3350,3.3846,5.0393,-1.2186,-0.0611,-0.0220,-0.0122,1,1,1,1,1,1,1
19.1281,sweep,2,-down,0.08602,0.70973,1.14080,1.57187,-0.05360,-0.28477,-0.00324,-0.0073,-0.2076,-0.0024,-0.0366,0.0073,0.0220,-0.0073,0.3214,3.1111,4.8068,-1.2723,-0.0611,-0.0220,-0.0122,1,1,1,1,1,1,1
19.1679,sweep,2,-down,0.08602,0.70973,1.14080,1.57187,-0.05360,-0.28477,-0.00324,-0.0073,-0.2076,-0.0024,-0.0366,0.0073,0.0220,-0.0073,0.3214,3.1111,4.8068,-1.2723,-0.0611,-0.0220,-0.0122,1,1,1,1,1,1,1
19.2081,sweep,2,-down,0.08602,0.69448,1.14080,1.57034,-0.05360,-0.28515,-0.00362,-0.0024,-0.2076,-0.0024,-0.0220,-0.0073,-0.0073,-0.0073,0.3077,2.5778,4.7385,-1.1600,-0.0562,-0.0220,-0.0122,1,1,1,1,1,1,1
19.2479,sweep,2,-down,0.08602,0.69448,1.14080,1.57034,-0.05360,-0.28515,-0.00362,-0.0024,-0.2076,-0.0024,-0.0220,-0.0073,-0.0073,-0.0073,0.3077,2.5778,4.7385,-1.1600,-0.0562,-0.0220,-0.0122,1,1,1,1,1,1,1
19.2880,sweep,2,-down,0.08602,0.69448,1.14080,1.57034,-0.05360,-0.28515,-0.00362,-0.0024,-0.2076,-0.0024,-0.0220,-0.0073,-0.0073,-0.0073,0.3077,2.5778,4.7385,-1.1600,-0.0562,-0.0220,-0.0122,1,1,1,1,1,1,1
19.3279,sweep,2,-down,0.08602,0.66930,1.14080,1.57225,-0.05360,-0.28477,-0.00324,0.0024,-0.2076,-0.0024,-0.0073,-0.0073,-0.0073,-0.0220,0.2667,4.0274,4.4513,-1.3651,-0.0611,-0.0220,-0.0073,1,1,1,1,1,1,1
19.3682,sweep,2,-down,0.08602,0.66930,1.14080,1.57225,-0.05360,-0.28477,-0.00324,0.0024,-0.2076,-0.0024,-0.0073,-0.0073,-0.0073,-0.0220,0.2667,4.0274,4.4513,-1.3651,-0.0611,-0.0220,-0.0073,1,1,1,1,1,1,1
19.4080,sweep,2,-down,0.08602,0.65366,1.14080,1.57187,-0.05360,-0.28477,-0.00324,-0.0024,-0.1929,-0.0024,-0.0073,-0.0220,-0.0073,0.0073,0.2393,3.2752,4.2735,-1.3748,-0.0562,-0.0220,-0.0073,1,1,1,1,1,1,1
19.4479,sweep,2,-down,0.08602,0.65366,1.14080,1.57187,-0.05360,-0.28477,-0.00324,-0.0024,-0.1929,-0.0024,-0.0073,-0.0220,-0.0073,0.0073,0.2393,3.2752,4.2735,-1.3748,-0.0562,-0.0220,-0.0073,1,1,1,1,1,1,1
19.4883,sweep,2,-down,0.08602,0.65366,1.14080,1.57187,-0.05360,-0.28477,-0.00324,-0.0024,-0.1929,-0.0024,-0.0073,-0.0220,-0.0073,0.0073,0.2393,3.2752,4.2735,-1.3748,-0.0562,-0.0220,-0.0073,1,1,1,1,1,1,1
19.5280,sweep,2,-down,0.08602,0.62886,1.14080,1.57187,-0.05360,-0.28515,-0.00362,0.0024,-0.2076,0.0024,-0.0073,0.0073,-0.0073,-0.0073,0.1983,4.2598,4.0957,-1.4090,-0.0611,-0.0269,-0.0073,1,1,1,1,1,1,1
19.5681,sweep,2,-down,0.08602,0.62886,1.14080,1.57187,-0.05360,-0.28515,-0.00362,0.0024,-0.2076,0.0024,-0.0073,0.0073,-0.0073,-0.0073,0.1983,4.2598,4.0957,-1.4090,-0.0611,-0.0269,-0.0073,1,1,1,1,1,1,1
19.6080,sweep,2,-down,0.08602,0.61284,1.14080,1.57187,-0.05360,-0.28515,-0.00324,-0.0024,-0.2125,-0.0073,0.0073,-0.0220,0.0073,-0.0073,0.1983,4.5060,3.9863,-1.4579,-0.0562,-0.0220,-0.0024,1,1,1,1,1,1,1
19.6482,sweep,2,-down,0.08602,0.61284,1.14080,1.57187,-0.05360,-0.28515,-0.00324,-0.0024,-0.2125,-0.0073,0.0073,-0.0220,0.0073,-0.0073,0.1983,4.5060,3.9863,-1.4579,-0.0562,-0.0220,-0.0024,1,1,1,1,1,1,1
19.6879,sweep,2,-down,0.08602,0.61284,1.14080,1.57187,-0.05360,-0.28515,-0.00324,-0.0024,-0.2125,-0.0073,0.0073,-0.0220,0.0073,-0.0073,0.1983,4.5060,3.9863,-1.4579,-0.0562,-0.0220,-0.0024,1,1,1,1,1,1,1
19.7283,sweep,2,-down,0.08602,0.58919,1.14080,1.57187,-0.05360,-0.28515,-0.00324,-0.0073,-0.1685,-0.0073,-0.0073,-0.0073,-0.0073,-0.0073,0.1846,4.1094,3.7265,-1.5067,-0.0562,-0.0220,-0.0073,1,1,1,1,1,1,1
19.7682,sweep,2,-down,0.08602,0.58919,1.14080,1.57187,-0.05360,-0.28515,-0.00324,-0.0073,-0.1685,-0.0073,-0.0073,-0.0073,-0.0073,-0.0073,0.1846,4.1094,3.7265,-1.5067,-0.0562,-0.0220,-0.0073,1,1,1,1,1,1,1
19.8081,sweep,2,-down,0.08602,0.57279,1.14080,1.57187,-0.05360,-0.28515,-0.00362,-0.0024,-0.2076,-0.0024,-0.0073,-0.0220,-0.0073,-0.0220,0.1846,4.6838,3.5897,-1.5458,-0.0611,-0.0269,-0.0073,1,1,1,1,1,1,1
19.8479,sweep,2,-down,0.08602,0.57279,1.14080,1.57187,-0.05360,-0.28515,-0.00362,-0.0024,-0.2076,-0.0024,-0.0073,-0.0220,-0.0073,-0.0220,0.1846,4.6838,3.5897,-1.5458,-0.0611,-0.0269,-0.0073,1,1,1,1,1,1,1
19.8882,sweep,2,-down,0.08602,0.57279,1.14080,1.57187,-0.05360,-0.28515,-0.00362,-0.0024,-0.2076,-0.0024,-0.0073,-0.0220,-0.0073,-0.0220,0.1846,4.6838,3.5897,-1.5458,-0.0611,-0.0269,-0.0073,1,1,1,1,1,1,1
19.9280,sweep,2,-down,0.08602,0.54837,1.14080,1.57149,-0.05360,-0.28515,-0.00324,-0.0024,-0.1978,-0.0024,-0.0073,-0.0220,-0.0220,-0.0073,0.1846,5.1214,3.3983,-1.6044,-0.0464,-0.0269,-0.0073,1,1,1,1,1,1,1
19.9678,sweep,2,-down,0.08602,0.54837,1.14080,1.57149,-0.05360,-0.28515,-0.00324,-0.0024,-0.1978,-0.0024,-0.0073,-0.0220,-0.0220,-0.0073,0.1846,5.1214,3.3983,-1.6044,-0.0464,-0.0269,-0.0073,1,1,1,1,1,1,1
20.0079,sweep,2,-down,0.08602,0.53197,1.14080,1.57149,-0.05360,-0.28515,-0.00324,-0.0024,-0.2027,-0.0024,-0.0220,-0.0073,-0.0220,-0.0220,0.1709,5.5043,3.2615,-1.6337,-0.0513,-0.0317,-0.0073,1,1,1,1,1,1,1
20.0480,sweep,2,-down,0.08602,0.53197,1.14080,1.57149,-0.05360,-0.28515,-0.00324,-0.0024,-0.2027,-0.0024,-0.0220,-0.0073,-0.0220,-0.0220,0.1709,5.5043,3.2615,-1.6337,-0.0513,-0.0317,-0.0073,1,1,1,1,1,1,1
20.0881,sweep,2,-down,0.08602,0.53197,1.14080,1.57149,-0.05360,-0.28515,-0.00324,-0.0024,-0.2027,-0.0024,-0.0220,-0.0073,-0.0220,-0.0220,0.1709,5.5043,3.2615,-1.6337,-0.0513,-0.0317,-0.0073,1,1,1,1,1,1,1
20.1279,sweep,2,-down,0.08602,0.50832,1.14080,1.57149,-0.05360,-0.28477,-0.00324,-0.0024,-0.2076,-0.0024,-0.0073,-0.0220,-0.0073,-0.0073,0.1846,5.1350,3.1111,-1.6825,-0.0464,-0.0220,-0.0024,1,1,1,1,1,1,1
20.1681,sweep,2,-down,0.08602,0.50832,1.14080,1.57149,-0.05360,-0.28477,-0.00324,-0.0024,-0.2076,-0.0024,-0.0073,-0.0220,-0.0073,-0.0073,0.1846,5.1350,3.1111,-1.6825,-0.0464,-0.0220,-0.0024,1,1,1,1,1,1,1
20.2082,sweep,2,-down,0.08602,0.48390,1.14080,1.57149,-0.05360,-0.28477,-0.00324,-0.0024,-0.1880,-0.0024,-0.0220,-0.0073,-0.0073,-0.0220,0.1709,5.8325,2.9197,-1.7167,-0.0464,-0.0269,-0.0073,1,1,1,1,1,1,1
20.2482,sweep,2,-down,0.08602,0.48390,1.14080,1.57149,-0.05360,-0.28477,-0.00324,-0.0024,-0.1880,-0.0024,-0.0220,-0.0073,-0.0073,-0.0220,0.1709,5.8325,2.9197,-1.7167,-0.0464,-0.0269,-0.0073,1,1,1,1,1,1,1
20.2880,sweep,2,-down,0.08602,0.48390,1.14080,1.57149,-0.05360,-0.28477,-0.00324,-0.0024,-0.1880,-0.0024,-0.0220,-0.0073,-0.0073,-0.0220,0.1709,5.8325,2.9197,-1.7167,-0.0464,-0.0269,-0.0073,1,1,1,1,1,1,1
20.3282,sweep,2,-down,0.08602,0.46750,1.14080,1.57149,-0.05360,-0.28477,-0.00362,-0.0024,-0.2125,-0.0024,-0.0073,-0.0073,-0.0073,-0.0220,0.1846,6.1333,2.7692,-1.7558,-0.0415,-0.0269,-0.0122,1,1,1,1,1,1,1
20.3682,sweep,2,-down,0.08602,0.46750,1.14080,1.57149,-0.05360,-0.28477,-0.00362,-0.0024,-0.2125,-0.0024,-0.0073,-0.0073,-0.0073,-0.0220,0.1846,6.1333,2.7692,-1.7558,-0.0415,-0.0269,-0.0122,1,1,1,1,1,1,1
20.4081,sweep,2,-down,0.08602,0.44385,1.14080,1.57149,-0.05360,-0.28515,-0.00324,-0.0024,-0.1978,-0.0073,-0.0073,0.0073,-0.0073,-0.0073,0.1709,5.9145,2.5368,-1.8144,-0.0415,-0.0220,-0.0122,1,1,1,1,1,1,1
20.4480,sweep,2,-down,0.08602,0.44385,1.14080,1.57149,-0.05360,-0.28515,-0.00324,-0.0024,-0.1978,-0.0073,-0.0073,0.0073,-0.0073,-0.0073,0.1709,5.9145,2.5368,-1.8144,-0.0415,-0.0220,-0.0122,1,1,1,1,1,1,1
20.4882,sweep,2,-down,0.08602,0.44385,1.14080,1.57149,-0.05360,-0.28515,-0.00324,-0.0024,-0.1978,-0.0073,-0.0073,0.0073,-0.0073,-0.0073,0.1709,5.9145,2.5368,-1.8144,-0.0415,-0.0220,-0.0122,1,1,1,1,1,1,1
20.5282,sweep,2,-down,0.08602,0.42744,1.14080,1.57149,-0.05360,-0.28515,-0.00362,-0.0073,-0.2076,-0.0024,-0.0073,-0.0073,-0.0073,-0.0220,0.1573,6.4068,2.4274,-1.8339,-0.0366,-0.0220,-0.0122,1,1,1,1,1,1,1
20.5682,sweep,2,-down,0.08602,0.42744,1.14080,1.57149,-0.05360,-0.28515,-0.00362,-0.0073,-0.2076,-0.0024,-0.0073,-0.0073,-0.0073,-0.0220,0.1573,6.4068,2.4274,-1.8339,-0.0366,-0.0220,-0.0122,1,1,1,1,1,1,1
20.6081,sweep,2,-down,0.08602,0.42744,1.14080,1.57149,-0.05360,-0.28515,-0.00324,-0.0073,-0.2076,-0.0024,-0.0073,-0.0366,-0.0073,-0.0220,0.1573,6.4068,2.2359,-1.8730,-0.0366,-0.0269,-0.0073,1,1,1,1,1,1,1
