peipl15/reBot_Arm/outputs/gravity_calib_20260622_153821.csv
t_s,phase,swept_joint,direction,q1,q2,q3,q4,q5,q6,q7,v1,v2,v3,v4,v5,v6,v7,tau1,tau2,tau3,tau4,tau5,tau6,tau7,st1,st2,st3,st4,st5,st6,st7
0.0026,approach,2,to_lo,0.07191,0.00095,1.73857,-0.30613,-0.13256,0.60216,-0.00362,-0.0024,-0.0024,-0.0073,-0.0073,-0.0220,-0.0073,-0.0073,-0.0205,0.0752,-1.2786,0.0611,-0.0171,-0.0024,-0.0024,1,1,1,1,1,1,1
0.0424,approach,2,to_lo,0.07191,0.00095,1.73857,-0.30613,-0.13256,0.60216,-0.00362,-0.0024,-0.0024,-0.0073,-0.0073,-0.0220,-0.0073,-0.0073,-0.0205,0.0752,-1.2786,0.0611,-0.0171,-0.0024,-0.0024,1,1,1,1,1,1,1
0.0824,approach,2,to_lo,0.07191,0.00095,1.73857,-0.30613,-0.13256,0.60216,-0.00362,-0.0024,-0.0024,-0.0073,-0.0073,-0.0220,-0.0073,-0.0073,-0.0205,0.0752,-1.2786,0.0611,-0.0171,-0.0024,-0.0024,1,1,1,1,1,1,1
0.1225,approach,2,to_lo,0.07191,0.00858,1.73934,-0.30537,-0.13218,0.60216,-0.00362,0.0024,0.1392,-0.0024,-0.0073,-0.0220,0.0073,-0.0220,-0.0752,4.8342,-2.4684,0.0757,-0.0317,-0.0122,-0.0024,1,1,1,1,1,1,1
0.1623,approach,2,to_lo,0.07191,0.00858,1.73934,-0.30537,-0.13218,0.60216,-0.00362,0.0024,0.1392,-0.0024,-0.0073,-0.0220,0.0073,-0.0220,-0.0752,4.8342,-2.4684,0.0757,-0.0317,-0.0122,-0.0024,1,1,1,1,1,1,1
0.2024,approach,2,to_lo,0.07191,0.01812,1.73934,-0.30537,-0.13218,0.60216,-0.00362,-0.0024,0.0952,-0.0024,-0.0220,0.0073,0.0073,-0.0073,-0.0752,7.1316,-2.7966,0.0952,-0.0366,-0.0122,-0.0073,1,1,1,1,1,1,1
0.2428,approach,2,to_lo,0.07191,0.01812,1.73934,-0.30537,-0.13218,0.60216,-0.00362,-0.0024,0.0952,-0.0024,-0.0220,0.0073,0.0073,-0.0073,-0.0752,7.1316,-2.7966,0.0952,-0.0366,-0.0122,-0.0073,1,1,1,1,1,1,1
0.2825,approach,2,to_lo,0.07191,0.01812,1.73934,-0.30537,-0.13218,0.60216,-0.00362,-0.0024,0.0952,-0.0024,-0.0220,0.0073,0.0073,-0.0073,-0.0752,7.1316,-2.7966,0.0952,-0.0366,-0.0122,-0.0073,1,1,1,1,1,1,1
0.3224,approach,2,to_lo,0.07191,0.03033,1.73934,-0.30461,-0.13218,0.60216,-0.00362,-0.0024,0.0757,-0.0024,0.0073,-0.0073,-0.0220,-0.0220,-0.1026,11.7128,-3.2479,0.1197,-0.0415,-0.0122,-0.0122,1,1,1,1,1,1,1
0.3623,approach,2,to_lo,0.07191,0.03033,1.73934,-0.30461,-0.13218,0.60216,-0.00362,-0.0024,0.0757,-0.0024,0.0073,-0.0073,-0.0220,-0.0220,-0.1026,11.7128,-3.2479,0.1197,-0.0415,-0.0122,-0.0122,1,1,1,1,1,1,1
0.4022,approach,2,to_lo,0.07191,0.03758,1.73896,-0.30461,-0.13218,0.60178,-0.00362,0.0024,0.1197,-0.0024,0.0073,-0.0073,-0.0220,0.0073,-0.1026,14.2838,-3.4940,0.1441,-0.0415,-0.0122,-0.0122,1,1,1,1,1,1,1
0.4424,approach,2,to_lo,0.07191,0.03758,1.73896,-0.30461,-0.13218,0.60178,-0.00362,0.0024,0.1197,-0.0024,0.0073,-0.0073,-0.0220,0.0073,-0.1026,14.2838,-3.4940,0.1441,-0.0415,-0.0122,-0.0122,1,1,1,1,1,1,1
0.4825,approach,2,to_lo,0.07191,0.03758,1.73896,-0.30461,-0.13218,0.60178,-0.00362,0.0024,0.1197,-0.0024,0.0073,-0.0073,-0.0220,0.0073,-0.1026,14.2838,-3.4940,0.1441,-0.0415,-0.0122,-0.0122,1,1,1,1,1,1,1
0.5225,approach,2,to_lo,0.07191,0.04826,1.73896,-0.30385,-0.13218,0.60216,-0.00362,-0.0073,0.0855,-0.0073,-0.0073,0.0073,-0.0073,-0.0073,-0.1162,16.7590,-3.6444,0.1392,-0.0464,-0.0171,-0.0073,1,1,1,1,1,1,1
0.5623,approach,2,to_lo,0.07191,0.04826,1.73896,-0.30385,-0.13218,0.60216,-0.00362,-0.0073,0.0855,-0.0073,-0.0073,0.0073,-0.0073,-0.0073,-0.1162,16.7590,-3.6444,0.1392,-0.0464,-0.0171,-0.0073,1,1,1,1,1,1,1
0.6024,approach,2,to_lo,0.07191,0.05512,1.73857,-0.30385,-0.13256,0.60178,-0.00362,-0.0024,0.0806,-0.0024,0.0220,0.0073,-0.0220,-0.0073,-0.1299,17.4838,-3.5897,0.1538,-0.0513,-0.0171,-0.0122,1,1,1,1,1,1,1
0.6424,approach,2,to_lo,0.07191,0.05512,1.73857,-0.30385,-0.13256,0.60178,-0.00362,-0.0024,0.0806,-0.0024,0.0220,0.0073,-0.0220,-0.0073,-0.1299,17.4838,-3.5897,0.1538,-0.0513,-0.0171,-0.0122,1,1,1,1,1,1,1
0.6823,approach,2,to_lo,0.07191,0.05512,1.73857,-0.30385,-0.13256,0.60178,-0.00362,-0.0024,0.0806,-0.0024,0.0220,0.0073,-0.0220,-0.0073,-0.1299,17.4838,-3.5897,0.1538,-0.0513,-0.0171,-0.0122,1,1,1,1,1,1,1
0.7222,approach,2,to_lo,0.07191,0.06504,1.73819,-0.30385,-0.13256,0.60216,-0.00362,-0.0024,0.0806,-0.0073,-0.0366,-0.0073,-0.0073,-0.0073,-0.1573,17.2786,-3.5350,0.1343,-0.0513,-0.0171,-0.0122,1,1,1,1,1,1,1
0.7625,approach,2,to_lo,0.07191,0.06504,1.73819,-0.30385,-0.13256,0.60216,-0.00362,-0.0024,0.0806,-0.0073,-0.0366,-0.0073,-0.0073,-0.0073,-0.1573,17.2786,-3.5350,0.1343,-0.0513,-0.0171,-0.0122,1,1,1,1,1,1,1
0.8024,approach,2,to_lo,0.07191,0.07076,1.73819,-0.30385,-0.13218,0.60216,-0.00362,-0.0073,0.1099,-0.0024,0.0073,-0.0073,0.0073,-0.0073,-0.1573,17.0188,-3.5214,0.1294,-0.0611,-0.0171,-0.0122,1,1,1,1,1,1,1
0.8426,approach,2,to_lo,0.07191,0.07076,1.73819,-0.30385,-0.13218,0.60216,-0.00362,-0.0073,0.1099,-0.0024,0.0073,-0.0073,0.0073,-0.0073,-0.1573,17.0188,-3.5214,0.1294,-0.0611,-0.0171,-0.0122,1,1,1,1,1,1,1
0.8824,approach,2,to_lo,0.07191,0.07076,1.73819,-0.30385,-0.13218,0.60216,-0.00362,-0.0073,0.1099,-0.0024,0.0073,-0.0073,0.0073,-0.0073,-0.1573,17.0188,-3.5214,0.1294,-0.0611,-0.0171,-0.0122,1,1,1,1,1,1,1
0.9224,approach,2,to_lo,0.07191,0.07877,1.73743,-0.30423,-0.13256,0.60178,-0.00362,-0.0024,0.0366,-0.0024,-0.0513,-0.0220,0.0073,-0.0220,-0.1983,16.4855,-3.0154,0.1587,-0.0757,-0.0122,-0.0122,1,1,1,1,1,1,1
0.9626,approach,2,to_lo,0.07191,0.07877,1.73743,-0.30423,-0.13256,0.60178,-0.00362,-0.0024,0.0366,-0.0024,-0.0513,-0.0220,0.0073,-0.0220,-0.1983,16.4855,-3.0154,0.1587,-0.0757,-0.0122,-0.0122,1,1,1,1,1,1,1
1.0024,approach,2,to_lo,0.07191,0.08259,1.73743,-0.30461,-0.13256,0.60178,-0.00362,-0.0073,0.0269,-0.0024,0.0220,-0.0073,-0.0073,0.0073,-0.2120,16.9504,-2.9060,0.2173,-0.0806,-0.0171,-0.0171,1,1,1,1,1,1,1
1.0423,approach,2,to_lo,0.07191,0.08259,1.73743,-0.30461,-0.13256,0.60178,-0.00362,-0.0073,0.0269,-0.0024,0.0220,-0.0073,-0.0073,0.0073,-0.2120,16.9504,-2.9060,0.2173,-0.0806,-0.0171,-0.0171,1,1,1,1,1,1,1
1.0825,approach,2,to_lo,0.07191,0.08259,1.73743,-0.30461,-0.13256,0.60178,-0.00362,-0.0073,0.0269,-0.0024,0.0220,-0.0073,-0.0073,0.0073,-0.2120,16.9504,-2.9060,0.2173,-0.0806,-0.0171,-0.0171,1,1,1,1,1,1,1
1.1227,approach,2,to_lo,0.07191,0.08755,1.73743,-0.30308,-0.13256,0.60178,-0.00362,-0.0024,0.0562,-0.0024,0.0073,-0.0073,-0.0220,0.0073,-0.2530,17.6615,-2.9880,0.1441,-0.0855,-0.0122,-0.0122,1,1,1,1,1,1,1
1.1625,approach,2,to_lo,0.07191,0.08755,1.73743,-0.30308,-0.13256,0.60178,-0.00362,-0.0024,0.0562,-0.0024,0.0073,-0.0073,-0.0220,0.0073,-0.2530,17.6615,-2.9880,0.1441,-0.0855,-0.0122,-0.0122,1,1,1,1,1,1,1
1.2024,approach,2,to_lo,0.07191,0.09174,1.73743,-0.30346,-0.13256,0.60216,-0.00362,-0.0024,0.0659,-0.0024,-0.0073,0.0073,-0.0220,-0.0073,-0.2803,16.9231,-3.0838,0.1441,-0.0855,-0.0122,-0.0122,1,1,1,1,1,1,1
1.2426,approach,2,to_lo,0.07191,0.09174,1.73743,-0.30346,-0.13256,0.60216,-0.00362,-0.0024,0.0659,-0.0024,-0.0073,0.0073,-0.0220,-0.0073,-0.2803,16.9231,-3.0838,0.1441,-0.0855,-0.0122,-0.0122,1,1,1,1,1,1,1
1.2825,approach,2,to_lo,0.07191,0.09174,1.73743,-0.30346,-0.13256,0.60216,-0.00362,-0.0024,0.0659,-0.0024,-0.0073,0.0073,-0.0220,-0.0073,-0.2803,16.9231,-3.0838,0.1441,-0.0855,-0.0122,-0.0122,1,1,1,1,1,1,1
1.3223,approach,2,to_lo,0.07191,0.09556,1.73743,-0.30385,-0.13256,0.60216,-0.00362,-0.0073,0.0122,-0.0073,-0.0366,-0.0073,-0.0220,-0.0073,-0.3350,17.3333,-3.1795,0.1587,-0.0904,-0.0171,-0.0171,1,1,1,1,1,1,1
1.3625,approach,2,to_lo,0.07191,0.09556,1.73743,-0.30385,-0.13256,0.60216,-0.00362,-0.0073,0.0122,-0.0073,-0.0366,-0.0073,-0.0220,-0.0073,-0.3350,17.3333,-3.1795,0.1587,-0.0904,-0.0171,-0.0171,1,1,1,1,1,1,1
1.4026,approach,2,to_lo,0.07191,0.09747,1.73743,-0.30308,-0.13256,0.60216,-0.00362,-0.0073,0.0122,-0.0024,0.0220,-0.0073,0.0073,-0.0073,-0.3624,18.1538,-3.2479,0.1197,-0.0952,-0.0171,-0.0220,1,1,1,1,1,1,1
1.4426,approach,2,to_lo,0.07191,0.09747,1.73743,-0.30308,-0.13256,0.60216,-0.00362,-0.0073,0.0122,-0.0024,0.0220,-0.0073,0.0073,-0.0073,-0.3624,18.1538,-3.2479,0.1197,-0.0952,-0.0171,-0.0220,1,1,1,1,1,1,1
1.4824,approach,2,to_lo,0.07191,0.09747,1.73743,-0.30308,-0.13256,0.60216,-0.00362,-0.0073,0.0122,-0.0024,0.0220,-0.0073,0.0073,-0.0073,-0.3624,18.1538,-3.2479,0.1197,-0.0952,-0.0171,-0.0220,1,1,1,1,1,1,1
1.5223,approach,2,to_lo,0.07191,0.10090,1.73743,-0.30385,-0.13256,0.60178,-0.00362,-0.0073,0.0317,-0.0024,-0.0366,-0.0073,-0.0220,-0.0073,-0.4171,17.7983,-3.2752,0.1636,-0.1001,-0.0220,-0.0220,1,1,1,1,1,1,1
2.0253,sweep,2,+up,0.07191,0.10243,1.73743,-0.30423,-0.13256,0.60216,-0.00362,0.0024,0.0464,-0.0073,-0.0220,-0.0073,-0.0073,0.0073,-0.4444,17.2923,-3.3026,0.1636,-0.1001,-0.0220,-0.0220,1,1,1,1,1,1,1
2.0652,sweep,2,+up,0.07191,0.10243,1.73743,-0.30423,-0.13256,0.60216,-0.00362,0.0024,0.0464,-0.0073,-0.0220,-0.0073,-0.0073,0.0073,-0.4444,17.2923,-3.3026,0.1636,-0.1001,-0.0220,-0.0220,1,1,1,1,1,1,1
2.1052,sweep,2,+up,0.07191,0.11654,1.73705,-0.30346,-0.13256,0.60216,-0.00362,-0.0024,0.1587,-0.0024,0.0513,-0.0073,-0.0073,-0.0073,-0.5675,19.3436,-3.3162,0.1685,-0.1148,-0.0317,-0.0220,1,1,1,1,1,1,1
2.1452,sweep,2,+up,0.07191,0.11654,1.73705,-0.30346,-0.13256,0.60216,-0.00362,-0.0024,0.1587,-0.0024,0.0513,-0.0073,-0.0073,-0.0073,-0.5675,19.3436,-3.3162,0.1685,-0.1148,-0.0317,-0.0220,1,1,1,1,1,1,1
2.1852,sweep,2,+up,0.07191,0.11654,1.73705,-0.30346,-0.13256,0.60216,-0.00362,-0.0024,0.1587,-0.0024,0.0513,-0.0073,-0.0073,-0.0073,-0.5675,19.3436,-3.3162,0.1685,-0.1148,-0.0317,-0.0220,1,1,1,1,1,1,1
2.2251,sweep,2,+up,0.07191,0.14286,1.73705,-0.30194,-0.13256,0.60178,-0.00362,-0.0024,0.2173,0.0024,0.0073,-0.0073,0.0073,-0.0073,-0.6085,16.1983,-3.3983,0.0415,-0.1099,-0.0317,-0.0220,1,1,1,1,1,1,1
2.2649,sweep,2,+up,0.07191,0.14286,1.73705,-0.30194,-0.13256,0.60178,-0.00362,-0.0024,0.2173,0.0024,0.0073,-0.0073,0.0073,-0.0073,-0.6085,16.1983,-3.3983,0.0415,-0.1099,-0.0317,-0.0220,1,1,1,1,1,1,1
2.3049,sweep,2,+up,0.07191,0.15850,1.73705,-0.30575,-0.13294,0.60178,-0.00362,-0.0024,0.1929,-0.0073,-0.3297,-0.0220,-0.0073,-0.0073,-0.6359,16.3897,-3.2615,0.2369,-0.1050,-0.0269,-0.0171,1,1,1,1,1,1,1
2.3451,sweep,2,+up,0.07191,0.15850,1.73705,-0.30575,-0.13294,0.60178,-0.00362,-0.0024,0.1929,-0.0073,-0.3297,-0.0220,-0.0073,-0.0073,-0.6359,16.3897,-3.2615,0.2369,-0.1050,-0.0269,-0.0171,1,1,1,1,1,1,1
2.3851,sweep,2,+up,0.07191,0.15850,1.73705,-0.30575,-0.13294,0.60178,-0.00362,-0.0024,0.1929,-0.0073,-0.3297,-0.0220,-0.0073,-0.0073,-0.6359,16.3897,-3.2615,0.2369,-0.1050,-0.0269,-0.0171,1,1,1,1,1,1,1
2.4251,sweep,2,+up,0.07191,0.18368,1.73590,-0.30613,-0.13294,0.60216,-0.00362,-0.0024,0.1978,-0.0171,-0.0366,-0.0220,-0.0220,0.0073,-0.6359,14.9949,-1.8803,0.4029,-0.1099,-0.0269,-0.0220,1,1,1,1,1,1,1
2.4650,sweep,2,+up,0.07191,0.18368,1.73590,-0.30613,-0.13294,0.60216,-0.00362,-0.0024,0.1978,-0.0171,-0.0366,-0.0220,-0.0220,0.0073,-0.6359,14.9949,-1.8803,0.4029,-0.1099,-0.0269,-0.0220,1,1,1,1,1,1,1
2.5052,sweep,2,+up,0.07191,0.19894,1.73590,-0.30461,-0.13256,0.60216,-0.00362,0.0024,0.1685,-0.0024,0.0220,-0.0073,-0.0073,-0.0073,-0.6632,15.9795,-1.4838,0.3980,-0.1148,-0.0269,-0.0220,1,1,1,1,1,1,1
2.5451,sweep,2,+up,0.07191,0.19894,1.73590,-0.30461,-0.13256,0.60216,-0.00362,0.0024,0.1685,-0.0024,0.0220,-0.0073,-0.0073,-0.0073,-0.6632,15.9795,-1.4838,0.3980,-0.1148,-0.0269,-0.0220,1,1,1,1,1,1,1
2.5850,sweep,2,+up,0.07191,0.19894,1.73590,-0.30461,-0.13256,0.60216,-0.00362,0.0024,0.1685,-0.0024,0.0220,-0.0073,-0.0073,-0.0073,-0.6632,15.9795,-1.4838,0.3980,-0.1148,-0.0269,-0.0220,1,1,1,1,1,1,1
2.6249,sweep,2,+up,0.07191,0.22297,1.73590,-0.30461,-0.13256,0.60216,-0.00362,-0.0024,0.2271,-0.0024,-0.0073,-0.0220,-0.0220,-0.0220,-0.6769,15.6239,-1.4838,0.4176,-0.1197,-0.0317,-0.0220,1,1,1,1,1,1,1
2.6651,sweep,2,+up,0.07191,0.22297,1.73590,-0.30461,-0.13256,0.60216,-0.00362,-0.0024,0.2271,-0.0024,-0.0073,-0.0220,-0.0220,-0.0220,-0.6769,15.6239,-1.4838,0.4176,-0.1197,-0.0317,-0.0220,1,1,1,1,1,1,1
2.7053,sweep,2,+up,0.07191,0.24014,1.73590,-0.30537,-0.13294,0.60216,-0.00362,-0.0024,0.2076,-0.0024,-0.0220,-0.0073,-0.0073,-0.0073,-0.6496,14.5436,-1.2923,0.5153,-0.1148,-0.0317,-0.0269,1,1,1,1,1,1,1
2.7452,sweep,2,+up,0.07191,0.24014,1.73590,-0.30537,-0.13294,0.60216,-0.00362,-0.0024,0.2076,-0.0024,-0.0220,-0.0073,-0.0073,-0.0073,-0.6496,14.5436,-1.2923,0.5153,-0.1148,-0.0317,-0.0269,1,1,1,1,1,1,1
2.7853,sweep,2,+up,0.07191,0.24014,1.73590,-0.30537,-0.13294,0.60216,-0.00362,-0.0024,0.2076,-0.0024,-0.0220,-0.0073,-0.0073,-0.0073,-0.6496,14.5436,-1.2923,0.5153,-0.1148,-0.0317,-0.0269,1,1,1,1,1,1,1
2.8249,sweep,2,+up,0.07191,0.26379,1.73590,-0.30461,-0.13256,0.60216,-0.00362,-0.0024,0.2125,-0.0024,0.0220,-0.0220,-0.0220,-0.0073,-0.7179,14.8171,-1.1009,0.5348,-0.1245,-0.0269,-0.0269,1,1,1,1,1,1,1
2.8649,sweep,2,+up,0.07191,0.26379,1.73590,-0.30461,-0.13256,0.60216,-0.00362,-0.0024,0.2125,-0.0024,0.0220,-0.0220,-0.0220,-0.0073,-0.7179,14.8171,-1.1009,0.5348,-0.1245,-0.0269,-0.0269,1,1,1,1,1,1,1
2.9050,sweep,2,+up,0.07191,0.27981,1.73590,-0.30423,-0.13294,0.60216,-0.00362,-0.0024,0.1783,-0.0024,-0.0073,-0.0220,0.0073,-0.0073,-0.7316,14.8855,-0.9778,0.5543,-0.1245,-0.0269,-0.0269,1,1,1,1,1,1,1
2.9451,sweep,2,+up,0.07191,0.27981,1.73590,-0.30423,-0.13294,0.60216,-0.00362,-0.0024,0.1783,-0.0024,-0.0073,-0.0220,0.0073,-0.0073,-0.7316,14.8855,-0.9778,0.5543,-0.1245,-0.0269,-0.0269,1,1,1,1,1,1,1
2.9848,sweep,2,+up,0.07191,0.27981,1.73590,-0.30423,-0.13294,0.60216,-0.00362,-0.0024,0.1783,-0.0024,-0.0073,-0.0220,0.0073,-0.0073,-0.7316,14.8855,-0.9778,0.5543,-0.1245,-0.0269,-0.0269,1,1,1,1,1,1,1
3.0249,sweep,2,+up,0.07191,0.30461,1.73590,-0.30461,-0.13294,0.60216,-0.00401,-0.0024,0.2027,0.0024,-0.0073,-0.0220,-0.0073,-0.0073,-0.7179,13.6000,-0.7453,0.6374,-0.1245,-0.0317,-0.0317,1,1,1,1,1,1,1
3.0648,sweep,2,+up,0.07191,0.30461,1.73590,-0.30461,-0.13294,0.60216,-0.00401,-0.0024,0.2027,0.0024,-0.0073,-0.0220,-0.0073,-0.0073,-0.7179,13.6000,-0.7453,0.6374,-0.1245,-0.0317,-0.0317,1,1,1,1,1,1,1
3.1052,sweep,2,+up,0.07191,0.32063,1.73590,-0.30499,-0.13256,0.60216,-0.00362,-0.0024,0.2125,0.0024,-0.0073,0.0073,-0.0073,0.0073,-0.7453,13.6684,-0.6085,0.6911,-0.1245,-0.0269,-0.0269,1,1,1,1,1,1,1
3.1449,sweep,2,+up,0.07191,0.32063,1.73590,-0.30499,-0.13256,0.60216,-0.00362,-0.0024,0.2125,0.0024,-0.0073,0.0073,-0.0073,0.0073,-0.7453,13.6684,-0.6085,0.6911,-0.1245,-0.0269,-0.0269,1,1,1,1,1,1,1
3.1851,sweep,2,+up,0.07191,0.32063,1.73590,-0.30499,-0.13256,0.60216,-0.00362,-0.0024,0.2125,0.0024,-0.0073,0.0073,-0.0073,0.0073,-0.7453,13.6684,-0.6085,0.6911,-0.1245,-0.0269,-0.0269,1,1,1,1,1,1,1
3.2253,sweep,2,+up,0.07191,0.34505,1.73590,-0.30461,-0.13256,0.60216,-0.00362,-0.0024,0.1832,-0.0024,-0.0073,-0.0073,-0.0073,-0.0073,-0.7453,13.2581,-0.4444,0.7253,-0.1245,-0.0269,-0.0317,1,1,1,1,1,1,1
3.2654,sweep,2,+up,0.07191,0.34505,1.73590,-0.30461,-0.13256,0.60216,-0.00362,-0.0024,0.1832,-0.0024,-0.0073,-0.0073,-0.0073,-0.0073,-0.7453,13.2581,-0.4444,0.7253,-0.1245,-0.0269,-0.0317,1,1,1,1,1,1,1
3.3052,sweep,2,+up,0.07191,0.36107,1.73590,-0.30461,-0.13256,0.60216,-0.00362,0.0024,0.1929,-0.0024,0.0073,-0.0073,0.0073,-0.0073,-0.7726,13.2444,-0.2803,0.7595,-0.1294,-0.0269,-0.0317,1,1,1,1,1,1,1
3.3449,sweep,2,+up,0.07191,0.36107,1.73590,-0.30461,-0.13256,0.60216,-0.00362,0.0024,0.1929,-0.0024,0.0073,-0.0073,0.0073,-0.0073,-0.7726,13.2444,-0.2803,0.7595,-0.1294,-0.0269,-0.0317,1,1,1,1,1,1,1
3.3850,sweep,2,+up,0.07191,0.36107,1.73590,-0.30461,-0.13256,0.60216,-0.00362,0.0024,0.1929,-0.0024,0.0073,-0.0073,0.0073,-0.0073,-0.7726,13.2444,-0.2803,0.7595,-0.1294,-0.0269,-0.0317,1,1,1,1,1,1,1
3.4252,sweep,2,+up,0.07191,0.38510,1.73590,-0.30461,-0.13294,0.60216,-0.00401,-0.0073,0.2027,-0.0073,-0.0220,-0.0073,-0.0073,-0.0220,-0.7863,12.9573,-0.1846,0.8083,-0.1245,-0.0317,-0.0317,1,1,1,1,1,1,1
3.4651,sweep,2,+up,0.07191,0.38510,1.73590,-0.30461,-0.13294,0.60216,-0.00401,-0.0073,0.2027,-0.0073,-0.0220,-0.0073,-0.0073,-0.0220,-0.7863,12.9573,-0.1846,0.8083,-0.1245,-0.0317,-0.0317,1,1,1,1,1,1,1
3.5054,sweep,2,+up,0.07191,0.40150,1.73552,-0.30461,-0.13256,0.60216,-0.00362,-0.0024,0.2222,-0.0024,-0.0366,0.0073,-0.0073,-0.0073,-0.7726,12.5607,-0.0889,0.8376,-0.1197,-0.0317,-0.0366,1,1,1,1,1,1,1
3.5449,sweep,2,+up,0.07191,0.40150,1.73552,-0.30461,-0.13256,0.60216,-0.00362,-0.0024,0.2222,-0.0024,-0.0366,0.0073,-0.0073,-0.0073,-0.7726,12.5607,-0.0889,0.8376,-0.1197,-0.0317,-0.0366,1,1,1,1,1,1,1
3.5849,sweep,2,+up,0.07191,0.40150,1.73552,-0.30461,-0.13256,0.60216,-0.00362,-0.0024,0.2222,-0.0024,-0.0366,0.0073,-0.0073,-0.0073,-0.7726,12.5607,-0.0889,0.8376,-0.1197,-0.0317,-0.0366,1,1,1,1,1,1,1
3.6248,sweep,2,+up,0.07191,0.42554,1.73552,-0.30423,-0.13294,0.60216,-0.00362,-0.0024,0.1978,-0.0024,-0.0073,-0.0220,-0.0220,-0.0073,-0.7726,12.4786,0.0479,0.8523,-0.1197,-0.0269,-0.0317,1,1,1,1,1,1,1
3.6654,sweep,2,+up,0.07191,0.42554,1.73552,-0.30423,-0.13294,0.60216,-0.00362,-0.0024,0.1978,-0.0024,-0.0073,-0.0220,-0.0220,-0.0073,-0.7726,12.4786,0.0479,0.8523,-0.1197,-0.0269,-0.0317,1,1,1,1,1,1,1
3.7051,sweep,2,+up,0.07191,0.44308,1.73400,-0.30842,-0.13294,0.60216,-0.00401,-0.0024,0.2222,-0.0220,-0.1538,-0.0073,-0.0073,-0.0073,-0.7726,10.6872,1.7709,1.2479,-0.1148,-0.0317,-0.0317,1,1,1,1,1,1,1
3.7451,sweep,2,+up,0.07191,0.44308,1.73400,-0.30842,-0.13294,0.60216,-0.00401,-0.0024,0.2222,-0.0220,-0.1538,-0.0073,-0.0073,-0.0073,-0.7726,10.6872,1.7709,1.2479,-0.1148,-0.0317,-0.0317,1,1,1,1,1,1,1
3.7853,sweep,2,+up,0.07191,0.44308,1.73400,-0.30842,-0.13294,0.60216,-0.00401,-0.0024,0.2222,-0.0220,-0.1538,-0.0073,-0.0073,-0.0073,-0.7726,10.6872,1.7709,1.2479,-0.1148,-0.0317,-0.0317,1,1,1,1,1,1,1
3.8249,sweep,2,+up,0.07191,0.46864,1.73362,-0.30880,-0.13256,0.60216,-0.00362,-0.0024,0.1490,0.0024,0.0220,-0.0073,0.0073,-0.0073,-0.7863,8.4308,2.9470,1.5604,-0.1245,-0.0317,-0.0317,1,1,1,1,1,1,1
3.8651,sweep,2,+up,0.07191,0.46864,1.73362,-0.30880,-0.13256,0.60216,-0.00362,-0.0024,0.1490,0.0024,0.0220,-0.0073,0.0073,-0.0073,-0.7863,8.4308,2.9470,1.5604,-0.1245,-0.0317,-0.0317,1,1,1,1,1,1,1
3.9049,sweep,2,+up,0.07191,0.48238,1.73476,-0.30232,-0.13256,0.60216,-0.00362,-0.0024,0.1734,0.0171,0.0220,0.0073,-0.0073,-0.0073,-0.8000,11.5624,1.6479,1.1062,-0.1245,-0.0366,-0.0317,1,1,1,1,1,1,1
3.9450,sweep,2,+up,0.07191,0.48238,1.73476,-0.30232,-0.13256,0.60216,-0.00362,-0.0024,0.1734,0.0171,0.0220,0.0073,-0.0073,-0.0073,-0.8000,11.5624,1.6479,1.1062,-0.1245,-0.0366,-0.0317,1,1,1,1,1,1,1
3.9850,sweep,2,+up,0.07191,0.48238,1.73476,-0.30232,-0.13256,0.60216,-0.00362,-0.0024,0.1734,0.0171,0.0220,0.0073,-0.0073,-0.0073,-0.8000,11.5624,1.6479,1.1062,-0.1245,-0.0366,-0.0317,1,1,1,1,1,1,1
4.0249,sweep,2,+up,0.07191,0.50755,1.73514,-0.30308,-0.13294,0.60216,-0.00362,-0.0073,0.2320,-0.0073,-0.0073,-0.0220,-0.0073,-0.0073,-0.7043,9.8940,1.4838,1.1062,-0.1099,-0.0317,-0.0317,1,1,1,1,1,1,1
4.0650,sweep,2,+up,0.07191,0.50755,1.73514,-0.30308,-0.13294,0.60216,-0.00362,-0.0073,0.2320,-0.0073,-0.0073,-0.0220,-0.0073,-0.0073,-0.7043,9.8940,1.4838,1.1062,-0.1099,-0.0317,-0.0317,1,1,1,1,1,1,1
4.1049,sweep,2,+up,0.07153,0.53273,1.73438,-0.30613,-0.13294,0.60216,-0.00401,0.0024,0.2076,-0.0073,-0.0073,-0.0220,-0.0220,-0.0220,-0.4308,8.0205,2.7419,1.3846,-0.1197,-0.0317,-0.0317,1,1,1,1,1,1,1
4.1450,sweep,2,+up,0.07153,0.53273,1.73438,-0.30613,-0.13294,0.60216,-0.00401,0.0024,0.2076,-0.0073,-0.0073,-0.0220,-0.0220,-0.0220,-0.4308,8.0205,2.7419,1.3846,-0.1197,-0.0317,-0.0317,1,1,1,1,1,1,1
4.1850,sweep,2,+up,0.07153,0.53273,1.73438,-0.30613,-0.13294,0.60216,-0.00401,0.0024,0.2076,-0.0073,-0.0073,-0.0220,-0.0220,-0.0220,-0.4308,8.0205,2.7419,1.3846,-0.1197,-0.0317,-0.0317,1,1,1,1,1,1,1
4.2249,sweep,2,+up,0.07153,0.54799,1.73476,-0.30499,-0.13256,0.60216,-0.00362,-0.0024,0.1880,0.0024,-0.0073,-0.0220,-0.0073,-0.0073,-0.5949,9.5111,2.9197,1.3748,-0.1343,-0.0366,-0.0317,1,1,1,1,1,1,1
4.2653,sweep,2,+up,0.07153,0.54799,1.73476,-0.30499,-0.13256,0.60216,-0.00362,-0.0024,0.1880,0.0024,-0.0073,-0.0220,-0.0073,-0.0073,-0.5949,9.5111,2.9197,1.3748,-0.1343,-0.0366,-0.0317,1,1,1,1,1,1,1
4.3052,sweep,2,+up,0.07153,0.57279,1.73476,-0.30346,-0.13256,0.60216,-0.00362,-0.0024,0.2076,-0.0073,-0.0220,-0.0073,0.0073,-0.0220,-0.4581,8.2120,3.0427,1.2967,-0.1245,-0.0366,-0.0317,1,1,1,1,1,1,1
4.3450,sweep,2,+up,0.07153,0.57279,1.73476,-0.30346,-0.13256,0.60216,-0.00362,-0.0024,0.2076,-0.0073,-0.0220,-0.0073,0.0073,-0.0220,-0.4581,8.2120,3.0427,1.2967,-0.1245,-0.0366,-0.0317,1,1,1,1,1,1,1
4.3853,sweep,2,+up,0.07153,0.57279,1.73476,-0.30346,-0.13256,0.60216,-0.00362,-0.0024,0.2076,-0.0073,-0.0220,-0.0073,0.0073,-0.0220,-0.4581,8.2120,3.0427,1.2967,-0.1245,-0.0366,-0.0317,1,1,1,1,1,1,1
4.4251,sweep,2,+up,0.07153,0.58919,1.73476,-0.30461,-0.13294,0.60216,-0.00401,-0.0024,0.1978,-0.0024,0.0073,0.0073,0.0073,-0.0220,-0.4581,8.2120,3.4667,1.4090,-0.1197,-0.0317,-0.0317,1,1,1,1,1,1,1
4.4650,sweep,2,+up,0.07153,0.58919,1.73476,-0.30461,-0.13294,0.60216,-0.00401,-0.0024,0.1978,-0.0024,0.0073,0.0073,0.0073,-0.0220,-0.4581,8.2120,3.4667,1.4090,-0.1197,-0.0317,-0.0317,1,1,1,1,1,1,1
4.5048,sweep,2,+up,0.07153,0.58919,1.73476,-0.30461,-0.13294,0.60216,-0.00401,-0.0024,0.1978,0.0024,-0.0073,-0.0073,-0.0073,-0.0073,-0.4581,8.2120,3.8769,1.4676,-0.1294,-0.0317,-0.0317,1,1,1,1,1,1,1
4.5453,sweep,2,+up,0.07153,0.59682,1.73476,-0.30461,-0.13294,0.60216,-0.00401,0.0024,0.2271,0.0024,-0.0073,-0.0073,-0.0073,-0.0073,-0.5402,8.0479,3.8769,1.4676,-0.1294,-0.0317,-0.0317,1,1,1,1,1,1,1
4.5852,sweep,2,+up,0.07153,0.59682,1.73476,-0.30461,-0.13294,0.60216,-0.00401,0.0024,0.2271,0.0024,-0.0073,-0.0073,-0.0073,-0.0073,-0.5402,8.0479,3.8769,1.4676,-0.1294,-0.0317,-0.0317,1,1,1,1,1,1,1
4.6250,sweep,2,+up,0.07153,0.62963,1.73476,-0.30461,-0.13256,0.60216,-0.00362,-0.0073,0.2222,-0.0024,-0.0220,-0.0073,-0.0073,-0.0073,-0.5128,7.2684,4.1094,1.4921,-0.1343,-0.0317,-0.0317,1,1,1,1,1,1,1
4.6653,sweep,2,+up,0.07153,0.62963,1.73476,-0.30461,-0.13256,0.60216,-0.00362,-0.0073,0.2222,-0.0024,-0.0220,-0.0073,-0.0073,-0.0073,-0.5128,7.2684,4.1094,1.4921,-0.1343,-0.0317,-0.0317,1,1,1,1,1,1,1
4.7052,sweep,2,+up,0.07153,0.65328,1.73514,-0.30461,-0.13294,0.60216,-0.00401,-0.0073,0.1734,0.0024,-0.0073,-0.0073,-0.0073,-0.0073,-0.5128,7.2957,4.5197,1.5311,-0.1245,-0.0415,-0.0317,1,1,1,1,1,1,1
4.7453,sweep,2,+up,0.07153,0.65328,1.73514,-0.30461,-0.13294,0.60216,-0.00401,-0.0024,0.1734,0.0024,-0.0073,-0.0073,-0.0073,-0.0073,-0.4581,7.2957,4.5197,1.5311,-0.1245,-0.0415,-0.0317,1,1,1,1,1,1,1
4.7852,sweep,2,+up,0.07153,0.65328,1.73514,-0.30461,-0.13294,0.60216,-0.00401,-0.0024,0.1734,0.0024,-0.0073,-0.0073,-0.0073,-0.0073,-0.4581,7.2957,4.5197,1.5311,-0.1245,-0.0415,-0.0317,1,1,1,1,1,1,1
4.8253,sweep,2,+up,0.07153,0.67006,1.73514,-0.30461,-0.13256,0.60216,-0.00362,-0.0024,0.2222,0.0024,-0.0073,-0.0073,-0.0220,-0.0073,-0.4308,6.8581,4.4650,1.5507,-0.1245,-0.0415,-0.0317,1,1,1,1,1,1,1
4.8650,sweep,2,+up,0.07153,0.67006,1.73514,-0.30461,-0.13256,0.60216,-0.00362,-0.0024,0.2222,0.0024,-0.0073,-0.0073,-0.0220,-0.0073,-0.4308,6.8581,4.4650,1.5507,-0.1245,-0.0415,-0.0317,1,1,1,1,1,1,1
4.9052,sweep,2,+up,0.07153,0.67006,1.73514,-0.30461,-0.13256,0.60216,-0.00362,-0.0024,0.2222,0.0024,-0.0073,-0.0220,-0.0073,0.0073,-0.4308,6.8581,4.4650,1.5507,-0.1294,-0.0513,-0.0317,1,1,1,1,1,1,1
4.9452,sweep,2,+up,0.07153,0.69448,1.73514,-0.30423,-0.13256,0.60216,-0.00362,-0.0024,0.2222,-0.0073,-0.0073,-0.0220,-0.0073,0.0073,-0.4308,6.3795,4.5880,1.5897,-0.1294,-0.0513,-0.0317,1,1,1,1,1,1,1
4.9854,sweep,2,+up,0.07153,0.69448,1.73514,-0.30423,-0.13256,0.60216,-0.00362,-0.0024,0.2222,-0.0073,-0.0073,-0.0220,-0.0073,0.0073,-0.4308,6.3795,4.5880,1.5897,-0.1294,-0.0513,-0.0317,1,1,1,1,1,1,1
5.0253,sweep,2,+up,0.07153,0.71088,1.73552,-0.30461,-0.13256,0.60216,-0.00401,-0.0024,0.2125,-0.0024,-0.0220,-0.0073,0.0073,-0.0073,-0.4171,5.8735,4.7795,1.6337,-0.1197,-0.0562,-0.0366,1,1,1,1,1,1,1
5.0655,sweep,2,+up,0.07153,0.71088,1.73552,-0.30461,-0.13256,0.60216,-0.00401,-0.0024,0.2125,-0.0024,-0.0220,-0.0073,0.0073,-0.0073,-0.4171,5.8735,4.7795,1.6337,-0.1197,-0.0562,-0.0366,1,1,1,1,1,1,1
5.1052,sweep,2,+up,0.07153,0.71088,1.73552,-0.30461,-0.13256,0.60216,-0.00401,-0.0024,0.2125,-0.0024,-0.0220,-0.0073,0.0073,-0.0073,-0.4171,5.8735,4.7795,1.6337,-0.1197,-0.0562,-0.0366,1,1,1,1,1,1,1
5.1452,sweep,2,+up,0.07153,0.73529,1.73552,-0.30461,-0.13256,0.60216,-0.00362,-0.0024,0.2222,-0.0024,-0.0073,-0.0073,0.0073,-0.0073,-0.4034,5.2581,5.0256,1.6825,-0.1294,-0.0562,-0.0415,1,1,1,1,1,1,1
5.1854,sweep,2,+up,0.07153,0.73529,1.73552,-0.30461,-0.13256,0.60216,-0.00362,-0.0024,0.2222,-0.0024,-0.0073,-0.0073,0.0073,-0.0073,-0.4034,5.2581,5.0256,1.6825,-0.1294,-0.0562,-0.0415,1,1,1,1,1,1,1
5.2258,sweep,2,+up,0.07153,0.75132,1.73552,-0.30461,-0.13256,0.60216,-0.00401,-0.0073,0.1685,-0.0024,0.0073,-0.0073,-0.0073,-0.0073,-0.3897,5.3538,5.1761,1.7070,-0.1343,-0.0562,-0.0415,1,1,1,1,1,1,1
5.2654,sweep,2,+up,0.07153,0.75132,1.73552,-0.30461,-0.13256,0.60216,-0.00401,-0.0073,0.1685,-0.0024,0.0073,-0.0073,-0.0073,-0.0073,-0.3897,5.3538,5.1761,1.7070,-0.1343,-0.0562,-0.0415,1,1,1,1,1,1,1
5.3053,sweep,2,+up,0.07153,0.75132,1.73552,-0.30461,-0.13256,0.60216,-0.00401,-0.0073,0.1685,-0.0024,0.0073,-0.0073,-0.0073,-0.0073,-0.3897,5.3538,5.1761,1.7070,-0.1343,-0.0562,-0.0415,1,1,1,1,1,1,1
5.3458,sweep,2,+up,0.07153,0.77573,1.73552,-0.30461,-0.13256,0.60216,-0.00401,-0.0024,0.2076,-0.0024,0.0073,0.0073,0.0073,-0.0220,-0.3761,4.7385,5.3949,1.7460,-0.1343,-0.0611,-0.0415,1,1,1,1,1,1,1
5.3854,sweep,2,+up,0.07153,0.77573,1.73552,-0.30461,-0.13256,0.60216,-0.00401,-0.0024,0.2076,-0.0024,0.0073,0.0073,0.0073,-0.0220,-0.3761,4.7385,5.3949,1.7460,-0.1343,-0.0611,-0.0415,1,1,1,1,1,1,1
5.4254,sweep,2,+up,0.07153,0.79213,1.73552,-0.30461,-0.13256,0.60216,-0.00401,-0.0024,0.2125,-0.0024,-0.0073,0.0220,-0.0220,0.0073,-0.3897,4.2598,5.5453,1.7656,-0.1392,-0.0659,-0.0415,1,1,1,1,1,1,1
5.4652,sweep,2,+up,0.07153,0.79213,1.73552,-0.30461,-0.13256,0.60216,-0.00401,-0.0024,0.2125,-0.0024,-0.0073,0.0220,-0.0220,0.0073,-0.3897,4.2598,5.5453,1.7656,-0.1392,-0.0659,-0.0415,1,1,1,1,1,1,1
5.5054,sweep,2,+up,0.07153,0.79213,1.73552,-0.30461,-0.13256,0.60216,-0.00401,-0.0024,0.2125,-0.0024,-0.0073,0.0220,-0.0220,0.0073,-0.3897,4.2598,5.5453,1.7656,-0.1392,-0.0659,-0.0415,1,1,1,1,1,1,1
5.5455,sweep,2,+up,0.07153,0.81617,1.73552,-0.30423,-0.13256,0.60216,-0.00401,-0.0024,0.1832,-0.0024,0.0366,-0.0073,0.0073,-0.0073,-0.3761,4.0000,5.7504,1.7753,-0.1441,-0.0708,-0.0415,1,1,1,1,1,1,1
5.5851,sweep,2,+up,0.07153,0.81617,1.73552,-0.30423,-0.13256,0.60216,-0.00401,-0.0024,0.1832,-0.0024,0.0366,-0.0073,0.0073,-0.0073,-0.3761,4.0000,5.7504,1.7753,-0.1441,-0.0708,-0.0415,1,1,1,1,1,1,1
5.6251,sweep,2,+up,0.07153,0.83257,1.73552,-0.30385,-0.13294,0.60216,-0.00401,0.0024,0.2173,-0.0024,-0.0220,-0.0220,0.0073,-0.0073,-0.3897,3.7675,5.9009,1.7802,-0.1441,-0.0757,-0.0415,1,1,1,1,1,1,1
5.6653,sweep,2,+up,0.07153,0.83257,1.73552,-0.30385,-0.13294,0.60216,-0.00401,0.0024,0.2173,-0.0024,-0.0220,-0.0220,0.0073,-0.0073,-0.3897,3.7675,5.9009,1.7802,-0.1441,-0.0757,-0.0415,1,1,1,1,1,1,1
5.7053,sweep,2,+up,0.07153,0.83257,1.73552,-0.30385,-0.13294,0.60216,-0.00401,0.0024,0.2173,-0.0024,-0.0220,-0.0220,0.0073,-0.0073,-0.3897,3.7675,5.9009,1.7802,-0.1441,-0.0757,-0.0415,1,1,1,1,1,1,1
5.7450,sweep,2,+up,0.07153,0.85699,1.73552,-0.30423,-0.13256,0.60178,-0.00401,-0.0024,0.2027,-0.0073,0.0073,-0.0073,-0.0220,-0.0220,-0.3897,3.2889,6.1470,1.8242,-0.1343,-0.0757,-0.0464,1,1,1,1,1,1,1
5.7854,sweep,2,+up,0.07153,0.85699,1.73552,-0.30423,-0.13256,0.60178,-0.00401,-0.0024,0.2027,-0.0073,0.0073,-0.0073,-0.0220,-0.0220,-0.3897,3.2889,6.1470,1.8242,-0.1343,-0.0757,-0.0464,1,1,1,1,1,1,1
5.8254,sweep,2,+up,0.07153,0.87339,1.73552,-0.30423,-0.13256,0.60178,-0.00401,-0.0024,0.2173,-0.0024,0.0073,-0.0073,-0.0220,-0.0073,-0.3897,2.6872,6.3385,1.8339,-0.1392,-0.0757,-0.0415,1,1,1,1,1,1,1
5.8652,sweep,2,+up,0.07153,0.87339,1.73552,-0.30423,-0.13256,0.60178,-0.00401,-0.0024,0.2173,-0.0024,0.0073,-0.0073,-0.0220,-0.0073,-0.3897,2.6872,6.3385,1.8339,-0.1392,-0.0757,-0.0415,1,1,1,1,1,1,1
5.9051,sweep,2,+up,0.07153,0.87339,1.73552,-0.30423,-0.13256,0.60178,-0.00401,-0.0024,0.2173,-0.0024,0.0073,-0.0073,-0.0220,-0.0073,-0.3897,2.6872,6.3385,1.8339,-0.1392,-0.0757,-0.0415,1,1,1,1,1,1,1
5.9458,sweep,2,+up,0.07153,0.89780,1.73552,-0.30423,-0.13256,0.60216,-0.00401,-0.0024,0.2027,-0.0024,-0.0220,-0.0220,0.0073,-0.0073,-0.3624,2.0308,6.5983,1.8779,-0.1392,-0.0708,-0.0415,1,1,1,1,1,1,1
5.9855,sweep,2,+up,0.07153,0.89780,1.73552,-0.30423,-0.13256,0.60216,-0.00401,-0.0024,0.2027,-0.0024,-0.0220,-0.0220,0.0073,-0.0073,-0.3624,2.0308,6.5983,1.8779,-0.1392,-0.0708,-0.0415,1,1,1,1,1,1,1
6.0249,sweep,2,+up,0.07153,0.91421,1.73552,-0.30461,-0.13256,0.60216,-0.00401,-0.0024,0.1929,-0.0024,-0.0073,-0.0073,-0.0073,-0.0073,-0.3624,1.4974,6.7487,1.9316,-0.1343,-0.0708,-0.0415,1,1,1,1,1,1,1
6.0649,sweep,2,+up,0.07153,0.91421,1.73552,-0.30461,-0.13256,0.60216,-0.00401,-0.0024,0.1929,-0.0024,-0.0073,-0.0073,-0.0073,-0.0073,-0.3624,1.4974,6.7487,1.9316,-0.1343,-0.0708,-0.0415,1,1,1,1,1,1,1
6.1051,sweep,2,+up,0.07153,0.91421,1.73552,-0.30461,-0.13256,0.60216,-0.00401,-0.0024,0.1929,-0.0024,-0.0073,-0.0073,-0.0073,-0.0073,-0.3624,1.4974,6.7487,1.9316,-0.1343,-0.0708,-0.0415,1,1,1,1,1,1,1
6.1452,sweep,2,+up,0.07153,0.93862,1.73552,-0.30461,-0.13256,0.60178,-0.00362,-0.0024,0.2173,-0.0024,-0.0220,-0.0220,0.0073,-0.0073,-0.3624,1.0462,7.0359,1.9756,-0.1441,-0.0855,-0.0415,1,1,1,1,1,1,1
6.1849,sweep,2,+up,0.07153,0.93862,1.73552,-0.30461,-0.13256,0.60178,-0.00362,-0.0024,0.2173,-0.0024,-0.0220,-0.0220,0.0073,-0.0073,-0.3624,1.0462,7.0359,1.9756,-0.1441,-0.0855,-0.0415,1,1,1,1,1,1,1
6.2249,sweep,2,+up,0.07153,0.95464,1.73590,-0.30308,-0.13256,0.60216,-0.00401,0.0024,0.1880,-0.0024,-0.0220,0.0073,0.0220,0.0073,-0.3350,1.0872,7.0359,1.8828,-0.1587,-0.0952,-0.0415,1,1,1,1,1,1,1
6.2651,sweep,2,+up,0.07153,0.95464,1.73590,-0.30308,-0.13256,0.60216,-0.00401,0.0024,0.1880,-0.0024,-0.0220,0.0073,0.0220,0.0073,-0.3350,1.0872,7.0359,1.8828,-0.1587,-0.0952,-0.0415,1,1,1,1,1,1,1
6.3049,sweep,2,+up,0.07153,0.95464,1.73590,-0.30308,-0.13256,0.60216,-0.00401,0.0024,0.1880,-0.0024,-0.0220,0.0073,0.0220,0.0073,-0.3350,1.0872,7.0359,1.8828,-0.1587,-0.0952,-0.0415,1,1,1,1,1,1,1
6.3451,sweep,2,+up,0.07153,0.97906,1.73590,-0.30423,-0.13256,0.60216,-0.00401,-0.0073,0.1880,-0.0073,-0.0073,-0.0073,-0.0073,0.0073,-0.3350,0.3761,7.2684,1.9951,-0.1636,-0.0952,-0.0464,1,1,1,1,1,1,1
6.3849,sweep,2,+up,0.07153,0.97906,1.73590,-0.30423,-0.13256,0.60216,-0.00401,-0.0073,0.1880,-0.0073,-0.0073,-0.0073,-0.0073,0.0073,-0.3350,0.3761,7.2684,1.9951,-0.1636,-0.0952,-0.0464,1,1,1,1,1,1,1
6.4251,sweep,2,+up,0.07153,0.99508,1.73590,-0.30423,-0.13256,0.60178,-0.00401,-0.0024,0.2027,-0.0073,-0.0220,-0.0073,-0.0073,-0.0073,-0.3350,0.3761,7.4188,2.0147,-0.1587,-0.0952,-0.0415,1,1,1,1,1,1,1
6.4649,sweep,2,+up,0.07153,0.99508,1.73590,-0.30423,-0.13256,0.60178,-0.00401,-0.0024,0.2027,-0.0073,-0.0220,-0.0073,-0.0073,-0.0073,-0.3350,0.3761,7.4188,2.0147,-0.1587,-0.0952,-0.0415,1,1,1,1,1,1,1
6.5051,sweep,2,+up,0.07153,0.99508,1.73590,-0.30423,-0.13256,0.60178,-0.00401,-0.0024,0.2027,-0.0073,-0.0220,-0.0073,-0.0073,-0.0073,-0.3350,0.3761,7.4188,2.0147,-0.1587,-0.0952,-0.0415,1,1,1,1,1,1,1
6.5449,sweep,2,+up,0.07153,1.01949,1.73590,-0.30385,-0.13256,0.60178,-0.00401,-0.0024,0.1783,0.0024,0.0073,0.0073,-0.0220,-0.0073,-0.3350,0.1162,7.5692,2.0147,-0.1636,-0.0952,-0.0415,1,1,1,1,1,1,1
6.5850,sweep,2,+up,0.07153,1.01949,1.73590,-0.30385,-0.13256,0.60178,-0.00401,-0.0024,0.1783,0.0024,0.0073,0.0073,-0.0220,-0.0073,-0.3350,0.1162,7.5692,2.0147,-0.1636,-0.0952,-0.0415,1,1,1,1,1,1,1
6.6251,sweep,2,+up,0.07153,1.03628,1.73590,-0.30385,-0.13256,0.60178,-0.00401,0.0024,0.2515,-0.0024,-0.0220,-0.0073,-0.0220,-0.0073,-0.3214,-0.1162,7.6513,2.0195,-0.1685,-0.1050,-0.0415,1,1,1,1,1,1,1
6.6651,sweep,2,+up,0.07153,1.03628,1.73590,-0.30385,-0.13256,0.60178,-0.00401,0.0024,0.2515,-0.0024,-0.0220,-0.0073,-0.0220,-0.0073,-0.3214,-0.1162,7.6513,2.0195,-0.1685,-0.1050,-0.0415,1,1,1,1,1,1,1
6.7050,sweep,2,+up,0.07153,1.03628,1.73590,-0.30385,-0.13256,0.60178,-0.00401,0.0024,0.2515,-0.0024,-0.0220,-0.0073,-0.0220,-0.0073,-0.3214,-0.1162,7.6513,2.0195,-0.1685,-0.1050,-0.0415,1,1,1,1,1,1,1
6.7452,sweep,2,+up,0.07153,1.06107,1.73590,-0.30385,-0.13256,0.60178,-0.00401,-0.0024,0.2076,0.0024,-0.0220,0.0073,0.0073,-0.0220,-0.2940,-0.8684,7.8564,2.0440,-0.1685,-0.0904,-0.0415,1,1,1,1,1,1,1
6.7850,sweep,2,+up,0.07153,1.06107,1.73590,-0.30385,-0.13256,0.60178,-0.00401,-0.0024,0.2076,0.0024,-0.0220,0.0073,0.0073,-0.0220,-0.2940,-0.8684,7.8564,2.0440,-0.1685,-0.0904,-0.0415,1,1,1,1,1,1,1
6.8251,sweep,2,+up,0.07153,1.07824,1.73590,-0.30423,-0.13256,0.60178,-0.00362,0.0024,0.2076,-0.0024,-0.0073,-0.0073,-0.0366,0.0073,-0.2940,-2.2632,7.9658,2.0928,-0.1734,-0.1001,-0.0366,1,1,1,1,1,1,1
6.8649,sweep,2,+up,0.07153,1.07824,1.73590,-0.30423,-0.13256,0.60178,-0.00362,0.0024,0.2076,-0.0024,-0.0073,-0.0073,-0.0366,0.0073,-0.2940,-2.2632,7.9658,2.0928,-0.1734,-0.1001,-0.0366,1,1,1,1,1,1,1
6.9051,sweep,2,+up,0.07153,1.07824,1.73590,-0.30423,-0.13256,0.60178,-0.00362,0.0024,0.2076,-0.0024,-0.0073,-0.0073,-0.0366,0.0073,-0.2940,-2.2632,7.9658,2.0928,-0.1734,-0.1001,-0.0366,1,1,1,1,1,1,1
6.9451,sweep,2,+up,0.07153,1.10380,1.73590,-0.30842,-0.13294,0.60216,-0.00401,-0.0024,0.1636,-0.0024,-0.0073,-0.0220,0.0073,-0.0073,-0.2803,-4.1231,8.2667,2.5519,-0.1783,-0.0952,-0.0366,1,1,1,1,1,1,1
6.9849,sweep,2,+up,0.07153,1.10380,1.73590,-0.30842,-0.13294,0.60216,-0.00401,-0.0024,0.1636,-0.0024,-0.0073,-0.0220,0.0073,-0.0073,-0.2803,-4.1231,8.2667,2.5519,-0.1783,-0.0952,-0.0366,1,1,1,1,1,1,1
7.0251,sweep,2,+up,0.07153,1.11791,1.73590,-0.30308,-0.13256,0.60178,-0.00401,0.0024,0.1636,0.0024,0.0659,-0.0073,-0.0073,-0.0073,-0.2940,-1.9624,8.3624,2.2247,-0.1734,-0.0904,-0.0415,1,1,1,1,1,1,1
7.0649,sweep,2,+up,0.07153,1.11791,1.73590,-0.30308,-0.13256,0.60178,-0.00401,0.0024,0.1636,0.0024,0.0659,-0.0073,-0.0073,-0.0073,-0.2940,-1.9624,8.3624,2.2247,-0.1734,-0.0904,-0.0415,1,1,1,1,1,1,1
7.1050,sweep,2,+up,0.07153,1.11791,1.73590,-0.30308,-0.13256,0.60178,-0.00401,0.0024,0.1636,0.0024,0.0659,-0.0073,-0.0073,-0.0073,-0.2940,-1.9624,8.3624,2.2247,-0.1734,-0.0904,-0.0415,1,1,1,1,1,1,1
7.1451,sweep,2,+up,0.07153,1.14233,1.73629,-0.30270,-0.13256,0.60216,-0.00401,-0.0024,0.2222,-0.0024,-0.0220,-0.0073,0.0073,-0.0073,-0.2530,-2.2496,8.1299,2.1221,-0.1783,-0.0952,-0.0366,1,1,1,1,1,1,1
7.1851,sweep,2,+up,0.07153,1.14233,1.73629,-0.30270,-0.13256,0.60216,-0.00401,-0.0024,0.2222,-0.0024,-0.0220,-0.0073,0.0073,-0.0073,-0.2530,-2.2496,8.1299,2.1221,-0.1783,-0.0952,-0.0366,1,1,1,1,1,1,1
7.2250,sweep,2,+up,0.07153,1.15988,1.73629,-0.30537,-0.13256,0.60216,-0.00401,-0.0024,0.2271,-0.0024,-0.0659,0.0073,-0.0220,-0.0073,-0.2256,-4.3556,8.2120,2.3175,-0.1783,-0.0952,-0.0366,1,1,1,1,1,1,1
7.2649,sweep,2,+up,0.07153,1.15988,1.73629,-0.30537,-0.13256,0.60216,-0.00401,-0.0024,0.2271,-0.0024,-0.0659,0.0073,-0.0220,-0.0073,-0.2256,-4.3556,8.2120,2.3175,-0.1783,-0.0952,-0.0366,1,1,1,1,1,1,1
7.3050,sweep,2,+up,0.07153,1.15988,1.73629,-0.30537,-0.13256,0.60216,-0.00401,-0.0024,0.2271,-0.0024,-0.0659,0.0073,-0.0220,-0.0073,-0.2256,-4.3556,8.2120,2.3175,-0.1783,-0.0952,-0.0366,1,1,1,1,1,1,1
7.3450,sweep,2,+up,0.07153,1.18277,1.73629,-0.30499,-0.13256,0.60216,-0.00401,0.0024,0.1832,-0.0024,0.0220,-0.0220,-0.0073,-0.0220,-0.2393,-2.8786,8.3487,2.3761,-0.1783,-0.0952,-0.0317,1,1,1,1,1,1,1
7.3852,sweep,2,+up,0.07153,1.18277,1.73629,-0.30499,-0.13256,0.60216,-0.00401,0.0024,0.1832,-0.0024,0.0220,-0.0220,-0.0073,-0.0220,-0.2393,-2.8786,8.3487,2.3761,-0.1783,-0.0952,-0.0317,1,1,1,1,1,1,1
7.4251,sweep,2,+up,0.07153,1.19879,1.73629,-0.30270,-0.13256,0.60216,-0.00401,-0.0024,0.2125,-0.0024,-0.0220,-0.0073,-0.0073,-0.0073,-0.2256,-2.7145,8.4034,2.2247,-0.1832,-0.0952,-0.0317,1,1,1,1,1,1,1
7.4652,sweep,2,+up,0.07153,1.19879,1.73629,-0.30270,-0.13256,0.60216,-0.00401,-0.0024,0.2125,-0.0024,-0.0220,-0.0073,-0.0073,-0.0073,-0.2256,-2.7145,8.4034,2.2247,-0.1832,-0.0952,-0.0317,1,1,1,1,1,1,1
7.5053,sweep,2,+up,0.07153,1.19879,1.73629,-0.30270,-0.13256,0.60216,-0.00401,-0.0024,0.2125,-0.0024,-0.0220,-0.0073,-0.0073,-0.0073,-0.2256,-2.7145,8.4034,2.2247,-0.1832,-0.0952,-0.0317,1,1,1,1,1,1,1
7.5458,sweep,2,+up,0.07153,1.22396,1.73629,-0.30346,-0.13256,0.60216,-0.00401,-0.0024,0.2027,-0.0024,-0.0073,-0.0220,-0.0073,-0.0073,-0.2120,-4.4376,8.5675,2.2637,-0.1929,-0.1050,-0.0317,1,1,1,1,1,1,1
7.5852,sweep,2,+up,0.07153,1.22396,1.73629,-0.30346,-0.13256,0.60216,-0.00401,-0.0024,0.2027,-0.0024,-0.0073,-0.0220,-0.0073,-0.0073,-0.2120,-4.4376,8.5675,2.2637,-0.1929,-0.1050,-0.0317,1,1,1,1,1,1,1
7.6253,sweep,2,+up,0.07153,1.23960,1.73629,-0.30346,-0.13256,0.60178,-0.00362,-0.0024,0.1929,0.0024,0.0073,-0.0073,-0.0073,-0.0073,-0.1983,-3.9726,8.7179,2.2637,-0.1929,-0.1148,-0.0317,1,1,1,1,1,1,1
7.6657,sweep,2,+up,0.07153,1.23960,1.73629,-0.30346,-0.13256,0.60178,-0.00362,-0.0024,0.1929,0.0024,0.0073,-0.0073,-0.0073,-0.0073,-0.1983,-3.9726,8.7179,2.2637,-0.1929,-0.1148,-0.0317,1,1,1,1,1,1,1
7.7055,sweep,2,+up,0.07153,1.23960,1.73629,-0.30346,-0.13256,0.60178,-0.00362,-0.0024,0.1929,0.0024,0.0073,-0.0073,-0.0073,-0.0073,-0.1983,-3.9726,8.7179,2.2637,-0.1929,-0.1148,-0.0317,1,1,1,1,1,1,1
7.7457,sweep,2,+up,0.07153,1.26402,1.73629,-0.30385,-0.13256,0.60216,-0.00362,-0.0024,0.2125,-0.0024,-0.0073,0.0073,-0.0073,-0.0073,-0.1983,-4.6291,8.8957,2.2686,-0.1978,-0.1099,-0.0366,1,1,1,1,1,1,1
7.7855,sweep,2,+up,0.07153,1.26402,1.73629,-0.30385,-0.13256,0.60216,-0.00362,-0.0024,0.2125,-0.0024,-0.0073,0.0073,-0.0073,-0.0073,-0.1983,-4.6291,8.8957,2.2686,-0.1978,-0.1099,-0.0366,1,1,1,1,1,1,1
7.8251,sweep,2,+up,0.07153,1.28080,1.73629,-0.30423,-0.13256,0.60216,-0.00362,-0.0024,0.1783,-0.0024,-0.0073,-0.0073,0.0073,-0.0073,-0.1846,-5.1350,8.9368,2.3223,-0.2027,-0.1001,-0.0366,1,1,1,1,1,1,1
7.8658,sweep,2,+up,0.07153,1.28080,1.73629,-0.30423,-0.13256,0.60216,-0.00362,-0.0024,0.1783,-0.0024,-0.0073,-0.0073,0.0073,-0.0073,-0.1846,-5.1350,8.9368,2.3223,-0.2027,-0.1001,-0.0366,1,1,1,1,1,1,1
7.9055,sweep,2,+up,0.07153,1.28080,1.73629,-0.30423,-0.13256,0.60216,-0.00362,-0.0024,0.1783,-0.0024,-0.0073,-0.0073,0.0073,-0.0073,-0.1846,-5.1350,8.9368,2.3223,-0.2027,-0.1001,-0.0366,1,1,1,1,1,1,1
7.9459,sweep,2,+up,0.07153,1.30407,1.73629,-0.30423,-0.13256,0.60216,-0.00401,-0.0073,0.2271,0.0024,-0.0073,-0.0073,0.0073,-0.0073,-0.1846,-4.5880,9.1145,2.3419,-0.2027,-0.1099,-0.0366,1,1,1,1,1,1,1
7.9855,sweep,2,+up,0.07153,1.30407,1.73629,-0.30423,-0.13256,0.60216,-0.00401,-0.0073,0.2271,0.0024,-0.0073,-0.0073,0.0073,-0.0073,-0.1846,-4.5880,9.1145,2.3419,-0.2027,-0.1099,-0.0366,1,1,1,1,1,1,1
8.0256,sweep,2,+up,0.07153,1.32048,1.73629,-0.30385,-0.13256,0.60216,-0.00401,-0.0024,0.1832,-0.0024,-0.0366,-0.0073,-0.0073,0.0073,-0.1709,-4.9709,9.1966,2.3321,-0.2027,-0.1099,-0.0317,1,1,1,1,1,1,1
8.0657,sweep,2,+up,0.07153,1.32048,1.73629,-0.30385,-0.13256,0.60216,-0.00401,-0.0024,0.1832,-0.0024,-0.0366,-0.0073,-0.0073,0.0073,-0.1709,-4.9709,9.1966,2.3321,-0.2027,-0.1099,-0.0317,1,1,1,1,1,1,1
8.1052,sweep,2,+up,0.07153,1.32048,1.73629,-0.30385,-0.13256,0.60216,-0.00401,-0.0024,0.1832,-0.0024,-0.0366,-0.0073,-0.0073,0.0073,-0.1709,-4.9709,9.1966,2.3321,-0.2027,-0.1099,-0.0317,1,1,1,1,1,1,1
8.1451,sweep,2,+up,0.07153,1.34489,1.73629,-0.30385,-0.13256,0.60216,-0.00401,-0.0024,0.1783,-0.0073,-0.0073,-0.0073,-0.0073,-0.0073,-0.1573,-5.7368,9.3470,2.3419,-0.2076,-0.1099,-0.0366,1,1,1,1,1,1,1
8.1850,sweep,2,+up,0.07153,1.34489,1.73629,-0.30385,-0.13256,0.60216,-0.00401,-0.0024,0.1783,-0.0073,-0.0073,-0.0073,-0.0073,-0.0073,-0.1573,-5.7368,9.3470,2.3419,-0.2076,-0.1099,-0.0366,1,1,1,1,1,1,1
8.2249,sweep,2,+up,0.07153,1.36091,1.73629,-0.30385,-0.13256,0.60216,-0.00362,-0.0024,0.2027,-0.0024,-0.0220,-0.0073,-0.0073,0.0073,-0.1573,-5.4769,9.4974,2.3468,-0.2125,-0.1099,-0.0317,1,1,1,1,1,1,1
8.2648,sweep,2,+up,0.07153,1.36091,1.73629,-0.30385,-0.13256,0.60216,-0.00362,-0.0024,0.2027,-0.0024,-0.0220,-0.0073,-0.0073,0.0073,-0.1573,-5.4769,9.4974,2.3468,-0.2125,-0.1099,-0.0317,1,1,1,1,1,1,1
8.3052,sweep,2,+up,0.07153,1.36091,1.73629,-0.30385,-0.13256,0.60216,-0.00362,-0.0024,0.2027,-0.0024,-0.0220,-0.0073,-0.0073,0.0073,-0.1573,-5.4769,9.4974,2.3468,-0.2125,-0.1099,-0.0317,1,1,1,1,1,1,1
8.3452,sweep,2,+up,0.07153,1.38533,1.73629,-0.30385,-0.13256,0.60216,-0.00401,0.0024,0.2027,-0.0024,-0.0073,0.0073,-0.0073,-0.0073,-0.1573,-6.0376,9.5795,2.3468,-0.2173,-0.1099,-0.0317,1,1,1,1,1,1,1
8.3854,sweep,2,+up,0.07153,1.38533,1.73629,-0.30385,-0.13256,0.60216,-0.00401,0.0024,0.2027,-0.0024,-0.0073,0.0073,-0.0073,-0.0073,-0.1573,-6.0376,9.5795,2.3468,-0.2173,-0.1099,-0.0317,1,1,1,1,1,1,1
8.4253,sweep,2,+up,0.07153,1.40097,1.73629,-0.30385,-0.13256,0.60216,-0.00401,-0.0073,0.2076,-0.0024,-0.0220,-0.0220,-0.0073,-0.0220,-0.1436,-5.8325,9.7026,2.3565,-0.2222,-0.1197,-0.0317,1,1,1,1,1,1,1
8.4652,sweep,2,+up,0.07153,1.40097,1.73629,-0.30385,-0.13256,0.60216,-0.00401,-0.0073,0.2076,-0.0024,-0.0220,-0.0220,-0.0073,-0.0220,-0.1436,-5.8325,9.7026,2.3565,-0.2222,-0.1197,-0.0317,1,1,1,1,1,1,1
8.5050,sweep,2,+up,0.07153,1.40097,1.73629,-0.30385,-0.13256,0.60216,-0.00401,-0.0073,0.2076,-0.0024,-0.0220,-0.0220,-0.0073,-0.0220,-0.1436,-5.8325,9.7026,2.3565,-0.2222,-0.1197,-0.0317,1,1,1,1,1,1,1
8.5452,sweep,2,+up,0.07153,1.42538,1.73629,-0.30385,-0.13256,0.60216,-0.00362,0.0024,0.1734,-0.0024,-0.0073,-0.0073,-0.0073,-0.0073,-0.1436,-6.4342,9.8256,2.3663,-0.2271,-0.1148,-0.0366,1,1,1,1,1,1,1
8.5851,sweep,2,+up,0.07153,1.42538,1.73629,-0.30385,-0.13256,0.60216,-0.00362,0.0024,0.1734,-0.0024,-0.0073,-0.0073,-0.0073,-0.0073,-0.1436,-6.4342,9.8256,2.3663,-0.2271,-0.1148,-0.0366,1,1,1,1,1,1,1
8.6251,sweep,2,+up,0.07153,1.44179,1.73629,-0.30385,-0.13256,0.60216,-0.00362,-0.0024,0.2125,0.0024,-0.0073,-0.0073,-0.0073,-0.0073,-0.1299,-6.8034,9.9077,2.3614,-0.2418,-0.1245,-0.0317,1,1,1,1,1,1,1
8.6652,sweep,2,+up,0.07153,1.44179,1.73629,-0.30385,-0.13256,0.60216,-0.00362,-0.0024,0.2125,0.0024,-0.0073,-0.0073,-0.0073,-0.0073,-0.1299,-6.8034,9.9077,2.3614,-0.2418,-0.1245,-0.0317,1,1,1,1,1,1,1
8.7052,sweep,2,+up,0.07153,1.44179,1.73629,-0.30385,-0.13256,0.60216,-0.00362,-0.0024,0.2125,0.0024,-0.0073,-0.0073,-0.0073,-0.0073,-0.1299,-6.8034,9.9077,2.3614,-0.2418,-0.1245,-0.0317,1,1,1,1,1,1,1
8.7452,sweep,2,+up,0.07153,1.46582,1.73629,-0.30385,-0.13294,0.60216,-0.00401,-0.0024,0.2125,-0.0073,-0.0366,-0.0073,0.0073,-0.0073,-0.1299,-6.7487,10.0718,2.3614,-0.2418,-0.1294,-0.0317,1,1,1,1,1,1,1
8.7851,sweep,2,+up,0.07153,1.46582,1.73629,-0.30385,-0.13294,0.60216,-0.00401,-0.0024,0.2125,-0.0073,-0.0366,-0.0073,0.0073,-0.0073,-0.1299,-6.7487,10.0718,2.3614,-0.2418,-0.1294,-0.0317,1,1,1,1,1,1,1
8.8251,sweep,2,+up,0.07153,1.48222,1.73629,-0.30385,-0.13256,0.60216,-0.00401,-0.0024,0.2076,-0.0024,0.0073,-0.0073,-0.0073,-0.0073,-0.1299,-7.4735,10.1812,2.3761,-0.2466,-0.1245,-0.0317,1,1,1,1,1,1,1
8.8655,sweep,2,+up,0.07153,1.48222,1.73629,-0.30385,-0.13256,0.60216,-0.00401,-0.0024,0.2076,-0.0024,0.0073,-0.0073,-0.0073,-0.0073,-0.1299,-7.4735,10.1812,2.3761,-0.2466,-0.1245,-0.0317,1,1,1,1,1,1,1
8.9059,sweep,2,+up,0.07153,1.48222,1.73629,-0.30385,-0.13256,0.60216,-0.00401,-0.0024,0.2076,-0.0024,0.0073,-0.0073,-0.0073,-0.0073,-0.1299,-7.4735,10.1812,2.3761,-0.2466,-0.1245,-0.0317,1,1,1,1,1,1,1
8.9456,sweep,2,+up,0.07153,1.50664,1.73629,-0.30385,-0.13256,0.60216,-0.00362,-0.0024,0.2222,-0.0073,-0.0220,-0.0073,-0.0073,-0.0073,-0.1026,-7.9248,10.3043,2.3810,-0.2662,-0.1245,-0.0366,1,1,1,1,1,1,1
8.9853,sweep,2,+up,0.07153,1.50664,1.73629,-0.30385,-0.13256,0.60216,-0.00362,-0.0024,0.2222,-0.0073,-0.0220,-0.0073,-0.0073,-0.0073,-0.1026,-7.9248,10.3043,2.3810,-0.2662,-0.1245,-0.0366,1,1,1,1,1,1,1
9.0251,sweep,2,+up,0.07153,1.52266,1.73629,-0.30385,-0.13256,0.60216,-0.00362,0.0024,0.1929,0.0024,-0.0220,-0.0073,-0.0073,-0.0220,-0.1026,-7.7333,10.4000,2.3761,-0.2613,-0.1343,-0.0317,1,1,1,1,1,1,1
9.0651,sweep,2,+up,0.07153,1.52266,1.73629,-0.30385,-0.13256,0.60216,-0.00362,0.0024,0.1929,0.0024,-0.0220,-0.0073,-0.0073,-0.0220,-0.1026,-7.7333,10.4000,2.3761,-0.2613,-0.1343,-0.0317,1,1,1,1,1,1,1
9.1053,sweep,2,+up,0.07153,1.52266,1.73629,-0.30385,-0.13256,0.60216,-0.00362,0.0024,0.1929,0.0024,-0.0220,-0.0073,-0.0073,-0.0220,-0.1026,-7.7333,10.4000,2.3761,-0.2613,-0.1343,-0.0317,1,1,1,1,1,1,1
9.1453,sweep,2,+up,0.07153,1.54669,1.73629,-0.30385,-0.13256,0.60216,-0.00362,-0.0024,0.2125,-0.0024,-0.0073,-0.0220,-0.0073,-0.0073,-0.0615,-7.7060,10.5915,2.3712,-0.2711,-0.1392,-0.0366,1,1,1,1,1,1,1
9.1853,sweep,2,+up,0.07153,1.54669,1.73629,-0.30385,-0.13256,0.60216,-0.00362,-0.0024,0.2125,-0.0024,-0.0073,-0.0220,-0.0073,-0.0073,-0.0615,-7.7060,10.5915,2.3712,-0.2711,-0.1392,-0.0366,1,1,1,1,1,1,1
9.2249,sweep,2,+up,0.07153,1.56271,1.73629,-0.30346,-0.13294,0.60216,-0.00401,-0.0024,0.1880,-0.0024,-0.0073,-0.0073,0.0073,-0.0073,-0.0615,-8.0479,10.6325,2.3663,-0.2613,-0.1392,-0.0317,1,1,1,1,1,1,1
9.2651,sweep,2,+up,0.07153,1.56271,1.73629,-0.30346,-0.13294,0.60216,-0.00401,-0.0024,0.1880,-0.0024,-0.0073,-0.0073,0.0073,-0.0073,-0.0615,-8.0479,10.6325,2.3663,-0.2613,-0.1392,-0.0317,1,1,1,1,1,1,1
9.3049,sweep,2,+up,0.07153,1.56271,1.73629,-0.30346,-0.13294,0.60216,-0.00401,-0.0024,0.1880,-0.0024,-0.0073,-0.0073,0.0073,-0.0073,-0.0615,-8.0479,10.6325,2.3663,-0.2613,-0.1392,-0.0317,1,1,1,1,1,1,1
9.3448,sweep,2,+up,0.07153,1.58713,1.73629,-0.30346,-0.13256,0.60216,-0.00362,-0.0024,0.2027,0.0024,0.0073,-0.0220,-0.0073,-0.0073,-0.0479,-8.6496,10.8376,2.3565,-0.2662,-0.1441,-0.0366,1,1,1,1,1,1,1
9.3852,sweep,2,+up,0.07153,1.58713,1.73629,-0.30346,-0.13256,0.60216,-0.00362,-0.0024,0.2027,0.0024,0.0073,-0.0220,-0.0073,-0.0073,-0.0479,-8.6496,10.8376,2.3565,-0.2662,-0.1441,-0.0366,1,1,1,1,1,1,1
9.4252,sweep,2,+up,0.07153,1.60315,1.73629,-0.30346,-0.13294,0.60216,-0.00362,0.0024,0.1978,-0.0024,-0.0220,-0.0073,-0.0073,-0.0073,-0.0205,-8.6085,10.9333,2.3565,-0.2711,-0.1490,-0.0366,1,1,1,1,1,1,1
9.4650,sweep,2,+up,0.07153,1.60315,1.73629,-0.30346,-0.13294,0.60216,-0.00362,0.0024,0.1978,-0.0024,-0.0220,-0.0073,-0.0073,-0.0073,-0.0205,-8.6085,10.9333,2.3565,-0.2711,-0.1490,-0.0366,1,1,1,1,1,1,1
9.5053,sweep,2,+up,0.07153,1.60315,1.73629,-0.30346,-0.13294,0.60216,-0.00362,0.0024,0.1978,-0.0024,-0.0220,-0.0073,-0.0073,-0.0073,-0.0205,-8.6085,10.9333,2.3565,-0.2711,-0.1490,-0.0366,1,1,1,1,1,1,1
9.5450,sweep,2,+up,0.07153,1.62718,1.73629,-0.30346,-0.13294,0.60216,-0.00401,-0.0024,0.1880,-0.0073,-0.0073,-0.0220,-0.0220,-0.0073,-0.0205,-8.5538,11.0701,2.3468,-0.2662,-0.1490,-0.0366,1,1,1,1,1,1,1
9.5848,sweep,2,+up,0.07153,1.62718,1.73629,-0.30346,-0.13294,0.60216,-0.00401,-0.0024,0.1880,-0.0073,-0.0073,-0.0220,-0.0220,-0.0073,-0.0205,-8.5538,11.0701,2.3468,-0.2662,-0.1490,-0.0366,1,1,1,1,1,1,1
9.6249,sweep,2,+up,0.07153,1.64359,1.73629,-0.30346,-0.13294,0.60216,-0.00362,-0.0024,0.1880,-0.0024,-0.0073,0.0073,-0.0073,-0.0073,0.0205,-8.9778,11.1248,2.3468,-0.2759,-0.1490,-0.0366,1,1,1,1,1,1,1
9.6654,sweep,2,+up,0.07153,1.64359,1.73629,-0.30346,-0.13294,0.60216,-0.00362,-0.0024,0.1880,-0.0024,-0.0073,0.0073,-0.0073,-0.0073,0.0205,-8.9778,11.1248,2.3468,-0.2759,-0.1490,-0.0366,1,1,1,1,1,1,1
9.7054,sweep,2,+up,0.07153,1.64359,1.73629,-0.30346,-0.13294,0.60216,-0.00362,-0.0024,0.1880,-0.0024,-0.0073,0.0073,-0.0073,-0.0073,0.0205,-8.9778,11.1248,2.3468,-0.2759,-0.1490,-0.0366,1,1,1,1,1,1,1
9.7449,sweep,2,+up,0.07153,1.66762,1.73629,-0.30346,-0.13294,0.60216,-0.00362,-0.0024,0.1880,-0.0024,-0.0220,-0.0220,0.0073,-0.0073,0.0068,-9.1009,11.2342,2.3272,-0.2662,-0.1587,-0.0366,1,1,1,1,1,1,1
9.7852,sweep,2,+up,0.07153,1.66762,1.73629,-0.30346,-0.13294,0.60216,-0.00362,-0.0024,0.1880,-0.0024,-0.0220,-0.0220,0.0073,-0.0073,0.0068,-9.1009,11.2342,2.3272,-0.2662,-0.1587,-0.0366,1,1,1,1,1,1,1
9.8251,sweep,2,+up,0.07153,1.68402,1.73629,-0.30346,-0.13256,0.60216,-0.00401,-0.0073,0.2027,-0.0024,-0.0073,-0.0073,-0.0073,-0.0073,0.0205,-9.3607,11.2752,2.3223,-0.2613,-0.1734,-0.0317,1,1,1,1,1,1,1
9.8650,sweep,2,+up,0.07153,1.68402,1.73629,-0.30346,-0.13256,0.60216,-0.00401,-0.0073,0.2027,-0.0024,-0.0073,-0.0073,-0.0073,-0.0073,0.0205,-9.3607,11.2752,2.3223,-0.2613,-0.1734,-0.0317,1,1,1,1,1,1,1
9.9051,sweep,2,+up,0.07153,1.68402,1.73629,-0.30346,-0.13256,0.60216,-0.00401,-0.0073,0.2027,-0.0024,-0.0073,-0.0073,-0.0073,-0.0073,0.0205,-9.3607,11.2752,2.3223,-0.2613,-0.1734,-0.0317,1,1,1,1,1,1,1
9.9450,sweep,2,+up,0.07153,1.70767,1.73629,-0.30346,-0.13294,0.60216,-0.00401,-0.0024,0.1783,-0.0024,-0.0220,-0.0073,-0.0073,-0.0073,0.0068,-9.3470,11.3299,2.3077,-0.2613,-0.1734,-0.0366,1,1,1,1,1,1,1
9.9848,sweep,2,+up,0.07153,1.70767,1.73629,-0.30346,-0.13294,0.60216,-0.00401,-0.0024,0.1783,-0.0024,-0.0220,-0.0073,-0.0073,-0.0073,0.0068,-9.3470,11.3299,2.3077,-0.2613,-0.1734,-0.0366,1,1,1,1,1,1,1
10.0248,sweep,2,+up,0.07153,1.72408,1.73629,-0.30346,-0.13256,0.60216,-0.00401,-0.0024,0.1978,-0.0024,-0.0073,-0.0073,-0.0073,0.0073,0.0205,-9.7436,11.3846,2.2930,-0.2662,-0.1783,-0.0317,1,1,1,1,1,1,1
10.0649,sweep,2,+up,0.07153,1.72408,1.73629,-0.30346,-0.13256,0.60216,-0.00401,-0.0024,0.1978,-0.0024,-0.0073,-0.0073,-0.0073,0.0073,0.0205,-9.7436,11.3846,2.2930,-0.2662,-0.1783,-0.0317,1,1,1,1,1,1,1
10.1048,sweep,2,+up,0.07153,1.72408,1.73629,-0.30346,-0.13256,0.60216,-0.00401,-0.0024,0.1978,-0.0024,-0.0073,-0.0073,-0.0073,0.0073,0.0205,-9.7436,11.3846,2.2930,-0.2662,-0.1783,-0.0317,1,1,1,1,1,1,1
10.1451,sweep,2,+up,0.07153,1.74811,1.73629,-0.30346,-0.13256,0.60216,-0.00362,0.0024,0.2076,-0.0024,-0.0073,0.0073,-0.0073,-0.0073,0.0205,-9.7709,11.4393,2.2833,-0.2662,-0.1929,-0.0366,1,1,1,1,1,1,1
10.1852,sweep,2,+up,0.07153,1.74811,1.73629,-0.30346,-0.13256,0.60216,-0.00362,0.0024,0.2076,-0.0024,-0.0073,0.0073,-0.0073,-0.0073,0.0205,-9.7709,11.4393,2.2833,-0.2662,-0.1929,-0.0366,1,1,1,1,1,1,1
10.2252,sweep,2,+up,0.07153,1.76413,1.73629,-0.30308,-0.13294,0.60216,-0.00401,-0.0024,0.1929,-0.0024,0.0073,-0.0220,-0.0073,-0.0220,0.0342,-9.9214,11.4120,2.2637,-0.2662,-0.1880,-0.0317,1,1,1,1,1,1,1
10.2652,sweep,2,+up,0.07153,1.76413,1.73629,-0.30308,-0.13294,0.60216,-0.00401,-0.0024,0.1929,-0.0024,0.0073,-0.0220,-0.0073,-0.0220,0.0342,-9.9214,11.4120,2.2637,-0.2662,-0.1880,-0.0317,1,1,1,1,1,1,1
10.3051,sweep,2,+up,0.07153,1.76413,1.73629,-0.30308,-0.13294,0.60216,-0.00401,-0.0024,0.1929,-0.0024,0.0073,-0.0220,-0.0073,-0.0220,0.0342,-9.9214,11.4120,2.2637,-0.2662,-0.1880,-0.0317,1,1,1,1,1,1,1
10.3453,sweep,2,+up,0.07153,1.78855,1.73629,-0.30346,-0.13294,0.60216,-0.00401,-0.0024,0.2076,-0.0024,-0.0220,-0.0220,-0.0073,-0.0073,0.0615,-10.2906,11.4803,2.2589,-0.2613,-0.1880,-0.0366,1,1,1,1,1,1,1
10.3852,sweep,2,+up,0.07153,1.78855,1.73629,-0.30346,-0.13294,0.60216,-0.00401,-0.0024,0.2076,-0.0024,-0.0220,-0.0220,-0.0073,-0.0073,0.0615,-10.2906,11.4803,2.2589,-0.2613,-0.1880,-0.0366,1,1,1,1,1,1,1
10.4252,sweep,2,+up,0.07153,1.80457,1.73629,-0.30308,-0.13256,0.60216,-0.00362,-0.0024,0.1929,-0.0073,-0.0220,-0.0073,-0.0073,-0.0073,0.0479,-10.1949,11.5350,2.2247,-0.2711,-0.1978,-0.0366,1,1,1,1,1,1,1
10.4652,sweep,2,+up,0.07153,1.80457,1.73629,-0.30308,-0.13256,0.60216,-0.00362,-0.0024,0.1929,-0.0073,-0.0220,-0.0073,-0.0073,-0.0073,0.0479,-10.1949,11.5350,2.2247,-0.2711,-0.1978,-0.0366,1,1,1,1,1,1,1
10.5051,sweep,2,+up,0.07153,1.80457,1.73629,-0.30308,-0.13256,0.60216,-0.00362,-0.0024,0.1929,-0.0073,-0.0220,-0.0073,-0.0073,-0.0073,0.0479,-10.1949,11.5350,2.2247,-0.2711,-0.1978,-0.0366,1,1,1,1,1,1,1
10.5450,sweep,2,+up,0.07153,1.82860,1.73667,-0.30346,-0.13256,0.60178,-0.00401,-0.0024,0.2222,-0.0024,-0.0073,-0.0073,-0.0220,-0.0073,0.0615,-10.4684,11.5350,2.2198,-0.2808,-0.1978,-0.0366,1,1,1,1,1,1,1
10.5848,sweep,2,+up,0.07153,1.82860,1.73667,-0.30346,-0.13256,0.60178,-0.00401,-0.0024,0.2222,-0.0024,-0.0073,-0.0073,-0.0220,-0.0073,0.0615,-10.4684,11.5350,2.2198,-0.2808,-0.1978,-0.0366,1,1,1,1,1,1,1
10.6254,sweep,2,+up,0.07153,1.84424,1.73667,-0.30346,-0.13256,0.60178,-0.00362,-0.0024,0.1880,-0.0024,-0.0073,-0.0220,-0.0220,-0.0073,0.0615,-10.1812,11.5214,2.2149,-0.2808,-0.2076,-0.0366,1,1,1,1,1,1,1
10.6651,sweep,2,+up,0.07153,1.84424,1.73667,-0.30346,-0.13256,0.60178,-0.00362,-0.0024,0.1880,-0.0024,-0.0073,-0.0220,-0.0220,-0.0073,0.0615,-10.1812,11.5214,2.2149,-0.2808,-0.2076,-0.0366,1,1,1,1,1,1,1
10.7051,sweep,2,+up,0.07153,1.84424,1.73667,-0.30346,-0.13256,0.60178,-0.00362,-0.0024,0.1880,-0.0024,-0.0073,-0.0220,-0.0220,-0.0073,0.0615,-10.1812,11.5214,2.2149,-0.2808,-0.2076,-0.0366,1,1,1,1,1,1,1
10.7450,sweep,2,+up,0.07153,1.86904,1.73667,-0.30308,-0.13256,0.60216,-0.00401,-0.0024,0.1734,-0.0024,-0.0073,-0.0220,-0.0073,-0.0073,0.0615,-10.8376,11.5761,2.1758,-0.2808,-0.2027,-0.0366,1,1,1,1,1,1,1
10.7849,sweep,2,+up,0.07153,1.86904,1.73667,-0.30308,-0.13256,0.60216,-0.00401,-0.0024,0.1734,-0.0024,-0.0073,-0.0220,-0.0073,-0.0073,0.0615,-10.8376,11.5761,2.1758,-0.2808,-0.2027,-0.0366,1,1,1,1,1,1,1
10.8250,sweep,2,+up,0.07153,1.88468,1.73667,-0.30308,-0.13256,0.60216,-0.00362,-0.0024,0.1832,0.0024,-0.0220,-0.0073,-0.0220,0.0073,0.0615,-10.8103,11.6034,2.1612,-0.2857,-0.2027,-0.0317,1,1,1,1,1,1,1
10.8650,sweep,2,+up,0.07153,1.88468,1.73667,-0.30308,-0.13256,0.60216,-0.00362,-0.0024,0.1832,0.0024,-0.0220,-0.0073,-0.0220,0.0073,0.0615,-10.8103,11.6034,2.1612,-0.2857,-0.2027,-0.0317,1,1,1,1,1,1,1
10.9050,sweep,2,+up,0.07153,1.88468,1.73667,-0.30308,-0.13256,0.60216,-0.00362,-0.0024,0.1832,0.0024,-0.0220,-0.0073,-0.0220,0.0073,0.0615,-10.8103,11.6034,2.1612,-0.2857,-0.2027,-0.0317,1,1,1,1,1,1,1
10.9449,sweep,2,+up,0.07153,1.90871,1.73667,-0.30308,-0.13256,0.60216,-0.00362,0.0024,0.2125,-0.0073,0.0073,-0.0220,-0.0220,-0.0073,0.0889,-10.7966,11.4667,2.1270,-0.2906,-0.2076,-0.0317,1,1,1,1,1,1,1
10.9850,sweep,2,+up,0.07153,1.90871,1.73667,-0.30308,-0.13256,0.60216,-0.00362,0.0024,0.2125,-0.0073,0.0073,-0.0220,-0.0220,-0.0073,0.0889,-10.7966,11.4667,2.1270,-0.2906,-0.2076,-0.0317,1,1,1,1,1,1,1
11.0249,sweep,2,+up,0.07153,1.92474,1.73667,-0.30308,-0.13256,0.60216,-0.00401,-0.0024,0.2125,-0.0024,-0.0220,-0.0073,-0.0073,-0.0073,0.0889,-10.6188,11.4803,2.1319,-0.2857,-0.2173,-0.0366,1,1,1,1,1,1,1
11.0650,sweep,2,+up,0.07153,1.92474,1.73667,-0.30308,-0.13256,0.60216,-0.00401,-0.0024,0.2125,-0.0024,-0.0220,-0.0073,-0.0073,-0.0073,0.0889,-10.6188,11.4803,2.1319,-0.2857,-0.2173,-0.0366,1,1,1,1,1,1,1
11.1051,sweep,2,+up,0.07153,1.92474,1.73667,-0.30308,-0.13256,0.60216,-0.00401,-0.0024,0.2125,-0.0024,-0.0220,-0.0073,-0.0073,-0.0073,0.0889,-10.6188,11.4803,2.1319,-0.2857,-0.2173,-0.0366,1,1,1,1,1,1,1
11.1452,sweep,2,+up,0.07153,1.94877,1.73667,-0.30308,-0.13256,0.60216,-0.00401,0.0024,0.1783,0.0024,-0.0073,-0.0073,0.0073,-0.0073,0.1026,-10.9197,11.4393,2.0879,-0.2955,-0.2125,-0.0366,1,1,1,1,1,1,1
11.1852,sweep,2,+up,0.07153,1.94877,1.73667,-0.30308,-0.13256,0.60216,-0.00401,0.0024,0.1783,0.0024,-0.0073,-0.0073,0.0073,-0.0073,0.1026,-10.9197,11.4393,2.0879,-0.2955,-0.2125,-0.0366,1,1,1,1,1,1,1
11.2251,sweep,2,+up,0.07153,1.96517,1.73667,-0.30308,-0.13256,0.60216,-0.00401,-0.0024,0.2125,-0.0024,0.0073,-0.0073,-0.0220,-0.0073,0.1026,-11.2205,11.4530,2.0635,-0.3004,-0.2173,-0.0366,1,1,1,1,1,1,1
11.2651,sweep,2,+up,0.07153,1.96517,1.73667,-0.30308,-0.13256,0.60216,-0.00401,-0.0024,0.2125,-0.0024,0.0073,-0.0073,-0.0220,-0.0073,0.1026,-11.2205,11.4530,2.0635,-0.3004,-0.2173,-0.0366,1,1,1,1,1,1,1
11.3052,sweep,2,+up,0.07153,1.96517,1.73667,-0.30308,-0.13256,0.60216,-0.00401,-0.0024,0.2125,-0.0024,0.0073,-0.0073,-0.0220,-0.0073,0.1026,-11.2205,11.4530,2.0635,-0.3004,-0.2173,-0.0366,1,1,1,1,1,1,1
11.3451,sweep,2,+up,0.07153,1.98882,1.73667,-0.30308,-0.13256,0.60216,-0.00401,0.0024,0.2027,-0.0024,-0.0073,-0.0073,0.0073,-0.0073,0.1026,-10.7829,11.4530,2.0391,-0.3004,-0.2222,-0.0317,1,1,1,1,1,1,1
11.3852,sweep,2,+up,0.07153,1.98882,1.73667,-0.30308,-0.13256,0.60216,-0.00401,0.0024,0.2027,-0.0024,-0.0073,-0.0073,0.0073,-0.0073,0.1026,-10.7829,11.4530,2.0391,-0.3004,-0.2222,-0.0317,1,1,1,1,1,1,1
11.4252,sweep,2,+up,0.07153,2.00523,1.73667,-0.30308,-0.13294,0.60216,-0.00362,-0.0024,0.2173,-0.0024,-0.0073,-0.0073,-0.0073,0.0073,0.1026,-11.2479,11.4940,2.0244,-0.3053,-0.2271,-0.0317,1,1,1,1,1,1,1
11.4653,sweep,2,+up,0.07153,2.00523,1.73667,-0.30308,-0.13294,0.60216,-0.00362,-0.0024,0.2173,-0.0024,-0.0073,-0.0073,-0.0073,0.0073,0.1026,-11.2479,11.4940,2.0244,-0.3053,-0.2271,-0.0317,1,1,1,1,1,1,1
11.5052,sweep,2,+up,0.07153,2.00523,1.73667,-0.30308,-0.13294,0.60216,-0.00362,-0.0024,0.2173,-0.0024,-0.0073,-0.0073,-0.0073,0.0073,0.1026,-11.2479,11.4940,2.0244,-0.3053,-0.2271,-0.0317,1,1,1,1,1,1,1
11.5449,sweep,2,+up,0.07153,2.02926,1.73705,-0.30308,-0.13294,0.60216,-0.00362,-0.0024,0.2027,0.0024,-0.0073,-0.0073,0.0073,-0.0073,0.1026,-11.4120,11.2479,2.0000,-0.3004,-0.2320,-0.0317,1,1,1,1,1,1,1
11.5851,sweep,2,+up,0.07153,2.02926,1.73705,-0.30308,-0.13294,0.60216,-0.00362,-0.0024,0.2027,0.0024,-0.0073,-0.0073,0.0073,-0.0073,0.1026,-11.4120,11.2479,2.0000,-0.3004,-0.2320,-0.0317,1,1,1,1,1,1,1
11.6249,sweep,2,+up,0.07153,2.04490,1.73743,-0.30308,-0.13294,0.60216,-0.00362,-0.0024,0.2125,0.0073,-0.0073,-0.0073,0.0073,-0.0073,0.1026,-10.9880,10.4684,1.9707,-0.2955,-0.2320,-0.0317,1,1,1,1,1,1,1
11.6650,sweep,2,+up,0.07153,2.04490,1.73743,-0.30308,-0.13294,0.60216,-0.00362,-0.0024,0.2125,0.0073,-0.0073,-0.0073,0.0073,-0.0073,0.1026,-10.9880,10.4684,1.9707,-0.2955,-0.2320,-0.0317,1,1,1,1,1,1,1
11.7048,sweep,2,+up,0.07153,2.04490,1.73743,-0.30308,-0.13294,0.60216,-0.00362,-0.0024,0.2125,0.0073,-0.0073,-0.0073,0.0073,-0.0073,0.1026,-10.9880,10.4684,1.9707,-0.2955,-0.2320,-0.0317,1,1,1,1,1,1,1
11.7451,sweep,2,+up,0.07153,2.06855,1.73781,-0.30308,-0.13294,0.60216,-0.00401,-0.0024,0.1783,-0.0073,-0.0366,0.0073,-0.0073,-0.0073,0.0889,-10.5368,9.9624,1.9463,-0.2711,-0.2369,-0.0317,1,1,1,1,1,1,1
11.7851,sweep,2,+up,0.07153,2.06855,1.73781,-0.30308,-0.13294,0.60216,-0.00401,-0.0024,0.1783,-0.0073,-0.0366,0.0073,-0.0073,-0.0073,0.0889,-10.5368,9.9624,1.9463,-0.2711,-0.2369,-0.0317,1,1,1,1,1,1,1
11.8249,sweep,2,+up,0.07153,2.08495,1.73781,-0.30308,-0.13294,0.60216,-0.00401,0.0024,0.1832,-0.0024,0.0073,0.0073,-0.0073,-0.0073,0.0752,-10.8376,9.7983,1.9072,-0.2564,-0.2466,-0.0317,1,1,1,1,1,1,1
11.8648,sweep,2,+up,0.07153,2.08495,1.73781,-0.30308,-0.13294,0.60216,-0.00401,0.0024,0.1832,-0.0024,0.0073,0.0073,-0.0073,-0.0073,0.0752,-10.8376,9.7983,1.9072,-0.2564,-0.2466,-0.0317,1,1,1,1,1,1,1
11.9050,sweep,2,+up,0.07153,2.08495,1.73781,-0.30308,-0.13294,0.60216,-0.00401,0.0024,0.1832,-0.0024,0.0073,0.0073,-0.0073,-0.0073,0.0752,-10.8376,9.7983,1.9072,-0.2564,-0.2466,-0.0317,1,1,1,1,1,1,1
11.9450,sweep,2,+up,0.07191,2.10861,1.73781,-0.30232,-0.13294,0.60216,-0.00362,-0.0024,0.1978,0.0024,-0.0073,-0.0073,-0.0073,-0.0073,0.0615,-10.4684,9.4838,1.8339,-0.2466,-0.2564,-0.0317,1,1,1,1,1,1,1
11.9848,sweep,2,+up,0.07191,2.10861,1.73781,-0.30232,-0.13294,0.60216,-0.00362,-0.0024,0.1978,0.0024,-0.0073,-0.0073,-0.0073,-0.0073,0.0615,-10.4684,9.4838,1.8339,-0.2466,-0.2564,-0.0317,1,1,1,1,1,1,1
12.0249,sweep,2,+up,0.07191,2.12425,1.73819,-0.30232,-0.13294,0.60216,-0.00362,-0.0024,0.2027,-0.0024,0.0366,-0.0073,-0.0073,-0.0073,0.0479,-10.0718,8.9641,1.7607,-0.2369,-0.2613,-0.0269,1,1,1,1,1,1,1
12.0651,sweep,2,+up,0.07191,2.12425,1.73819,-0.30232,-0.13294,0.60216,-0.00362,-0.0024,0.2027,-0.0024,0.0366,-0.0073,-0.0073,-0.0073,0.0479,-10.0718,8.9641,1.7607,-0.2369,-0.2613,-0.0269,1,1,1,1,1,1,1
12.1052,sweep,2,+up,0.07191,2.12425,1.73819,-0.30232,-0.13294,0.60216,-0.00362,-0.0024,0.2027,-0.0024,0.0366,-0.0073,-0.0073,-0.0073,0.0479,-10.0718,8.9641,1.7607,-0.2369,-0.2613,-0.0269,1,1,1,1,1,1,1
