peipl15/reBot_Arm/outputs/gravity_calib_20260622_152942.csv
t_s,phase,swept_joint,direction,q1,q2,q3,q4,q5,q6,q7,v1,v2,v3,v4,v5,v6,v7,tau1,tau2,tau3,tau4,tau5,tau6,tau7,st1,st2,st3,st4,st5,st6,st7
0.0026,approach,2,to_lo,0.08526,0.02041,0.03605,1.58637,0.02689,-0.05550,-0.00324,-0.0024,-0.0024,-0.0024,-0.0073,0.0073,0.0073,0.0073,-0.0479,-0.0068,-0.0068,-0.0122,0.0024,-0.0024,-0.0122,1,1,1,1,1,1,1
0.0428,approach,2,to_lo,0.08526,0.02041,0.03605,1.58637,0.02689,-0.05550,-0.00324,-0.0024,-0.0024,-0.0024,0.0073,-0.0073,-0.0220,-0.0220,-0.0342,0.0068,-0.0205,-0.0024,-0.0024,-0.0024,-0.0122,1,1,1,1,1,1,1
0.0826,approach,2,to_lo,0.08526,0.02041,0.03605,1.58637,0.02689,-0.05550,-0.00324,-0.0024,-0.0024,-0.0024,0.0073,-0.0073,-0.0220,-0.0220,-0.0342,0.0068,-0.0205,-0.0024,-0.0024,-0.0024,-0.0122,1,1,1,1,1,1,1
0.1227,approach,2,to_lo,0.08526,0.02804,0.03605,1.58331,0.02689,-0.05550,-0.00324,0.0024,0.1197,-0.0024,-0.0366,-0.0073,0.0220,0.0073,-0.0479,2.2496,-0.0205,-0.0904,-0.0024,-0.0122,-0.0073,1,1,1,1,1,1,1
0.1628,approach,2,to_lo,0.08526,0.02804,0.03605,1.58331,0.02689,-0.05550,-0.00324,0.0024,0.1197,-0.0024,-0.0366,-0.0073,0.0220,0.0073,-0.0479,2.2496,-0.0205,-0.0904,-0.0024,-0.0122,-0.0073,1,1,1,1,1,1,1
0.2025,approach,2,to_lo,0.08526,0.02804,0.03605,1.58331,0.02689,-0.05550,-0.00324,0.0024,0.1197,-0.0024,-0.0366,-0.0073,0.0220,0.0073,-0.0479,2.2496,-0.0205,-0.0904,-0.0024,-0.0122,-0.0073,1,1,1,1,1,1,1
0.2422,approach,2,to_lo,0.08526,0.03986,0.03605,1.57988,0.02651,-0.05550,-0.00362,-0.0024,0.0952,-0.0024,-0.0366,-0.0220,-0.0073,-0.0073,-0.0615,4.9299,-0.0068,-0.3394,-0.0073,-0.0122,-0.0122,1,1,1,1,1,1,1
0.2825,approach,2,to_lo,0.08526,0.03986,0.03605,1.57988,0.02651,-0.05550,-0.00362,-0.0024,0.0952,-0.0024,-0.0366,-0.0220,-0.0073,-0.0073,-0.0615,4.9299,-0.0068,-0.3394,-0.0073,-0.0122,-0.0122,1,1,1,1,1,1,1
0.3224,approach,2,to_lo,0.08526,0.05131,0.03605,1.57530,0.02689,-0.05550,-0.00362,-0.0024,0.0708,-0.0024,-0.0659,-0.0073,-0.0073,-0.0073,-0.0615,5.9009,-0.0342,-0.3590,-0.0073,-0.0122,-0.0073,1,1,1,1,1,1,1
0.3624,approach,2,to_lo,0.08526,0.05131,0.03605,1.57530,0.02689,-0.05550,-0.00362,-0.0024,0.0708,-0.0024,-0.0659,-0.0073,-0.0073,-0.0073,-0.0752,5.9009,-0.0342,-0.3590,-0.0073,-0.0122,-0.0073,1,1,1,1,1,1,1
0.4025,approach,2,to_lo,0.08526,0.05131,0.03605,1.57530,0.02689,-0.05550,-0.00362,-0.0024,0.0708,-0.0024,-0.0659,-0.0073,-0.0073,-0.0073,-0.0752,5.9009,-0.0342,-0.3590,-0.0073,-0.0122,-0.0073,1,1,1,1,1,1,1
0.4423,approach,2,to_lo,0.08526,0.05856,0.03605,1.57263,0.02689,-0.05550,-0.00324,-0.0024,0.0806,-0.0024,-0.0513,-0.0073,-0.0220,-0.0073,-0.0889,5.5590,-0.0342,-0.2808,-0.0024,-0.0122,-0.0024,1,1,1,1,1,1,1
0.4824,approach,2,to_lo,0.08526,0.05856,0.03605,1.57263,0.02689,-0.05550,-0.00324,-0.0024,0.0806,-0.0024,-0.0513,-0.0073,-0.0220,-0.0073,-0.0889,5.5590,-0.0342,-0.2808,-0.0024,-0.0122,-0.0024,1,1,1,1,1,1,1
0.5224,approach,2,to_lo,0.08526,0.06733,0.03605,1.57187,0.02689,-0.05550,-0.00324,-0.0024,0.0562,-0.0024,-0.0220,-0.0073,-0.0220,0.0073,-0.1026,5.8188,-0.0068,-0.2857,-0.0073,-0.0122,-0.0024,1,1,1,1,1,1,1
0.5626,approach,2,to_lo,0.08526,0.06733,0.03605,1.57187,0.02689,-0.05550,-0.00324,-0.0024,0.0562,-0.0024,-0.0220,-0.0073,-0.0220,0.0073,-0.1026,5.8188,-0.0068,-0.2857,-0.0073,-0.0122,-0.0024,1,1,1,1,1,1,1
0.6025,approach,2,to_lo,0.08526,0.06733,0.03605,1.57187,0.02689,-0.05550,-0.00324,-0.0024,0.0562,-0.0024,-0.0220,-0.0073,-0.0220,0.0073,-0.1026,5.8188,-0.0068,-0.2857,-0.0073,-0.0122,-0.0024,1,1,1,1,1,1,1
0.6425,approach,2,to_lo,0.08526,0.07343,0.03605,1.57149,0.02651,-0.05550,-0.00362,0.0024,0.0659,-0.0024,-0.0220,-0.0220,-0.0073,-0.0220,-0.1026,5.3675,-0.0479,-0.3101,-0.0024,-0.0171,-0.0073,1,1,1,1,1,1,1
0.6824,approach,2,to_lo,0.08526,0.07343,0.03605,1.57149,0.02651,-0.05550,-0.00362,0.0024,0.0659,-0.0024,-0.0220,-0.0220,-0.0073,-0.0220,-0.1026,5.3675,-0.0479,-0.3101,-0.0024,-0.0171,-0.0073,1,1,1,1,1,1,1
0.7227,approach,2,to_lo,0.08526,0.08030,0.03605,1.57034,0.02689,-0.05550,-0.00324,-0.0024,0.0659,-0.0073,-0.0073,0.0073,-0.0220,-0.0073,-0.1299,5.4222,-0.0615,-0.2076,-0.0073,-0.0220,-0.0073,1,1,1,1,1,1,1
0.7623,approach,2,to_lo,0.08526,0.08030,0.03605,1.57034,0.02689,-0.05550,-0.00324,-0.0024,0.0659,-0.0073,-0.0073,0.0073,-0.0220,-0.0073,-0.1299,5.4222,-0.0615,-0.2076,-0.0073,-0.0220,-0.0073,1,1,1,1,1,1,1
0.8025,approach,2,to_lo,0.08526,0.08030,0.03605,1.57034,0.02689,-0.05550,-0.00324,-0.0024,0.0659,-0.0073,-0.0073,0.0073,-0.0220,-0.0073,-0.1299,5.4222,-0.0615,-0.2076,-0.0073,-0.0220,-0.0073,1,1,1,1,1,1,1
0.8426,approach,2,to_lo,0.08526,0.08412,0.03605,1.57034,0.02689,-0.05550,-0.00324,-0.0073,0.0611,-0.0024,-0.0073,-0.0073,-0.0073,-0.0073,-0.1299,5.7915,-0.0479,-0.1929,-0.0122,-0.0220,-0.0024,1,1,1,1,1,1,1
0.8824,approach,2,to_lo,0.08526,0.08412,0.03605,1.57034,0.02689,-0.05550,-0.00324,-0.0073,0.0611,-0.0024,-0.0073,-0.0073,-0.0073,-0.0073,-0.1299,5.7915,-0.0479,-0.1929,-0.0122,-0.0220,-0.0024,1,1,1,1,1,1,1
0.9223,approach,2,to_lo,0.08526,0.08412,0.03605,1.57034,0.02689,-0.05550,-0.00324,-0.0073,0.0611,-0.0024,-0.0073,0.0073,-0.0220,-0.0073,-0.1299,5.7915,-0.0479,-0.1929,-0.0122,-0.0220,-0.0024,1,1,1,1,1,1,1
0.9625,approach,2,to_lo,0.08526,0.08946,0.03605,1.56996,0.02689,-0.05550,-0.00324,-0.0024,0.0464,-0.0024,-0.0073,0.0073,-0.0220,-0.0073,-0.1436,5.6684,-0.0752,-0.1734,-0.0122,-0.0220,-0.0024,1,1,1,1,1,1,1
1.0024,approach,2,to_lo,0.08526,0.08946,0.03605,1.56996,0.02689,-0.05550,-0.00324,-0.0024,0.0464,-0.0024,-0.0073,0.0073,-0.0220,-0.0073,-0.1436,5.6684,-0.0752,-0.1734,-0.0122,-0.0220,-0.0024,1,1,1,1,1,1,1
1.0424,approach,2,to_lo,0.08526,0.09289,0.03605,1.56996,0.02651,-0.05550,-0.00362,-0.0024,0.0513,-0.0024,-0.0220,-0.0073,-0.0073,-0.0220,-0.1436,5.2034,-0.0752,-0.1538,-0.0122,-0.0220,-0.0024,1,1,1,1,1,1,1
1.0827,approach,2,to_lo,0.08526,0.09289,0.03605,1.56996,0.02651,-0.05550,-0.00362,-0.0024,0.0513,-0.0024,-0.0220,-0.0073,-0.0073,-0.0220,-0.1436,5.2034,-0.0752,-0.1538,-0.0122,-0.0220,-0.0024,1,1,1,1,1,1,1
1.1226,approach,2,to_lo,0.08526,0.09289,0.03605,1.56996,0.02689,-0.05550,-0.00324,-0.0024,0.0513,-0.0024,-0.0220,-0.0220,-0.0073,-0.0073,-0.1436,5.2034,-0.0752,-0.1538,-0.0122,-0.0220,-0.0024,1,1,1,1,1,1,1
1.1625,approach,2,to_lo,0.08526,0.09632,0.03605,1.56996,0.02689,-0.05550,-0.00324,-0.0024,0.0269,-0.0024,0.0073,-0.0220,-0.0073,-0.0073,-0.1436,5.9829,-0.0889,-0.1392,-0.0122,-0.0220,-0.0024,1,1,1,1,1,1,1
1.2025,approach,2,to_lo,0.08526,0.09632,0.03605,1.56996,0.02689,-0.05550,-0.00324,-0.0024,0.0269,-0.0024,0.0073,-0.0220,-0.0073,-0.0073,-0.1436,5.9829,-0.0889,-0.1392,-0.0122,-0.0220,-0.0024,1,1,1,1,1,1,1
1.2424,approach,2,to_lo,0.08526,0.09937,0.03605,1.57034,0.02689,-0.05550,-0.00324,-0.0024,0.0317,-0.0024,-0.0073,-0.0073,-0.0366,-0.0073,-0.1846,5.2855,-0.0752,-0.1343,-0.0171,-0.0220,-0.0024,1,1,1,1,1,1,1
1.2823,approach,2,to_lo,0.08526,0.09937,0.03605,1.57034,0.02689,-0.05550,-0.00324,-0.0024,0.0317,-0.0024,-0.0073,-0.0073,-0.0366,-0.0073,-0.1846,5.2855,-0.0752,-0.1343,-0.0171,-0.0220,-0.0024,1,1,1,1,1,1,1
1.3223,approach,2,to_lo,0.08526,0.09937,0.03605,1.57034,0.02689,-0.05550,-0.00324,-0.0024,0.0317,-0.0024,-0.0073,-0.0073,-0.0366,-0.0073,-0.1846,5.2855,-0.0752,-0.1343,-0.0171,-0.0220,-0.0024,1,1,1,1,1,1,1
1.3623,approach,2,to_lo,0.08526,0.10205,0.03605,1.57034,0.02689,-0.05550,-0.00324,-0.0024,0.0317,-0.0073,-0.0073,-0.0220,-0.0220,-0.0073,-0.1846,5.8462,-0.0752,-0.1148,-0.0122,-0.0269,-0.0024,1,1,1,1,1,1,1
1.8649,sweep,2,+up,0.08526,0.10319,0.03605,1.57034,0.02689,-0.05550,-0.00324,-0.0073,0.0122,-0.0024,-0.0073,-0.0073,0.0073,0.0073,-0.1846,5.7231,-0.0615,-0.1148,-0.0122,-0.0220,-0.0024,1,1,1,1,1,1,1
1.9050,sweep,2,+up,0.08526,0.10319,0.03605,1.57034,0.02689,-0.05550,-0.00324,-0.0073,0.0122,-0.0024,-0.0073,-0.0073,0.0073,0.0073,-0.1846,5.7231,-0.0615,-0.1148,-0.0122,-0.0220,-0.0024,1,1,1,1,1,1,1
1.9449,sweep,2,+up,0.08526,0.11769,0.03605,1.57263,0.02689,-0.05550,-0.00324,-0.0024,0.1880,-0.0073,0.1685,-0.0366,-0.0220,-0.0073,-0.2530,6.6667,-0.0889,-0.2271,-0.0171,-0.0317,-0.0073,1,1,1,1,1,1,1
1.9850,sweep,2,+up,0.08526,0.11769,0.03605,1.57263,0.02689,-0.05550,-0.00324,-0.0024,0.1880,-0.0073,0.1685,-0.0366,-0.0220,-0.0073,-0.2530,6.6667,-0.0889,-0.2271,-0.0171,-0.0317,-0.0073,1,1,1,1,1,1,1
2.0251,sweep,2,+up,0.08526,0.13447,0.03605,1.57034,0.02689,-0.05550,-0.00324,-0.0024,0.1880,-0.0024,-0.0513,0.0073,0.0073,-0.0220,-0.2530,5.2855,-0.0889,-0.1148,-0.0171,-0.0317,-0.0024,1,1,1,1,1,1,1
2.0651,sweep,2,+up,0.08526,0.13447,0.03605,1.57034,0.02689,-0.05550,-0.00324,-0.0024,0.1880,-0.0024,-0.0513,0.0073,0.0073,-0.0220,-0.2530,5.2855,-0.0889,-0.1148,-0.0171,-0.0317,-0.0024,1,1,1,1,1,1,1
2.1051,sweep,2,+up,0.08526,0.13447,0.03605,1.57034,0.02689,-0.05550,-0.00324,-0.0024,0.1880,-0.0024,-0.0513,0.0073,0.0073,-0.0220,-0.2530,5.2855,-0.0889,-0.1148,-0.0171,-0.0317,-0.0024,1,1,1,1,1,1,1
2.1450,sweep,2,+up,0.08526,0.15927,0.03605,1.56806,0.02689,-0.05550,-0.00324,-0.0024,0.2222,-0.0024,-0.0073,-0.0073,-0.0220,-0.0073,-0.2803,4.7111,-0.1026,0.0073,-0.0171,-0.0317,-0.0073,1,1,1,1,1,1,1
2.1850,sweep,2,+up,0.08526,0.15927,0.03605,1.56806,0.02689,-0.05550,-0.00324,-0.0024,0.2222,-0.0024,-0.0073,-0.0073,-0.0220,-0.0073,-0.2803,4.7111,-0.1026,0.0073,-0.0171,-0.0317,-0.0073,1,1,1,1,1,1,1
2.2249,sweep,2,+up,0.08526,0.17491,0.03605,1.56806,0.02689,-0.05550,-0.00324,-0.0024,0.1880,0.0024,-0.0073,-0.0073,0.0073,-0.0073,-0.2940,4.8615,-0.1026,0.0415,-0.0171,-0.0366,-0.0073,1,1,1,1,1,1,1
2.2650,sweep,2,+up,0.08526,0.17491,0.03605,1.56806,0.02689,-0.05550,-0.00324,-0.0024,0.1880,0.0024,-0.0073,-0.0073,0.0073,-0.0073,-0.2940,4.8615,-0.1026,0.0415,-0.0171,-0.0366,-0.0073,1,1,1,1,1,1,1
2.3049,sweep,2,+up,0.08526,0.17491,0.03605,1.56806,0.02689,-0.05550,-0.00324,-0.0024,0.1880,0.0024,-0.0073,-0.0073,0.0073,-0.0073,-0.2940,4.8615,-0.1026,0.0415,-0.0171,-0.0366,-0.0073,1,1,1,1,1,1,1
2.3449,sweep,2,+up,0.08526,0.19894,0.03605,1.56806,0.02689,-0.05550,-0.00324,-0.0024,0.2027,-0.0024,-0.0220,0.0073,-0.0073,-0.0073,-0.2803,4.6974,-0.0889,0.1001,-0.0171,-0.0366,-0.0073,1,1,1,1,1,1,1
2.3850,sweep,2,+up,0.08526,0.19894,0.03605,1.56806,0.02689,-0.05550,-0.00324,-0.0024,0.2027,-0.0024,-0.0220,0.0073,-0.0073,-0.0073,-0.2803,4.6974,-0.0889,0.1001,-0.0171,-0.0366,-0.0073,1,1,1,1,1,1,1
2.4250,sweep,2,+up,0.08526,0.22297,0.03605,1.56767,0.02651,-0.05550,-0.00362,-0.0024,0.2076,-0.0024,-0.0366,-0.0220,0.0073,-0.0073,-0.2940,4.1778,-0.0889,0.2027,-0.0171,-0.0366,-0.0073,1,1,1,1,1,1,1
2.4649,sweep,2,+up,0.08526,0.22297,0.03605,1.56767,0.02651,-0.05550,-0.00362,-0.0024,0.2076,-0.0024,-0.0366,-0.0220,0.0073,-0.0073,-0.2940,4.1778,-0.0889,0.2027,-0.0171,-0.0366,-0.0073,1,1,1,1,1,1,1
2.5050,sweep,2,+up,0.08526,0.22297,0.03605,1.56767,0.02651,-0.05550,-0.00362,-0.0024,0.2076,-0.0024,-0.0366,-0.0220,0.0073,-0.0073,-0.2940,4.1778,-0.0889,0.2027,-0.0171,-0.0366,-0.0073,1,1,1,1,1,1,1
2.5451,sweep,2,+up,0.08526,0.23938,0.03605,1.56844,0.02689,-0.05550,-0.00362,-0.0024,0.1978,-0.0073,0.0366,-0.0073,0.0073,0.0073,-0.3214,4.5060,-0.1026,0.3004,-0.0171,-0.0366,-0.0122,1,1,1,1,1,1,1
2.5851,sweep,2,+up,0.08526,0.23938,0.03605,1.56844,0.02689,-0.05550,-0.00362,-0.0024,0.1978,-0.0073,0.0366,-0.0073,0.0073,0.0073,-0.3214,4.5060,-0.1026,0.3004,-0.0171,-0.0366,-0.0122,1,1,1,1,1,1,1
2.6249,sweep,2,+up,0.08526,0.26341,0.03605,1.56844,0.02689,-0.05550,-0.00324,-0.0024,0.2076,-0.0024,-0.0073,-0.0220,0.0073,0.0073,-0.3624,4.1778,-0.1436,0.3883,-0.0122,-0.0415,-0.0122,1,1,1,1,1,1,1
2.6650,sweep,2,+up,0.08526,0.26341,0.03605,1.56844,0.02689,-0.05550,-0.00324,-0.0024,0.2076,-0.0024,-0.0073,-0.0220,0.0073,0.0073,-0.3624,4.1778,-0.1436,0.3883,-0.0122,-0.0415,-0.0122,1,1,1,1,1,1,1
2.7050,sweep,2,+up,0.08526,0.26341,0.03605,1.56844,0.02689,-0.05550,-0.00324,-0.0024,0.2076,-0.0024,-0.0073,-0.0220,0.0073,0.0073,-0.3624,4.1778,-0.1436,0.3883,-0.0122,-0.0415,-0.0122,1,1,1,1,1,1,1
2.7450,sweep,2,+up,0.08526,0.27943,0.03605,1.56844,0.02689,-0.05550,-0.00324,-0.0024,0.1832,-0.0073,-0.0073,-0.0220,0.0073,-0.0220,-0.3350,4.2872,-0.1436,0.4762,-0.0171,-0.0415,-0.0073,1,1,1,1,1,1,1
2.7852,sweep,2,+up,0.08526,0.27943,0.03605,1.56844,0.02689,-0.05550,-0.00324,-0.0024,0.1832,-0.0073,-0.0073,-0.0220,0.0073,-0.0220,-0.3350,4.2872,-0.1436,0.4762,-0.0171,-0.0415,-0.0073,1,1,1,1,1,1,1
2.8252,sweep,2,+up,0.08526,0.30346,0.03605,1.56882,0.02689,-0.05550,-0.00324,-0.0024,0.2125,-0.0024,-0.0073,-0.0073,0.0073,0.0073,-0.3624,3.6991,-0.1436,0.5446,-0.0122,-0.0464,-0.0073,1,1,1,1,1,1,1
2.8650,sweep,2,+up,0.08526,0.30346,0.03605,1.56882,0.02689,-0.05550,-0.00324,-0.0024,0.2125,-0.0024,-0.0073,-0.0073,0.0073,0.0073,-0.3624,3.6991,-0.1436,0.5446,-0.0122,-0.0464,-0.0073,1,1,1,1,1,1,1
2.9049,sweep,2,+up,0.08526,0.30346,0.03605,1.56882,0.02689,-0.05550,-0.00324,-0.0024,0.2125,-0.0024,-0.0073,-0.0073,0.0073,0.0073,-0.3624,3.6991,-0.1436,0.5446,-0.0122,-0.0464,-0.0073,1,1,1,1,1,1,1
2.9451,sweep,2,+up,0.08526,0.31949,0.03605,1.56882,0.02689,-0.05550,-0.00324,-0.0024,0.1734,-0.0024,-0.0073,-0.0073,-0.0073,-0.0073,-0.3761,3.9863,-0.1573,0.6081,-0.0171,-0.0464,-0.0073,1,1,1,1,1,1,1
2.9851,sweep,2,+up,0.08526,0.31949,0.03605,1.56882,0.02689,-0.05550,-0.00324,-0.0024,0.1734,-0.0024,-0.0073,-0.0073,-0.0073,-0.0073,-0.3761,3.9863,-0.1573,0.6081,-0.0171,-0.0464,-0.0073,1,1,1,1,1,1,1
3.0250,sweep,2,+up,0.08526,0.31949,0.03605,1.56920,0.02689,-0.05589,-0.00324,-0.0024,0.1734,0.0024,-0.0220,-0.0220,-0.0073,0.0073,-0.3761,3.9863,-0.1436,0.6764,-0.0171,-0.0464,-0.0073,1,1,1,1,1,1,1
3.0650,sweep,2,+up,0.08526,0.34352,0.03605,1.56920,0.02689,-0.05589,-0.00324,0.0024,0.1832,0.0024,-0.0220,-0.0220,-0.0073,0.0073,-0.3897,3.6171,-0.1436,0.6764,-0.0171,-0.0464,-0.0073,1,1,1,1,1,1,1
3.1051,sweep,2,+up,0.08526,0.34352,0.03605,1.56920,0.02689,-0.05589,-0.00324,0.0024,0.1832,0.0024,-0.0220,-0.0220,-0.0073,0.0073,-0.3897,3.6171,-0.1436,0.6764,-0.0171,-0.0464,-0.0073,1,1,1,1,1,1,1
3.1449,sweep,2,+up,0.08526,0.35992,0.03605,1.56920,0.02689,-0.05550,-0.00324,-0.0024,0.2027,-0.0024,-0.0073,-0.0073,-0.0073,0.0073,-0.4171,3.6855,-0.1436,0.7253,-0.0171,-0.0464,-0.0073,1,1,1,1,1,1,1
3.1852,sweep,2,+up,0.08526,0.35992,0.03605,1.56920,0.02689,-0.05550,-0.00324,-0.0024,0.2027,-0.0024,-0.0073,-0.0073,-0.0073,0.0073,-0.4171,3.6855,-0.1436,0.7253,-0.0171,-0.0464,-0.0073,1,1,1,1,1,1,1
3.2251,sweep,2,+up,0.08526,0.35992,0.03605,1.56958,0.02689,-0.05550,-0.00362,-0.0024,0.2027,-0.0024,0.0073,-0.0073,-0.0073,-0.0220,-0.4171,3.6855,-0.1573,0.7790,-0.0171,-0.0513,-0.0073,1,1,1,1,1,1,1
3.2651,sweep,2,+up,0.08526,0.38396,0.03605,1.56958,0.02689,-0.05550,-0.00362,-0.0073,0.2027,-0.0024,0.0073,-0.0073,-0.0073,-0.0220,-0.4171,3.3846,-0.1573,0.7790,-0.0171,-0.0513,-0.0073,1,1,1,1,1,1,1
3.3050,sweep,2,+up,0.08526,0.38396,0.03605,1.56958,0.02689,-0.05550,-0.00362,-0.0073,0.2027,-0.0024,0.0073,-0.0073,-0.0073,-0.0220,-0.4171,3.3846,-0.1573,0.7790,-0.0171,-0.0513,-0.0073,1,1,1,1,1,1,1
3.3452,sweep,2,+up,0.08526,0.39998,0.03605,1.56958,0.02689,-0.05550,-0.00362,-0.0024,0.1978,-0.0024,-0.0073,-0.0073,0.0073,-0.0220,-0.3761,3.4667,-0.1436,0.8083,-0.0171,-0.0513,-0.0073,1,1,1,1,1,1,1
3.3852,sweep,2,+up,0.08526,0.39998,0.03605,1.56958,0.02689,-0.05550,-0.00362,-0.0024,0.1978,-0.0024,-0.0073,-0.0073,0.0073,-0.0220,-0.3761,3.4667,-0.1436,0.8083,-0.0171,-0.0513,-0.0073,1,1,1,1,1,1,1
3.4254,sweep,2,+up,0.08526,0.42401,0.03605,1.56958,0.02689,-0.05589,-0.00324,-0.0024,0.1783,-0.0024,-0.0073,-0.0073,-0.0073,-0.0073,-0.3761,3.3983,-0.1573,0.8620,-0.0220,-0.0513,-0.0073,1,1,1,1,1,1,1
3.4650,sweep,2,+up,0.08526,0.42401,0.03605,1.56958,0.02689,-0.05589,-0.00324,-0.0024,0.1783,-0.0024,-0.0073,-0.0073,-0.0073,-0.0073,-0.4171,3.3983,-0.1573,0.8620,-0.0220,-0.0513,-0.0073,1,1,1,1,1,1,1
3.5051,sweep,2,+up,0.08526,0.42401,0.03605,1.56958,0.02689,-0.05589,-0.00324,-0.0024,0.1783,-0.0024,-0.0073,-0.0073,-0.0073,-0.0073,-0.4171,3.3983,-0.1573,0.8620,-0.0220,-0.0513,-0.0073,1,1,1,1,1,1,1
3.5452,sweep,2,+up,0.08526,0.44041,0.03605,1.56958,0.02689,-0.05550,-0.00324,-0.0024,0.2173,-0.0073,0.0073,0.0073,-0.0073,-0.0073,-0.4444,3.1385,-0.1436,0.8962,-0.0171,-0.0562,-0.0073,1,1,1,1,1,1,1
3.5850,sweep,2,+up,0.08526,0.44041,0.03605,1.56958,0.02689,-0.05550,-0.00324,-0.0024,0.2173,-0.0073,0.0073,0.0073,-0.0073,-0.0073,-0.4444,3.1385,-0.1436,0.8962,-0.0171,-0.0562,-0.0073,1,1,1,1,1,1,1
3.6250,sweep,2,+up,0.08526,0.44041,0.03605,1.56958,0.02689,-0.05550,-0.00324,-0.0024,0.2173,-0.0073,0.0073,0.0073,-0.0073,-0.0073,-0.4444,3.1385,-0.1436,0.8962,-0.0171,-0.0562,-0.0073,1,1,1,1,1,1,1
3.6651,sweep,2,+up,0.08526,0.46406,0.03605,1.56958,0.02689,-0.05550,-0.00324,-0.0073,0.2027,-0.0024,-0.0220,-0.0073,-0.0220,-0.0073,-0.4581,3.1521,-0.1436,0.9402,-0.0171,-0.0562,-0.0073,1,1,1,1,1,1,1
3.7051,sweep,2,+up,0.08526,0.46406,0.03605,1.56958,0.02689,-0.05550,-0.00324,-0.0073,0.2027,-0.0024,-0.0220,-0.0073,-0.0220,-0.0073,-0.4581,3.1521,-0.1436,0.9402,-0.0171,-0.0562,-0.0073,1,1,1,1,1,1,1
3.7451,sweep,2,+up,0.08526,0.48047,0.03605,1.56958,0.02689,-0.05550,-0.00324,-0.0024,0.2222,-0.0024,-0.0073,-0.0073,-0.0073,-0.0073,-0.4718,2.8923,-0.1436,0.9841,-0.0220,-0.0562,-0.0073,1,1,1,1,1,1,1
3.7855,sweep,2,+up,0.08526,0.48047,0.03605,1.56958,0.02689,-0.05550,-0.00324,-0.0024,0.2222,-0.0024,-0.0073,-0.0073,-0.0073,-0.0073,-0.4718,2.8923,-0.1436,0.9841,-0.0220,-0.0562,-0.0073,1,1,1,1,1,1,1
3.8251,sweep,2,+up,0.08526,0.48047,0.03605,1.56958,0.02689,-0.05550,-0.00324,-0.0024,0.2222,-0.0024,-0.0073,-0.0073,-0.0073,-0.0073,-0.4718,2.8923,-0.1436,0.9841,-0.0220,-0.0562,-0.0073,1,1,1,1,1,1,1
3.8650,sweep,2,+up,0.08526,0.50450,0.03605,1.56958,0.02689,-0.05550,-0.00362,-0.0024,0.1929,-0.0024,-0.0073,-0.0073,-0.0073,-0.0073,-0.4581,2.7829,-0.1436,1.0379,-0.0220,-0.0513,-0.0073,1,1,1,1,1,1,1
3.9052,sweep,2,+up,0.08526,0.50450,0.03605,1.56958,0.02689,-0.05550,-0.00362,-0.0024,0.1929,-0.0024,-0.0073,-0.0073,-0.0073,-0.0073,-0.4581,2.7829,-0.1436,1.0379,-0.0220,-0.0513,-0.0073,1,1,1,1,1,1,1
3.9451,sweep,2,+up,0.08526,0.52090,0.03605,1.56958,0.02651,-0.05589,-0.00324,0.0024,0.1978,-0.0024,-0.0073,-0.0073,-0.0073,-0.0220,-0.4855,2.4547,-0.1436,1.0720,-0.0220,-0.0513,-0.0073,1,1,1,1,1,1,1
3.9852,sweep,2,+up,0.08526,0.52090,0.03605,1.56958,0.02651,-0.05589,-0.00324,0.0024,0.1978,-0.0024,-0.0073,-0.0073,-0.0073,-0.0220,-0.4855,2.4547,-0.1436,1.0720,-0.0220,-0.0513,-0.0073,1,1,1,1,1,1,1
4.0252,sweep,2,+up,0.08526,0.52090,0.03605,1.56958,0.02651,-0.05589,-0.00324,0.0024,0.1978,-0.0024,-0.0073,-0.0073,-0.0073,-0.0220,-0.4855,2.4547,-0.1436,1.0720,-0.0220,-0.0513,-0.0073,1,1,1,1,1,1,1
4.0650,sweep,2,+up,0.08526,0.54494,0.03605,1.56958,0.02689,-0.05589,-0.00324,-0.0073,0.2173,-0.0024,-0.0073,-0.0073,-0.0073,-0.0073,-0.5265,2.4000,-0.1573,1.1160,-0.0269,-0.0562,-0.0073,1,1,1,1,1,1,1
4.1055,sweep,2,+up,0.08526,0.54494,0.03605,1.56958,0.02689,-0.05589,-0.00324,-0.0073,0.2173,-0.0024,-0.0073,-0.0073,-0.0073,-0.0073,-0.5265,2.4000,-0.1573,1.1160,-0.0269,-0.0562,-0.0073,1,1,1,1,1,1,1
4.1452,sweep,2,+up,0.08488,0.56096,0.03605,1.56958,0.02689,-0.05550,-0.00324,0.0024,0.1880,-0.0024,-0.0073,-0.0220,-0.0220,-0.0073,-0.5265,2.3179,-0.1573,1.1551,-0.0269,-0.0562,-0.0073,1,1,1,1,1,1,1
4.1849,sweep,2,+up,0.08488,0.56096,0.03605,1.56958,0.02689,-0.05550,-0.00324,0.0024,0.1880,-0.0024,-0.0073,-0.0220,-0.0220,-0.0073,-0.5265,2.3179,-0.1573,1.1551,-0.0269,-0.0562,-0.0073,1,1,1,1,1,1,1
4.2250,sweep,2,+up,0.08488,0.56096,0.03605,1.56958,0.02689,-0.05550,-0.00324,0.0024,0.1880,-0.0024,-0.0073,-0.0220,-0.0220,-0.0073,-0.5265,2.3179,-0.1573,1.1551,-0.0269,-0.0562,-0.0073,1,1,1,1,1,1,1
4.2651,sweep,2,+up,0.08488,0.58499,0.03605,1.56958,0.02689,-0.05550,-0.00362,-0.0024,0.2173,0.0024,-0.0220,-0.0220,-0.0073,-0.0073,-0.5538,1.9350,-0.1709,1.2137,-0.0220,-0.0562,-0.0024,1,1,1,1,1,1,1
4.3051,sweep,2,+up,0.08488,0.58499,0.03605,1.56958,0.02689,-0.05550,-0.00362,-0.0024,0.2173,0.0024,-0.0220,-0.0220,-0.0073,-0.0073,-0.5538,1.9350,-0.1709,1.2137,-0.0220,-0.0562,-0.0024,1,1,1,1,1,1,1
4.3450,sweep,2,+up,0.08488,0.60102,0.03605,1.56958,0.02689,-0.05589,-0.00324,-0.0024,0.1783,-0.0024,-0.0220,-0.0073,-0.0220,-0.0073,-0.5402,2.0581,-0.1709,1.2430,-0.0220,-0.0562,-0.0073,1,1,1,1,1,1,1
4.3849,sweep,2,+up,0.08488,0.60102,0.03605,1.56958,0.02689,-0.05589,-0.00324,-0.0024,0.1783,-0.0024,-0.0220,-0.0073,-0.0220,-0.0073,-0.5402,2.0581,-0.1709,1.2430,-0.0220,-0.0562,-0.0073,1,1,1,1,1,1,1
4.4250,sweep,2,+up,0.08488,0.60102,0.03605,1.56958,0.02689,-0.05589,-0.00324,-0.0024,0.1783,-0.0024,-0.0220,-0.0073,-0.0220,-0.0073,-0.5402,2.0581,-0.1709,1.2430,-0.0220,-0.0562,-0.0073,1,1,1,1,1,1,1
4.4649,sweep,2,+up,0.08488,0.62505,0.03567,1.56958,0.02689,-0.05550,-0.00362,-0.0073,0.1832,-0.0024,-0.0073,-0.0073,0.0073,-0.0220,-0.5265,1.8256,-0.1573,1.2967,-0.0269,-0.0562,-0.0073,1,1,1,1,1,1,1
4.5052,sweep,2,+up,0.08488,0.62505,0.03567,1.56958,0.02689,-0.05550,-0.00362,-0.0073,0.1832,-0.0024,-0.0073,-0.0073,0.0073,-0.0220,-0.5265,1.8256,-0.1573,1.2967,-0.0269,-0.0562,-0.0073,1,1,1,1,1,1,1
4.5450,sweep,2,+up,0.08488,0.64107,0.03567,1.56958,0.02651,-0.05589,-0.00324,-0.0073,0.1880,-0.0024,-0.0073,-0.0073,-0.0073,-0.0220,-0.5265,1.9624,-0.1436,1.3358,-0.0220,-0.0611,-0.0073,1,1,1,1,1,1,1
4.5851,sweep,2,+up,0.08488,0.64107,0.03567,1.56958,0.02651,-0.05589,-0.00324,-0.0073,0.1880,-0.0024,-0.0073,-0.0073,-0.0073,-0.0220,-0.5265,1.9624,-0.1436,1.3358,-0.0220,-0.0611,-0.0073,1,1,1,1,1,1,1
4.6250,sweep,2,+up,0.08488,0.64107,0.03567,1.56958,0.02651,-0.05589,-0.00324,-0.0073,0.1880,-0.0024,-0.0073,-0.0073,-0.0073,-0.0220,-0.5265,1.9624,-0.1436,1.3358,-0.0220,-0.0611,-0.0073,1,1,1,1,1,1,1
4.6652,sweep,2,+up,0.08526,0.66548,0.03567,1.56958,0.02689,-0.05550,-0.00324,-0.0024,0.1929,-0.0024,-0.0220,-0.0073,-0.0073,-0.0073,-0.5402,1.5795,-0.1436,1.3797,-0.0220,-0.0611,-0.0073,1,1,1,1,1,1,1
4.7051,sweep,2,+up,0.08526,0.66548,0.03567,1.56958,0.02689,-0.05550,-0.00324,-0.0024,0.1929,-0.0024,-0.0220,-0.0073,-0.0073,-0.0073,-0.5402,1.5795,-0.1436,1.3797,-0.0220,-0.0611,-0.0073,1,1,1,1,1,1,1
4.7452,sweep,2,+up,0.08526,0.68151,0.03567,1.56958,0.02651,-0.05550,-0.00324,-0.0024,0.2027,-0.0073,-0.0073,-0.0220,0.0073,0.0073,-0.5402,1.6068,-0.1573,1.4188,-0.0269,-0.0562,-0.0024,1,1,1,1,1,1,1
4.7849,sweep,2,+up,0.08526,0.68151,0.03567,1.56958,0.02651,-0.05550,-0.00324,-0.0024,0.2027,-0.0073,-0.0073,-0.0220,0.0073,0.0073,-0.5402,1.6068,-0.1573,1.4188,-0.0269,-0.0562,-0.0024,1,1,1,1,1,1,1
4.8249,sweep,2,+up,0.08526,0.68151,0.03567,1.56958,0.02651,-0.05550,-0.00324,-0.0024,0.2027,-0.0073,-0.0073,-0.0220,0.0073,0.0073,-0.5402,1.6068,-0.1573,1.4188,-0.0269,-0.0562,-0.0024,1,1,1,1,1,1,1
4.8654,sweep,2,+up,0.08488,0.70554,0.03567,1.56958,0.02689,-0.05550,-0.00324,-0.0024,0.1783,0.0024,-0.0220,0.0073,-0.0220,0.0073,-0.5402,1.4427,-0.1436,1.4676,-0.0220,-0.0611,-0.0122,1,1,1,1,1,1,1
4.9050,sweep,2,+up,0.08488,0.70554,0.03567,1.56958,0.02689,-0.05550,-0.00324,-0.0024,0.1783,0.0024,-0.0220,0.0073,-0.0220,0.0073,-0.5402,1.4427,-0.1436,1.4676,-0.0220,-0.0611,-0.0122,1,1,1,1,1,1,1
4.9456,sweep,2,+up,0.08488,0.72194,0.03567,1.56958,0.02689,-0.05550,-0.00362,-0.0024,0.2222,-0.0073,-0.0073,-0.0073,-0.0073,-0.0220,-0.5402,1.1692,-0.1299,1.5018,-0.0220,-0.0562,-0.0122,1,1,1,1,1,1,1
4.9860,sweep,2,+up,0.08488,0.72194,0.03567,1.56958,0.02689,-0.05550,-0.00362,-0.0024,0.2222,-0.0073,-0.0073,-0.0073,-0.0073,-0.0220,-0.5402,1.1692,-0.1299,1.5018,-0.0220,-0.0562,-0.0122,1,1,1,1,1,1,1
5.0258,sweep,2,+up,0.08488,0.72194,0.03567,1.56958,0.02689,-0.05550,-0.00362,-0.0024,0.2222,-0.0073,-0.0073,-0.0073,-0.0073,-0.0220,-0.5402,1.1692,-0.1299,1.5018,-0.0220,-0.0562,-0.0122,1,1,1,1,1,1,1
5.0655,sweep,2,+up,0.08488,0.74598,0.03567,1.56958,0.02689,-0.05589,-0.00324,-0.0024,0.1929,-0.0024,-0.0073,0.0073,-0.0220,-0.0073,-0.4991,1.1692,-0.1709,1.5556,-0.0220,-0.0659,-0.0122,1,1,1,1,1,1,1
5.1054,sweep,2,+up,0.08488,0.74598,0.03567,1.56958,0.02689,-0.05589,-0.00324,-0.0024,0.1929,-0.0024,-0.0073,0.0073,-0.0220,-0.0073,-0.4991,1.1692,-0.1709,1.5556,-0.0220,-0.0659,-0.0122,1,1,1,1,1,1,1
5.1453,sweep,2,+up,0.08526,0.76200,0.03567,1.56958,0.02689,-0.05589,-0.00324,-0.0024,0.2173,0.0024,-0.0073,0.0073,-0.0220,-0.0073,-0.5402,0.7726,-0.1436,1.5897,-0.0220,-0.0659,-0.0122,1,1,1,1,1,1,1
5.1851,sweep,2,+up,0.08526,0.76200,0.03567,1.56958,0.02689,-0.05589,-0.00324,-0.0024,0.2173,0.0024,-0.0073,0.0073,-0.0220,-0.0073,-0.5402,0.7726,-0.1436,1.5897,-0.0220,-0.0659,-0.0122,1,1,1,1,1,1,1
5.2250,sweep,2,+up,0.08526,0.76200,0.03567,1.56958,0.02689,-0.05589,-0.00324,-0.0024,0.2173,0.0024,-0.0073,0.0073,-0.0220,-0.0073,-0.5402,0.7726,-0.1436,1.5897,-0.0220,-0.0659,-0.0122,1,1,1,1,1,1,1
5.2650,sweep,2,+up,0.08488,0.78565,0.03567,1.56996,0.02689,-0.05589,-0.00324,-0.0024,0.2027,-0.0024,0.0073,-0.0220,-0.0220,-0.0073,-0.4991,0.9094,-0.1436,1.6386,-0.0220,-0.0659,-0.0122,1,1,1,1,1,1,1
5.3051,sweep,2,+up,0.08488,0.78565,0.03567,1.56996,0.02689,-0.05589,-0.00324,-0.0024,0.2027,-0.0024,0.0073,-0.0220,-0.0220,-0.0073,-0.4991,0.9094,-0.1436,1.6386,-0.0220,-0.0659,-0.0122,1,1,1,1,1,1,1
5.3450,sweep,2,+up,0.08488,0.80205,0.03567,1.56958,0.02651,-0.05589,-0.00324,-0.0024,0.1929,0.0024,-0.0073,-0.0220,-0.0073,-0.0073,-0.5128,0.5949,-0.1436,1.6581,-0.0220,-0.0659,-0.0122,1,1,1,1,1,1,1
5.3854,sweep,2,+up,0.08488,0.80205,0.03567,1.56958,0.02651,-0.05589,-0.00324,-0.0024,0.1929,0.0024,-0.0073,-0.0220,-0.0073,-0.0073,-0.5128,0.5949,-0.1436,1.6581,-0.0220,-0.0659,-0.0122,1,1,1,1,1,1,1
5.4250,sweep,2,+up,0.08488,0.80205,0.03567,1.56958,0.02651,-0.05589,-0.00324,-0.0024,0.1929,0.0024,-0.0073,-0.0220,-0.0073,-0.0073,-0.5128,0.5949,-0.1436,1.6581,-0.0220,-0.0659,-0.0122,1,1,1,1,1,1,1
5.4650,sweep,2,+up,0.08488,0.82609,0.03567,1.56996,0.02651,-0.05589,-0.00324,-0.0024,0.2125,-0.0073,-0.0073,-0.0220,-0.0220,-0.0073,-0.4991,0.5128,-0.1573,1.7118,-0.0220,-0.0708,-0.0122,1,1,1,1,1,1,1
5.5057,sweep,2,+up,0.08488,0.82609,0.03567,1.56996,0.02651,-0.05589,-0.00324,-0.0024,0.2125,-0.0073,-0.0073,-0.0220,-0.0220,-0.0073,-0.4991,0.5128,-0.1573,1.7118,-0.0220,-0.0708,-0.0122,1,1,1,1,1,1,1
5.5455,sweep,2,+up,0.08488,0.84211,0.03567,1.56996,0.02689,-0.05589,-0.00324,0.0024,0.1880,-0.0024,0.0073,-0.0073,-0.0220,-0.0073,-0.4718,0.5538,-0.1573,1.7314,-0.0220,-0.0659,-0.0073,1,1,1,1,1,1,1
5.5850,sweep,2,+up,0.08488,0.84211,0.03567,1.56996,0.02689,-0.05589,-0.00324,0.0024,0.1880,-0.0024,0.0073,-0.0073,-0.0220,-0.0073,-0.4718,0.5538,-0.1573,1.7314,-0.0220,-0.0659,-0.0073,1,1,1,1,1,1,1
5.6249,sweep,2,+up,0.08488,0.84211,0.03567,1.56996,0.02689,-0.05589,-0.00324,0.0024,0.1880,-0.0024,0.0073,-0.0073,-0.0220,-0.0073,-0.4718,0.5538,-0.1573,1.7314,-0.0220,-0.0659,-0.0073,1,1,1,1,1,1,1
5.6649,sweep,2,+up,0.08488,0.86652,0.03567,1.56996,0.02689,-0.05589,-0.00324,-0.0024,0.2222,-0.0073,0.0073,-0.0220,0.0073,-0.0073,-0.4718,0.1983,-0.1573,1.7705,-0.0220,-0.0708,-0.0073,1,1,1,1,1,1,1
5.7052,sweep,2,+up,0.08488,0.86652,0.03567,1.56996,0.02689,-0.05589,-0.00324,-0.0024,0.2222,-0.0073,0.0073,-0.0220,0.0073,-0.0073,-0.4718,0.1983,-0.1573,1.7705,-0.0220,-0.0708,-0.0073,1,1,1,1,1,1,1
5.7452,sweep,2,+up,0.08488,0.88216,0.03567,1.56996,0.02689,-0.05589,-0.00324,-0.0073,0.1636,-0.0024,-0.0073,0.0073,0.0073,-0.0073,-0.4581,0.4171,-0.1436,1.7949,-0.0171,-0.0708,-0.0073,1,1,1,1,1,1,1
5.7851,sweep,2,+up,0.08488,0.88216,0.03567,1.56996,0.02689,-0.05589,-0.00324,-0.0073,0.1636,-0.0024,-0.0073,0.0073,0.0073,-0.0073,-0.4581,0.4171,-0.1436,1.7949,-0.0171,-0.0708,-0.0073,1,1,1,1,1,1,1
5.8252,sweep,2,+up,0.08488,0.88216,0.03567,1.56996,0.02689,-0.05589,-0.00324,-0.0073,0.1636,-0.0024,-0.0073,0.0073,0.0073,-0.0073,-0.4581,0.4171,-0.1436,1.7949,-0.0171,-0.0708,-0.0073,1,1,1,1,1,1,1
5.8651,sweep,2,+up,0.08488,0.90734,0.03567,1.56996,0.02651,-0.05550,-0.00324,-0.0024,0.2173,-0.0024,-0.0220,-0.0073,0.0073,-0.0073,-0.4718,-0.2120,-0.1573,1.8388,-0.0171,-0.0708,-0.0073,1,1,1,1,1,1,1
5.9052,sweep,2,+up,0.08488,0.90734,0.03567,1.56996,0.02651,-0.05550,-0.00324,-0.0024,0.2173,-0.0024,-0.0220,-0.0073,0.0073,-0.0073,-0.4718,-0.2120,-0.1573,1.8388,-0.0171,-0.0708,-0.0073,1,1,1,1,1,1,1
5.9452,sweep,2,+up,0.08488,0.92374,0.03567,1.56958,0.02689,-0.05550,-0.00324,-0.0024,0.2125,-0.0024,-0.0073,-0.0073,0.0073,-0.0073,-0.4718,-0.4444,-0.1573,1.8730,-0.0122,-0.0708,-0.0073,1,1,1,1,1,1,1
5.9854,sweep,2,+up,0.08488,0.92374,0.03567,1.56958,0.02689,-0.05550,-0.00324,-0.0024,0.2125,-0.0024,-0.0073,-0.0073,0.0073,-0.0073,-0.4718,-0.4444,-0.1573,1.8730,-0.0122,-0.0708,-0.0073,1,1,1,1,1,1,1
6.0252,sweep,2,+up,0.08488,0.92374,0.03567,1.56958,0.02689,-0.05550,-0.00324,-0.0024,0.2125,-0.0024,-0.0073,-0.0073,0.0073,-0.0073,-0.4718,-0.4444,-0.1573,1.8730,-0.0122,-0.0708,-0.0073,1,1,1,1,1,1,1
6.0655,sweep,2,+up,0.08488,0.94778,0.03567,1.56958,0.02689,-0.05589,-0.00362,-0.0024,0.1636,-0.0024,-0.0220,-0.0073,-0.0220,-0.0073,-0.4718,-0.3077,-0.1436,1.9170,-0.0122,-0.0757,-0.0073,1,1,1,1,1,1,1
6.1055,sweep,2,+up,0.08488,0.94778,0.03567,1.56958,0.02689,-0.05589,-0.00362,-0.0024,0.1636,-0.0024,-0.0220,-0.0073,-0.0220,-0.0073,-0.4718,-0.3077,-0.1436,1.9170,-0.0122,-0.0757,-0.0073,1,1,1,1,1,1,1
6.1449,sweep,2,+up,0.08488,0.96418,0.03567,1.56958,0.02651,-0.05589,-0.00362,-0.0073,0.2320,-0.0073,-0.0073,-0.0073,0.0073,-0.0073,-0.4855,-0.6632,-0.1299,1.9414,-0.0122,-0.0757,-0.0073,1,1,1,1,1,1,1
6.1856,sweep,2,+up,0.08488,0.96418,0.03567,1.56958,0.02651,-0.05589,-0.00362,-0.0073,0.2320,-0.0073,-0.0073,-0.0073,0.0073,-0.0073,-0.4855,-0.6632,-0.1299,1.9414,-0.0122,-0.0757,-0.0073,1,1,1,1,1,1,1
6.2248,sweep,2,+up,0.08488,0.96418,0.03567,1.56958,0.02651,-0.05589,-0.00362,-0.0073,0.2320,-0.0073,-0.0073,-0.0073,0.0073,-0.0073,-0.4855,-0.6632,-0.1299,1.9414,-0.0122,-0.0757,-0.0073,1,1,1,1,1,1,1
6.2649,sweep,2,+up,0.08488,0.98783,0.03567,1.56958,0.02689,-0.05550,-0.00324,-0.0024,0.1832,0.0024,-0.0073,0.0073,-0.0073,0.0073,-0.4581,-0.4718,-0.1436,2.0000,-0.0122,-0.0757,-0.0073,1,1,1,1,1,1,1
6.3051,sweep,2,+up,0.08488,0.98783,0.03567,1.56958,0.02689,-0.05550,-0.00324,-0.0024,0.1832,0.0024,-0.0073,0.0073,-0.0073,0.0073,-0.4581,-0.4718,-0.1436,2.0000,-0.0122,-0.0757,-0.0073,1,1,1,1,1,1,1
6.3449,sweep,2,+up,0.08488,1.00423,0.03567,1.56996,0.02651,-0.05589,-0.00362,-0.0073,0.2076,0.0024,-0.0220,-0.0073,-0.0073,-0.0073,-0.4718,-0.9231,-0.1299,2.0244,-0.0122,-0.0757,-0.0024,1,1,1,1,1,1,1
6.3851,sweep,2,+up,0.08488,1.00423,0.03567,1.56996,0.02651,-0.05589,-0.00362,-0.0073,0.2076,0.0024,-0.0220,-0.0073,-0.0073,-0.0073,-0.4718,-0.9231,-0.1299,2.0244,-0.0122,-0.0757,-0.0024,1,1,1,1,1,1,1
6.4250,sweep,2,+up,0.08488,1.00423,0.03567,1.56996,0.02651,-0.05589,-0.00362,-0.0073,0.2076,0.0024,-0.0220,-0.0073,-0.0073,-0.0073,-0.4718,-0.9231,-0.1299,2.0244,-0.0122,-0.0757,-0.0024,1,1,1,1,1,1,1
6.4650,sweep,2,+up,0.08488,1.02827,0.03567,1.56958,0.02689,-0.05550,-0.00324,-0.0073,0.2027,-0.0024,-0.0220,0.0073,0.0073,-0.0220,-0.4308,-0.8684,-0.1026,2.0781,-0.0122,-0.0708,-0.0073,1,1,1,1,1,1,1
6.5052,sweep,2,+up,0.08488,1.02827,0.03567,1.56958,0.02689,-0.05550,-0.00324,-0.0073,0.2027,-0.0024,-0.0220,0.0073,0.0073,-0.0220,-0.4308,-0.8684,-0.1026,2.0781,-0.0122,-0.0708,-0.0073,1,1,1,1,1,1,1
6.5450,sweep,2,+up,0.08488,1.04429,0.03567,1.56958,0.02689,-0.05589,-0.00324,-0.0024,0.1832,-0.0024,-0.0073,-0.0073,0.0220,-0.0073,-0.4444,-1.1829,-0.1026,2.1123,-0.0122,-0.0708,-0.0073,1,1,1,1,1,1,1
6.5856,sweep,2,+up,0.08488,1.04429,0.03567,1.56958,0.02689,-0.05589,-0.00324,-0.0024,0.1832,-0.0024,-0.0073,-0.0073,0.0220,-0.0073,-0.4444,-1.1829,-0.1026,2.1123,-0.0122,-0.0708,-0.0073,1,1,1,1,1,1,1
6.6250,sweep,2,+up,0.08488,1.04429,0.03567,1.56958,0.02689,-0.05589,-0.00324,-0.0024,0.1832,-0.0024,-0.0073,-0.0073,0.0220,-0.0073,-0.4444,-1.1829,-0.1026,2.1123,-0.0122,-0.0708,-0.0073,1,1,1,1,1,1,1
6.6651,sweep,2,+up,0.08488,1.06832,0.03567,1.56996,0.02689,-0.05589,-0.00362,-0.0024,0.2076,-0.0024,0.0073,0.0073,-0.0220,-0.0073,-0.4444,-1.1829,-0.0889,2.1368,-0.0073,-0.0757,-0.0024,1,1,1,1,1,1,1
6.7052,sweep,2,+up,0.08488,1.06832,0.03567,1.56996,0.02689,-0.05589,-0.00362,-0.0024,0.2076,-0.0024,0.0073,0.0073,-0.0220,-0.0073,-0.4444,-1.1829,-0.0889,2.1368,-0.0073,-0.0757,-0.0024,1,1,1,1,1,1,1
6.7453,sweep,2,+up,0.08488,1.08434,0.03567,1.56996,0.02651,-0.05589,-0.00324,-0.0073,0.1783,-0.0024,-0.0073,-0.0220,-0.0073,-0.0073,-0.4444,-1.2513,-0.0752,2.1661,-0.0073,-0.0806,-0.0024,1,1,1,1,1,1,1
6.7851,sweep,2,+up,0.08488,1.08434,0.03567,1.56996,0.02651,-0.05589,-0.00324,-0.0073,0.1783,-0.0024,-0.0073,-0.0220,-0.0073,-0.0073,-0.4444,-1.2513,-0.0752,2.1661,-0.0073,-0.0806,-0.0024,1,1,1,1,1,1,1
6.8250,sweep,2,+up,0.08488,1.08434,0.03567,1.56996,0.02651,-0.05589,-0.00324,-0.0073,0.1783,-0.0024,-0.0073,-0.0220,-0.0073,-0.0073,-0.4444,-1.2513,-0.0752,2.1661,-0.0073,-0.0806,-0.0024,1,1,1,1,1,1,1
6.8650,sweep,2,+up,0.08488,1.10876,0.03567,1.56996,0.02651,-0.05589,-0.00324,-0.0024,0.2222,-0.0024,-0.0073,-0.0073,-0.0073,-0.0220,-0.4171,-1.5795,-0.0615,2.1954,-0.0073,-0.0757,-0.0024,1,1,1,1,1,1,1
6.9051,sweep,2,+up,0.08488,1.10876,0.03567,1.56996,0.02651,-0.05589,-0.00324,-0.0024,0.2222,-0.0024,-0.0073,-0.0073,-0.0073,-0.0220,-0.4171,-1.5795,-0.0615,2.1954,-0.0073,-0.0757,-0.0024,1,1,1,1,1,1,1
6.9451,sweep,2,+up,0.08488,1.12440,0.03567,1.56996,0.02651,-0.05589,-0.00324,-0.0073,0.1832,-0.0024,-0.0073,-0.0073,-0.0073,-0.0073,-0.4034,-1.3333,-0.0479,2.2149,-0.0024,-0.0708,-0.0073,1,1,1,1,1,1,1
6.9850,sweep,2,+up,0.08488,1.12440,0.03567,1.56996,0.02651,-0.05589,-0.00324,-0.0073,0.1832,-0.0024,-0.0073,-0.0073,-0.0073,-0.0073,-0.4034,-1.3333,-0.0479,2.2149,-0.0024,-0.0708,-0.0073,1,1,1,1,1,1,1
7.0253,sweep,2,+up,0.08488,1.12440,0.03567,1.56996,0.02651,-0.05589,-0.00324,-0.0073,0.1832,-0.0024,-0.0073,-0.0073,-0.0073,-0.0073,-0.4034,-1.3333,-0.0479,2.2149,-0.0024,-0.0708,-0.0073,1,1,1,1,1,1,1
7.0652,sweep,2,+up,0.08488,1.14881,0.03567,1.56996,0.02651,-0.05589,-0.00362,-0.0024,0.1929,0.0024,0.0073,-0.0073,-0.0073,-0.0220,-0.4171,-1.6205,-0.0615,2.2295,-0.0024,-0.0708,-0.0073,1,1,1,1,1,1,1
7.1052,sweep,2,+up,0.08488,1.14881,0.03567,1.56996,0.02651,-0.05589,-0.00362,-0.0024,0.1929,0.0024,0.0073,-0.0073,-0.0073,-0.0220,-0.4171,-1.6205,-0.0615,2.2295,-0.0024,-0.0708,-0.0073,1,1,1,1,1,1,1
7.1450,sweep,2,+up,0.08488,1.16484,0.03567,1.56996,0.02651,-0.05589,-0.00324,-0.0024,0.1978,0.0024,0.0073,-0.0073,0.0073,-0.0073,-0.3897,-1.5248,-0.0479,2.2540,0.0024,-0.0757,-0.0073,1,1,1,1,1,1,1
7.1849,sweep,2,+up,0.08488,1.16484,0.03567,1.56996,0.02651,-0.05589,-0.00324,-0.0024,0.1978,0.0024,0.0073,-0.0073,0.0073,-0.0073,-0.3897,-1.5248,-0.0479,2.2540,0.0024,-0.0757,-0.0073,1,1,1,1,1,1,1
7.2250,sweep,2,+up,0.08488,1.16484,0.03567,1.56996,0.02651,-0.05589,-0.00324,-0.0024,0.1978,0.0024,0.0073,-0.0073,0.0073,-0.0073,-0.3897,-1.5248,-0.0479,2.2540,0.0024,-0.0757,-0.0073,1,1,1,1,1,1,1
7.2650,sweep,2,+up,0.08488,1.18887,0.03567,1.56996,0.02651,-0.05589,-0.00324,-0.0073,0.1929,-0.0024,-0.0073,-0.0073,-0.0220,-0.0073,-0.4308,-1.7436,-0.0342,2.2784,-0.0024,-0.0708,-0.0073,1,1,1,1,1,1,1
7.3050,sweep,2,+up,0.08488,1.18887,0.03567,1.56996,0.02651,-0.05589,-0.00324,-0.0073,0.1929,-0.0024,-0.0073,-0.0073,-0.0220,-0.0073,-0.4308,-1.7436,-0.0342,2.2784,-0.0024,-0.0708,-0.0073,1,1,1,1,1,1,1
7.3449,sweep,2,+up,0.08488,1.20489,0.03567,1.56996,0.02651,-0.05589,-0.00362,-0.0024,0.2125,-0.0024,-0.0073,-0.0073,-0.0073,-0.0073,-0.4444,-1.7573,-0.0205,2.2979,0.0024,-0.0708,-0.0073,1,1,1,1,1,1,1
7.3849,sweep,2,+up,0.08488,1.20489,0.03567,1.56996,0.02651,-0.05589,-0.00362,-0.0024,0.2125,-0.0024,-0.0073,-0.0073,-0.0073,-0.0073,-0.4444,-1.7573,-0.0205,2.2979,0.0024,-0.0708,-0.0073,1,1,1,1,1,1,1
7.4248,sweep,2,+up,0.08488,1.20489,0.03567,1.56996,0.02651,-0.05589,-0.00362,-0.0024,0.2125,-0.0024,-0.0073,-0.0073,-0.0073,-0.0073,-0.4444,-1.7573,-0.0205,2.2979,0.0024,-0.0708,-0.0073,1,1,1,1,1,1,1
7.4649,sweep,2,+up,0.08488,1.22892,0.03567,1.57034,0.02651,-0.05589,-0.00362,-0.0073,0.1783,0.0024,-0.0073,-0.0073,-0.0073,-0.0073,-0.4581,-1.7709,-0.0068,2.3175,0.0024,-0.0659,-0.0122,1,1,1,1,1,1,1
7.5051,sweep,2,+up,0.08488,1.22892,0.03567,1.57034,0.02651,-0.05589,-0.00362,-0.0073,0.1783,0.0024,-0.0073,-0.0073,-0.0073,-0.0073,-0.4581,-1.7709,-0.0068,2.3175,0.0024,-0.0659,-0.0122,1,1,1,1,1,1,1
7.5453,sweep,2,+up,0.08488,1.24495,0.03567,1.56996,0.02651,-0.05589,-0.00324,-0.0024,0.2271,-0.0024,-0.0366,-0.0220,-0.0073,-0.0073,-0.4444,-2.0444,-0.0068,2.3175,0.0024,-0.0659,-0.0073,1,1,1,1,1,1,1
7.5851,sweep,2,+up,0.08488,1.24495,0.03567,1.56996,0.02651,-0.05589,-0.00324,-0.0024,0.2271,-0.0024,-0.0366,-0.0220,-0.0073,-0.0073,-0.4444,-2.0444,-0.0068,2.3175,0.0024,-0.0659,-0.0073,1,1,1,1,1,1,1
7.6250,sweep,2,+up,0.08488,1.24495,0.03567,1.56996,0.02651,-0.05589,-0.00324,-0.0024,0.2271,-0.0024,-0.0366,-0.0220,-0.0073,-0.0073,-0.4444,-2.0444,-0.0068,2.3175,0.0024,-0.0659,-0.0073,1,1,1,1,1,1,1
7.6650,sweep,2,+up,0.08488,1.26898,0.03567,1.56996,0.02689,-0.05589,-0.00324,-0.0024,0.1832,-0.0024,-0.0220,-0.0073,0.0220,0.0073,-0.4444,-1.8393,0.0068,2.3370,0.0073,-0.0659,-0.0073,1,1,1,1,1,1,1
7.7051,sweep,2,+up,0.08488,1.26898,0.03567,1.56996,0.02689,-0.05589,-0.00324,-0.0024,0.1832,-0.0024,-0.0220,-0.0073,0.0220,0.0073,-0.4444,-1.8393,0.0068,2.3370,0.0073,-0.0659,-0.0073,1,1,1,1,1,1,1
7.7451,sweep,2,+up,0.08488,1.28538,0.03567,1.57034,0.02651,-0.05589,-0.00324,-0.0024,0.2173,-0.0024,-0.0073,-0.0073,0.0220,-0.0073,-0.4444,-2.2632,0.0479,2.3419,0.0073,-0.0708,-0.0073,1,1,1,1,1,1,1
7.7854,sweep,2,+up,0.08488,1.28538,0.03567,1.57034,0.02651,-0.05589,-0.00324,-0.0024,0.2173,-0.0024,-0.0073,-0.0073,0.0220,-0.0073,-0.4444,-2.2632,0.0479,2.3419,0.0073,-0.0708,-0.0073,1,1,1,1,1,1,1
7.8251,sweep,2,+up,0.08488,1.28538,0.03567,1.57034,0.02651,-0.05589,-0.00324,-0.0024,0.2173,-0.0024,-0.0073,-0.0073,0.0220,-0.0073,-0.4444,-2.2632,0.0479,2.3419,0.0073,-0.0708,-0.0073,1,1,1,1,1,1,1
7.8655,sweep,2,+up,0.08488,1.30903,0.03567,1.57034,0.02651,-0.05589,-0.00324,0.0024,0.2027,-0.0073,0.0073,0.0073,-0.0220,-0.0073,-0.4308,-2.2632,0.0479,2.3614,0.0122,-0.0611,-0.0024,1,1,1,1,1,1,1
7.9054,sweep,2,+up,0.08488,1.30903,0.03567,1.57034,0.02651,-0.05589,-0.00324,0.0024,0.2027,-0.0073,0.0073,0.0073,-0.0220,-0.0073,-0.4308,-2.2632,0.0479,2.3614,0.0122,-0.0611,-0.0024,1,1,1,1,1,1,1
7.9455,sweep,2,+up,0.08488,1.32544,0.03567,1.57034,0.02651,-0.05589,-0.00324,-0.0024,0.1929,0.0024,-0.0073,-0.0073,-0.0073,-0.0073,-0.4308,-2.3727,0.0615,2.3761,0.0122,-0.0611,-0.0024,1,1,1,1,1,1,1
7.9852,sweep,2,+up,0.08488,1.32544,0.03567,1.57034,0.02651,-0.05589,-0.00324,-0.0024,0.1929,0.0024,-0.0073,-0.0073,-0.0073,-0.0073,-0.4308,-2.3727,0.0615,2.3761,0.0122,-0.0611,-0.0024,1,1,1,1,1,1,1
8.0250,sweep,2,+up,0.08488,1.32544,0.03567,1.57034,0.02651,-0.05589,-0.00324,-0.0024,0.1929,0.0024,-0.0073,-0.0073,-0.0073,-0.0073,-0.4308,-2.3727,0.0615,2.3761,0.0122,-0.0611,-0.0024,1,1,1,1,1,1,1
8.0650,sweep,2,+up,0.08488,1.34947,0.03567,1.57034,0.02651,-0.05589,-0.00324,-0.0073,0.2027,-0.0073,-0.0073,-0.0073,-0.0220,-0.0073,-0.4308,-2.5504,0.0342,2.3907,0.0073,-0.0562,-0.0073,1,1,1,1,1,1,1
8.1050,sweep,2,+up,0.08488,1.34947,0.03567,1.57034,0.02651,-0.05589,-0.00324,-0.0073,0.2027,-0.0073,-0.0073,-0.0073,-0.0220,-0.0073,-0.4308,-2.5504,0.0342,2.3907,0.0073,-0.0562,-0.0073,1,1,1,1,1,1,1
8.1450,sweep,2,+up,0.08488,1.36549,0.03567,1.57034,0.02651,-0.05589,-0.00324,-0.0024,0.1783,-0.0073,-0.0220,0.0073,-0.0073,-0.0073,-0.4308,-2.4957,0.0479,2.3907,0.0073,-0.0562,-0.0073,1,1,1,1,1,1,1
8.1855,sweep,2,+up,0.08488,1.36549,0.03567,1.57034,0.02651,-0.05589,-0.00324,-0.0024,0.1783,-0.0073,-0.0220,0.0073,-0.0073,-0.0073,-0.4308,-2.4957,0.0479,2.3907,0.0073,-0.0562,-0.0073,1,1,1,1,1,1,1
8.2250,sweep,2,+up,0.08488,1.36549,0.03567,1.57034,0.02651,-0.05589,-0.00324,-0.0024,0.1783,-0.0073,-0.0220,0.0073,-0.0073,-0.0073,-0.4308,-2.4957,0.0479,2.3907,0.0073,-0.0562,-0.0073,1,1,1,1,1,1,1
8.2649,sweep,2,+up,0.08488,1.38952,0.03567,1.57034,0.02651,-0.05589,-0.00324,-0.0024,0.2271,-0.0024,-0.0073,-0.0073,-0.0073,-0.0073,-0.4444,-2.8376,0.0615,2.4103,0.0122,-0.0611,-0.0073,1,1,1,1,1,1,1
8.3053,sweep,2,+up,0.08488,1.38952,0.03567,1.57034,0.02651,-0.05589,-0.00324,-0.0024,0.2271,-0.0024,-0.0073,-0.0073,-0.0073,-0.0073,-0.4444,-2.8376,0.0615,2.4103,0.0122,-0.0611,-0.0073,1,1,1,1,1,1,1
8.3449,sweep,2,+up,0.08488,1.40555,0.03567,1.57034,0.02651,-0.05589,-0.00324,-0.0024,0.1929,-0.0024,0.0073,-0.0073,-0.0073,0.0073,-0.4308,-2.5504,0.0615,2.4200,0.0171,-0.0611,-0.0073,1,1,1,1,1,1,1
8.3850,sweep,2,+up,0.08488,1.40555,0.03567,1.57034,0.02651,-0.05589,-0.00324,-0.0024,0.1929,-0.0024,0.0073,-0.0073,-0.0073,0.0073,-0.4308,-2.5504,0.0615,2.4200,0.0171,-0.0611,-0.0073,1,1,1,1,1,1,1
8.4249,sweep,2,+up,0.08488,1.40555,0.03567,1.57034,0.02651,-0.05589,-0.00324,-0.0024,0.1929,-0.0024,0.0073,-0.0073,-0.0073,0.0073,-0.4308,-2.5504,0.0615,2.4200,0.0171,-0.0611,-0.0073,1,1,1,1,1,1,1
8.4650,sweep,2,+up,0.08488,1.42958,0.03567,1.57034,0.02651,-0.05589,-0.00324,0.0024,0.1929,-0.0024,0.0073,-0.0073,-0.0073,-0.0073,-0.4308,-3.0291,0.0342,2.4103,0.0171,-0.0659,-0.0122,1,1,1,1,1,1,1
8.5050,sweep,2,+up,0.08488,1.42958,0.03567,1.57034,0.02651,-0.05589,-0.00324,0.0024,0.1929,-0.0024,0.0073,-0.0073,-0.0073,-0.0073,-0.4308,-3.0291,0.0342,2.4103,0.0171,-0.0659,-0.0122,1,1,1,1,1,1,1
8.5449,sweep,2,+up,0.08488,1.44560,0.03567,1.57034,0.02651,-0.05589,-0.00324,-0.0073,0.1832,-0.0024,-0.0073,-0.0073,-0.0220,-0.0073,-0.4308,-2.7556,0.0068,2.4151,0.0220,-0.0611,-0.0073,1,1,1,1,1,1,1
8.5849,sweep,2,+up,0.08488,1.44560,0.03567,1.57034,0.02651,-0.05589,-0.00324,-0.0073,0.1832,-0.0024,-0.0073,-0.0073,-0.0220,-0.0073,-0.4308,-2.7556,0.0068,2.4151,0.0220,-0.0611,-0.0073,1,1,1,1,1,1,1
8.6252,sweep,2,+up,0.08488,1.44560,0.03567,1.57034,0.02651,-0.05589,-0.00324,-0.0073,0.1832,-0.0024,-0.0073,-0.0073,-0.0220,-0.0073,-0.4308,-2.7556,0.0068,2.4151,0.0220,-0.0611,-0.0073,1,1,1,1,1,1,1
8.6652,sweep,2,+up,0.08488,1.46964,0.03567,1.57034,0.02651,-0.05589,-0.00324,-0.0024,0.1880,-0.0024,-0.0073,-0.0073,0.0073,0.0073,-0.4308,-3.0154,0.0479,2.4103,0.0220,-0.0562,-0.0073,1,1,1,1,1,1,1
8.7052,sweep,2,+up,0.08488,1.46964,0.03567,1.57034,0.02651,-0.05589,-0.00324,-0.0024,0.1880,-0.0024,-0.0073,-0.0073,0.0073,0.0073,-0.4308,-3.0154,0.0479,2.4103,0.0220,-0.0562,-0.0073,1,1,1,1,1,1,1
8.7451,sweep,2,+up,0.08488,1.48566,0.03567,1.57034,0.02651,-0.05550,-0.00324,-0.0073,0.1978,0.0024,-0.0073,-0.0073,-0.0073,0.0073,-0.4444,-3.0291,0.0479,2.4151,0.0171,-0.0562,-0.0073,1,1,1,1,1,1,1
8.7854,sweep,2,+up,0.08488,1.48566,0.03567,1.57034,0.02651,-0.05550,-0.00324,-0.0073,0.1978,0.0024,-0.0073,-0.0073,-0.0073,0.0073,-0.4444,-3.0291,0.0479,2.4151,0.0171,-0.0562,-0.0073,1,1,1,1,1,1,1
8.8250,sweep,2,+up,0.08488,1.48566,0.03567,1.57034,0.02651,-0.05550,-0.00324,-0.0073,0.1978,0.0024,-0.0073,-0.0073,-0.0073,0.0073,-0.4444,-3.0291,0.0479,2.4151,0.0171,-0.0562,-0.0073,1,1,1,1,1,1,1
8.8652,sweep,2,+up,0.08488,1.50969,0.03567,1.57034,0.02651,-0.05589,-0.00362,0.0024,0.1783,-0.0024,-0.0073,-0.0220,-0.0073,-0.0073,-0.4444,-3.0701,0.0752,2.4249,0.0220,-0.0513,-0.0122,1,1,1,1,1,1,1
8.9050,sweep,2,+up,0.08488,1.50969,0.03567,1.57034,0.02651,-0.05589,-0.00362,0.0024,0.1783,-0.0024,-0.0073,-0.0220,-0.0073,-0.0073,-0.4444,-3.0701,0.0752,2.4249,0.0220,-0.0513,-0.0122,1,1,1,1,1,1,1
8.9451,sweep,2,+up,0.08488,1.52609,0.03567,1.57034,0.02651,-0.05589,-0.00362,-0.0073,0.2076,-0.0024,-0.0073,-0.0073,-0.0073,-0.0220,-0.4444,-3.2752,0.0889,2.4298,0.0220,-0.0513,-0.0122,1,1,1,1,1,1,1
8.9853,sweep,2,+up,0.08488,1.52609,0.03567,1.57034,0.02651,-0.05589,-0.00362,-0.0073,0.2076,-0.0024,-0.0073,-0.0073,-0.0073,-0.0220,-0.4444,-3.2752,0.0889,2.4298,0.0220,-0.0513,-0.0122,1,1,1,1,1,1,1
9.0250,sweep,2,+up,0.08488,1.52609,0.03567,1.57034,0.02651,-0.05589,-0.00362,-0.0073,0.2076,-0.0024,-0.0073,-0.0073,-0.0073,-0.0220,-0.4444,-3.2752,0.0889,2.4298,0.0220,-0.0513,-0.0122,1,1,1,1,1,1,1
9.0651,sweep,2,+up,0.08488,1.54974,0.03567,1.57034,0.02651,-0.05589,-0.00324,-0.0024,0.1929,-0.0024,-0.0073,-0.0073,-0.0073,-0.0073,-0.4308,-3.1658,0.1026,2.4396,0.0220,-0.0513,-0.0122,1,1,1,1,1,1,1
9.1050,sweep,2,+up,0.08488,1.54974,0.03567,1.57034,0.02651,-0.05589,-0.00324,-0.0024,0.1929,-0.0024,-0.0073,-0.0073,-0.0073,-0.0073,-0.4308,-3.1658,0.1026,2.4396,0.0220,-0.0513,-0.0122,1,1,1,1,1,1,1
9.1449,sweep,2,+up,0.08488,1.56615,0.03567,1.57034,0.02651,-0.05589,-0.00362,0.0024,0.2222,-0.0024,-0.0073,-0.0073,-0.0073,-0.0220,-0.4308,-3.7128,0.0889,2.4347,0.0220,-0.0513,-0.0122,1,1,1,1,1,1,1
9.1851,sweep,2,+up,0.08488,1.56615,0.03567,1.57034,0.02651,-0.05589,-0.00362,0.0024,0.2222,-0.0024,-0.0073,-0.0073,-0.0073,-0.0220,-0.4308,-3.7128,0.0889,2.4347,0.0220,-0.0513,-0.0122,1,1,1,1,1,1,1
9.2250,sweep,2,+up,0.08488,1.56615,0.03567,1.57034,0.02651,-0.05589,-0.00362,0.0024,0.2222,-0.0024,-0.0073,-0.0073,-0.0073,-0.0220,-0.4308,-3.7128,0.0889,2.4347,0.0220,-0.0513,-0.0122,1,1,1,1,1,1,1
9.2650,sweep,2,+up,0.08488,1.58980,0.03567,1.57034,0.02651,-0.05589,-0.00324,-0.0024,0.1832,-0.0073,-0.0073,0.0073,0.0073,-0.0073,-0.4308,-3.2615,0.1026,2.4249,0.0220,-0.0464,-0.0073,1,1,1,1,1,1,1
9.3050,sweep,2,+up,0.08488,1.58980,0.03567,1.57034,0.02651,-0.05589,-0.00324,-0.0024,0.1832,-0.0073,-0.0073,0.0073,0.0073,-0.0073,-0.4308,-3.2615,0.1026,2.4249,0.0220,-0.0464,-0.0073,1,1,1,1,1,1,1
9.3452,sweep,2,+up,0.08488,1.60620,0.03567,1.57073,0.02651,-0.05589,-0.00362,-0.0073,0.1929,-0.0024,-0.0073,-0.0220,-0.0073,-0.0073,-0.4308,-3.7812,0.1026,2.4200,0.0220,-0.0464,-0.0122,1,1,1,1,1,1,1
9.3852,sweep,2,+up,0.08488,1.60620,0.03567,1.57073,0.02651,-0.05589,-0.00362,-0.0073,0.1929,-0.0024,-0.0073,-0.0220,-0.0073,-0.0073,-0.4308,-3.7812,0.1026,2.4200,0.0220,-0.0464,-0.0122,1,1,1,1,1,1,1
9.4250,sweep,2,+up,0.08488,1.60620,0.03567,1.57073,0.02651,-0.05589,-0.00362,-0.0073,0.1929,-0.0024,-0.0073,-0.0220,-0.0073,-0.0073,-0.4308,-3.7812,0.1026,2.4200,0.0220,-0.0464,-0.0122,1,1,1,1,1,1,1
9.4650,sweep,2,+up,0.08488,1.63024,0.03567,1.57034,0.02651,-0.05589,-0.00324,-0.0024,0.2222,-0.0073,-0.0073,-0.0073,-0.0073,-0.0073,-0.4034,-3.4940,0.0752,2.4298,0.0220,-0.0415,-0.0122,1,1,1,1,1,1,1
9.5053,sweep,2,+up,0.08488,1.63024,0.03567,1.57034,0.02651,-0.05589,-0.00324,-0.0024,0.2222,-0.0073,-0.0073,-0.0073,-0.0073,-0.0073,-0.4034,-3.4940,0.0752,2.4298,0.0220,-0.0415,-0.0122,1,1,1,1,1,1,1
9.5451,sweep,2,+up,0.08488,1.64626,0.03567,1.57073,0.02651,-0.05589,-0.00324,0.0024,0.1880,-0.0024,-0.0220,-0.0073,-0.0220,-0.0220,-0.4171,-3.8085,0.0889,2.4054,0.0269,-0.0464,-0.0073,1,1,1,1,1,1,1
9.5850,sweep,2,+up,0.08488,1.64626,0.03567,1.57073,0.02651,-0.05589,-0.00324,0.0024,0.1880,-0.0024,-0.0220,-0.0073,-0.0220,-0.0220,-0.4171,-3.8085,0.0889,2.4054,0.0269,-0.0464,-0.0073,1,1,1,1,1,1,1
9.6250,sweep,2,+up,0.08488,1.64626,0.03567,1.57073,0.02651,-0.05589,-0.00324,0.0024,0.1880,-0.0024,-0.0220,-0.0073,-0.0220,-0.0220,-0.4171,-3.8085,0.0889,2.4054,0.0269,-0.0464,-0.0073,1,1,1,1,1,1,1
9.6650,sweep,2,+up,0.08488,1.67029,0.03567,1.57073,0.02651,-0.05589,-0.00324,-0.0024,0.2125,0.0024,-0.0073,-0.0220,-0.0073,-0.0073,-0.4171,-3.8906,0.1026,2.3858,0.0269,-0.0464,-0.0073,1,1,1,1,1,1,1
9.7050,sweep,2,+up,0.08488,1.67029,0.03567,1.57073,0.02651,-0.05589,-0.00324,-0.0024,0.2125,0.0024,-0.0073,-0.0220,-0.0073,-0.0073,-0.4171,-3.8906,0.1026,2.3858,0.0269,-0.0464,-0.0073,1,1,1,1,1,1,1
9.7451,sweep,2,+up,0.08488,1.68631,0.03567,1.57073,0.02651,-0.05589,-0.00362,0.0024,0.1978,-0.0024,-0.0073,-0.0073,0.0073,-0.0073,-0.4034,-3.9590,0.1162,2.3810,0.0269,-0.0464,-0.0024,1,1,1,1,1,1,1
9.7853,sweep,2,+up,0.08488,1.68631,0.03567,1.57073,0.02651,-0.05589,-0.00362,0.0024,0.1978,-0.0024,-0.0073,-0.0073,0.0073,-0.0073,-0.4034,-3.9590,0.1162,2.3810,0.0269,-0.0464,-0.0024,1,1,1,1,1,1,1
9.8252,sweep,2,+up,0.08488,1.68631,0.03567,1.57073,0.02651,-0.05589,-0.00362,0.0024,0.1978,-0.0024,-0.0073,-0.0073,0.0073,-0.0073,-0.4034,-3.9590,0.1162,2.3810,0.0269,-0.0464,-0.0024,1,1,1,1,1,1,1
9.8652,sweep,2,+up,0.08488,1.71073,0.03567,1.57073,0.02651,-0.05589,-0.00362,-0.0024,0.2222,-0.0024,-0.0073,0.0073,-0.0073,-0.0073,-0.3761,-4.1094,0.1162,2.3712,0.0269,-0.0464,-0.0122,1,1,1,1,1,1,1
9.9052,sweep,2,+up,0.08488,1.71073,0.03567,1.57073,0.02651,-0.05589,-0.00362,-0.0024,0.2222,-0.0024,-0.0073,0.0073,-0.0073,-0.0073,-0.3761,-4.1094,0.1162,2.3712,0.0269,-0.0464,-0.0122,1,1,1,1,1,1,1
9.9454,sweep,2,+up,0.08488,1.72637,0.03567,1.57073,0.02651,-0.05589,-0.00362,-0.0024,0.1880,-0.0024,-0.0073,-0.0073,-0.0366,-0.0073,-0.3897,-3.7949,0.1299,2.3761,0.0269,-0.0464,-0.0122,1,1,1,1,1,1,1
9.9852,sweep,2,+up,0.08488,1.72637,0.03567,1.57073,0.02651,-0.05589,-0.00362,-0.0024,0.1880,-0.0024,-0.0073,-0.0073,-0.0366,-0.0073,-0.3897,-3.7949,0.1299,2.3761,0.0269,-0.0464,-0.0122,1,1,1,1,1,1,1
10.0256,sweep,2,+up,0.08488,1.72637,0.03567,1.57073,0.02651,-0.05589,-0.00362,-0.0024,0.1880,-0.0024,-0.0073,-0.0073,-0.0366,-0.0073,-0.3897,-3.7949,0.1299,2.3761,0.0269,-0.0464,-0.0122,1,1,1,1,1,1,1
10.0653,sweep,2,+up,0.08488,1.75078,0.03567,1.57073,0.02651,-0.05589,-0.00324,-0.0024,0.1832,-0.0024,0.0073,-0.0073,-0.0073,-0.0073,-0.3897,-4.1778,0.1436,2.3565,0.0317,-0.0464,-0.0073,1,1,1,1,1,1,1
10.1049,sweep,2,+up,0.08488,1.75078,0.03567,1.57073,0.02651,-0.05589,-0.00324,-0.0024,0.1832,-0.0024,0.0073,-0.0073,-0.0073,-0.0073,-0.3897,-4.1778,0.1436,2.3565,0.0317,-0.0464,-0.0073,1,1,1,1,1,1,1
10.1451,sweep,2,+up,0.08488,1.76642,0.03567,1.57073,0.02651,-0.05589,-0.00324,-0.0024,0.1880,-0.0024,-0.0073,-0.0073,-0.0073,0.0073,-0.4034,-4.0821,0.1436,2.3565,0.0269,-0.0464,-0.0073,1,1,1,1,1,1,1
10.1850,sweep,2,+up,0.08488,1.76642,0.03567,1.57073,0.02651,-0.05589,-0.00324,-0.0024,0.1880,-0.0024,-0.0073,-0.0073,-0.0073,0.0073,-0.4034,-4.0821,0.1436,2.3565,0.0269,-0.0464,-0.0073,1,1,1,1,1,1,1
10.2250,sweep,2,+up,0.08488,1.76642,0.03567,1.57073,0.02651,-0.05589,-0.00324,-0.0024,0.1880,-0.0024,-0.0073,-0.0073,-0.0073,0.0073,-0.4034,-4.0821,0.1436,2.3565,0.0269,-0.0464,-0.0073,1,1,1,1,1,1,1
10.2650,sweep,2,+up,0.08488,1.79046,0.03567,1.57073,0.02651,-0.05589,-0.00324,-0.0024,0.1832,-0.0024,-0.0073,-0.0220,-0.0073,-0.0073,-0.4034,-4.2325,0.1573,2.3370,0.0317,-0.0464,-0.0073,1,1,1,1,1,1,1
10.3051,sweep,2,+up,0.08488,1.79046,0.03567,1.57073,0.02651,-0.05589,-0.00324,-0.0024,0.1832,-0.0024,-0.0073,-0.0220,-0.0073,-0.0073,-0.4034,-4.2325,0.1573,2.3370,0.0317,-0.0464,-0.0073,1,1,1,1,1,1,1
10.3449,sweep,2,+up,0.08488,1.80648,0.03567,1.57073,0.02689,-0.05589,-0.00362,-0.0024,0.1929,-0.0024,0.0073,0.0073,-0.0220,-0.0073,-0.4034,-4.0137,0.1573,2.3419,0.0317,-0.0464,-0.0024,1,1,1,1,1,1,1
10.3851,sweep,2,+up,0.08488,1.80648,0.03567,1.57073,0.02689,-0.05589,-0.00362,-0.0024,0.1929,-0.0024,0.0073,0.0073,-0.0220,-0.0073,-0.4034,-4.0137,0.1573,2.3419,0.0317,-0.0464,-0.0024,1,1,1,1,1,1,1
10.4250,sweep,2,+up,0.08488,1.80648,0.03567,1.57073,0.02689,-0.05589,-0.00362,-0.0024,0.1929,-0.0024,0.0073,0.0073,-0.0220,-0.0073,-0.4034,-4.0137,0.1573,2.3419,0.0317,-0.0464,-0.0024,1,1,1,1,1,1,1
10.4651,sweep,2,+up,0.08488,1.83051,0.03567,1.57073,0.02651,-0.05589,-0.00324,0.0024,0.1832,-0.0073,-0.0220,-0.0073,-0.0073,-0.0073,-0.4034,-4.1915,0.1846,2.3272,0.0317,-0.0464,-0.0073,1,1,1,1,1,1,1
10.5050,sweep,2,+up,0.08488,1.83051,0.03567,1.57073,0.02651,-0.05589,-0.00324,0.0024,0.1832,-0.0073,-0.0220,-0.0073,-0.0073,-0.0073,-0.4034,-4.1915,0.1846,2.3272,0.0317,-0.0464,-0.0073,1,1,1,1,1,1,1
10.5451,sweep,2,+up,0.08488,1.84653,0.03567,1.57073,0.02651,-0.05589,-0.00362,-0.0024,0.1978,0.0024,0.0073,-0.0220,0.0073,-0.0073,-0.4034,-4.1915,0.1983,2.3223,0.0317,-0.0464,-0.0122,1,1,1,1,1,1,1
10.5850,sweep,2,+up,0.08488,1.84653,0.03567,1.57073,0.02651,-0.05589,-0.00362,-0.0024,0.1978,0.0024,0.0073,-0.0220,0.0073,-0.0073,-0.4034,-4.1915,0.1983,2.3223,0.0317,-0.0464,-0.0122,1,1,1,1,1,1,1
10.6250,sweep,2,+up,0.08488,1.84653,0.03567,1.57073,0.02651,-0.05589,-0.00362,-0.0024,0.1978,0.0024,0.0073,-0.0220,0.0073,-0.0073,-0.4034,-4.1915,0.1983,2.3223,0.0317,-0.0464,-0.0122,1,1,1,1,1,1,1
10.6650,sweep,2,+up,0.08488,1.86980,0.03567,1.57073,0.02651,-0.05589,-0.00324,-0.0024,0.1587,-0.0024,-0.0220,-0.0073,-0.0073,0.0073,-0.3897,-4.4923,0.2256,2.2930,0.0317,-0.0415,-0.0073,1,1,1,1,1,1,1
10.7050,sweep,2,+up,0.08488,1.86980,0.03567,1.57073,0.02651,-0.05589,-0.00324,-0.0024,0.1587,-0.0024,-0.0220,-0.0073,-0.0073,0.0073,-0.3897,-4.4923,0.2256,2.2930,0.0317,-0.0415,-0.0073,1,1,1,1,1,1,1
10.7451,sweep,2,+up,0.08488,1.88315,0.03567,1.57263,0.02651,-0.05550,-0.00324,-0.0024,0.1490,0.0024,0.1685,0.0073,0.0073,-0.0073,-0.3761,-4.4376,0.2120,2.1319,0.0317,-0.0464,-0.0024,1,1,1,1,1,1,1
10.7853,sweep,2,+up,0.08488,1.88315,0.03567,1.57263,0.02651,-0.05550,-0.00324,-0.0024,0.1490,0.0024,0.1685,0.0073,0.0073,-0.0073,-0.3761,-4.4376,0.2120,2.1319,0.0317,-0.0464,-0.0024,1,1,1,1,1,1,1
10.8250,sweep,2,+up,0.08488,1.88315,0.03567,1.57263,0.02651,-0.05550,-0.00324,-0.0024,0.1490,0.0024,0.1685,0.0073,0.0073,-0.0073,-0.3761,-4.4376,0.2120,2.1319,0.0317,-0.0464,-0.0024,1,1,1,1,1,1,1
10.8650,sweep,2,+up,0.08488,1.88849,0.03567,1.58370,0.02689,-0.05550,-0.00324,-0.0073,0.1148,-0.0024,0.0513,-0.0220,0.0073,-0.0073,-0.3624,-3.6308,0.1846,0.8425,0.0220,-0.0513,-0.0073,1,1,1,1,1,1,1
10.9049,sweep,2,+up,0.08488,1.88849,0.03567,1.58370,0.02689,-0.05550,-0.00324,-0.0073,0.1148,-0.0024,0.0513,-0.0220,0.0073,-0.0073,-0.3624,-3.6308,0.1846,0.8425,0.0220,-0.0513,-0.0073,1,1,1,1,1,1,1
10.9451,sweep,2,+up,0.08488,1.90948,0.03605,1.58598,0.02689,-0.05550,-0.00362,-0.0024,0.1099,-0.0024,-0.0073,-0.0073,-0.0073,-0.0073,-0.3077,-1.9214,0.1709,0.1636,0.0171,-0.0562,-0.0073,1,1,1,1,1,1,1
10.9851,sweep,2,+up,0.08488,1.90948,0.03605,1.58598,0.02689,-0.05550,-0.00362,-0.0024,0.1099,-0.0024,-0.0073,-0.0073,-0.0073,-0.0073,-0.3077,-1.9214,0.1709,0.1636,0.0171,-0.0562,-0.0073,1,1,1,1,1,1,1
11.0248,sweep,2,+up,0.08488,1.90948,0.03605,1.58598,0.02689,-0.05550,-0.00362,-0.0024,0.1099,-0.0024,-0.0073,-0.0073,-0.0073,-0.0073,-0.3077,-1.9214,0.1709,0.1636,0.0171,-0.0562,-0.0073,1,1,1,1,1,1,1
11.0650,sweep,2,+up,0.08488,1.92283,0.03605,1.58331,0.02728,-0.05550,-0.00362,-0.0024,0.0855,-0.0024,-0.0513,-0.0073,-0.0073,-0.0073,-0.2530,-1.7709,0.1573,-0.0855,-0.0073,-0.0659,-0.0122,1,1,1,1,1,1,1
11.1051,sweep,2,+up,0.08488,1.92283,0.03605,1.58331,0.02728,-0.05550,-0.00362,-0.0024,0.0855,-0.0024,-0.0513,-0.0073,-0.0073,-0.0073,-0.2530,-1.7709,0.1573,-0.0855,-0.0073,-0.0659,-0.0122,1,1,1,1,1,1,1
11.1449,sweep,2,+up,0.08488,1.93084,0.03605,1.58026,0.02728,-0.05550,-0.00362,-0.0073,0.1050,0.0024,-0.0366,-0.0073,-0.0073,-0.0073,-0.2530,-2.0718,0.1436,-0.1832,-0.0171,-0.0708,-0.0073,1,1,1,1,1,1,1
11.1849,sweep,2,+up,0.08488,1.93084,0.03605,1.58026,0.02728,-0.05550,-0.00362,-0.0073,0.1050,0.0024,-0.0366,-0.0073,-0.0073,-0.0073,-0.2530,-2.0718,0.1436,-0.1832,-0.0171,-0.0708,-0.0073,1,1,1,1,1,1,1
11.2250,sweep,2,+up,0.08488,1.93084,0.03605,1.58026,0.02728,-0.05550,-0.00362,-0.0073,0.1050,0.0024,-0.0366,-0.0073,-0.0073,-0.0073,-0.2530,-2.0718,0.1436,-0.1832,-0.0171,-0.0708,-0.0073,1,1,1,1,1,1,1
11.2649,sweep,2,+up,0.08488,1.94114,0.03605,1.57797,0.02689,-0.05550,-0.00324,-0.0073,0.0757,-0.0024,-0.0073,-0.0073,0.0073,-0.0073,-0.2530,-1.7983,0.1162,-0.4322,-0.0122,-0.0806,-0.0073,1,1,1,1,1,1,1
11.3050,sweep,2,+up,0.08488,1.94114,0.03605,1.57797,0.02689,-0.05550,-0.00324,-0.0073,0.0757,-0.0024,-0.0073,-0.0073,0.0073,-0.0073,-0.2530,-1.7983,0.1162,-0.4322,-0.0122,-0.0806,-0.0073,1,1,1,1,1,1,1
11.3450,sweep,2,+up,0.08488,1.94686,0.03605,1.57874,0.02728,-0.05550,-0.00324,-0.0024,0.0659,-0.0024,-0.0073,0.0073,-0.0073,0.0073,-0.2393,-1.2376,0.1026,-0.7399,-0.0171,-0.0904,-0.0073,1,1,1,1,1,1,1
11.3850,sweep,2,+up,0.08488,1.94686,0.03605,1.57874,0.02728,-0.05550,-0.00324,-0.0024,0.0659,-0.0024,-0.0073,0.0073,-0.0073,0.0073,-0.2393,-1.2376,0.1026,-0.7399,-0.0171,-0.0904,-0.0073,1,1,1,1,1,1,1
11.4250,sweep,2,+up,0.08488,1.94686,0.03605,1.57874,0.02728,-0.05550,-0.00324,-0.0024,0.0659,-0.0024,-0.0073,0.0073,-0.0073,0.0073,-0.2393,-1.2376,0.1026,-0.7399,-0.0171,-0.0904,-0.0073,1,1,1,1,1,1,1
11.4650,sweep,2,+up,0.08488,1.95411,0.03643,1.57759,0.02689,-0.05512,-0.00324,0.0024,0.0611,-0.0024,-0.0220,-0.0073,-0.0073,0.0073,-0.2256,-0.6085,-0.0342,-1.0525,-0.0171,-0.1099,-0.0073,1,1,1,1,1,1,1
11.5051,sweep,2,+up,0.08488,1.95411,0.03643,1.57759,0.02689,-0.05512,-0.00324,0.0024,0.0611,-0.0024,-0.0220,-0.0073,-0.0073,0.0073,-0.2256,-0.6085,-0.0342,-1.0525,-0.0171,-0.1099,-0.0073,1,1,1,1,1,1,1
11.5450,sweep,2,+up,0.08488,1.95907,0.03643,1.57683,0.02689,-0.05512,-0.00324,-0.0024,0.0366,-0.0024,-0.0073,0.0073,-0.0073,0.0073,-0.1983,-0.6359,-0.0752,-1.2381,-0.0171,-0.1245,-0.0073,1,1,1,1,1,1,1
11.5848,sweep,2,+up,0.08488,1.95907,0.03643,1.57683,0.02689,-0.05512,-0.00324,-0.0024,0.0366,-0.0024,-0.0073,0.0073,-0.0073,0.0073,-0.1983,-0.6359,-0.0752,-1.2381,-0.0171,-0.1245,-0.0073,1,1,1,1,1,1,1
11.6250,sweep,2,+up,0.08488,1.95907,0.03643,1.57683,0.02689,-0.05512,-0.00324,-0.0024,0.0366,-0.0024,-0.0073,0.0073,-0.0073,0.0073,-0.1983,-0.6359,-0.0752,-1.2381,-0.0171,-0.1245,-0.0073,1,1,1,1,1,1,1
11.6650,sweep,2,+up,0.08488,1.96517,0.03643,1.57607,0.02689,-0.05512,-0.00324,0.0024,0.0611,-0.0024,-0.0366,-0.0073,-0.0073,0.0073,-0.1846,-0.7590,-0.1162,-1.4774,-0.0171,-0.1392,-0.0073,1,1,1,1,1,1,1
11.7050,sweep,2,+up,0.08488,1.96517,0.03643,1.57607,0.02689,-0.05512,-0.00324,0.0024,0.0611,-0.0024,-0.0366,-0.0073,-0.0073,0.0073,-0.1846,-0.7590,-0.1162,-1.4774,-0.0171,-0.1392,-0.0073,1,1,1,1,1,1,1
11.7448,sweep,2,+up,0.08488,1.96937,0.03643,1.56844,0.02689,-0.05550,-0.00324,-0.0024,0.0708,0.0024,-0.1831,-0.0073,0.0073,-0.0073,-0.1846,-1.2786,-0.1709,-0.9451,-0.0220,-0.1441,-0.0073,1,1,1,1,1,1,1
11.7849,sweep,2,+up,0.08488,1.96937,0.03643,1.56844,0.02689,-0.05550,-0.00324,-0.0024,0.0708,0.0024,-0.1831,-0.0073,0.0073,-0.0073,-0.1846,-1.2786,-0.1709,-0.9451,-0.0220,-0.1441,-0.0073,1,1,1,1,1,1,1
11.8250,sweep,2,+up,0.08488,1.96937,0.03643,1.56844,0.02689,-0.05550,-0.00324,-0.0024,0.0708,0.0024,-0.1831,-0.0073,0.0073,-0.0073,-0.1846,-1.2786,-0.1709,-0.9451,-0.0220,-0.1441,-0.0073,1,1,1,1,1,1,1
11.8651,sweep,2,+up,0.08488,1.97433,0.03758,1.56043,0.02689,-0.05550,-0.00324,-0.0024,0.0269,-0.0024,0.0073,0.0073,-0.0366,-0.0073,-0.2120,-2.2085,-1.5248,-0.0464,-0.0220,-0.1490,-0.0073,1,1,1,1,1,1,1
11.9052,sweep,2,+up,0.08488,1.97433,0.03758,1.56043,0.02689,-0.05550,-0.00324,-0.0024,0.0269,-0.0024,0.0073,0.0073,-0.0366,-0.0073,-0.2120,-2.2085,-1.5248,-0.0464,-0.0220,-0.1490,-0.0073,1,1,1,1,1,1,1
11.9454,sweep,2,+up,0.08373,1.97738,0.03758,1.56806,0.03147,-0.05550,-0.00362,-0.0024,0.0366,0.0024,0.0806,-0.0952,-0.0806,-0.0220,0.4034,-2.4000,-1.6342,-0.2759,-0.3297,-0.1538,-0.0073,1,1,1,1,1,1,1
11.9851,sweep,2,+up,0.08373,1.97738,0.03758,1.56806,0.03147,-0.05550,-0.00362,-0.0024,0.0366,0.0024,0.0806,-0.0952,-0.0806,-0.0220,0.4034,-2.4000,-1.6342,-0.2759,-0.3297,-0.1538,-0.0073,1,1,1,1,1,1,1
12.0249,sweep,2,+up,0.08373,1.97738,0.03758,1.56806,0.03147,-0.05550,-0.00362,-0.0024,0.0366,0.0024,0.0806,-0.0952,-0.0806,-0.0220,0.4034,-2.4000,-1.6342,-0.2759,-0.3297,-0.1538,-0.0073,1,1,1,1,1,1,1
12.0648,sweep,2,+up,0.08412,1.98043,0.03758,1.56081,0.02460,-0.05589,-0.00324,0.0073,0.0366,-0.0171,-0.1685,-0.1685,-0.0073,-0.0073,0.4581,-2.4137,-2.3043,0.1636,-0.0464,-0.1392,-0.0122,1,1,1,1,1,1,1
12.5674,sweep,2,-down,0.08412,1.98386,0.03643,1.56729,0.02193,-0.05665,-0.00324,0.0024,0.0220,-0.0464,0.5201,-0.0806,-0.0220,-0.0073,0.3214,-5.6684,-0.6085,0.0073,0.0708,-0.0952,-0.0073,1,1,1,1,1,1,1
12.6075,sweep,2,-down,0.08412,1.98386,0.03643,1.56729,0.02193,-0.05665,-0.00324,0.0024,0.0220,-0.0464,0.5201,-0.0806,-0.0220,-0.0073,0.3214,-5.6684,-0.6085,0.0073,0.0708,-0.0952,-0.0073,1,1,1,1,1,1,1
12.6475,sweep,2,-down,0.08526,1.98653,0.03605,1.56920,0.02575,-0.05627,-0.00362,-0.0024,-0.1978,-0.0024,-0.1099,-0.0513,0.0073,-0.0073,0.0205,-6.6393,-0.7179,0.8230,0.1099,-0.0024,0.0024,1,1,1,1,1,1,1
12.6873,sweep,2,-down,0.08526,1.98653,0.03605,1.56920,0.02575,-0.05627,-0.00362,-0.0024,-0.1978,-0.0024,-0.1099,-0.0513,0.0073,-0.0073,0.0205,-6.6393,-0.7179,0.8230,0.1099,-0.0024,0.0024,1,1,1,1,1,1,1
12.7274,sweep,2,-down,0.08526,1.98653,0.03605,1.56920,0.02575,-0.05627,-0.00362,-0.0024,-0.1978,-0.0024,-0.1099,-0.0513,0.0073,-0.0073,0.0205,-6.6393,-0.7179,0.8230,0.1099,-0.0024,0.0024,1,1,1,1,1,1,1
12.7671,sweep,2,-down,0.08526,1.96364,0.03605,1.55966,0.02613,-0.05627,-0.00324,-0.0024,-0.2027,-0.0122,-0.0073,-0.0073,-0.0220,-0.0073,-0.0068,-7.9111,-0.5128,2.0488,0.1099,0.0122,0.0024,1,1,1,1,1,1,1
12.8074,sweep,2,-down,0.08526,1.96364,0.03605,1.55966,0.02613,-0.05627,-0.00324,-0.0024,-0.2027,-0.0122,-0.0073,-0.0073,-0.0220,-0.0073,-0.0068,-7.9111,-0.5128,2.0488,0.1099,0.0122,0.0024,1,1,1,1,1,1,1
12.8474,sweep,2,-down,0.08526,1.94686,0.03414,1.56081,0.02651,-0.05627,-0.00324,-0.0024,-0.2271,-0.0122,0.0073,-0.0073,-0.0073,0.0073,0.0068,-6.7214,0.5675,2.3077,0.1148,0.0122,-0.0024,1,1,1,1,1,1,1
12.8874,sweep,2,-down,0.08526,1.94686,0.03414,1.56081,0.02651,-0.05627,-0.00324,-0.0024,-0.2271,-0.0122,0.0073,-0.0073,-0.0073,0.0073,0.0068,-6.7214,0.5675,2.3077,0.1148,0.0122,-0.0024,1,1,1,1,1,1,1
12.9274,sweep,2,-down,0.08526,1.94686,0.03414,1.56081,0.02651,-0.05627,-0.00324,-0.0024,-0.2271,-0.0122,0.0073,-0.0073,-0.0073,0.0073,0.0068,-6.7214,0.5675,2.3077,0.1148,0.0122,-0.0024,1,1,1,1,1,1,1
12.9674,sweep,2,-down,0.08526,1.92359,0.03376,1.56310,0.02651,-0.05589,-0.00324,0.0024,-0.1880,0.0317,0.1099,0.0073,0.0073,-0.0073,0.0205,-7.6786,1.4427,2.5714,0.1148,0.0171,-0.0024,1,1,1,1,1,1,1
13.0078,sweep,2,-down,0.08526,1.92359,0.03376,1.56310,0.02651,-0.05589,-0.00324,0.0024,-0.1880,0.0317,0.1099,0.0073,0.0073,-0.0073,0.0205,-7.6786,1.4427,2.5714,0.1148,0.0171,-0.0024,1,1,1,1,1,1,1
13.0478,sweep,2,-down,0.08526,1.90642,0.03452,1.56882,0.02651,-0.05589,-0.00324,-0.0024,-0.2173,-0.0024,0.0073,-0.0220,-0.0073,0.0073,-0.0205,-6.5846,0.6222,2.2198,0.1099,0.0171,-0.0024,1,1,1,1,1,1,1
13.0878,sweep,2,-down,0.08526,1.90642,0.03452,1.56882,0.02651,-0.05589,-0.00324,-0.0024,-0.2173,-0.0024,0.0073,-0.0220,-0.0073,0.0073,-0.0205,-6.5846,0.6222,2.2198,0.1099,0.0171,-0.0024,1,1,1,1,1,1,1
13.1276,sweep,2,-down,0.08526,1.90642,0.03452,1.56882,0.02651,-0.05589,-0.00324,-0.0024,-0.2173,-0.0024,0.0073,-0.0220,-0.0073,0.0073,-0.0205,-6.5846,0.6222,2.2198,0.1099,0.0171,-0.0024,1,1,1,1,1,1,1
13.1674,sweep,2,-down,0.08526,1.88277,0.03452,1.56882,0.02689,-0.05589,-0.00362,-0.0024,-0.2369,-0.0024,-0.0073,-0.0220,0.0073,-0.0220,-0.0068,-6.8308,1.1282,2.3419,0.1001,0.0122,-0.0073,1,1,1,1,1,1,1
13.2072,sweep,2,-down,0.08526,1.88277,0.03452,1.56882,0.02689,-0.05589,-0.00362,-0.0024,-0.2369,-0.0024,-0.0073,-0.0220,0.0073,-0.0220,-0.0068,-6.8308,1.1282,2.3419,0.1001,0.0122,-0.0073,1,1,1,1,1,1,1
13.2474,sweep,2,-down,0.08526,1.86675,0.03452,1.56882,0.02689,-0.05589,-0.00324,-0.0024,-0.2125,0.0024,-0.0220,0.0073,0.0073,-0.0073,-0.0205,-6.9812,1.3060,2.3858,0.0952,0.0171,-0.0024,1,1,1,1,1,1,1
13.2876,sweep,2,-down,0.08526,1.86675,0.03452,1.56882,0.02689,-0.05589,-0.00324,-0.0024,-0.2125,0.0024,-0.0220,0.0073,0.0073,-0.0073,-0.0205,-6.9812,1.3060,2.3858,0.0952,0.0171,-0.0024,1,1,1,1,1,1,1
13.3274,sweep,2,-down,0.08526,1.86675,0.03452,1.56882,0.02689,-0.05589,-0.00324,-0.0024,-0.2125,0.0024,-0.0220,0.0073,0.0073,-0.0073,-0.0205,-6.9812,1.3060,2.3858,0.0952,0.0171,-0.0024,1,1,1,1,1,1,1
13.3675,sweep,2,-down,0.08526,1.84310,0.03452,1.56920,0.02689,-0.05550,-0.00324,0.0024,-0.2076,-0.0024,-0.0073,-0.0073,0.0073,-0.0073,-0.0068,-7.1726,1.5932,2.4249,0.0904,0.0122,-0.0024,1,1,1,1,1,1,1
13.4074,sweep,2,-down,0.08526,1.84310,0.03452,1.56920,0.02689,-0.05550,-0.00324,0.0024,-0.2076,-0.0024,-0.0073,-0.0073,0.0073,-0.0073,-0.0068,-7.1726,1.5932,2.4249,0.0904,0.0122,-0.0024,1,1,1,1,1,1,1
13.4473,sweep,2,-down,0.08526,1.82670,0.03452,1.56920,0.02689,-0.05550,-0.00362,-0.0024,-0.1978,-0.0024,-0.0073,0.0073,0.0073,-0.0073,-0.0205,-6.7624,1.7573,2.4542,0.0904,0.0171,-0.0024,1,1,1,1,1,1,1
13.4874,sweep,2,-down,0.08526,1.82670,0.03452,1.56920,0.02689,-0.05550,-0.00362,-0.0024,-0.1978,-0.0024,-0.0073,0.0073,0.0073,-0.0073,-0.0205,-6.7624,1.7573,2.4542,0.0904,0.0171,-0.0024,1,1,1,1,1,1,1
13.5274,sweep,2,-down,0.08526,1.82670,0.03452,1.56920,0.02689,-0.05550,-0.00362,-0.0024,-0.1978,-0.0024,-0.0073,0.0073,0.0073,-0.0073,-0.0205,-6.7624,1.7573,2.4542,0.0904,0.0171,-0.0024,1,1,1,1,1,1,1
13.5674,sweep,2,-down,0.08526,1.80266,0.03452,1.56958,0.02689,-0.05550,-0.00324,-0.0024,-0.2222,-0.0024,0.0073,-0.0220,-0.0073,-0.0073,-0.0068,-6.6667,2.0034,2.4982,0.0904,0.0122,-0.0024,1,1,1,1,1,1,1
13.6073,sweep,2,-down,0.08526,1.80266,0.03452,1.56958,0.02689,-0.05550,-0.00324,-0.0024,-0.2222,-0.0024,0.0073,-0.0220,-0.0073,-0.0073,-0.0068,-6.6667,2.0034,2.4982,0.0904,0.0122,-0.0024,1,1,1,1,1,1,1
13.6472,sweep,2,-down,0.08526,1.78702,0.03452,1.56996,0.02689,-0.05550,-0.00324,-0.0024,-0.1685,-0.0073,-0.0073,-0.0073,-0.0073,-0.0073,0.0068,-6.8444,2.1949,2.5177,0.0904,0.0122,-0.0024,1,1,1,1,1,1,1
13.6874,sweep,2,-down,0.08526,1.78702,0.03452,1.56996,0.02689,-0.05550,-0.00324,-0.0024,-0.1685,-0.0073,-0.0073,-0.0073,-0.0073,-0.0073,0.0068,-6.8444,2.1949,2.5177,0.0904,0.0122,-0.0024,1,1,1,1,1,1,1
13.7275,sweep,2,-down,0.08526,1.78702,0.03452,1.56996,0.02689,-0.05550,-0.00324,-0.0024,-0.1685,-0.0073,-0.0073,-0.0073,-0.0073,-0.0073,0.0068,-6.8444,2.1949,2.5177,0.0904,0.0122,-0.0024,1,1,1,1,1,1,1
13.7673,sweep,2,-down,0.08526,1.76261,0.03452,1.56996,0.02689,-0.05589,-0.00324,-0.0073,-0.2076,-0.0024,-0.0220,-0.0073,-0.0220,-0.0073,-0.0205,-6.6120,2.4684,2.5324,0.0855,0.0122,-0.0024,1,1,1,1,1,1,1
13.8073,sweep,2,-down,0.08526,1.76261,0.03452,1.56996,0.02689,-0.05589,-0.00324,-0.0073,-0.2076,-0.0024,-0.0220,-0.0073,-0.0220,-0.0073,-0.0205,-6.6120,2.4684,2.5324,0.0855,0.0122,-0.0024,1,1,1,1,1,1,1
13.8474,sweep,2,-down,0.08526,1.74659,0.03452,1.57073,0.02689,-0.05550,-0.00324,-0.0024,-0.2076,0.0024,-0.0073,-0.0220,0.0073,-0.0073,-0.0342,-6.4068,2.6188,2.5031,0.0855,0.0073,-0.0024,1,1,1,1,1,1,1
13.8875,sweep,2,-down,0.08526,1.74659,0.03452,1.57073,0.02689,-0.05550,-0.00324,-0.0024,-0.2076,0.0024,-0.0073,-0.0220,0.0073,-0.0073,-0.0342,-6.4068,2.6188,2.5031,0.0855,0.0073,-0.0024,1,1,1,1,1,1,1
13.9274,sweep,2,-down,0.08526,1.74659,0.03452,1.57073,0.02689,-0.05550,-0.00324,-0.0024,-0.2076,0.0024,-0.0073,-0.0220,0.0073,-0.0073,-0.0342,-6.4068,2.6188,2.5031,0.0855,0.0073,-0.0024,1,1,1,1,1,1,1
13.9673,sweep,2,-down,0.08526,1.72255,0.03452,1.57111,0.02689,-0.05550,-0.00324,-0.0024,-0.2076,-0.0024,0.0073,-0.0073,-0.0073,0.0073,0.0068,-6.1197,2.8786,2.4591,0.0806,0.0073,-0.0024,1,1,1,1,1,1,1
14.0072,sweep,2,-down,0.08526,1.72255,0.03452,1.57111,0.02689,-0.05550,-0.00324,-0.0024,-0.2076,-0.0024,0.0073,-0.0073,-0.0073,0.0073,0.0068,-6.1197,2.8786,2.4591,0.0806,0.0073,-0.0024,1,1,1,1,1,1,1
14.0475,sweep,2,-down,0.08526,1.70653,0.03452,1.57111,0.02689,-0.05550,-0.00324,-0.0024,-0.1929,-0.0024,-0.0073,-0.0073,-0.0220,-0.0073,-0.0068,-6.2701,3.0427,2.4347,0.0806,-0.0024,-0.0024,1,1,1,1,1,1,1
14.0876,sweep,2,-down,0.08526,1.70653,0.03452,1.57111,0.02689,-0.05550,-0.00324,-0.0024,-0.1929,-0.0024,-0.0073,-0.0073,-0.0220,-0.0073,-0.0068,-6.2701,3.0427,2.4347,0.0806,-0.0024,-0.0024,1,1,1,1,1,1,1
14.1273,sweep,2,-down,0.08526,1.70653,0.03452,1.57111,0.02689,-0.05550,-0.00324,-0.0024,-0.1929,-0.0024,-0.0073,-0.0073,-0.0220,-0.0073,-0.0068,-6.2701,3.0427,2.4347,0.0806,-0.0024,-0.0024,1,1,1,1,1,1,1
14.1673,sweep,2,-down,0.08526,1.68250,0.03452,1.57111,0.02689,-0.05550,-0.00324,-0.0073,-0.1880,-0.0024,-0.0220,-0.0073,-0.0220,-0.0073,-0.0342,-6.3248,3.2889,2.4151,0.0806,-0.0073,-0.0073,1,1,1,1,1,1,1
14.2074,sweep,2,-down,0.08526,1.68250,0.03452,1.57111,0.02689,-0.05550,-0.00324,-0.0073,-0.1880,-0.0024,-0.0220,-0.0073,-0.0220,-0.0073,-0.0342,-6.3248,3.2889,2.4151,0.0806,-0.0073,-0.0073,1,1,1,1,1,1,1
14.2476,sweep,2,-down,0.08526,1.66609,0.03452,1.57111,0.02689,-0.05550,-0.00324,-0.0073,-0.2173,-0.0024,-0.0073,-0.0073,-0.0073,0.0073,-0.0342,-6.0103,3.4530,2.3907,0.0806,-0.0122,-0.0024,1,1,1,1,1,1,1
14.2876,sweep,2,-down,0.08526,1.66609,0.03452,1.57111,0.02689,-0.05550,-0.00324,-0.0073,-0.2173,-0.0024,-0.0073,-0.0073,-0.0073,0.0073,-0.0342,-6.0103,3.4530,2.3907,0.0806,-0.0122,-0.0024,1,1,1,1,1,1,1
14.3272,sweep,2,-down,0.08526,1.66609,0.03452,1.57111,0.02689,-0.05550,-0.00324,-0.0073,-0.2173,-0.0024,-0.0073,-0.0073,-0.0073,0.0073,-0.0342,-6.0103,3.4530,2.3907,0.0806,-0.0122,-0.0024,1,1,1,1,1,1,1
14.3674,sweep,2,-down,0.08526,1.64206,0.03452,1.57111,0.02689,-0.05550,-0.00324,-0.0024,-0.1929,-0.0024,-0.0073,-0.0220,-0.0073,-0.0073,-0.0068,-5.9829,3.6991,2.3858,0.0757,-0.0073,-0.0024,1,1,1,1,1,1,1
14.4073,sweep,2,-down,0.08526,1.64206,0.03452,1.57111,0.02689,-0.05550,-0.00324,-0.0024,-0.1929,-0.0024,-0.0073,-0.0220,-0.0073,-0.0073,-0.0068,-5.9829,3.6991,2.3858,0.0757,-0.0073,-0.0024,1,1,1,1,1,1,1
14.4472,sweep,2,-down,0.08526,1.62642,0.03491,1.57073,0.02689,-0.05550,-0.00324,-0.0024,-0.2271,-0.0024,-0.0073,-0.0073,-0.0073,-0.0073,-0.0342,-6.2017,3.7949,2.3907,0.0708,-0.0024,-0.0024,1,1,1,1,1,1,1
14.4874,sweep,2,-down,0.08526,1.62642,0.03491,1.57073,0.02689,-0.05550,-0.00324,-0.0024,-0.2271,-0.0024,-0.0073,-0.0073,-0.0073,-0.0073,-0.0342,-6.2017,3.7949,2.3907,0.0708,-0.0024,-0.0024,1,1,1,1,1,1,1
14.5275,sweep,2,-down,0.08526,1.62642,0.03491,1.57073,0.02689,-0.05550,-0.00324,-0.0024,-0.2271,-0.0024,-0.0073,-0.0073,-0.0073,-0.0073,-0.0342,-6.2017,3.7949,2.3907,0.0708,-0.0024,-0.0024,1,1,1,1,1,1,1
14.5673,sweep,2,-down,0.08526,1.60239,0.03491,1.57034,0.02689,-0.05550,-0.00324,-0.0024,-0.2125,-0.0073,-0.0220,0.0073,-0.0073,-0.0073,-0.0479,-5.9419,3.9316,2.4054,0.0757,-0.0073,-0.0024,1,1,1,1,1,1,1
14.6073,sweep,2,-down,0.08526,1.60239,0.03491,1.57034,0.02689,-0.05550,-0.00324,-0.0024,-0.2125,-0.0073,-0.0220,0.0073,-0.0073,-0.0073,-0.0479,-5.9419,3.9316,2.4054,0.0757,-0.0073,-0.0024,1,1,1,1,1,1,1
14.6475,sweep,2,-down,0.08526,1.58598,0.03491,1.57034,0.02689,-0.05550,-0.00362,0.0024,-0.2173,0.0024,-0.0220,-0.0220,-0.0073,-0.0220,-0.0752,-5.5726,4.0000,2.4200,0.0708,-0.0122,-0.0073,1,1,1,1,1,1,1
14.6875,sweep,2,-down,0.08526,1.58598,0.03491,1.57034,0.02689,-0.05550,-0.00362,0.0024,-0.2173,0.0024,-0.0220,-0.0220,-0.0073,-0.0220,-0.0752,-5.5726,4.0000,2.4200,0.0708,-0.0122,-0.0073,1,1,1,1,1,1,1
14.7274,sweep,2,-down,0.08526,1.58598,0.03491,1.57034,0.02689,-0.05550,-0.00362,0.0024,-0.2173,0.0024,-0.0220,-0.0220,-0.0073,-0.0220,-0.0752,-5.5726,4.0000,2.4200,0.0708,-0.0122,-0.0073,1,1,1,1,1,1,1
14.7672,sweep,2,-down,0.08526,1.56195,0.03491,1.57034,0.02689,-0.05550,-0.00324,-0.0024,-0.2027,-0.0024,-0.0073,-0.0220,-0.0220,-0.0073,-0.0615,-5.4632,4.1094,2.4347,0.0659,-0.0171,-0.0122,1,1,1,1,1,1,1
14.8074,sweep,2,-down,0.08526,1.56195,0.03491,1.57034,0.02689,-0.05550,-0.00324,-0.0024,-0.2027,-0.0024,-0.0073,-0.0220,-0.0220,-0.0073,-0.0615,-5.4632,4.1094,2.4347,0.0659,-0.0171,-0.0122,1,1,1,1,1,1,1
14.8476,sweep,2,-down,0.08526,1.54593,0.03491,1.57034,0.02689,-0.05589,-0.00362,0.0024,-0.2125,-0.0024,-0.0073,-0.0073,-0.0220,-0.0220,-0.0342,-5.6684,4.1504,2.4347,0.0659,-0.0171,-0.0073,1,1,1,1,1,1,1
14.8880,sweep,2,-down,0.08526,1.54593,0.03491,1.57034,0.02689,-0.05589,-0.00362,0.0024,-0.2125,-0.0024,-0.0073,-0.0073,-0.0220,-0.0220,-0.0342,-5.6684,4.1504,2.4347,0.0659,-0.0171,-0.0073,1,1,1,1,1,1,1
14.9281,sweep,2,-down,0.08526,1.54593,0.03491,1.57034,0.02689,-0.05589,-0.00362,0.0024,-0.2125,-0.0024,-0.0073,-0.0073,-0.0220,-0.0220,-0.0342,-5.6684,4.1504,2.4347,0.0659,-0.0171,-0.0073,1,1,1,1,1,1,1
14.9676,sweep,2,-down,0.08526,1.52151,0.03529,1.57034,0.02689,-0.05589,-0.00324,-0.0024,-0.2271,0.0024,-0.0073,-0.0073,-0.0073,-0.0073,-0.0205,-5.2855,4.1231,2.4396,0.0659,-0.0171,-0.0073,1,1,1,1,1,1,1
15.0074,sweep,2,-down,0.08526,1.52151,0.03529,1.57034,0.02689,-0.05589,-0.00324,-0.0024,-0.2271,0.0024,-0.0073,-0.0073,-0.0073,-0.0073,-0.0205,-5.2855,4.1231,2.4396,0.0659,-0.0171,-0.0073,1,1,1,1,1,1,1
15.0475,sweep,2,-down,0.08526,1.50587,0.03529,1.57034,0.02689,-0.05550,-0.00324,-0.0024,-0.1929,-0.0024,-0.0073,-0.0073,0.0073,-0.0220,-0.0205,-5.3128,4.0684,2.4298,0.0659,-0.0220,-0.0073,1,1,1,1,1,1,1
15.0874,sweep,2,-down,0.08526,1.50587,0.03529,1.57034,0.02689,-0.05550,-0.00324,-0.0024,-0.1929,-0.0024,-0.0073,-0.0073,0.0073,-0.0220,-0.0205,-5.3128,4.0684,2.4298,0.0659,-0.0220,-0.0073,1,1,1,1,1,1,1
15.1274,sweep,2,-down,0.08526,1.50587,0.03529,1.57034,0.02689,-0.05550,-0.00324,-0.0024,-0.1929,-0.0024,-0.0073,-0.0073,0.0073,-0.0220,-0.0205,-5.3128,4.0684,2.4298,0.0659,-0.0220,-0.0073,1,1,1,1,1,1,1
15.1672,sweep,2,-down,0.08526,1.48146,0.03529,1.57034,0.02689,-0.05550,-0.00362,-0.0024,-0.2125,-0.0073,-0.0220,-0.0073,-0.0073,-0.0073,0.0068,-5.0256,3.9863,2.4249,0.0611,-0.0220,-0.0073,1,1,1,1,1,1,1
15.2075,sweep,2,-down,0.08526,1.48146,0.03529,1.57034,0.02689,-0.05550,-0.00362,-0.0024,-0.2125,-0.0073,-0.0220,-0.0073,-0.0073,-0.0073,0.0068,-5.0256,3.9863,2.4249,0.0611,-0.0220,-0.0073,1,1,1,1,1,1,1
15.2475,sweep,2,-down,0.08526,1.47383,0.03529,1.57073,0.02689,-0.05550,-0.00324,-0.0073,-0.2271,0.0024,0.0073,-0.0073,-0.0220,-0.0073,0.0342,-5.2308,3.9726,2.4249,0.0611,-0.0220,-0.0073,1,1,1,1,1,1,1
15.2871,sweep,2,-down,0.08526,1.47383,0.03529,1.57073,0.02689,-0.05550,-0.00324,-0.0073,-0.2271,0.0024,0.0073,-0.0073,-0.0220,-0.0073,0.0342,-5.2308,3.9726,2.4249,0.0611,-0.0220,-0.0073,1,1,1,1,1,1,1
15.3279,sweep,2,-down,0.08526,1.47383,0.03529,1.57073,0.02689,-0.05550,-0.00324,-0.0073,-0.2271,0.0024,0.0073,-0.0073,-0.0220,-0.0073,0.0342,-5.2308,3.9726,2.4249,0.0611,-0.0220,-0.0073,1,1,1,1,1,1,1
15.3673,sweep,2,-down,0.08526,1.44141,0.03567,1.57073,0.02689,-0.05550,-0.00324,-0.0024,-0.2076,0.0024,-0.0073,-0.0073,-0.0220,-0.0073,0.0479,-4.8615,3.9590,2.4298,0.0611,-0.0171,-0.0073,1,1,1,1,1,1,1
15.4073,sweep,2,-down,0.08526,1.44141,0.03567,1.57073,0.02689,-0.05550,-0.00324,-0.0024,-0.2076,0.0024,-0.0073,-0.0073,-0.0220,-0.0073,0.0479,-4.8615,3.9590,2.4298,0.0611,-0.0171,-0.0073,1,1,1,1,1,1,1
15.4473,sweep,2,-down,0.08526,1.42538,0.03567,1.57073,0.02689,-0.05550,-0.00324,0.0024,-0.2125,-0.0024,0.0220,-0.0073,-0.0073,0.0073,0.0342,-4.9436,3.9590,2.4103,0.0562,-0.0171,-0.0024,1,1,1,1,1,1,1
15.4876,sweep,2,-down,0.08526,1.42538,0.03567,1.57073,0.02689,-0.05550,-0.00324,0.0024,-0.2125,-0.0024,0.0220,-0.0073,-0.0073,0.0073,0.0342,-4.9436,3.9590,2.4103,0.0562,-0.0171,-0.0024,1,1,1,1,1,1,1
15.5273,sweep,2,-down,0.08526,1.42538,0.03567,1.57073,0.02689,-0.05550,-0.00324,0.0024,-0.2125,-0.0024,0.0220,-0.0073,-0.0073,0.0073,0.0342,-4.9436,3.9590,2.4103,0.0562,-0.0171,-0.0024,1,1,1,1,1,1,1
15.5677,sweep,2,-down,0.08526,1.40135,0.03567,1.57073,0.02689,-0.05550,-0.00324,-0.0024,-0.2076,-0.0024,-0.0220,-0.0073,-0.0220,-0.0073,0.0068,-4.8615,3.9726,2.4054,0.0562,-0.0220,-0.0122,1,1,1,1,1,1,1
15.6082,sweep,2,-down,0.08526,1.40135,0.03567,1.57073,0.02689,-0.05550,-0.00324,-0.0024,-0.2076,-0.0024,-0.0220,-0.0073,-0.0220,-0.0073,0.0068,-4.8615,3.9726,2.4054,0.0562,-0.0220,-0.0122,1,1,1,1,1,1,1
15.6473,sweep,2,-down,0.08526,1.38533,0.03567,1.57073,0.02689,-0.05550,-0.00362,-0.0024,-0.2125,-0.0024,-0.0220,0.0073,-0.0220,-0.0220,-0.0068,-4.7932,3.9863,2.3907,0.0562,-0.0171,-0.0122,1,1,1,1,1,1,1
15.6874,sweep,2,-down,0.08526,1.38533,0.03567,1.57073,0.02689,-0.05550,-0.00362,-0.0024,-0.2125,-0.0024,-0.0220,0.0073,-0.0220,-0.0220,-0.0068,-4.7932,3.9863,2.3907,0.0562,-0.0171,-0.0122,1,1,1,1,1,1,1
15.7274,sweep,2,-down,0.08526,1.38533,0.03567,1.57073,0.02689,-0.05550,-0.00362,-0.0024,-0.2125,-0.0024,-0.0220,0.0073,-0.0220,-0.0220,-0.0068,-4.7932,3.9863,2.3907,0.0562,-0.0171,-0.0122,1,1,1,1,1,1,1
15.7675,sweep,2,-down,0.08526,1.37732,0.03567,1.57073,0.02689,-0.05550,-0.00324,-0.0073,-0.2222,-0.0024,-0.0073,-0.0073,-0.0073,-0.0220,0.0068,-4.6017,3.9863,2.3907,0.0562,-0.0220,-0.0073,1,1,1,1,1,1,1
15.8072,sweep,2,-down,0.08526,1.37732,0.03567,1.57073,0.02689,-0.05550,-0.00324,-0.0073,-0.2222,-0.0024,-0.0073,-0.0073,-0.0073,-0.0220,0.0068,-4.6017,3.9863,2.3907,0.0562,-0.0220,-0.0073,1,1,1,1,1,1,1
15.8474,sweep,2,-down,0.08526,1.34489,0.03567,1.57073,0.02689,-0.05550,-0.00324,-0.0024,-0.2271,-0.0024,-0.0220,-0.0073,-0.0220,-0.0073,0.0068,-4.2051,3.9863,2.3858,0.0513,-0.0220,-0.0122,1,1,1,1,1,1,1
15.8872,sweep,2,-down,0.08526,1.34489,0.03567,1.57073,0.02689,-0.05550,-0.00324,-0.0024,-0.2271,-0.0024,-0.0220,-0.0073,-0.0220,-0.0073,0.0068,-4.2051,3.9863,2.3858,0.0513,-0.0220,-0.0122,1,1,1,1,1,1,1
15.9274,sweep,2,-down,0.08526,1.34489,0.03567,1.57073,0.02689,-0.05550,-0.00324,-0.0024,-0.2271,-0.0024,-0.0220,-0.0073,-0.0220,-0.0073,0.0068,-4.2051,3.9863,2.3858,0.0513,-0.0220,-0.0122,1,1,1,1,1,1,1
15.9674,sweep,2,-down,0.08526,1.32124,0.03567,1.57073,0.02689,-0.05550,-0.00362,-0.0024,-0.1978,-0.0024,-0.0073,-0.0220,0.0073,-0.0073,-0.0068,-4.6017,3.9453,2.3761,0.0513,-0.0269,-0.0171,1,1,1,1,1,1,1
16.0075,sweep,2,-down,0.08526,1.32124,0.03567,1.57073,0.02689,-0.05550,-0.00362,-0.0024,-0.1978,-0.0024,-0.0073,-0.0220,0.0073,-0.0073,-0.0068,-4.6017,3.9453,2.3761,0.0513,-0.0269,-0.0171,1,1,1,1,1,1,1
16.0473,sweep,2,-down,0.08526,1.30484,0.03567,1.57073,0.02689,-0.05550,-0.00362,0.0024,-0.2173,-0.0024,-0.0220,-0.0073,-0.0073,-0.0073,0.0068,-4.0957,3.9179,2.3712,0.0513,-0.0317,-0.0122,1,1,1,1,1,1,1
16.0874,sweep,2,-down,0.08526,1.30484,0.03567,1.57073,0.02689,-0.05550,-0.00362,0.0024,-0.2173,-0.0024,-0.0220,-0.0073,-0.0073,-0.0073,0.0068,-4.0957,3.9179,2.3712,0.0513,-0.0317,-0.0122,1,1,1,1,1,1,1
16.1273,sweep,2,-down,0.08526,1.30484,0.03567,1.57073,0.02689,-0.05550,-0.00362,0.0024,-0.2173,-0.0024,-0.0220,-0.0073,-0.0073,-0.0073,0.0068,-4.0957,3.9179,2.3712,0.0513,-0.0317,-0.0122,1,1,1,1,1,1,1
16.1674,sweep,2,-down,0.08526,1.28080,0.03567,1.57111,0.02689,-0.05550,-0.00324,-0.0024,-0.2027,0.0024,-0.0073,0.0073,-0.0073,-0.0073,-0.0068,-4.1778,3.9179,2.3321,0.0464,-0.0269,-0.0122,1,1,1,1,1,1,1
16.2072,sweep,2,-down,0.08526,1.28080,0.03567,1.57111,0.02689,-0.05550,-0.00324,-0.0024,-0.2027,0.0024,-0.0073,0.0073,-0.0073,-0.0073,-0.0068,-4.1778,3.9179,2.3321,0.0464,-0.0269,-0.0122,1,1,1,1,1,1,1
16.2474,sweep,2,-down,0.08526,1.26440,0.03567,1.57111,0.02689,-0.05550,-0.00324,-0.0073,-0.2076,-0.0073,0.0073,-0.0073,-0.0073,-0.0073,-0.0068,-3.7128,3.9043,2.3272,0.0464,-0.0317,-0.0122,1,1,1,1,1,1,1
16.2873,sweep,2,-down,0.08526,1.26440,0.03567,1.57111,0.02689,-0.05550,-0.00324,-0.0073,-0.2076,-0.0073,0.0073,-0.0073,-0.0073,-0.0073,-0.0068,-3.7128,3.9043,2.3272,0.0464,-0.0317,-0.0122,1,1,1,1,1,1,1
16.3276,sweep,2,-down,0.08526,1.26440,0.03567,1.57111,0.02689,-0.05550,-0.00324,-0.0073,-0.2076,-0.0073,0.0073,-0.0073,-0.0073,-0.0073,-0.0068,-3.7128,3.9043,2.3272,0.0464,-0.0317,-0.0122,1,1,1,1,1,1,1
16.3674,sweep,2,-down,0.08526,1.24075,0.03605,1.57111,0.02689,-0.05589,-0.00324,-0.0024,-0.2125,0.0024,-0.0073,-0.0073,-0.0366,-0.0073,-0.0205,-3.9316,3.8906,2.2979,0.0464,-0.0317,-0.0122,1,1,1,1,1,1,1
16.4073,sweep,2,-down,0.08526,1.24075,0.03605,1.57111,0.02689,-0.05589,-0.00324,-0.0024,-0.2125,0.0024,-0.0073,-0.0073,-0.0366,-0.0073,-0.0205,-3.9316,3.8906,2.2979,0.0464,-0.0317,-0.0122,1,1,1,1,1,1,1
16.4471,sweep,2,-down,0.08526,1.22435,0.03605,1.57111,0.02689,-0.05550,-0.00362,-0.0024,-0.1832,-0.0024,-0.0073,-0.0073,0.0073,-0.0073,-0.0479,-3.6718,3.9316,2.2784,0.0415,-0.0317,-0.0171,1,1,1,1,1,1,1
16.4872,sweep,2,-down,0.08526,1.22435,0.03605,1.57111,0.02689,-0.05550,-0.00362,-0.0024,-0.1832,-0.0024,-0.0073,-0.0073,0.0073,-0.0073,-0.0479,-3.6718,3.9316,2.2784,0.0415,-0.0317,-0.0171,1,1,1,1,1,1,1
16.5274,sweep,2,-down,0.08526,1.22435,0.03605,1.57111,0.02689,-0.05550,-0.00362,-0.0024,-0.1832,-0.0024,-0.0073,-0.0073,0.0073,-0.0073,-0.0479,-3.6718,3.9316,2.2784,0.0415,-0.0317,-0.0171,1,1,1,1,1,1,1
16.5673,sweep,2,-down,0.08526,1.20031,0.03605,1.57073,0.02689,-0.05550,-0.00324,-0.0024,-0.2173,-0.0024,-0.0073,-0.0073,0.0073,0.0073,-0.0342,-3.2752,3.8769,2.2686,0.0415,-0.0317,-0.0171,1,1,1,1,1,1,1
16.6072,sweep,2,-down,0.08526,1.20031,0.03605,1.57073,0.02689,-0.05550,-0.00324,-0.0024,-0.2173,-0.0024,-0.0073,-0.0073,0.0073,0.0073,-0.0342,-3.2752,3.8769,2.2686,0.0415,-0.0317,-0.0171,1,1,1,1,1,1,1
16.6474,sweep,2,-down,0.08526,1.18429,0.03605,1.57111,0.02689,-0.05550,-0.00362,-0.0024,-0.1783,0.0024,-0.0073,-0.0073,-0.0073,0.0073,-0.0479,-3.3299,3.7949,2.2540,0.0366,-0.0317,-0.0171,1,1,1,1,1,1,1
16.6872,sweep,2,-down,0.08526,1.18429,0.03605,1.57111,0.02689,-0.05550,-0.00362,-0.0024,-0.1783,0.0024,-0.0073,-0.0073,-0.0073,0.0073,-0.0479,-3.3299,3.7949,2.2540,0.0366,-0.0317,-0.0171,1,1,1,1,1,1,1
16.7272,sweep,2,-down,0.08526,1.18429,0.03605,1.57111,0.02689,-0.05550,-0.00362,-0.0024,-0.1783,0.0024,-0.0073,-0.0073,-0.0073,0.0073,-0.0479,-3.3299,3.7949,2.2540,0.0366,-0.0317,-0.0171,1,1,1,1,1,1,1
16.7676,sweep,2,-down,0.08526,1.15988,0.03605,1.57111,0.02689,-0.05550,-0.00362,-0.0024,-0.2173,-0.0024,0.0073,-0.0073,0.0073,-0.0073,-0.0615,-3.0291,3.7812,2.2344,0.0366,-0.0366,-0.0171,1,1,1,1,1,1,1
16.8074,sweep,2,-down,0.08526,1.15988,0.03605,1.57111,0.02689,-0.05550,-0.00362,-0.0024,-0.2173,-0.0024,0.0073,-0.0073,0.0073,-0.0073,-0.0615,-3.0291,3.7812,2.2344,0.0366,-0.0366,-0.0171,1,1,1,1,1,1,1
16.8473,sweep,2,-down,0.08526,1.14424,0.03605,1.57111,0.02689,-0.05589,-0.00324,-0.0024,-0.1929,-0.0024,-0.0073,-0.0073,-0.0366,-0.0073,-0.0615,-3.0564,3.7538,2.2100,0.0366,-0.0366,-0.0171,1,1,1,1,1,1,1
16.8874,sweep,2,-down,0.08526,1.14424,0.03605,1.57111,0.02689,-0.05589,-0.00324,-0.0024,-0.1929,-0.0024,-0.0073,-0.0073,-0.0366,-0.0073,-0.0615,-3.0564,3.7538,2.2100,0.0366,-0.0366,-0.0171,1,1,1,1,1,1,1
16.9273,sweep,2,-down,0.08526,1.14424,0.03605,1.57111,0.02689,-0.05589,-0.00324,-0.0024,-0.1929,-0.0024,-0.0073,-0.0073,-0.0366,-0.0073,-0.0615,-3.0564,3.7538,2.2100,0.0366,-0.0366,-0.0171,1,1,1,1,1,1,1
16.9675,sweep,2,-down,0.08526,1.11982,0.03605,1.57111,0.02689,-0.05550,-0.00324,-0.0024,-0.1929,-0.0073,0.0073,-0.0220,-0.0073,-0.0073,-0.0615,-2.7419,3.7128,2.1905,0.0366,-0.0366,-0.0122,1,1,1,1,1,1,1
17.0076,sweep,2,-down,0.08526,1.11982,0.03605,1.57111,0.02689,-0.05550,-0.00324,-0.0024,-0.1929,-0.0073,0.0073,-0.0220,-0.0073,-0.0073,-0.0615,-2.7419,3.7128,2.1905,0.0366,-0.0366,-0.0122,1,1,1,1,1,1,1
17.0474,sweep,2,-down,0.08526,1.10380,0.03605,1.57111,0.02689,-0.05550,-0.00362,-0.0024,-0.2076,-0.0024,0.0073,-0.0073,0.0073,-0.0073,-0.0615,-2.9607,3.7128,2.1661,0.0317,-0.0366,-0.0122,1,1,1,1,1,1,1
17.0874,sweep,2,-down,0.08526,1.10380,0.03605,1.57111,0.02689,-0.05550,-0.00362,-0.0024,-0.2076,-0.0024,0.0073,-0.0073,0.0073,-0.0073,-0.0615,-2.9607,3.7128,2.1661,0.0317,-0.0366,-0.0122,1,1,1,1,1,1,1
17.1275,sweep,2,-down,0.08526,1.10380,0.03605,1.57111,0.02689,-0.05550,-0.00362,-0.0024,-0.2076,-0.0024,0.0073,-0.0073,0.0073,-0.0073,-0.0615,-2.9607,3.7128,2.1661,0.0317,-0.0366,-0.0122,1,1,1,1,1,1,1
17.1675,sweep,2,-down,0.08526,1.07977,0.03605,1.57111,0.02689,-0.05550,-0.00324,-0.0024,-0.1832,-0.0024,-0.0220,-0.0073,-0.0073,-0.0073,-0.0615,-2.7556,3.6444,2.1416,0.0317,-0.0366,-0.0122,1,1,1,1,1,1,1
17.2073,sweep,2,-down,0.08526,1.07977,0.03605,1.57111,0.02689,-0.05550,-0.00324,-0.0024,-0.1832,-0.0024,-0.0220,-0.0073,-0.0073,-0.0073,-0.0615,-2.7556,3.6444,2.1416,0.0317,-0.0366,-0.0122,1,1,1,1,1,1,1
17.2472,sweep,2,-down,0.08526,1.06336,0.03605,1.57111,0.02689,-0.05550,-0.00324,-0.0073,-0.2173,-0.0024,-0.0220,-0.0220,0.0073,-0.0073,-0.0615,-2.2085,3.6308,2.1221,0.0317,-0.0317,-0.0122,1,1,1,1,1,1,1
17.2874,sweep,2,-down,0.08526,1.06336,0.03605,1.57111,0.02689,-0.05550,-0.00324,-0.0073,-0.2173,-0.0024,-0.0220,-0.0220,0.0073,-0.0073,-0.0615,-2.2085,3.6308,2.1221,0.0317,-0.0317,-0.0122,1,1,1,1,1,1,1
17.3274,sweep,2,-down,0.08526,1.06336,0.03605,1.57111,0.02689,-0.05550,-0.00324,-0.0073,-0.2173,-0.0024,-0.0220,-0.0220,0.0073,-0.0073,-0.0615,-2.2085,3.6308,2.1221,0.0317,-0.0317,-0.0122,1,1,1,1,1,1,1
17.3673,sweep,2,-down,0.08526,1.03933,0.03605,1.57111,0.02689,-0.05550,-0.00324,-0.0024,-0.1978,-0.0024,0.0073,-0.0073,-0.0073,-0.0073,-0.0752,-2.2359,3.5897,2.0830,0.0269,-0.0317,-0.0122,1,1,1,1,1,1,1
17.4074,sweep,2,-down,0.08526,1.03933,0.03605,1.57111,0.02689,-0.05550,-0.00324,-0.0024,-0.1978,-0.0024,0.0073,-0.0073,-0.0073,-0.0073,-0.0752,-2.2359,3.5897,2.0830,0.0269,-0.0317,-0.0122,1,1,1,1,1,1,1
17.4473,sweep,2,-down,0.08526,1.01568,0.03605,1.57111,0.02689,-0.05550,-0.00362,-0.0024,-0.2027,-0.0024,-0.0073,-0.0220,-0.0220,-0.0073,-0.0615,-1.9624,3.5761,2.0733,0.0269,-0.0317,-0.0122,1,1,1,1,1,1,1
17.4876,sweep,2,-down,0.08526,1.01568,0.03605,1.57111,0.02689,-0.05550,-0.00362,-0.0024,-0.2027,-0.0024,-0.0073,-0.0220,-0.0220,-0.0073,-0.0615,-1.9624,3.5761,2.0733,0.0269,-0.0317,-0.0122,1,1,1,1,1,1,1
17.5275,sweep,2,-down,0.08526,1.01568,0.03605,1.57111,0.02689,-0.05550,-0.00362,-0.0024,-0.2027,-0.0024,-0.0073,-0.0220,-0.0220,-0.0073,-0.0615,-1.9624,3.5761,2.0733,0.0269,-0.0317,-0.0122,1,1,1,1,1,1,1
17.5676,sweep,2,-down,0.08526,0.99928,0.03605,1.57111,0.02689,-0.05589,-0.00362,-0.0024,-0.2076,-0.0024,-0.0073,-0.0073,-0.0220,0.0073,-0.0752,-1.9897,3.5761,2.0391,0.0220,-0.0317,-0.0122,1,1,1,1,1,1,1
17.6076,sweep,2,-down,0.08526,0.99928,0.03605,1.57111,0.02689,-0.05589,-0.00362,-0.0024,-0.2076,-0.0024,-0.0073,-0.0073,-0.0220,0.0073,-0.0752,-1.9897,3.5761,2.0391,0.0220,-0.0317,-0.0122,1,1,1,1,1,1,1
17.6472,sweep,2,-down,0.08526,0.97524,0.03605,1.57111,0.02689,-0.05550,-0.00324,-0.0024,-0.1783,-0.0024,-0.0073,-0.0073,-0.0073,0.0073,-0.0752,-1.8120,3.6034,2.0000,0.0220,-0.0317,-0.0122,1,1,1,1,1,1,1
17.6875,sweep,2,-down,0.08526,0.97524,0.03605,1.57111,0.02689,-0.05550,-0.00324,-0.0024,-0.1783,-0.0024,-0.0073,-0.0073,-0.0073,0.0073,-0.0752,-1.8120,3.6034,2.0000,0.0220,-0.0317,-0.0122,1,1,1,1,1,1,1
17.7273,sweep,2,-down,0.08526,0.97524,0.03605,1.57111,0.02689,-0.05550,-0.00324,-0.0024,-0.1783,-0.0024,-0.0073,-0.0073,-0.0073,0.0073,-0.0752,-1.8120,3.6034,2.0000,0.0220,-0.0317,-0.0122,1,1,1,1,1,1,1
17.7674,sweep,2,-down,0.08526,0.95884,0.03605,1.57149,0.02689,-0.05550,-0.00362,-0.0024,-0.2222,-0.0024,0.0073,0.0073,-0.0366,-0.0073,-0.0615,-1.4291,3.5624,1.9707,0.0220,-0.0269,-0.0122,1,1,1,1,1,1,1
17.8076,sweep,2,-down,0.08526,0.95884,0.03605,1.57149,0.02689,-0.05550,-0.00362,-0.0024,-0.2222,-0.0024,0.0073,0.0073,-0.0366,-0.0073,-0.0615,-1.4291,3.5624,1.9707,0.0220,-0.0269,-0.0122,1,1,1,1,1,1,1
17.8474,sweep,2,-down,0.08526,0.93519,0.03605,1.57149,0.02689,-0.05550,-0.00324,-0.0024,-0.2027,-0.0073,-0.0073,-0.0073,-0.0220,-0.0073,-0.0479,-1.6889,3.5487,1.9365,0.0171,-0.0317,-0.0122,1,1,1,1,1,1,1
17.8874,sweep,2,-down,0.08526,0.93519,0.03605,1.57149,0.02689,-0.05550,-0.00324,-0.0024,-0.2027,-0.0073,-0.0073,-0.0073,-0.0220,-0.0073,-0.0479,-1.6889,3.5487,1.9365,0.0171,-0.0317,-0.0122,1,1,1,1,1,1,1
17.9274,sweep,2,-down,0.08526,0.93519,0.03605,1.57149,0.02689,-0.05550,-0.00324,-0.0024,-0.2027,-0.0073,-0.0073,-0.0073,-0.0220,-0.0073,-0.0479,-1.6889,3.5487,1.9365,0.0171,-0.0317,-0.0122,1,1,1,1,1,1,1
17.9675,sweep,2,-down,0.08526,0.91840,0.03605,1.57149,0.02689,-0.05550,-0.00324,-0.0024,-0.2125,-0.0024,0.0073,-0.0220,-0.0220,-0.0073,-0.0342,-1.1829,3.5487,1.8974,0.0220,-0.0317,-0.0073,1,1,1,1,1,1,1
18.0075,sweep,2,-down,0.08526,0.91840,0.03605,1.57149,0.02689,-0.05550,-0.00324,-0.0024,-0.2125,-0.0024,0.0073,-0.0220,-0.0220,-0.0073,-0.0342,-1.1829,3.5487,1.8974,0.0220,-0.0317,-0.0073,1,1,1,1,1,1,1
18.0475,sweep,2,-down,0.08526,0.91840,0.03605,1.57149,0.02689,-0.05550,-0.00324,-0.0024,-0.2125,-0.0024,-0.0073,-0.0073,-0.0220,-0.0073,-0.0342,-1.1829,3.5350,1.8535,0.0220,-0.0317,-0.0073,1,1,1,1,1,1,1
18.0873,sweep,2,-down,0.08526,0.89475,0.03605,1.57149,0.02689,-0.05550,-0.00324,-0.0024,-0.2027,-0.0024,-0.0073,-0.0073,-0.0220,-0.0073,-0.0342,-1.2786,3.5350,1.8535,0.0220,-0.0317,-0.0073,1,1,1,1,1,1,1
18.1276,sweep,2,-down,0.08526,0.89475,0.03605,1.57149,0.02689,-0.05550,-0.00324,-0.0024,-0.2027,-0.0024,-0.0073,-0.0073,-0.0220,-0.0073,-0.0342,-1.2786,3.5350,1.8535,0.0220,-0.0317,-0.0073,1,1,1,1,1,1,1
18.1672,sweep,2,-down,0.08526,0.87835,0.03605,1.57149,0.02689,-0.05550,-0.00324,0.0024,-0.2125,0.0024,-0.0073,-0.0073,-0.0073,-0.0073,-0.0342,-1.0735,3.5214,1.8291,0.0171,-0.0317,-0.0073,1,1,1,1,1,1,1
18.2073,sweep,2,-down,0.08526,0.87835,0.03605,1.57149,0.02689,-0.05550,-0.00324,0.0024,-0.2125,0.0024,-0.0073,-0.0073,-0.0073,-0.0073,-0.0342,-1.0735,3.5214,1.8291,0.0171,-0.0317,-0.0073,1,1,1,1,1,1,1
18.2473,sweep,2,-down,0.08526,0.87835,0.03605,1.57149,0.02689,-0.05589,-0.00362,0.0024,-0.2125,0.0024,-0.0073,-0.0073,-0.0220,-0.0073,-0.0342,-1.0735,3.5214,1.8095,0.0122,-0.0317,-0.0024,1,1,1,1,1,1,1
18.2877,sweep,2,-down,0.08526,0.85470,0.03605,1.57149,0.02689,-0.05589,-0.00362,0.0024,-0.2076,-0.0024,-0.0220,-0.0073,-0.0220,-0.0073,-0.0205,-1.0598,3.5077,1.7949,0.0122,-0.0317,-0.0024,1,1,1,1,1,1,1
18.3275,sweep,2,-down,0.08526,0.85470,0.03605,1.57149,0.02689,-0.05589,-0.00362,0.0024,-0.2076,-0.0024,-0.0220,-0.0073,-0.0220,-0.0073,-0.0205,-1.0598,3.5077,1.7949,0.0122,-0.0317,-0.0024,1,1,1,1,1,1,1
18.3674,sweep,2,-down,0.08526,0.83829,0.03605,1.57149,0.02689,-0.05550,-0.00324,-0.0024,-0.1929,-0.0024,-0.0073,-0.0220,0.0073,-0.0073,0.0068,-0.7726,3.5214,1.7656,0.0122,-0.0317,-0.0073,1,1,1,1,1,1,1
18.4074,sweep,2,-down,0.08526,0.83829,0.03605,1.57149,0.02689,-0.05550,-0.00324,-0.0024,-0.1929,-0.0024,-0.0073,-0.0220,0.0073,-0.0073,0.0068,-0.7726,3.5214,1.7656,0.0122,-0.0317,-0.0073,1,1,1,1,1,1,1
18.4475,sweep,2,-down,0.08526,0.83829,0.03605,1.57149,0.02689,-0.05550,-0.00362,-0.0024,-0.1929,-0.0024,-0.0220,-0.0220,-0.0073,-0.0073,0.0068,-0.7726,3.5214,1.7265,0.0171,-0.0317,-0.0073,1,1,1,1,1,1,1
18.4874,sweep,2,-down,0.08526,0.81388,0.03605,1.57149,0.02689,-0.05550,-0.00362,-0.0024,-0.2076,-0.0024,-0.0220,-0.0220,-0.0073,-0.0073,0.0342,-0.5812,3.4393,1.7265,0.0171,-0.0317,-0.0073,1,1,1,1,1,1,1
18.5280,sweep,2,-down,0.08526,0.81388,0.03605,1.57149,0.02689,-0.05550,-0.00362,-0.0024,-0.2076,-0.0024,-0.0220,-0.0220,-0.0073,-0.0073,0.0342,-0.5812,3.4393,1.7265,0.0171,-0.0317,-0.0073,1,1,1,1,1,1,1
18.5678,sweep,2,-down,0.08526,0.79824,0.03605,1.57149,0.02689,-0.05589,-0.00362,-0.0073,-0.1685,0.0024,-0.0073,-0.0073,-0.0220,-0.0220,0.0205,-0.8274,3.4393,1.7070,0.0122,-0.0317,-0.0122,1,1,1,1,1,1,1
18.6076,sweep,2,-down,0.08526,0.79824,0.03605,1.57149,0.02689,-0.05589,-0.00362,-0.0073,-0.1685,0.0024,-0.0073,-0.0073,-0.0220,-0.0220,0.0205,-0.8274,3.4393,1.7070,0.0122,-0.0317,-0.0122,1,1,1,1,1,1,1
18.6472,sweep,2,-down,0.08526,0.79824,0.03605,1.57149,0.02689,-0.05589,-0.00324,-0.0073,-0.1685,0.0024,-0.0073,-0.0073,-0.0220,-0.0073,0.0205,-0.8274,3.4393,1.7070,0.0122,-0.0317,-0.0073,1,1,1,1,1,1,1
18.6874,sweep,2,-down,0.08526,0.77382,0.03605,1.57149,0.02689,-0.05550,-0.00324,-0.0024,-0.2222,0.0024,-0.0073,-0.0073,0.0073,-0.0073,0.0068,-0.2940,3.3846,1.6630,0.0122,-0.0317,-0.0073,1,1,1,1,1,1,1
18.7273,sweep,2,-down,0.08526,0.77382,0.03605,1.57149,0.02689,-0.05550,-0.00324,-0.0024,-0.2222,0.0024,-0.0073,-0.0073,0.0073,-0.0073,0.0068,-0.2940,3.3846,1.6630,0.0122,-0.0317,-0.0073,1,1,1,1,1,1,1
18.7673,sweep,2,-down,0.08526,0.75780,0.03605,1.57149,0.02689,-0.05589,-0.00324,-0.0024,-0.1880,-0.0073,-0.0220,-0.0220,0.0073,0.0073,-0.0068,-0.5128,3.3573,1.6337,0.0073,-0.0317,-0.0073,1,1,1,1,1,1,1
18.8073,sweep,2,-down,0.08526,0.75780,0.03605,1.57149,0.02689,-0.05589,-0.00324,-0.0024,-0.1880,-0.0073,-0.0220,-0.0220,0.0073,0.0073,-0.0068,-0.5128,3.3573,1.6337,0.0073,-0.0317,-0.0073,1,1,1,1,1,1,1
18.8474,sweep,2,-down,0.08526,0.75780,0.03605,1.57149,0.02689,-0.05589,-0.00324,-0.0024,-0.1880,-0.0073,-0.0220,-0.0220,0.0073,0.0073,-0.0068,-0.5128,3.3573,1.6337,0.0073,-0.0317,-0.0073,1,1,1,1,1,1,1
18.8873,sweep,2,-down,0.08526,0.73339,0.03605,1.57149,0.02689,-0.05589,-0.00362,0.0024,-0.2027,-0.0024,-0.0073,-0.0073,-0.0073,-0.0073,0.0205,-0.0889,3.3436,1.5849,0.0073,-0.0317,-0.0073,1,1,1,1,1,1,1
18.9274,sweep,2,-down,0.08526,0.73339,0.03605,1.57149,0.02689,-0.05589,-0.00362,0.0024,-0.2027,-0.0024,-0.0073,-0.0073,-0.0073,-0.0073,0.0205,-0.0889,3.3436,1.5849,0.0073,-0.0317,-0.0073,1,1,1,1,1,1,1
18.9673,sweep,2,-down,0.08526,0.71698,0.03605,1.57149,0.02689,-0.05589,-0.00324,-0.0073,-0.2076,-0.0073,-0.0073,-0.0073,-0.0366,-0.0073,0.0068,0.0342,3.3436,1.5556,0.0024,-0.0269,-0.0122,1,1,1,1,1,1,1
19.0073,sweep,2,-down,0.08526,0.71698,0.03605,1.57149,0.02689,-0.05589,-0.00324,-0.0073,-0.2076,-0.0073,-0.0073,-0.0073,-0.0366,-0.0073,0.0068,0.0342,3.3436,1.5556,0.0024,-0.0269,-0.0122,1,1,1,1,1,1,1
19.0473,sweep,2,-down,0.08526,0.71698,0.03605,1.57149,0.02689,-0.05589,-0.00324,-0.0073,-0.2076,-0.0073,-0.0073,-0.0073,-0.0366,-0.0073,0.0068,0.0342,3.3436,1.5556,0.0024,-0.0269,-0.0122,1,1,1,1,1,1,1
19.0873,sweep,2,-down,0.08526,0.69257,0.03605,1.57187,0.02689,-0.05550,-0.00362,-0.0024,-0.1734,-0.0024,-0.0073,-0.0073,-0.0073,-0.0073,0.0068,0.2120,3.3299,1.4579,0.0024,-0.0317,-0.0122,1,1,1,1,1,1,1
19.1274,sweep,2,-down,0.08526,0.69257,0.03605,1.57187,0.02689,-0.05550,-0.00362,-0.0024,-0.1734,-0.0024,-0.0073,-0.0073,-0.0073,-0.0073,0.0068,0.2120,3.3299,1.4579,0.0024,-0.0317,-0.0122,1,1,1,1,1,1,1
19.1672,sweep,2,-down,0.08526,0.67617,0.03605,1.57187,0.02689,-0.05589,-0.00362,-0.0024,-0.2320,-0.0024,-0.0220,0.0073,-0.0073,-0.0073,-0.0068,0.3624,3.2889,1.4090,0.0024,-0.0269,-0.0122,1,1,1,1,1,1,1
19.2074,sweep,2,-down,0.08526,0.67617,0.03605,1.57187,0.02689,-0.05589,-0.00362,-0.0024,-0.2320,-0.0024,-0.0220,0.0073,-0.0073,-0.0073,-0.0068,0.3624,3.2889,1.4090,0.0024,-0.0269,-0.0122,1,1,1,1,1,1,1
19.2473,sweep,2,-down,0.08526,0.67617,0.03605,1.57187,0.02689,-0.05589,-0.00362,-0.0024,-0.2320,-0.0024,-0.0220,0.0073,-0.0073,-0.0073,-0.0068,0.3624,3.2889,1.4090,0.0024,-0.0269,-0.0122,1,1,1,1,1,1,1
19.2873,sweep,2,-down,0.08526,0.65251,0.03605,1.57187,0.02689,-0.05589,-0.00362,-0.0024,-0.1929,-0.0024,-0.0220,-0.0220,-0.0073,-0.0073,-0.0068,0.1573,3.2205,1.3455,0.0024,-0.0269,-0.0171,1,1,1,1,1,1,1
19.3274,sweep,2,-down,0.08526,0.65251,0.03605,1.57187,0.02689,-0.05589,-0.00362,-0.0024,-0.1929,-0.0024,-0.0220,-0.0220,-0.0073,-0.0073,-0.0068,0.1573,3.2205,1.3455,0.0024,-0.0269,-0.0171,1,1,1,1,1,1,1
19.3672,sweep,2,-down,0.08526,0.63611,0.03605,1.57187,0.02689,-0.05589,-0.00362,-0.0024,-0.2125,-0.0024,0.0073,-0.0073,-0.0220,0.0073,-0.0342,0.7863,3.1932,1.3065,0.0024,-0.0220,-0.0171,1,1,1,1,1,1,1
19.4072,sweep,2,-down,0.08526,0.63611,0.03605,1.57187,0.02689,-0.05589,-0.00362,-0.0024,-0.2125,-0.0024,0.0073,-0.0073,-0.0220,0.0073,-0.0342,0.7863,3.1932,1.3065,0.0024,-0.0220,-0.0171,1,1,1,1,1,1,1
19.4474,sweep,2,-down,0.08526,0.63611,0.03605,1.57187,0.02689,-0.05589,-0.00362,-0.0024,-0.2125,-0.0024,0.0073,-0.0073,-0.0220,0.0073,-0.0342,0.7863,3.1932,1.3065,0.0024,-0.0220,-0.0171,1,1,1,1,1,1,1
19.4879,sweep,2,-down,0.08526,0.61208,0.03605,1.57187,0.02689,-0.05589,-0.00324,-0.0024,-0.2125,-0.0024,-0.0073,-0.0220,-0.0073,-0.0073,-0.0205,0.9641,3.1795,1.2381,0.0024,-0.0220,-0.0171,1,1,1,1,1,1,1
19.5275,sweep,2,-down,0.08526,0.61208,0.03605,1.57187,0.02689,-0.05589,-0.00324,-0.0024,-0.2125,-0.0024,-0.0073,-0.0220,-0.0073,-0.0073,-0.0205,0.9641,3.1795,1.2381,0.0024,-0.0220,-0.0171,1,1,1,1,1,1,1
19.5675,sweep,2,-down,0.08526,0.59606,0.03605,1.57187,0.02689,-0.05589,-0.00362,-0.0073,-0.1832,-0.0073,-0.0073,0.0220,0.0073,-0.0073,-0.0205,0.8547,3.1658,1.1990,-0.0024,-0.0220,-0.0122,1,1,1,1,1,1,1
19.6078,sweep,2,-down,0.08526,0.59606,0.03605,1.57187,0.02689,-0.05589,-0.00362,-0.0073,-0.1832,-0.0073,-0.0073,0.0220,0.0073,-0.0073,-0.0205,0.8547,3.1658,1.1990,-0.0024,-0.0220,-0.0122,1,1,1,1,1,1,1
19.6473,sweep,2,-down,0.08526,0.59606,0.03605,1.57187,0.02689,-0.05589,-0.00362,-0.0073,-0.1832,-0.0073,-0.0073,0.0220,0.0073,-0.0073,-0.0205,0.8547,3.1658,1.1990,-0.0024,-0.0220,-0.0122,1,1,1,1,1,1,1
19.6873,sweep,2,-down,0.08526,0.57164,0.03605,1.57187,0.02689,-0.05589,-0.00324,-0.0024,-0.2173,-0.0024,-0.0220,0.0073,-0.0220,-0.0220,-0.0479,1.0598,3.1385,1.1404,0.0024,-0.0220,-0.0122,1,1,1,1,1,1,1
19.7273,sweep,2,-down,0.08526,0.57164,0.03605,1.57187,0.02689,-0.05589,-0.00324,-0.0024,-0.2173,-0.0024,-0.0220,0.0073,-0.0220,-0.0220,-0.0479,1.0598,3.1385,1.1404,0.0024,-0.0220,-0.0122,1,1,1,1,1,1,1
19.7673,sweep,2,-down,0.08526,0.55600,0.03605,1.57187,0.02689,-0.05589,-0.00324,-0.0073,-0.1734,-0.0073,-0.0073,-0.0073,0.0073,0.0073,-0.0479,0.9778,3.1248,1.0965,-0.0024,-0.0220,-0.0122,1,1,1,1,1,1,1
19.8072,sweep,2,-down,0.08526,0.55600,0.03605,1.57187,0.02689,-0.05589,-0.00324,-0.0073,-0.1734,-0.0073,-0.0073,-0.0073,0.0073,0.0073,-0.0479,0.9778,3.1248,1.0965,-0.0024,-0.0220,-0.0122,1,1,1,1,1,1,1
19.8474,sweep,2,-down,0.08526,0.55600,0.03605,1.57187,0.02689,-0.05589,-0.00324,-0.0073,-0.1734,-0.0073,-0.0073,-0.0073,0.0073,0.0073,-0.0479,0.9778,3.1248,1.0965,-0.0024,-0.0220,-0.0122,1,1,1,1,1,1,1
19.8873,sweep,2,-down,0.08526,0.53159,0.03605,1.57187,0.02689,-0.05589,-0.00362,-0.0024,-0.2173,-0.0024,-0.0073,-0.0073,0.0073,-0.0073,-0.0342,1.3880,3.1385,1.0330,0.0024,-0.0171,-0.0073,1,1,1,1,1,1,1
19.9274,sweep,2,-down,0.08526,0.53159,0.03605,1.57187,0.02689,-0.05589,-0.00362,-0.0024,-0.2173,-0.0024,-0.0073,-0.0073,0.0073,-0.0073,-0.0342,1.3880,3.1385,1.0330,0.0024,-0.0171,-0.0073,1,1,1,1,1,1,1
19.9675,sweep,2,-down,0.08526,0.51595,0.03605,1.57187,0.02651,-0.05589,-0.00324,-0.0024,-0.1978,-0.0024,-0.0073,0.0073,-0.0220,-0.0073,-0.0342,1.1692,3.0974,0.9890,-0.0073,-0.0122,-0.0073,1,1,1,1,1,1,1
20.0080,sweep,2,-down,0.08526,0.51595,0.03605,1.57187,0.02651,-0.05589,-0.00324,-0.0024,-0.1978,-0.0024,-0.0073,0.0073,-0.0220,-0.0073,-0.0342,1.1692,3.0974,0.9890,-0.0073,-0.0122,-0.0073,1,1,1,1,1,1,1
20.0477,sweep,2,-down,0.08526,0.51595,0.03605,1.57187,0.02651,-0.05589,-0.00324,-0.0024,-0.1978,-0.0024,-0.0073,0.0073,-0.0220,-0.0073,-0.0342,1.1692,3.0974,0.9890,-0.0073,-0.0122,-0.0073,1,1,1,1,1,1,1
20.0876,sweep,2,-down,0.08526,0.49153,0.03605,1.57187,0.02651,-0.05589,-0.00324,-0.0024,-0.1978,-0.0024,-0.0073,0.0073,-0.0073,-0.0073,-0.0205,1.5658,3.1385,0.9451,-0.0024,-0.0122,-0.0073,1,1,1,1,1,1,1
20.1276,sweep,2,-down,0.08526,0.49153,0.03605,1.57187,0.02651,-0.05589,-0.00324,-0.0024,-0.1978,-0.0024,-0.0073,0.0073,-0.0073,-0.0073,-0.0205,1.5658,3.1385,0.9451,-0.0024,-0.0122,-0.0073,1,1,1,1,1,1,1
20.1674,sweep,2,-down,0.08526,0.47551,0.03605,1.57187,0.02689,-0.05589,-0.00324,-0.0073,-0.1929,-0.0024,-0.0220,-0.0073,0.0073,-0.0073,-0.0479,1.4154,3.0974,0.9060,-0.0024,-0.0073,-0.0073,1,1,1,1,1,1,1
20.2074,sweep,2,-down,0.08526,0.47551,0.03605,1.57187,0.02689,-0.05589,-0.00324,-0.0073,-0.1929,-0.0024,-0.0220,-0.0073,0.0073,-0.0073,-0.0479,1.4154,3.0974,0.9060,-0.0024,-0.0073,-0.0073,1,1,1,1,1,1,1
20.2475,sweep,2,-down,0.08526,0.47551,0.03605,1.57187,0.02689,-0.05589,-0.00324,-0.0073,-0.1929,-0.0024,-0.0220,-0.0073,0.0073,-0.0073,-0.0479,1.4154,3.0974,0.9060,-0.0024,-0.0073,-0.0073,1,1,1,1,1,1,1
20.2874,sweep,2,-down,0.08526,0.45148,0.03605,1.57187,0.02651,-0.05550,-0.00324,-0.0024,-0.1929,-0.0024,-0.0073,-0.0073,-0.0073,-0.0073,-0.0205,1.6205,3.0427,0.8474,0.0024,-0.0024,-0.0024,1,1,1,1,1,1,1
20.3275,sweep,2,-down,0.08526,0.45148,0.03605,1.57187,0.02651,-0.05550,-0.00324,-0.0024,-0.1929,-0.0024,-0.0073,-0.0073,-0.0073,-0.0073,-0.0205,1.6205,3.0427,0.8474,0.0024,-0.0024,-0.0024,1,1,1,1,1,1,1
20.3672,sweep,2,-down,0.08526,0.43507,0.03605,1.57187,0.02689,-0.05589,-0.00324,-0.0024,-0.2222,0.0024,-0.0073,-0.0073,-0.0073,-0.0073,-0.0479,1.8256,3.0291,0.8083,-0.0024,-0.0024,-0.0024,1,1,1,1,1,1,1
20.4074,sweep,2,-down,0.08526,0.43507,0.03605,1.57187,0.02689,-0.05589,-0.00324,-0.0024,-0.2222,0.0024,-0.0073,-0.0073,-0.0073,-0.0073,-0.0479,1.8256,3.0291,0.8083,-0.0024,-0.0024,-0.0024,1,1,1,1,1,1,1
20.4473,sweep,2,-down,0.08526,0.43507,0.03605,1.57187,0.02689,-0.05589,-0.00324,-0.0024,-0.2222,0.0024,-0.0073,-0.0073,-0.0073,-0.0073,-0.0479,1.8256,3.0291,0.8083,-0.0024,-0.0024,-0.0024,1,1,1,1,1,1,1
20.4873,sweep,2,-down,0.08526,0.41104,0.03605,1.57187,0.02651,-0.05550,-0.00324,-0.0024,-0.1880,-0.0024,-0.0220,-0.0073,-0.0073,0.0073,-0.0068,1.8256,3.0017,0.7497,-0.0024,0.0024,-0.0073,1,1,1,1,1,1,1
20.5273,sweep,2,-down,0.08526,0.41104,0.03605,1.57187,0.02651,-0.05550,-0.00324,-0.0024,-0.1880,-0.0024,-0.0220,-0.0073,-0.0073,0.0073,-0.0068,1.8256,3.0017,0.7497,-0.0024,0.0024,-0.0073,1,1,1,1,1,1,1
20.5673,sweep,2,-down,0.08526,0.39502,0.03605,1.57187,0.02651,-0.05550,-0.00362,-0.0024,-0.2125,-0.0024,-0.0073,-0.0220,-0.0220,-0.0073,0.0068,2.1402,2.9470,0.7057,-0.0024,0.0024,-0.0024,1,1,1,1,1,1,1
20.6074,sweep,2,-down,0.08526,0.39502,0.03605,1.57187,0.02651,-0.05550,-0.00362,-0.0024,-0.2125,-0.0024,-0.0073,-0.0220,-0.0220,-0.0073,0.0068,2.1402,2.9470,0.7057,-0.0024,0.0024,-0.0024,1,1,1,1,1,1,1
20.6475,sweep,2,-down,0.08526,0.39502,0.03605,1.57187,0.02651,-0.05550,-0.00362,-0.0024,-0.2125,-0.0024,-0.0073,-0.0220,-0.0220,-0.0073,0.0068,2.1402,2.9470,0.7057,-0.0024,0.0024,-0.0024,1,1,1,1,1,1,1
20.6873,sweep,2,-down,0.08526,0.37099,0.03605,1.57187,0.02651,-0.05589,-0.00324,-0.0073,-0.1978,-0.0024,-0.0073,-0.0073,-0.0220,-0.0220,-0.0205,1.9897,2.9197,0.6422,-0.0024,-0.0024,-0.0073,1,1,1,1,1,1,1
