peipl15/reBot_Arm/outputs/gravity_calib_20260621_234805.csv
t_s,phase,swept_joint,direction,q1,q2,q3,q4,q5,q6,q7,v1,v2,v3,v4,v5,v6,v7,tau1,tau2,tau3,tau4,tau5,tau6,tau7,st1,st2,st3,st4,st5,st6,st7
0.0024,approach,2,to_lo,0.02041,0.00095,0.02995,1.58751,0.03376,0.17987,-0.00324,0.0024,-0.0024,-0.0024,-0.0073,-0.0073,-0.0073,-0.0073,0.0342,-0.0068,-0.0068,-0.0024,-0.0024,-0.0171,-0.0024,1,1,1,1,1,1,1
0.0423,approach,2,to_lo,0.02041,0.00095,0.02995,1.58751,0.03376,0.17987,-0.00324,0.0024,-0.0024,-0.0024,-0.0073,-0.0073,-0.0073,-0.0073,0.0342,-0.0068,-0.0068,-0.0024,-0.0024,-0.0171,-0.0024,1,1,1,1,1,1,1
0.0823,approach,2,to_lo,0.02041,0.00477,0.02995,1.58713,0.03414,0.17987,-0.00324,-0.0024,0.1099,-0.0024,-0.0073,0.0073,-0.0073,-0.0073,-0.0068,1.5111,-0.0205,-0.1001,0.0073,-0.0122,-0.0024,1,1,1,1,1,1,1
0.1225,approach,2,to_lo,0.02041,0.00477,0.02995,1.58713,0.03414,0.17987,-0.00324,-0.0024,0.1099,-0.0024,-0.0073,0.0073,-0.0073,-0.0073,-0.0068,1.5111,-0.0205,-0.1001,0.0073,-0.0122,-0.0024,1,1,1,1,1,1,1
0.1624,approach,2,to_lo,0.02041,0.01621,0.02995,1.58255,0.03376,0.17987,-0.00324,-0.0024,0.1148,-0.0024,-0.0220,-0.0220,-0.0073,-0.0073,-0.0205,2.0855,-0.0479,-0.2222,0.0073,-0.0171,-0.0024,1,1,1,1,1,1,1
0.2027,approach,2,to_lo,0.02041,0.01621,0.02995,1.58255,0.03376,0.17987,-0.00324,-0.0024,0.1148,-0.0024,-0.0220,-0.0220,-0.0073,-0.0073,-0.0205,2.0855,-0.0479,-0.2222,0.0073,-0.0171,-0.0024,1,1,1,1,1,1,1
0.2426,approach,2,to_lo,0.02041,0.01621,0.02995,1.58255,0.03376,0.17987,-0.00324,-0.0024,0.1148,-0.0024,-0.0220,-0.0220,-0.0073,-0.0073,-0.0205,2.0855,-0.0479,-0.2222,0.0073,-0.0171,-0.0024,1,1,1,1,1,1,1
0.2823,approach,2,to_lo,0.02041,0.03033,0.02995,1.57874,0.03376,0.17987,-0.00324,-0.0024,0.1197,-0.0024,-0.0366,-0.0073,-0.0073,-0.0073,-0.0068,4.4513,-0.0342,-0.4371,0.0024,-0.0122,-0.0024,1,1,1,1,1,1,1
0.3225,approach,2,to_lo,0.02041,0.03033,0.02995,1.57874,0.03376,0.17987,-0.00324,-0.0024,0.1197,-0.0024,-0.0366,-0.0073,-0.0073,-0.0073,-0.0068,4.4513,-0.0342,-0.4371,0.0024,-0.0122,-0.0024,1,1,1,1,1,1,1
0.3627,approach,2,to_lo,0.02041,0.03872,0.02995,1.57530,0.03376,0.17987,-0.00324,-0.0024,0.1197,-0.0024,-0.0513,-0.0073,-0.0220,-0.0073,-0.0205,5.2581,-0.0205,-0.3883,-0.0122,-0.0122,-0.0073,1,1,1,1,1,1,1
0.4025,approach,2,to_lo,0.02041,0.03872,0.02995,1.57530,0.03376,0.17987,-0.00324,-0.0024,0.1197,-0.0024,-0.0513,-0.0073,-0.0220,-0.0073,-0.0205,5.2581,-0.0205,-0.3883,-0.0122,-0.0122,-0.0073,1,1,1,1,1,1,1
0.4426,approach,2,to_lo,0.02041,0.03872,0.02995,1.57530,0.03376,0.17987,-0.00324,-0.0024,0.1197,-0.0024,-0.0513,-0.0073,-0.0220,-0.0073,-0.0205,5.2581,-0.0205,-0.3883,-0.0122,-0.0122,-0.0073,1,1,1,1,1,1,1
0.4823,approach,2,to_lo,0.02041,0.05055,0.02995,1.57225,0.03376,0.17987,-0.00362,-0.0024,0.0855,-0.0024,-0.0220,-0.0073,-0.0073,-0.0073,0.0068,5.6684,-0.0479,-0.2857,-0.0171,-0.0171,-0.0073,1,1,1,1,1,1,1
0.5225,approach,2,to_lo,0.02041,0.05055,0.02995,1.57225,0.03376,0.17987,-0.00362,-0.0024,0.0855,-0.0024,-0.0220,-0.0073,-0.0073,-0.0073,0.0068,5.6684,-0.0479,-0.2857,-0.0171,-0.0171,-0.0073,1,1,1,1,1,1,1
0.5624,approach,2,to_lo,0.02041,0.05818,0.02995,1.57149,0.03376,0.17987,-0.00324,-0.0073,0.0904,-0.0073,-0.0220,-0.0073,0.0073,-0.0073,-0.0068,5.3538,-0.0479,-0.2662,-0.0220,-0.0171,-0.0073,1,1,1,1,1,1,1
0.6023,approach,2,to_lo,0.02041,0.05818,0.02995,1.57149,0.03376,0.17987,-0.00324,-0.0073,0.0904,-0.0073,-0.0220,-0.0073,0.0073,-0.0073,-0.0068,5.3538,-0.0479,-0.2662,-0.0220,-0.0171,-0.0073,1,1,1,1,1,1,1
0.6424,approach,2,to_lo,0.02041,0.05818,0.02995,1.57149,0.03376,0.17987,-0.00324,-0.0073,0.0904,-0.0073,-0.0220,-0.0073,0.0073,-0.0073,-0.0068,5.3538,-0.0479,-0.2662,-0.0220,-0.0171,-0.0073,1,1,1,1,1,1,1
0.6824,approach,2,to_lo,0.02041,0.06733,0.02995,1.57149,0.03376,0.17987,-0.00324,-0.0024,0.0806,-0.0073,-0.0073,0.0073,-0.0073,-0.0073,-0.0068,5.6410,-0.0479,-0.2955,-0.0220,-0.0171,-0.0073,1,1,1,1,1,1,1
0.7224,approach,2,to_lo,0.02041,0.06733,0.02995,1.57149,0.03376,0.17987,-0.00324,-0.0024,0.0806,-0.0073,-0.0073,0.0073,-0.0073,-0.0073,-0.0068,5.6410,-0.0479,-0.2955,-0.0220,-0.0171,-0.0073,1,1,1,1,1,1,1
0.7624,approach,2,to_lo,0.02041,0.07267,0.02995,1.57034,0.03376,0.17987,-0.00324,-0.0024,0.0708,-0.0024,-0.0220,-0.0220,-0.0073,-0.0073,-0.0068,5.3265,-0.0752,-0.2320,-0.0269,-0.0171,-0.0073,1,1,1,1,1,1,1
0.8023,approach,2,to_lo,0.02041,0.07267,0.02995,1.57034,0.03376,0.17987,-0.00324,-0.0024,0.0708,-0.0024,-0.0220,-0.0220,-0.0073,-0.0073,-0.0068,5.3265,-0.0752,-0.2320,-0.0269,-0.0171,-0.0073,1,1,1,1,1,1,1
0.8424,approach,2,to_lo,0.02041,0.07267,0.02995,1.57034,0.03376,0.17987,-0.00324,-0.0024,0.0708,-0.0024,-0.0220,-0.0220,-0.0073,-0.0073,-0.0068,5.3265,-0.0752,-0.2320,-0.0269,-0.0171,-0.0073,1,1,1,1,1,1,1
0.8825,approach,2,to_lo,0.02041,0.07992,0.02995,1.57034,0.03376,0.17987,-0.00324,-0.0024,0.0659,0.0024,-0.0073,0.0073,0.0073,-0.0220,-0.0068,5.5453,-0.0889,-0.1929,-0.0269,-0.0220,-0.0024,1,1,1,1,1,1,1
0.9223,approach,2,to_lo,0.02041,0.07992,0.02995,1.57034,0.03376,0.17987,-0.00324,-0.0024,0.0659,0.0024,-0.0073,0.0073,0.0073,-0.0220,-0.0068,5.5453,-0.0889,-0.1929,-0.0269,-0.0220,-0.0024,1,1,1,1,1,1,1
0.9624,approach,2,to_lo,0.02041,0.08373,0.02995,1.57034,0.03376,0.17987,-0.00324,-0.0024,0.0513,-0.0024,-0.0220,-0.0073,-0.0073,-0.0073,-0.0068,5.8051,-0.1026,-0.1783,-0.0317,-0.0220,-0.0073,1,1,1,1,1,1,1
1.0023,approach,2,to_lo,0.02041,0.08373,0.02995,1.57034,0.03376,0.17987,-0.00324,-0.0024,0.0513,-0.0024,-0.0220,-0.0073,-0.0073,-0.0073,-0.0068,5.8051,-0.1026,-0.1783,-0.0317,-0.0220,-0.0073,1,1,1,1,1,1,1
1.0424,approach,2,to_lo,0.02041,0.08373,0.02995,1.57034,0.03376,0.17987,-0.00324,-0.0024,0.0513,-0.0024,-0.0220,-0.0073,-0.0073,-0.0073,-0.0068,5.8051,-0.1026,-0.1783,-0.0317,-0.0220,-0.0073,1,1,1,1,1,1,1
1.0824,approach,2,to_lo,0.02041,0.08946,0.02995,1.56996,0.03376,0.17987,-0.00324,-0.0024,0.0464,-0.0024,-0.0073,-0.0073,-0.0220,-0.0220,0.0068,5.6137,-0.1436,-0.1490,-0.0366,-0.0269,-0.0024,1,1,1,1,1,1,1
1.1223,approach,2,to_lo,0.02041,0.08946,0.02995,1.56996,0.03376,0.17987,-0.00324,-0.0024,0.0464,-0.0024,-0.0073,-0.0073,-0.0220,-0.0220,0.0068,5.6137,-0.1436,-0.1490,-0.0366,-0.0269,-0.0024,1,1,1,1,1,1,1
1.1624,approach,2,to_lo,0.02041,0.09251,0.02995,1.57034,0.03376,0.17987,-0.00362,-0.0024,0.0513,-0.0024,-0.0073,-0.0073,-0.0220,-0.0073,0.0068,5.2444,-0.1709,-0.1490,-0.0366,-0.0269,0.0024,1,1,1,1,1,1,1
1.2023,approach,2,to_lo,0.02041,0.09251,0.02995,1.57034,0.03376,0.17987,-0.00362,-0.0024,0.0513,-0.0024,-0.0073,-0.0073,-0.0220,-0.0073,0.0068,5.2444,-0.1709,-0.1490,-0.0366,-0.0269,0.0024,1,1,1,1,1,1,1
1.2425,approach,2,to_lo,0.02041,0.09251,0.02995,1.57034,0.03376,0.17987,-0.00362,-0.0024,0.0513,-0.0024,-0.0073,-0.0073,-0.0220,-0.0073,0.0068,5.2444,-0.1709,-0.1490,-0.0366,-0.0269,0.0024,1,1,1,1,1,1,1
1.2824,approach,2,to_lo,0.02041,0.09632,0.02995,1.56996,0.03376,0.17987,-0.00324,-0.0024,0.0269,-0.0024,-0.0220,-0.0073,-0.0073,0.0073,-0.0205,5.8325,-0.2120,-0.1343,-0.0415,-0.0269,0.0024,1,1,1,1,1,1,1
1.3223,approach,2,to_lo,0.02041,0.09632,0.02995,1.56996,0.03376,0.17987,-0.00324,-0.0024,0.0269,-0.0024,-0.0220,-0.0073,-0.0073,0.0073,-0.0205,5.8325,-0.2120,-0.1343,-0.0415,-0.0269,0.0024,1,1,1,1,1,1,1
1.3623,approach,2,to_lo,0.02041,0.09899,0.02995,1.56996,0.03376,0.17987,-0.00324,-0.0024,0.0464,-0.0024,-0.0073,-0.0073,-0.0220,-0.0073,-0.0068,5.3812,-0.2120,-0.1197,-0.0415,-0.0317,-0.0024,1,1,1,1,1,1,1
1.4024,approach,2,to_lo,0.02041,0.09899,0.02995,1.56996,0.03376,0.17987,-0.00324,-0.0024,0.0464,-0.0024,-0.0073,-0.0073,-0.0220,-0.0073,-0.0068,5.3812,-0.2120,-0.1197,-0.0415,-0.0317,-0.0024,1,1,1,1,1,1,1
1.4422,approach,2,to_lo,0.02041,0.09899,0.02995,1.56996,0.03376,0.17987,-0.00324,-0.0024,0.0464,-0.0024,-0.0073,-0.0073,-0.0220,-0.0073,-0.0068,5.3812,-0.2120,-0.1197,-0.0415,-0.0317,-0.0024,1,1,1,1,1,1,1
1.4823,approach,2,to_lo,0.02041,0.10205,0.02995,1.57034,0.03376,0.17987,-0.00324,-0.0024,0.0317,-0.0024,0.0073,-0.0073,-0.0073,-0.0073,0.0068,5.8188,-0.2393,-0.1148,-0.0464,-0.0317,-0.0024,1,1,1,1,1,1,1
1.9848,sweep,2,+up,0.02041,0.10319,0.02995,1.57034,0.03376,0.17987,-0.00324,-0.0024,0.0171,-0.0024,-0.0073,0.0073,0.0073,0.0073,0.0068,5.5863,-0.2256,-0.1148,-0.0464,-0.0366,-0.0024,1,1,1,1,1,1,1
2.0250,sweep,2,+up,0.02041,0.10319,0.02995,1.57034,0.03376,0.17987,-0.00324,-0.0024,0.0171,-0.0024,-0.0073,0.0073,0.0073,0.0073,0.0068,5.5863,-0.2256,-0.1148,-0.0464,-0.0366,-0.0024,1,1,1,1,1,1,1
2.0648,sweep,2,+up,0.02041,0.11730,0.02995,1.57149,0.03376,0.17987,-0.00324,-0.0024,0.1783,-0.0024,0.0659,-0.0220,-0.0073,-0.0073,0.0205,6.6803,-0.3077,-0.1441,-0.0611,-0.0366,-0.0073,1,1,1,1,1,1,1
2.1049,sweep,2,+up,0.02041,0.11730,0.02995,1.57149,0.03376,0.17987,-0.00324,-0.0024,0.1783,-0.0024,0.0659,-0.0220,-0.0073,-0.0073,0.0205,6.6803,-0.3077,-0.1441,-0.0611,-0.0366,-0.0073,1,1,1,1,1,1,1
2.1450,sweep,2,+up,0.02041,0.11730,0.02995,1.57149,0.03376,0.17987,-0.00324,-0.0024,0.1783,-0.0024,0.0659,-0.0220,-0.0073,-0.0073,0.0205,6.6803,-0.3077,-0.1441,-0.0611,-0.0366,-0.0073,1,1,1,1,1,1,1
2.1849,sweep,2,+up,0.02041,0.14286,0.02995,1.56920,0.03376,0.17987,-0.00324,-0.0024,0.1880,0.0024,-0.0513,-0.0073,0.0073,-0.0220,0.0205,4.8342,-0.3350,-0.0562,-0.0562,-0.0317,-0.0073,1,1,1,1,1,1,1
2.2250,sweep,2,+up,0.02041,0.14286,0.02995,1.56920,0.03376,0.17987,-0.00324,-0.0024,0.1880,0.0024,-0.0513,-0.0073,0.0073,-0.0220,0.0205,4.8342,-0.3350,-0.0562,-0.0562,-0.0317,-0.0073,1,1,1,1,1,1,1
2.2648,sweep,2,+up,0.02041,0.15889,0.02995,1.56767,0.03376,0.17987,-0.00324,0.0024,0.2173,-0.0024,-0.0073,-0.0073,-0.0073,-0.0220,0.0479,4.7932,-0.3487,0.0122,-0.0562,-0.0366,-0.0073,1,1,1,1,1,1,1
2.3050,sweep,2,+up,0.02041,0.15889,0.02995,1.56767,0.03376,0.17987,-0.00324,0.0024,0.2173,-0.0024,-0.0073,-0.0073,-0.0073,-0.0220,0.0479,4.7932,-0.3487,0.0122,-0.0562,-0.0366,-0.0073,1,1,1,1,1,1,1
2.3448,sweep,2,+up,0.02041,0.15889,0.02995,1.56767,0.03376,0.17987,-0.00324,0.0024,0.2173,-0.0024,-0.0073,-0.0073,-0.0073,-0.0220,0.0479,4.7932,-0.3487,0.0122,-0.0562,-0.0366,-0.0073,1,1,1,1,1,1,1
2.3850,sweep,2,+up,0.02041,0.18292,0.02995,1.56462,0.03376,0.17987,-0.00324,-0.0024,0.1734,-0.0073,-0.0220,-0.0073,-0.0073,-0.0073,0.0205,4.7932,-0.3350,0.3297,-0.0562,-0.0366,-0.0073,1,1,1,1,1,1,1
2.4248,sweep,2,+up,0.02041,0.18292,0.02995,1.56462,0.03376,0.17987,-0.00324,-0.0024,0.1734,-0.0073,-0.0220,-0.0073,-0.0073,-0.0073,0.0205,4.7932,-0.3350,0.3297,-0.0562,-0.0366,-0.0073,1,1,1,1,1,1,1
2.4648,sweep,2,+up,0.02041,0.19894,0.02995,1.56653,0.03376,0.17987,-0.00324,-0.0024,0.2125,-0.0024,0.0220,-0.0220,-0.0073,-0.0073,0.0205,4.8615,-0.3761,0.3687,-0.0611,-0.0366,-0.0024,1,1,1,1,1,1,1
2.5050,sweep,2,+up,0.02041,0.19894,0.02995,1.56653,0.03376,0.17987,-0.00324,-0.0024,0.2125,-0.0024,0.0220,-0.0220,-0.0073,-0.0073,0.0205,4.8615,-0.3761,0.3687,-0.0611,-0.0366,-0.0024,1,1,1,1,1,1,1
2.5449,sweep,2,+up,0.02041,0.19894,0.02995,1.56653,0.03376,0.17987,-0.00324,-0.0024,0.2125,-0.0024,0.0220,-0.0220,-0.0073,-0.0073,0.0205,4.8615,-0.3761,0.3687,-0.0611,-0.0366,-0.0024,1,1,1,1,1,1,1
2.5849,sweep,2,+up,0.02041,0.22297,0.02995,1.56844,0.03376,0.17987,-0.00324,0.0024,0.2027,-0.0024,0.0073,-0.0073,0.0073,-0.0073,-0.0068,4.2735,-0.3761,0.3492,-0.0611,-0.0366,-0.0073,1,1,1,1,1,1,1
2.6247,sweep,2,+up,0.02041,0.22297,0.02995,1.56844,0.03376,0.17987,-0.00324,0.0024,0.2027,-0.0024,0.0073,-0.0073,0.0073,-0.0073,-0.0068,4.2735,-0.3761,0.3492,-0.0611,-0.0366,-0.0073,1,1,1,1,1,1,1
2.6647,sweep,2,+up,0.02041,0.23899,0.02995,1.56882,0.03376,0.17987,-0.00324,0.0024,0.1978,-0.0024,-0.0073,-0.0073,-0.0220,-0.0073,-0.0068,4.3282,-0.3897,0.3980,-0.0611,-0.0415,-0.0024,1,1,1,1,1,1,1
2.7049,sweep,2,+up,0.02041,0.23899,0.02995,1.56882,0.03376,0.17987,-0.00324,0.0024,0.1978,-0.0024,-0.0073,-0.0073,-0.0220,-0.0073,-0.0068,4.3282,-0.3897,0.3980,-0.0611,-0.0415,-0.0024,1,1,1,1,1,1,1
2.7450,sweep,2,+up,0.02041,0.23899,0.02995,1.56882,0.03376,0.17987,-0.00324,0.0024,0.1978,-0.0024,-0.0073,-0.0073,-0.0220,-0.0073,-0.0068,4.3282,-0.3897,0.3980,-0.0611,-0.0415,-0.0024,1,1,1,1,1,1,1
2.7848,sweep,2,+up,0.02041,0.26341,0.02995,1.56882,0.03376,0.17987,-0.00324,-0.0073,0.2125,-0.0024,-0.0073,-0.0073,-0.0073,-0.0073,0.0068,4.1778,-0.3897,0.4908,-0.0659,-0.0366,-0.0073,1,1,1,1,1,1,1
2.8248,sweep,2,+up,0.02041,0.26341,0.02995,1.56882,0.03376,0.17987,-0.00324,-0.0073,0.2125,-0.0024,-0.0073,-0.0073,-0.0073,-0.0073,0.0068,4.1778,-0.3897,0.4908,-0.0659,-0.0366,-0.0073,1,1,1,1,1,1,1
2.8649,sweep,2,+up,0.02041,0.27943,0.02995,1.56882,0.03376,0.17987,-0.00324,0.0024,0.1929,-0.0073,0.0073,-0.0073,-0.0073,-0.0073,0.0068,4.1915,-0.4034,0.5250,-0.0611,-0.0415,-0.0024,1,1,1,1,1,1,1
2.9048,sweep,2,+up,0.02041,0.27943,0.02995,1.56882,0.03376,0.17987,-0.00324,0.0024,0.1929,-0.0073,0.0073,-0.0073,-0.0073,-0.0073,0.0068,4.1915,-0.4034,0.5250,-0.0611,-0.0415,-0.0024,1,1,1,1,1,1,1
2.9449,sweep,2,+up,0.02041,0.27943,0.02995,1.56882,0.03376,0.17987,-0.00324,0.0024,0.1929,-0.0073,0.0073,-0.0073,-0.0073,-0.0073,0.0068,4.1915,-0.4034,0.5250,-0.0611,-0.0415,-0.0024,1,1,1,1,1,1,1
2.9850,sweep,2,+up,0.02041,0.30385,0.02995,1.56920,0.03376,0.17987,-0.00324,-0.0024,0.2125,-0.0073,-0.0073,-0.0073,-0.0073,-0.0073,0.0068,3.6718,-0.4171,0.6081,-0.0708,-0.0415,-0.0024,1,1,1,1,1,1,1
3.0250,sweep,2,+up,0.02041,0.30385,0.02995,1.56920,0.03376,0.17987,-0.00324,-0.0024,0.2125,-0.0073,-0.0073,-0.0073,-0.0073,-0.0073,0.0068,3.6718,-0.4171,0.6081,-0.0708,-0.0415,-0.0024,1,1,1,1,1,1,1
3.0648,sweep,2,+up,0.02041,0.31949,0.02995,1.56920,0.03376,0.17987,-0.00324,-0.0073,0.1832,-0.0024,0.0073,-0.0220,0.0073,-0.0073,-0.0205,3.9726,-0.4444,0.6374,-0.0708,-0.0366,-0.0073,1,1,1,1,1,1,1
3.1051,sweep,2,+up,0.02041,0.31949,0.02995,1.56920,0.03376,0.17987,-0.00324,-0.0073,0.1832,-0.0024,0.0073,-0.0220,0.0073,-0.0073,-0.0205,3.9726,-0.4444,0.6374,-0.0708,-0.0366,-0.0073,1,1,1,1,1,1,1
3.1448,sweep,2,+up,0.02041,0.31949,0.02995,1.56920,0.03376,0.17987,-0.00324,-0.0073,0.1832,-0.0024,0.0073,-0.0220,0.0073,-0.0073,-0.0205,3.9726,-0.4444,0.6374,-0.0708,-0.0366,-0.0073,1,1,1,1,1,1,1
3.1848,sweep,2,+up,0.02041,0.34352,0.02995,1.56920,0.03376,0.17987,-0.00324,0.0024,0.1880,-0.0073,-0.0073,-0.0220,-0.0073,0.0073,-0.0068,3.5761,-0.4581,0.7009,-0.0659,-0.0415,-0.0024,1,1,1,1,1,1,1
3.2248,sweep,2,+up,0.02041,0.34352,0.02995,1.56920,0.03376,0.17987,-0.00324,0.0024,0.1880,-0.0073,-0.0073,-0.0220,-0.0073,0.0073,-0.0068,3.5761,-0.4581,0.7009,-0.0659,-0.0415,-0.0024,1,1,1,1,1,1,1
3.2650,sweep,2,+up,0.02041,0.35954,0.02995,1.56920,0.03376,0.17987,-0.00324,0.0024,0.1978,0.0024,-0.0073,-0.0073,0.0073,-0.0073,0.0068,3.7128,-0.4718,0.7350,-0.0659,-0.0464,-0.0024,1,1,1,1,1,1,1
3.3048,sweep,2,+up,0.02041,0.35954,0.02995,1.56920,0.03376,0.17987,-0.00324,0.0024,0.1978,0.0024,-0.0073,-0.0073,0.0073,-0.0073,0.0068,3.7128,-0.4718,0.7350,-0.0659,-0.0464,-0.0024,1,1,1,1,1,1,1
3.3448,sweep,2,+up,0.02041,0.35954,0.02995,1.56920,0.03376,0.17987,-0.00324,0.0024,0.1978,0.0024,-0.0073,-0.0073,0.0073,-0.0073,0.0068,3.7128,-0.4718,0.7350,-0.0659,-0.0464,-0.0024,1,1,1,1,1,1,1
3.3850,sweep,2,+up,0.02041,0.38396,0.02995,1.56958,0.03376,0.17987,-0.00324,-0.0024,0.1978,-0.0024,0.0073,-0.0220,0.0073,0.0073,0.0205,3.3983,-0.4718,0.8034,-0.0708,-0.0513,-0.0073,1,1,1,1,1,1,1
3.4248,sweep,2,+up,0.02041,0.38396,0.02995,1.56958,0.03376,0.17987,-0.00324,-0.0024,0.1978,-0.0024,0.0073,-0.0220,0.0073,0.0073,0.0205,3.3983,-0.4718,0.8034,-0.0708,-0.0513,-0.0073,1,1,1,1,1,1,1
3.4648,sweep,2,+up,0.02041,0.39960,0.02995,1.56958,0.03376,0.17987,-0.00362,-0.0024,0.1978,0.0024,0.0073,-0.0073,-0.0073,-0.0073,0.0205,3.4667,-0.4718,0.8327,-0.0708,-0.0513,-0.0073,1,1,1,1,1,1,1
3.5049,sweep,2,+up,0.02041,0.39960,0.02995,1.56958,0.03376,0.17987,-0.00362,-0.0024,0.1978,0.0024,0.0073,-0.0073,-0.0073,-0.0073,0.0205,3.4667,-0.4718,0.8327,-0.0708,-0.0513,-0.0073,1,1,1,1,1,1,1
3.5450,sweep,2,+up,0.02041,0.39960,0.02995,1.56958,0.03376,0.17987,-0.00362,-0.0024,0.1978,0.0024,0.0073,-0.0073,-0.0073,-0.0073,0.0205,3.4667,-0.4718,0.8327,-0.0708,-0.0513,-0.0073,1,1,1,1,1,1,1
3.5848,sweep,2,+up,0.02041,0.42401,0.02995,1.56958,0.03376,0.17987,-0.00324,-0.0024,0.1783,-0.0024,0.0073,-0.0073,-0.0073,0.0073,0.0205,3.3573,-0.4718,0.8913,-0.0708,-0.0513,-0.0073,1,1,1,1,1,1,1
3.6249,sweep,2,+up,0.02041,0.42401,0.02995,1.56958,0.03376,0.17987,-0.00324,-0.0024,0.1783,-0.0024,0.0073,-0.0073,-0.0073,0.0073,0.0205,3.3573,-0.4718,0.8913,-0.0708,-0.0513,-0.0073,1,1,1,1,1,1,1
3.6648,sweep,2,+up,0.02041,0.44003,0.02995,1.56958,0.03376,0.17987,-0.00324,-0.0024,0.1978,-0.0024,-0.0073,-0.0073,-0.0220,0.0073,0.0342,3.2615,-0.4991,0.9255,-0.0708,-0.0562,-0.0073,1,1,1,1,1,1,1
3.7049,sweep,2,+up,0.02041,0.44003,0.02995,1.56958,0.03376,0.17987,-0.00324,-0.0024,0.1978,-0.0024,-0.0073,-0.0073,-0.0220,0.0073,0.0342,3.2615,-0.4991,0.9255,-0.0708,-0.0562,-0.0073,1,1,1,1,1,1,1
3.7448,sweep,2,+up,0.02041,0.44003,0.02995,1.56958,0.03376,0.17987,-0.00324,-0.0024,0.1978,-0.0024,-0.0073,-0.0073,-0.0220,0.0073,0.0342,3.2615,-0.4991,0.9255,-0.0708,-0.0562,-0.0073,1,1,1,1,1,1,1
3.7848,sweep,2,+up,0.02041,0.46406,0.02995,1.56958,0.03338,0.17987,-0.00324,-0.0024,0.1978,0.0024,0.0073,-0.0220,-0.0073,-0.0220,0.0205,3.1248,-0.4855,0.9792,-0.0708,-0.0611,-0.0024,1,1,1,1,1,1,1
3.8250,sweep,2,+up,0.02041,0.46406,0.02995,1.56958,0.03338,0.17987,-0.00324,-0.0024,0.1978,0.0024,0.0073,-0.0220,-0.0073,-0.0220,0.0205,3.1248,-0.4855,0.9792,-0.0708,-0.0611,-0.0024,1,1,1,1,1,1,1
3.8650,sweep,2,+up,0.02041,0.48009,0.02995,1.56958,0.03376,0.17987,-0.00324,0.0024,0.2320,-0.0073,-0.0073,-0.0073,-0.0220,-0.0073,-0.0068,2.8923,-0.4991,1.0183,-0.0855,-0.0611,-0.0073,1,1,1,1,1,1,1
3.9050,sweep,2,+up,0.02041,0.48009,0.02995,1.56958,0.03376,0.17987,-0.00324,0.0024,0.2320,-0.0073,-0.0073,-0.0073,-0.0220,-0.0073,-0.0068,2.8923,-0.4991,1.0183,-0.0855,-0.0611,-0.0073,1,1,1,1,1,1,1
3.9449,sweep,2,+up,0.02041,0.48009,0.02995,1.56958,0.03376,0.17987,-0.00324,0.0024,0.2320,-0.0073,-0.0073,-0.0073,-0.0220,-0.0073,-0.0068,2.8923,-0.4991,1.0183,-0.0855,-0.0611,-0.0073,1,1,1,1,1,1,1
3.9848,sweep,2,+up,0.02041,0.50412,0.02956,1.56958,0.03376,0.17948,-0.00324,-0.0073,0.1880,-0.0073,-0.0073,-0.0073,-0.0220,-0.0073,-0.0068,2.8239,-0.4855,1.0867,-0.0855,-0.0659,-0.0073,1,1,1,1,1,1,1
4.0247,sweep,2,+up,0.02041,0.50412,0.02956,1.56958,0.03376,0.17948,-0.00324,-0.0073,0.1880,-0.0073,-0.0073,-0.0073,-0.0220,-0.0073,-0.0068,2.8239,-0.4855,1.0867,-0.0855,-0.0659,-0.0073,1,1,1,1,1,1,1
4.0649,sweep,2,+up,0.02041,0.52052,0.02995,1.56958,0.03376,0.17987,-0.00324,0.0024,0.2027,0.0024,-0.0073,0.0073,-0.0073,-0.0073,-0.0068,2.3727,-0.4855,1.1258,-0.0904,-0.0611,-0.0024,1,1,1,1,1,1,1
4.1050,sweep,2,+up,0.02041,0.52052,0.02995,1.56958,0.03376,0.17987,-0.00324,0.0024,0.2027,0.0024,-0.0073,0.0073,-0.0073,-0.0073,-0.0068,2.3727,-0.4855,1.1258,-0.0904,-0.0611,-0.0024,1,1,1,1,1,1,1
4.1450,sweep,2,+up,0.02041,0.52052,0.02995,1.56958,0.03376,0.17987,-0.00324,0.0024,0.2027,0.0024,-0.0073,0.0073,-0.0073,-0.0073,-0.0068,2.3727,-0.4855,1.1258,-0.0904,-0.0611,-0.0024,1,1,1,1,1,1,1
4.1848,sweep,2,+up,0.02041,0.54456,0.02956,1.56958,0.03376,0.17987,-0.00324,0.0024,0.2125,-0.0024,-0.0073,0.0073,0.0073,0.0073,-0.0068,2.4957,-0.4855,1.1648,-0.0952,-0.0659,-0.0073,1,1,1,1,1,1,1
4.2252,sweep,2,+up,0.02041,0.54456,0.02956,1.56958,0.03376,0.17987,-0.00324,0.0024,0.2125,-0.0024,-0.0073,0.0073,0.0073,0.0073,-0.0068,2.4957,-0.4855,1.1648,-0.0952,-0.0659,-0.0073,1,1,1,1,1,1,1
4.2651,sweep,2,+up,0.02041,0.56058,0.02995,1.56958,0.03338,0.17987,-0.00324,-0.0073,0.1929,-0.0024,-0.0073,-0.0073,-0.0073,-0.0073,-0.0205,2.3590,-0.4718,1.1990,-0.0904,-0.0708,-0.0073,1,1,1,1,1,1,1
4.3048,sweep,2,+up,0.02041,0.56058,0.02995,1.56958,0.03338,0.17987,-0.00324,-0.0073,0.1929,-0.0024,-0.0073,-0.0073,-0.0073,-0.0073,-0.0205,2.3590,-0.4718,1.1990,-0.0904,-0.0708,-0.0073,1,1,1,1,1,1,1
4.3449,sweep,2,+up,0.02041,0.56058,0.02995,1.56958,0.03338,0.17987,-0.00324,-0.0073,0.1929,-0.0024,-0.0073,-0.0073,-0.0073,-0.0073,-0.0205,2.3590,-0.4718,1.1990,-0.0904,-0.0708,-0.0073,1,1,1,1,1,1,1
4.3852,sweep,2,+up,0.02041,0.58499,0.02956,1.56958,0.03338,0.17987,-0.00324,-0.0024,0.2173,-0.0073,-0.0073,0.0073,-0.0073,-0.0073,0.0068,1.9897,-0.4718,1.2430,-0.0855,-0.0757,-0.0073,1,1,1,1,1,1,1
4.4249,sweep,2,+up,0.02041,0.58499,0.02956,1.56958,0.03338,0.17987,-0.00324,-0.0024,0.2173,-0.0073,-0.0073,0.0073,-0.0073,-0.0073,0.0068,1.9897,-0.4718,1.2430,-0.0855,-0.0757,-0.0073,1,1,1,1,1,1,1
4.4649,sweep,2,+up,0.02041,0.60102,0.02956,1.56958,0.03338,0.17948,-0.00362,-0.0024,0.1783,-0.0024,-0.0220,0.0073,-0.0220,-0.0220,0.0205,2.0991,-0.4991,1.2772,-0.0904,-0.0757,-0.0073,1,1,1,1,1,1,1
4.5048,sweep,2,+up,0.02041,0.60102,0.02956,1.56958,0.03338,0.17948,-0.00362,-0.0024,0.1783,-0.0024,-0.0220,0.0073,-0.0220,-0.0220,0.0205,2.0991,-0.4991,1.2772,-0.0904,-0.0757,-0.0073,1,1,1,1,1,1,1
4.5451,sweep,2,+up,0.02041,0.60102,0.02956,1.56958,0.03338,0.17948,-0.00362,-0.0024,0.1783,-0.0024,-0.0220,0.0073,-0.0220,-0.0220,0.0205,2.0991,-0.4991,1.2772,-0.0904,-0.0757,-0.0073,1,1,1,1,1,1,1
4.5850,sweep,2,+up,0.02041,0.62505,0.02956,1.56958,0.03376,0.17987,-0.00324,-0.0073,0.1880,0.0024,-0.0073,0.0073,-0.0073,-0.0073,0.0342,1.8393,-0.4581,1.3309,-0.0904,-0.0757,-0.0024,1,1,1,1,1,1,1
4.6249,sweep,2,+up,0.02041,0.62505,0.02956,1.56958,0.03376,0.17987,-0.00324,-0.0073,0.1880,0.0024,-0.0073,0.0073,-0.0073,-0.0073,0.0342,1.8393,-0.4581,1.3309,-0.0904,-0.0757,-0.0024,1,1,1,1,1,1,1
4.6650,sweep,2,+up,0.02041,0.64107,0.02956,1.56958,0.03338,0.17987,-0.00324,-0.0024,0.1880,-0.0024,-0.0073,-0.0073,-0.0073,0.0073,0.0068,2.0444,-0.4171,1.3700,-0.0952,-0.0708,-0.0024,1,1,1,1,1,1,1
4.7050,sweep,2,+up,0.02041,0.64107,0.02956,1.56958,0.03338,0.17987,-0.00324,-0.0024,0.1880,-0.0024,-0.0073,-0.0073,-0.0073,0.0073,0.0068,2.0444,-0.4171,1.3700,-0.0952,-0.0708,-0.0024,1,1,1,1,1,1,1
4.7449,sweep,2,+up,0.02041,0.64107,0.02956,1.56958,0.03338,0.17987,-0.00324,-0.0024,0.1880,-0.0024,-0.0073,-0.0073,-0.0073,0.0073,0.0068,2.0444,-0.4171,1.3700,-0.0952,-0.0708,-0.0024,1,1,1,1,1,1,1
4.7849,sweep,2,+up,0.02041,0.66472,0.02956,1.56958,0.03338,0.17948,-0.00362,-0.0024,0.1832,-0.0024,-0.0220,-0.0073,-0.0073,-0.0220,0.0068,1.5795,-0.4444,1.4188,-0.0904,-0.0806,0.0024,1,1,1,1,1,1,1
4.8248,sweep,2,+up,0.02041,0.66472,0.02956,1.56958,0.03338,0.17948,-0.00362,-0.0024,0.1832,-0.0024,-0.0220,-0.0073,-0.0073,-0.0220,0.0068,1.5795,-0.4444,1.4188,-0.0904,-0.0806,0.0024,1,1,1,1,1,1,1
4.8649,sweep,2,+up,0.02041,0.67884,0.02956,1.56958,0.03338,0.17987,-0.00324,0.0024,0.1587,-0.0024,-0.0220,-0.0220,-0.0073,-0.0220,0.0342,1.5658,-0.4171,1.4530,-0.0904,-0.0757,-0.0073,1,1,1,1,1,1,1
4.9048,sweep,2,+up,0.02041,0.67884,0.02956,1.56958,0.03338,0.17987,-0.00324,0.0024,0.1587,-0.0024,-0.0220,-0.0220,-0.0073,-0.0220,0.0342,1.5658,-0.4171,1.4530,-0.0904,-0.0757,-0.0073,1,1,1,1,1,1,1
4.9448,sweep,2,+up,0.02041,0.67884,0.02956,1.56958,0.03338,0.17987,-0.00324,0.0024,0.1587,-0.0024,-0.0220,-0.0220,-0.0073,-0.0220,0.0342,1.5658,-0.4171,1.4530,-0.0904,-0.0757,-0.0073,1,1,1,1,1,1,1
4.9849,sweep,2,+up,0.02041,0.69715,0.02956,1.56958,0.03338,0.17987,-0.00324,0.0024,0.1392,-0.0024,-0.0073,0.0073,-0.0073,0.0073,-0.0068,1.4974,-0.4171,1.5116,-0.0904,-0.0708,-0.0024,1,1,1,1,1,1,1
5.0249,sweep,2,+up,0.02041,0.69715,0.02956,1.56958,0.03338,0.17987,-0.00324,0.0024,0.1392,-0.0024,-0.0073,0.0073,-0.0073,0.0073,-0.0068,1.4974,-0.4171,1.5116,-0.0904,-0.0708,-0.0024,1,1,1,1,1,1,1
5.0649,sweep,2,+up,0.02041,0.70821,0.02956,1.56958,0.03338,0.17948,-0.00324,-0.0024,0.1343,-0.0024,-0.0220,-0.0220,-0.0073,0.0073,-0.0205,1.2513,-0.4171,1.5360,-0.0952,-0.0757,-0.0073,1,1,1,1,1,1,1
5.1049,sweep,2,+up,0.02041,0.70821,0.02956,1.56958,0.03338,0.17948,-0.00324,-0.0024,0.1343,-0.0024,-0.0220,-0.0220,-0.0073,0.0073,-0.0205,1.2513,-0.4171,1.5360,-0.0952,-0.0757,-0.0073,1,1,1,1,1,1,1
5.1450,sweep,2,+up,0.02041,0.70821,0.02956,1.56958,0.03338,0.17948,-0.00324,-0.0024,0.1343,-0.0024,-0.0220,-0.0220,-0.0073,0.0073,-0.0205,1.2513,-0.4171,1.5360,-0.0952,-0.0757,-0.0073,1,1,1,1,1,1,1
5.1848,sweep,2,+up,0.02041,0.72232,0.02956,1.56996,0.03338,0.17987,-0.00362,-0.0024,0.1050,0.0024,-0.0073,-0.0073,-0.0073,-0.0220,-0.0342,1.0462,-0.4034,1.5507,-0.0904,-0.0757,-0.0073,1,1,1,1,1,1,1
5.2248,sweep,2,+up,0.02041,0.72232,0.02956,1.56996,0.03338,0.17987,-0.00362,-0.0024,0.1050,0.0024,-0.0073,-0.0073,-0.0073,-0.0220,-0.0342,1.0462,-0.4034,1.5507,-0.0904,-0.0757,-0.0073,1,1,1,1,1,1,1
5.2650,sweep,2,+up,0.02041,0.73034,0.02956,1.56996,0.03338,0.17948,-0.00324,-0.0024,0.0855,-0.0024,-0.0073,-0.0073,-0.0220,0.0073,-0.0205,1.1966,-0.3761,1.5702,-0.0806,-0.0757,-0.0073,1,1,1,1,1,1,1
5.3048,sweep,2,+up,0.02041,0.73034,0.02956,1.56996,0.03338,0.17948,-0.00324,-0.0024,0.0855,-0.0024,-0.0073,-0.0073,-0.0220,0.0073,-0.0205,1.1966,-0.3761,1.5702,-0.0806,-0.0757,-0.0073,1,1,1,1,1,1,1
5.3448,sweep,2,+up,0.02041,0.73034,0.02956,1.56996,0.03338,0.17948,-0.00324,-0.0024,0.0855,-0.0024,-0.0073,-0.0073,-0.0220,0.0073,-0.0205,1.1966,-0.3761,1.5702,-0.0806,-0.0757,-0.0073,1,1,1,1,1,1,1
5.3852,sweep,2,+up,0.02041,0.74102,0.02956,1.57034,0.03338,0.17987,-0.00324,-0.0024,0.0952,-0.0024,-0.0220,-0.0073,-0.0073,-0.0073,-0.0479,0.9504,-0.3761,1.5800,-0.0806,-0.0806,-0.0073,1,1,1,1,1,1,1
5.4249,sweep,2,+up,0.02041,0.74102,0.02956,1.57034,0.03338,0.17987,-0.00324,-0.0024,0.0952,-0.0024,-0.0220,-0.0073,-0.0073,-0.0073,-0.0479,0.9504,-0.3761,1.5800,-0.0806,-0.0806,-0.0073,1,1,1,1,1,1,1
5.4648,sweep,2,+up,0.02041,0.74979,0.02956,1.57034,0.03338,0.17948,-0.00324,-0.0024,0.0659,-0.0024,-0.0073,-0.0073,-0.0220,-0.0073,-0.0205,1.0872,-0.3761,1.5653,-0.0806,-0.0806,-0.0073,1,1,1,1,1,1,1
5.5049,sweep,2,+up,0.02041,0.74979,0.02956,1.57034,0.03338,0.17948,-0.00324,-0.0024,0.0659,-0.0024,-0.0073,-0.0073,-0.0220,-0.0073,-0.0205,1.0872,-0.3761,1.5653,-0.0806,-0.0806,-0.0073,1,1,1,1,1,1,1
5.5457,sweep,2,+up,0.02041,0.74979,0.02956,1.57034,0.03338,0.17948,-0.00324,-0.0024,0.0659,-0.0024,-0.0073,-0.0073,-0.0220,-0.0073,-0.0205,1.0872,-0.3761,1.5653,-0.0806,-0.0806,-0.0073,1,1,1,1,1,1,1
5.5852,sweep,2,+up,0.02041,0.75513,0.02956,1.57034,0.03338,0.17987,-0.00324,-0.0073,0.0415,-0.0024,0.0073,-0.0220,-0.0073,-0.0073,-0.0615,1.1145,-0.3624,1.5800,-0.0806,-0.0855,-0.0024,1,1,1,1,1,1,1
5.6248,sweep,2,+up,0.02041,0.75513,0.02956,1.57034,0.03338,0.17987,-0.00324,-0.0073,0.0415,-0.0024,0.0073,-0.0220,-0.0073,-0.0073,-0.0615,1.1145,-0.3624,1.5800,-0.0806,-0.0855,-0.0024,1,1,1,1,1,1,1
5.6650,sweep,2,+up,0.02041,0.76200,0.02956,1.57034,0.03338,0.17987,-0.00324,-0.0024,0.0513,-0.0024,-0.0073,-0.0220,-0.0073,-0.0073,-0.0205,1.0872,-0.3487,1.5849,-0.0806,-0.0904,-0.0024,1,1,1,1,1,1,1
5.7048,sweep,2,+up,0.02041,0.76200,0.02956,1.57034,0.03338,0.17987,-0.00324,-0.0024,0.0513,-0.0024,-0.0073,-0.0220,-0.0073,-0.0073,-0.0205,1.0872,-0.3487,1.5849,-0.0806,-0.0904,-0.0024,1,1,1,1,1,1,1
5.7448,sweep,2,+up,0.02041,0.76200,0.02956,1.57034,0.03338,0.17987,-0.00324,-0.0024,0.0513,-0.0024,-0.0073,-0.0220,-0.0073,-0.0073,-0.0205,1.0872,-0.3487,1.5849,-0.0806,-0.0904,-0.0024,1,1,1,1,1,1,1
5.7849,sweep,2,+up,0.02041,0.76619,0.02956,1.57034,0.03338,0.17948,-0.00324,-0.0024,0.0366,-0.0024,-0.0073,-0.0220,0.0073,-0.0220,-0.0342,0.9504,-0.3487,1.5800,-0.0806,-0.0952,-0.0073,1,1,1,1,1,1,1
5.8249,sweep,2,+up,0.02041,0.76619,0.02956,1.57034,0.03338,0.17948,-0.00324,-0.0024,0.0366,-0.0024,-0.0073,-0.0220,0.0073,-0.0220,-0.0342,0.9504,-0.3487,1.5800,-0.0806,-0.0952,-0.0073,1,1,1,1,1,1,1
5.8649,sweep,2,+up,0.02041,0.76619,0.02956,1.57034,0.03338,0.17948,-0.00324,-0.0024,0.0366,-0.0024,-0.0073,-0.0220,0.0073,0.0073,-0.0342,0.9504,-0.3487,1.5995,-0.0806,-0.0904,-0.0073,1,1,1,1,1,1,1
5.9049,sweep,2,+up,0.02041,0.77115,0.02956,1.57034,0.03338,0.17948,-0.00324,0.0024,0.0513,-0.0024,-0.0073,-0.0220,0.0073,0.0073,-0.0205,0.9778,-0.3350,1.5995,-0.0806,-0.0904,-0.0073,1,1,1,1,1,1,1
5.9448,sweep,2,+up,0.02041,0.77115,0.02956,1.57034,0.03338,0.17948,-0.00324,0.0024,0.0513,-0.0024,-0.0073,-0.0220,0.0073,0.0073,-0.0205,0.9778,-0.3350,1.5995,-0.0806,-0.0904,-0.0073,1,1,1,1,1,1,1
5.9849,sweep,2,+up,0.02041,0.77420,0.02956,1.57034,0.03376,0.17948,-0.00324,0.0073,0.0171,-0.0024,-0.0073,-0.0073,-0.0073,0.0073,-0.0205,0.9094,-0.3350,1.5849,-0.0806,-0.0904,-0.0122,1,1,1,1,1,1,1
6.0248,sweep,2,+up,0.02041,0.77420,0.02956,1.57034,0.03376,0.17948,-0.00324,0.0073,0.0171,-0.0024,-0.0073,-0.0073,-0.0073,0.0073,-0.0205,0.9094,-0.3350,1.5849,-0.0806,-0.0904,-0.0122,1,1,1,1,1,1,1
6.0649,sweep,2,+up,0.02041,0.77420,0.02956,1.57034,0.03376,0.17987,-0.00362,0.0073,0.0171,-0.0024,-0.0073,-0.0073,-0.0073,-0.0220,-0.0205,0.9094,-0.3350,1.5849,-0.0806,-0.0806,-0.0122,1,1,1,1,1,1,1
6.1049,sweep,2,+up,0.02041,0.77840,0.02956,1.57034,0.03338,0.17987,-0.00362,-0.0024,0.0269,-0.0024,-0.0073,-0.0073,-0.0073,-0.0220,-0.0342,0.7863,-0.3487,1.5946,-0.0757,-0.0806,-0.0122,1,1,1,1,1,1,1
6.1448,sweep,2,+up,0.02041,0.77840,0.02956,1.57034,0.03338,0.17987,-0.00362,-0.0024,0.0269,-0.0024,-0.0073,-0.0073,-0.0073,-0.0220,-0.0342,0.7863,-0.3487,1.5946,-0.0757,-0.0806,-0.0122,1,1,1,1,1,1,1
6.1850,sweep,2,+up,0.02041,0.78069,0.02956,1.57034,0.03376,0.17948,-0.00362,0.0024,0.0220,-0.0073,-0.0073,0.0073,-0.0073,-0.0073,-0.0479,0.6496,-0.3487,1.6093,-0.0757,-0.0855,-0.0073,1,1,1,1,1,1,1
6.2247,sweep,2,+up,0.02041,0.78069,0.02956,1.57034,0.03376,0.17948,-0.00362,0.0024,0.0220,-0.0073,-0.0073,0.0073,-0.0073,-0.0073,-0.0479,0.6496,-0.3487,1.6093,-0.0757,-0.0855,-0.0073,1,1,1,1,1,1,1
6.2648,sweep,2,+up,0.02041,0.78069,0.02956,1.57034,0.03376,0.17948,-0.00362,0.0024,0.0220,-0.0073,-0.0073,0.0073,-0.0073,-0.0073,-0.0479,0.6496,-0.3487,1.6093,-0.0757,-0.0855,-0.0073,1,1,1,1,1,1,1
6.3051,sweep,2,+up,0.02041,0.78374,0.02956,1.57034,0.03338,0.17987,-0.00324,-0.0024,0.0220,-0.0024,-0.0073,-0.0073,-0.0220,0.0073,-0.0342,0.9231,-0.3624,1.6093,-0.0757,-0.0904,-0.0073,1,1,1,1,1,1,1
6.8076,sweep,2,-down,0.02041,0.78489,0.02956,1.57034,0.03376,0.17987,-0.00324,-0.0073,0.0366,-0.0024,0.0073,-0.0073,-0.0073,-0.0220,-0.0479,0.6769,-0.3487,1.6142,-0.0757,-0.0904,-0.0073,1,1,1,1,1,1,1
6.8476,sweep,2,-down,0.02041,0.78489,0.02956,1.57034,0.03376,0.17987,-0.00324,-0.0073,0.0366,-0.0024,0.0073,-0.0073,-0.0073,-0.0220,-0.0479,0.6769,-0.3487,1.6142,-0.0757,-0.0904,-0.0073,1,1,1,1,1,1,1
6.8874,sweep,2,-down,0.02041,0.78756,0.02956,1.57034,0.03338,0.17987,-0.00324,0.0024,-0.2076,-0.0024,-0.0073,-0.0073,-0.0073,-0.0073,-0.0068,-0.4444,-0.3350,1.6386,-0.0904,-0.0855,-0.0122,1,1,1,1,1,1,1
6.9278,sweep,2,-down,0.02041,0.78756,0.02956,1.57034,0.03338,0.17987,-0.00324,0.0024,-0.2076,-0.0024,-0.0073,-0.0073,-0.0073,-0.0073,-0.0068,-0.4444,-0.3350,1.6386,-0.0904,-0.0855,-0.0122,1,1,1,1,1,1,1
6.9675,sweep,2,-down,0.02041,0.76390,0.02956,1.57034,0.03338,0.17948,-0.00324,0.0024,-0.1978,-0.0073,0.0073,-0.0220,-0.0220,-0.0073,-0.0205,-0.5949,-0.3350,1.6532,-0.0904,-0.0904,-0.0073,1,1,1,1,1,1,1
7.0077,sweep,2,-down,0.02041,0.76390,0.02956,1.57034,0.03338,0.17948,-0.00324,-0.0024,-0.1978,-0.0073,0.0073,-0.0220,-0.0220,-0.0073,0.0068,-0.5949,-0.3350,1.6532,-0.0904,-0.0904,-0.0073,1,1,1,1,1,1,1
7.0475,sweep,2,-down,0.02041,0.76390,0.02956,1.57034,0.03338,0.17948,-0.00324,-0.0024,-0.1978,-0.0073,0.0073,-0.0220,-0.0220,-0.0073,0.0068,-0.5949,-0.3350,1.6532,-0.0904,-0.0904,-0.0073,1,1,1,1,1,1,1
7.0877,sweep,2,-down,0.02041,0.74636,0.02956,1.57187,0.03376,0.17948,-0.00324,0.0073,-0.2222,-0.0024,0.0513,0.0073,-0.0220,-0.0220,0.0068,0.1983,-0.3214,1.5311,-0.0904,-0.0806,-0.0073,1,1,1,1,1,1,1
7.1275,sweep,2,-down,0.02041,0.74636,0.02956,1.57187,0.03376,0.17948,-0.00324,0.0073,-0.2222,-0.0024,0.0513,0.0073,-0.0220,-0.0220,0.0068,0.1983,-0.3214,1.5311,-0.0904,-0.0806,-0.0073,1,1,1,1,1,1,1
7.1676,sweep,2,-down,0.02041,0.74636,0.02956,1.57301,0.03338,0.17948,-0.00324,0.0073,-0.2222,-0.0024,-0.0220,0.0073,-0.0366,-0.0073,0.0068,0.1983,-0.3214,1.3407,-0.0904,-0.0806,-0.0073,1,1,1,1,1,1,1
7.2077,sweep,2,-down,0.02041,0.72347,0.02956,1.57301,0.03338,0.17948,-0.00324,-0.0024,-0.1880,-0.0024,-0.0220,0.0073,-0.0366,-0.0073,-0.0068,-0.1709,-0.3214,1.3407,-0.0904,-0.0806,-0.0073,1,1,1,1,1,1,1
7.2477,sweep,2,-down,0.02041,0.72347,0.02956,1.57301,0.03338,0.17948,-0.00324,-0.0024,-0.1880,-0.0024,-0.0220,0.0073,-0.0366,-0.0073,-0.0068,-0.1709,-0.3214,1.3407,-0.0904,-0.0806,-0.0073,1,1,1,1,1,1,1
7.2875,sweep,2,-down,0.02041,0.70630,0.02956,1.57225,0.03338,0.17948,-0.00324,-0.0024,-0.2173,0.0024,0.0073,-0.0220,-0.0220,-0.0220,0.0068,0.1299,-0.3350,1.3358,-0.0904,-0.0806,-0.0024,1,1,1,1,1,1,1
7.3280,sweep,2,-down,0.02041,0.70630,0.02956,1.57225,0.03338,0.17948,-0.00324,-0.0024,-0.2173,0.0024,0.0073,-0.0220,-0.0220,-0.0220,0.0068,0.1299,-0.3350,1.3358,-0.0904,-0.0806,-0.0024,1,1,1,1,1,1,1
7.3676,sweep,2,-down,0.02041,0.70630,0.02956,1.57225,0.03338,0.17948,-0.00324,-0.0024,-0.2173,0.0024,0.0073,-0.0220,-0.0220,-0.0073,0.0068,0.1299,-0.3350,1.3358,-0.0904,-0.0806,-0.0024,1,1,1,1,1,1,1
7.4077,sweep,2,-down,0.02041,0.68189,0.02956,1.57225,0.03338,0.17948,-0.00324,-0.0024,-0.2320,-0.0024,-0.0073,0.0073,-0.0220,-0.0073,-0.0068,0.4855,-0.3487,1.2527,-0.0904,-0.0855,-0.0024,1,1,1,1,1,1,1
7.4475,sweep,2,-down,0.02041,0.68189,0.02956,1.57225,0.03338,0.17948,-0.00324,-0.0024,-0.2320,-0.0024,-0.0073,0.0073,-0.0220,-0.0073,-0.0068,0.4855,-0.3487,1.2527,-0.0904,-0.0855,-0.0024,1,1,1,1,1,1,1
7.4877,sweep,2,-down,0.02041,0.66625,0.02956,1.57187,0.03338,0.17948,-0.00324,-0.0073,-0.1880,-0.0024,-0.0073,-0.0220,-0.0073,-0.0073,0.0068,0.1983,-0.3487,1.2186,-0.0904,-0.0806,0.0024,1,1,1,1,1,1,1
7.5277,sweep,2,-down,0.02041,0.66625,0.02956,1.57187,0.03338,0.17948,-0.00324,-0.0073,-0.1880,-0.0024,-0.0073,-0.0220,-0.0073,-0.0073,0.0068,0.1983,-0.3487,1.2186,-0.0904,-0.0806,0.0024,1,1,1,1,1,1,1
7.5677,sweep,2,-down,0.02041,0.66625,0.02956,1.57187,0.03338,0.17948,-0.00324,-0.0073,-0.1880,-0.0024,-0.0073,-0.0220,-0.0073,-0.0073,0.0068,0.1983,-0.3487,1.2186,-0.0904,-0.0806,-0.0024,1,1,1,1,1,1,1
7.6077,sweep,2,-down,0.02041,0.65824,0.02956,1.57187,0.03338,0.17948,-0.00324,-0.0024,-0.2125,-0.0073,-0.0073,-0.0220,-0.0073,-0.0073,-0.0205,0.4308,-0.3214,1.1404,-0.0855,-0.0806,-0.0024,1,1,1,1,1,1,1
7.6477,sweep,2,-down,0.02041,0.65824,0.02956,1.57187,0.03338,0.17948,-0.00324,-0.0024,-0.2125,-0.0073,-0.0073,-0.0220,-0.0073,-0.0073,-0.0205,0.4308,-0.3214,1.1404,-0.0855,-0.0806,-0.0024,1,1,1,1,1,1,1
7.6879,sweep,2,-down,0.02041,0.62581,0.02956,1.57187,0.03338,0.17948,-0.00324,-0.0024,-0.2076,-0.0024,-0.0220,0.0073,-0.0220,-0.0073,-0.0068,0.6359,-0.3214,1.1013,-0.0855,-0.0855,-0.0024,1,1,1,1,1,1,1
7.7276,sweep,2,-down,0.02041,0.62581,0.02956,1.57187,0.03338,0.17948,-0.00324,-0.0024,-0.2076,-0.0024,-0.0220,0.0073,-0.0220,-0.0073,-0.0068,0.6359,-0.3214,1.1013,-0.0855,-0.0855,-0.0024,1,1,1,1,1,1,1
7.7676,sweep,2,-down,0.02041,0.62581,0.02956,1.57187,0.03338,0.17948,-0.00324,-0.0024,-0.2076,-0.0024,-0.0220,0.0073,-0.0220,-0.0073,-0.0068,0.6359,-0.3214,1.1013,-0.0855,-0.0855,-0.0024,1,1,1,1,1,1,1
7.8077,sweep,2,-down,0.02041,0.60178,0.02956,1.57187,0.03338,0.17948,-0.00324,-0.0024,-0.1880,-0.0024,-0.0220,-0.0220,-0.0220,-0.0073,-0.0205,0.6906,-0.3077,1.0476,-0.0855,-0.0855,-0.0024,1,1,1,1,1,1,1
7.8475,sweep,2,-down,0.02041,0.60178,0.02956,1.57187,0.03338,0.17948,-0.00324,-0.0024,-0.1880,-0.0024,-0.0220,-0.0220,-0.0220,-0.0073,-0.0205,0.6906,-0.3077,1.0476,-0.0855,-0.0855,-0.0024,1,1,1,1,1,1,1
7.8875,sweep,2,-down,0.02041,0.58576,0.02956,1.57187,0.03338,0.17948,-0.00324,-0.0024,-0.2222,-0.0073,0.0073,-0.0220,-0.0073,-0.0073,-0.0205,0.8821,-0.3077,1.0134,-0.0855,-0.0855,-0.0024,1,1,1,1,1,1,1
7.9274,sweep,2,-down,0.02041,0.58576,0.02956,1.57187,0.03338,0.17948,-0.00324,-0.0024,-0.2222,-0.0073,0.0073,-0.0220,-0.0073,-0.0073,-0.0205,0.8821,-0.3077,1.0134,-0.0855,-0.0855,-0.0024,1,1,1,1,1,1,1
7.9676,sweep,2,-down,0.02041,0.58576,0.02956,1.57187,0.03338,0.17948,-0.00324,-0.0024,-0.2222,-0.0073,0.0073,-0.0220,-0.0073,-0.0073,-0.0205,0.8821,-0.3077,1.0134,-0.0855,-0.0855,-0.0024,1,1,1,1,1,1,1
8.0075,sweep,2,-down,0.02041,0.56172,0.02956,1.57149,0.03338,0.17948,-0.00324,-0.0024,-0.1978,-0.0024,-0.0073,-0.0073,-0.0073,-0.0073,-0.0342,0.9368,-0.2940,0.9597,-0.0855,-0.0855,-0.0024,1,1,1,1,1,1,1
8.0477,sweep,2,-down,0.02041,0.56172,0.02956,1.57149,0.03338,0.17948,-0.00324,-0.0024,-0.1978,-0.0024,-0.0073,-0.0073,-0.0073,-0.0073,-0.0342,0.9368,-0.2940,0.9597,-0.0855,-0.0855,-0.0024,1,1,1,1,1,1,1
8.0875,sweep,2,-down,0.02041,0.55371,0.02956,1.57149,0.03338,0.17948,-0.00324,-0.0024,-0.2125,-0.0073,-0.0073,-0.0220,-0.0073,-0.0073,-0.0342,0.9778,-0.2940,0.9304,-0.0855,-0.0806,-0.0024,1,1,1,1,1,1,1
8.1276,sweep,2,-down,0.02041,0.55371,0.02956,1.57149,0.03338,0.17948,-0.00324,-0.0024,-0.2125,-0.0073,-0.0073,-0.0220,-0.0073,-0.0073,-0.0342,0.9778,-0.2940,0.9304,-0.0855,-0.0806,-0.0024,1,1,1,1,1,1,1
8.1676,sweep,2,-down,0.02041,0.55371,0.02956,1.57149,0.03338,0.17948,-0.00324,-0.0024,-0.2125,-0.0073,-0.0073,-0.0220,-0.0073,-0.0073,-0.0342,0.9778,-0.2940,0.9304,-0.0855,-0.0806,-0.0024,1,1,1,1,1,1,1
8.2077,sweep,2,-down,0.02041,0.52167,0.02956,1.57149,0.03338,0.17948,-0.00324,-0.0024,-0.1929,-0.0024,-0.0073,-0.0073,-0.0220,-0.0073,-0.0342,1.0462,-0.3077,0.8864,-0.0855,-0.0806,-0.0073,1,1,1,1,1,1,1
8.2476,sweep,2,-down,0.02041,0.52167,0.02956,1.57149,0.03338,0.17948,-0.00324,-0.0024,-0.1929,-0.0024,-0.0073,-0.0073,-0.0220,-0.0073,-0.0342,1.0462,-0.3077,0.8864,-0.0855,-0.0806,-0.0073,1,1,1,1,1,1,1
8.2875,sweep,2,-down,0.02041,0.50526,0.02956,1.57149,0.03338,0.17948,-0.00362,-0.0073,-0.2222,0.0024,0.0073,-0.0073,0.0073,-0.0220,-0.0342,1.4564,-0.2940,0.8474,-0.0855,-0.0806,-0.0024,1,1,1,1,1,1,1
8.3278,sweep,2,-down,0.02041,0.50526,0.02956,1.57149,0.03338,0.17948,-0.00362,-0.0073,-0.2222,0.0024,0.0073,-0.0073,0.0073,-0.0220,-0.0342,1.4564,-0.2940,0.8474,-0.0855,-0.0806,-0.0024,1,1,1,1,1,1,1
8.3677,sweep,2,-down,0.02041,0.50526,0.02956,1.57149,0.03338,0.17948,-0.00362,-0.0073,-0.2222,0.0024,0.0073,-0.0073,0.0073,-0.0220,-0.0342,1.4564,-0.2940,0.8474,-0.0855,-0.0806,-0.0024,1,1,1,1,1,1,1
8.4079,sweep,2,-down,0.02041,0.48123,0.02956,1.57149,0.03338,0.17948,-0.00324,-0.0073,-0.2076,-0.0024,-0.0220,-0.0073,-0.0073,-0.0220,-0.0205,1.5385,-0.2803,0.8034,-0.0855,-0.0757,-0.0073,1,1,1,1,1,1,1
8.4477,sweep,2,-down,0.02041,0.48123,0.02956,1.57149,0.03338,0.17948,-0.00324,-0.0073,-0.2076,-0.0024,-0.0220,-0.0073,-0.0073,-0.0220,-0.0205,1.5385,-0.2803,0.8034,-0.0855,-0.0757,-0.0073,1,1,1,1,1,1,1
8.4875,sweep,2,-down,0.02041,0.46483,0.02956,1.57149,0.03338,0.17948,-0.00324,-0.0024,-0.1929,-0.0024,0.0073,-0.0220,-0.0220,-0.0073,-0.0068,1.6889,-0.2803,0.7741,-0.0806,-0.0757,-0.0073,1,1,1,1,1,1,1
8.5277,sweep,2,-down,0.02041,0.46483,0.02956,1.57149,0.03338,0.17948,-0.00324,-0.0024,-0.1929,-0.0024,0.0073,-0.0220,-0.0220,-0.0073,-0.0068,1.6889,-0.2803,0.7741,-0.0806,-0.0757,-0.0073,1,1,1,1,1,1,1
8.5675,sweep,2,-down,0.02041,0.46483,0.02956,1.57149,0.03338,0.17948,-0.00324,-0.0024,-0.1929,-0.0024,0.0073,-0.0220,-0.0220,-0.0073,-0.0068,1.6889,-0.2803,0.7741,-0.0806,-0.0757,-0.0073,1,1,1,1,1,1,1
8.6077,sweep,2,-down,0.02041,0.44079,0.02956,1.57149,0.03376,0.17948,-0.00324,-0.0024,-0.2173,-0.0024,0.0073,-0.0073,-0.0073,-0.0073,-0.0342,1.6479,-0.2667,0.7155,-0.0757,-0.0806,-0.0073,1,1,1,1,1,1,1
8.6475,sweep,2,-down,0.02041,0.44079,0.02956,1.57149,0.03376,0.17948,-0.00324,-0.0024,-0.2173,-0.0024,0.0073,-0.0073,-0.0073,-0.0073,-0.0342,1.6479,-0.2667,0.7155,-0.0757,-0.0806,-0.0073,1,1,1,1,1,1,1
8.6876,sweep,2,-down,0.02041,0.42477,0.02956,1.57149,0.03338,0.17948,-0.00324,-0.0024,-0.1929,-0.0073,-0.0073,-0.0073,0.0073,-0.0220,-0.0205,1.7709,-0.2667,0.6764,-0.0708,-0.0806,-0.0073,1,1,1,1,1,1,1
8.7275,sweep,2,-down,0.02041,0.42477,0.02956,1.57149,0.03338,0.17948,-0.00324,-0.0024,-0.1929,-0.0073,-0.0073,-0.0073,0.0073,-0.0220,-0.0205,1.7709,-0.2667,0.6764,-0.0708,-0.0806,-0.0073,1,1,1,1,1,1,1
8.7674,sweep,2,-down,0.02041,0.42477,0.02956,1.57149,0.03338,0.17948,-0.00324,-0.0024,-0.1929,-0.0073,-0.0073,-0.0073,0.0073,-0.0220,-0.0205,1.7709,-0.2667,0.6764,-0.0708,-0.0806,-0.0073,1,1,1,1,1,1,1
8.8077,sweep,2,-down,0.02041,0.40074,0.02956,1.57149,0.03338,0.17948,-0.00324,-0.0024,-0.2125,-0.0024,0.0073,-0.0073,-0.0073,0.0073,-0.0205,2.1402,-0.2667,0.6227,-0.0708,-0.0806,-0.0122,1,1,1,1,1,1,1
8.8477,sweep,2,-down,0.02041,0.40074,0.02956,1.57149,0.03338,0.17948,-0.00324,-0.0024,-0.2125,-0.0024,0.0073,-0.0073,-0.0073,0.0073,-0.0205,2.1402,-0.2667,0.6227,-0.0708,-0.0806,-0.0122,1,1,1,1,1,1,1
8.8875,sweep,2,-down,0.02041,0.38472,0.02956,1.57149,0.03376,0.17948,-0.00324,-0.0073,-0.2027,-0.0024,0.0073,0.0073,-0.0220,-0.0073,-0.0342,2.0581,-0.2667,0.5934,-0.0708,-0.0757,-0.0073,1,1,1,1,1,1,1
8.9277,sweep,2,-down,0.02041,0.38472,0.02956,1.57149,0.03376,0.17948,-0.00324,-0.0073,-0.2027,-0.0024,0.0073,0.0073,-0.0220,-0.0073,-0.0342,2.0581,-0.2667,0.5934,-0.0708,-0.0757,-0.0073,1,1,1,1,1,1,1
8.9676,sweep,2,-down,0.02041,0.38472,0.02956,1.57149,0.03376,0.17948,-0.00324,-0.0073,-0.2027,-0.0024,0.0073,0.0073,-0.0220,-0.0073,-0.0342,2.0581,-0.2667,0.5934,-0.0708,-0.0757,-0.0073,1,1,1,1,1,1,1
9.0076,sweep,2,-down,0.02041,0.36069,0.02956,1.57149,0.03338,0.17948,-0.00324,-0.0024,-0.1978,-0.0024,0.0073,-0.0220,-0.0073,-0.0073,-0.0205,2.2222,-0.2803,0.5446,-0.0708,-0.0659,-0.0073,1,1,1,1,1,1,1
9.0474,sweep,2,-down,0.02041,0.36069,0.02956,1.57149,0.03338,0.17948,-0.00324,-0.0024,-0.1978,-0.0024,0.0073,-0.0220,-0.0073,-0.0073,-0.0205,2.2222,-0.2803,0.5446,-0.0708,-0.0659,-0.0073,1,1,1,1,1,1,1
9.0875,sweep,2,-down,0.02041,0.34466,0.02956,1.57187,0.03376,0.17948,-0.00324,-0.0024,-0.1978,-0.0073,0.0073,-0.0073,-0.0073,-0.0220,-0.0479,2.1265,-0.2803,0.5055,-0.0708,-0.0659,-0.0073,1,1,1,1,1,1,1
9.1276,sweep,2,-down,0.02041,0.34466,0.02956,1.57187,0.03376,0.17948,-0.00324,-0.0024,-0.1978,-0.0073,0.0073,-0.0073,-0.0073,-0.0220,-0.0479,2.1265,-0.2803,0.5055,-0.0708,-0.0659,-0.0073,1,1,1,1,1,1,1
9.1677,sweep,2,-down,0.02041,0.34466,0.02956,1.57187,0.03376,0.17948,-0.00324,-0.0024,-0.1978,-0.0073,0.0073,-0.0073,-0.0073,-0.0220,-0.0479,2.1265,-0.2803,0.5055,-0.0708,-0.0659,-0.0073,1,1,1,1,1,1,1
9.2076,sweep,2,-down,0.02041,0.32025,0.02956,1.57149,0.03338,0.17987,-0.00362,-0.0024,-0.1734,-0.0024,-0.0220,-0.0073,-0.0073,0.0073,-0.0479,2.3727,-0.2667,0.4615,-0.0757,-0.0659,-0.0073,1,1,1,1,1,1,1
9.2478,sweep,2,-down,0.02041,0.32025,0.02956,1.57149,0.03338,0.17987,-0.00362,-0.0024,-0.1734,-0.0024,-0.0220,-0.0073,-0.0073,0.0073,-0.0479,2.3727,-0.2667,0.4615,-0.0757,-0.0659,-0.0073,1,1,1,1,1,1,1
9.2877,sweep,2,-down,0.02041,0.30423,0.02956,1.57187,0.03376,0.17948,-0.00324,-0.0024,-0.2222,-0.0024,-0.0073,0.0073,-0.0073,0.0073,-0.0342,2.5231,-0.2530,0.4176,-0.0708,-0.0659,-0.0073,1,1,1,1,1,1,1
9.3277,sweep,2,-down,0.02041,0.30423,0.02956,1.57187,0.03376,0.17948,-0.00324,-0.0024,-0.2222,-0.0024,-0.0073,0.0073,-0.0073,0.0073,-0.0342,2.5231,-0.2530,0.4176,-0.0708,-0.0659,-0.0073,1,1,1,1,1,1,1
9.3676,sweep,2,-down,0.02041,0.30423,0.02956,1.57187,0.03376,0.17948,-0.00324,-0.0024,-0.2222,-0.0024,-0.0073,0.0073,-0.0073,0.0073,-0.0342,2.5231,-0.2530,0.4176,-0.0708,-0.0659,-0.0073,1,1,1,1,1,1,1
9.4077,sweep,2,-down,0.02041,0.28019,0.02956,1.57149,0.03376,0.17948,-0.00324,0.0024,-0.1929,0.0024,-0.0073,0.0073,0.0073,0.0073,-0.0342,2.4410,-0.2530,0.3687,-0.0757,-0.0611,-0.0073,1,1,1,1,1,1,1
9.4478,sweep,2,-down,0.02041,0.28019,0.02956,1.57149,0.03376,0.17948,-0.00324,0.0024,-0.1929,0.0024,-0.0073,0.0073,0.0073,0.0073,-0.0342,2.4410,-0.2530,0.3687,-0.0757,-0.0611,-0.0073,1,1,1,1,1,1,1
9.4876,sweep,2,-down,0.02041,0.26379,0.02956,1.57187,0.03338,0.17948,-0.00324,-0.0024,-0.2125,-0.0024,-0.0073,-0.0073,-0.0073,-0.0073,-0.0615,2.8376,-0.2667,0.3297,-0.0708,-0.0611,-0.0073,1,1,1,1,1,1,1
9.5279,sweep,2,-down,0.02041,0.26379,0.02956,1.57187,0.03338,0.17948,-0.00324,-0.0024,-0.2125,-0.0024,-0.0073,-0.0073,-0.0073,-0.0073,-0.0615,2.8376,-0.2667,0.3297,-0.0708,-0.0611,-0.0073,1,1,1,1,1,1,1
9.5678,sweep,2,-down,0.02041,0.26379,0.02956,1.57187,0.03338,0.17948,-0.00324,-0.0024,-0.2125,-0.0024,-0.0073,-0.0073,-0.0073,-0.0073,-0.0615,2.8376,-0.2667,0.3297,-0.0708,-0.0611,-0.0073,1,1,1,1,1,1,1
9.6083,sweep,2,-down,0.02041,0.24243,0.02956,1.57187,0.03376,0.17948,-0.00324,-0.0024,-0.1441,0.0024,-0.0073,-0.0073,-0.0073,-0.0073,-0.0615,2.7145,-0.2803,0.2759,-0.0708,-0.0611,-0.0073,1,1,1,1,1,1,1
9.6479,sweep,2,-down,0.02041,0.24243,0.02956,1.57187,0.03376,0.17948,-0.00324,-0.0024,-0.1441,0.0024,-0.0073,-0.0073,-0.0073,-0.0073,-0.0615,2.7145,-0.2803,0.2759,-0.0708,-0.0611,-0.0073,1,1,1,1,1,1,1
9.6878,sweep,2,-down,0.02041,0.22984,0.02956,1.57187,0.03338,0.17948,-0.00324,-0.0024,-0.1441,0.0024,-0.0073,-0.0073,-0.0073,-0.0073,-0.0615,2.8239,-0.2940,0.2369,-0.0659,-0.0611,0.0024,1,1,1,1,1,1,1
9.7278,sweep,2,-down,0.02041,0.22984,0.02956,1.57187,0.03338,0.17948,-0.00324,-0.0024,-0.1441,0.0024,-0.0073,-0.0073,-0.0073,-0.0073,-0.0615,2.8239,-0.2940,0.2369,-0.0659,-0.0611,0.0024,1,1,1,1,1,1,1
9.7675,sweep,2,-down,0.02041,0.22984,0.02956,1.57187,0.03338,0.17948,-0.00324,-0.0024,-0.1441,0.0024,-0.0073,-0.0073,-0.0073,-0.0073,-0.0615,2.8239,-0.2940,0.2369,-0.0659,-0.0611,0.0024,1,1,1,1,1,1,1
9.8074,sweep,2,-down,0.02041,0.21305,0.02956,1.57187,0.03338,0.17948,-0.00362,-0.0024,-0.1490,-0.0024,-0.0073,-0.0073,-0.0073,-0.0073,-0.0615,2.8786,-0.2940,0.1880,-0.0659,-0.0611,-0.0073,1,1,1,1,1,1,1
9.8478,sweep,2,-down,0.02041,0.21305,0.02956,1.57187,0.03338,0.17948,-0.00362,-0.0024,-0.1490,-0.0024,-0.0073,-0.0073,-0.0073,-0.0073,-0.0615,2.8786,-0.2940,0.1880,-0.0659,-0.0611,-0.0073,1,1,1,1,1,1,1
9.8878,sweep,2,-down,0.02041,0.20352,0.02956,1.57149,0.03376,0.17948,-0.00362,-0.0024,-0.1099,-0.0024,-0.0073,-0.0073,0.0073,-0.0073,-0.0752,2.8923,-0.2803,0.1832,-0.0659,-0.0611,-0.0073,1,1,1,1,1,1,1
9.9278,sweep,2,-down,0.02041,0.20352,0.02956,1.57149,0.03376,0.17948,-0.00362,-0.0024,-0.1099,-0.0024,-0.0073,-0.0073,0.0073,-0.0073,-0.0752,2.8923,-0.2803,0.1832,-0.0659,-0.0611,-0.0073,1,1,1,1,1,1,1
9.9678,sweep,2,-down,0.02041,0.20352,0.02956,1.57149,0.03376,0.17948,-0.00362,-0.0024,-0.1099,-0.0024,-0.0073,-0.0073,0.0073,-0.0073,-0.0752,2.8923,-0.2803,0.1832,-0.0659,-0.0611,-0.0073,1,1,1,1,1,1,1
10.0077,sweep,2,-down,0.02041,0.19093,0.02956,1.57073,0.03338,0.17948,-0.00324,-0.0024,-0.0904,-0.0024,-0.0366,-0.0073,-0.0073,-0.0220,-0.0752,2.9744,-0.2667,0.1832,-0.0659,-0.0611,-0.0024,1,1,1,1,1,1,1
10.0478,sweep,2,-down,0.02041,0.19093,0.02956,1.57073,0.03338,0.17948,-0.00324,-0.0024,-0.0904,-0.0024,-0.0366,-0.0073,-0.0073,-0.0220,-0.0752,2.9744,-0.2667,0.1832,-0.0659,-0.0611,-0.0024,1,1,1,1,1,1,1
10.0877,sweep,2,-down,0.02041,0.18368,0.02956,1.57111,0.03338,0.17948,-0.00324,-0.0024,-0.0708,-0.0024,-0.0073,-0.0073,-0.0073,-0.0073,-0.0615,2.7009,-0.2530,0.1636,-0.0708,-0.0611,-0.0024,1,1,1,1,1,1,1
10.1278,sweep,2,-down,0.02041,0.18368,0.02956,1.57111,0.03338,0.17948,-0.00324,-0.0024,-0.0708,-0.0024,-0.0073,-0.0073,-0.0073,-0.0073,-0.0615,2.7009,-0.2530,0.1636,-0.0708,-0.0611,-0.0024,1,1,1,1,1,1,1
10.1675,sweep,2,-down,0.02041,0.18368,0.02956,1.57111,0.03338,0.17948,-0.00324,-0.0024,-0.0708,-0.0024,-0.0073,-0.0073,-0.0073,-0.0073,-0.0615,2.7009,-0.2530,0.1636,-0.0708,-0.0611,-0.0024,1,1,1,1,1,1,1
10.2078,sweep,2,-down,0.02041,0.17376,0.02956,1.57073,0.03338,0.17948,-0.00324,0.0024,-0.0806,-0.0024,-0.0220,-0.0073,-0.0073,0.0073,-0.0615,3.1111,-0.2393,0.1636,-0.0708,-0.0562,-0.0073,1,1,1,1,1,1,1
10.2480,sweep,2,-down,0.02041,0.17376,0.02956,1.57073,0.03338,0.17948,-0.00324,0.0024,-0.0806,-0.0024,-0.0220,-0.0073,-0.0073,0.0073,-0.0615,3.1111,-0.2393,0.1636,-0.0708,-0.0562,-0.0073,1,1,1,1,1,1,1
10.2882,sweep,2,-down,0.02041,0.16842,0.02956,1.57111,0.03338,0.17948,-0.00362,-0.0073,-0.0659,-0.0024,-0.0220,0.0073,0.0073,-0.0073,-0.0615,2.9197,-0.2530,0.1490,-0.0659,-0.0513,-0.0073,1,1,1,1,1,1,1
10.3284,sweep,2,-down,0.02041,0.16842,0.02956,1.57111,0.03338,0.17948,-0.00362,-0.0073,-0.0659,-0.0024,-0.0220,0.0073,0.0073,-0.0073,-0.0615,2.9197,-0.2530,0.1490,-0.0659,-0.0513,-0.0073,1,1,1,1,1,1,1
10.3676,sweep,2,-down,0.02041,0.16842,0.02956,1.57111,0.03338,0.17948,-0.00362,-0.0073,-0.0659,-0.0024,-0.0220,0.0073,0.0073,-0.0073,-0.0615,2.9197,-0.2530,0.1490,-0.0659,-0.0513,-0.0073,1,1,1,1,1,1,1
10.4075,sweep,2,-down,0.02041,0.16117,0.02956,1.57073,0.03376,0.17948,-0.00362,-0.0024,-0.0757,-0.0073,-0.0073,-0.0073,0.0073,-0.0073,-0.0615,2.9744,-0.2256,0.1392,-0.0659,-0.0513,-0.0073,1,1,1,1,1,1,1
10.4475,sweep,2,-down,0.02041,0.16117,0.02956,1.57073,0.03376,0.17948,-0.00362,-0.0024,-0.0757,-0.0073,-0.0073,-0.0073,0.0073,-0.0073,-0.0615,2.9744,-0.2256,0.1392,-0.0659,-0.0513,-0.0073,1,1,1,1,1,1,1
10.4876,sweep,2,-down,0.02041,0.15660,0.02956,1.57111,0.03338,0.17948,-0.00362,-0.0024,-0.0708,-0.0024,-0.0073,-0.0366,-0.0220,-0.0073,-0.0889,3.1111,-0.2256,0.1099,-0.0611,-0.0513,-0.0122,1,1,1,1,1,1,1
10.5281,sweep,2,-down,0.02041,0.15660,0.02956,1.57111,0.03338,0.17948,-0.00362,-0.0024,-0.0708,-0.0024,-0.0073,-0.0366,-0.0220,-0.0073,-0.0889,3.1111,-0.2256,0.1099,-0.0611,-0.0513,-0.0122,1,1,1,1,1,1,1
10.5683,sweep,2,-down,0.02041,0.15660,0.02956,1.57111,0.03338,0.17948,-0.00362,-0.0024,-0.0708,-0.0024,-0.0073,-0.0366,-0.0220,-0.0073,-0.0889,3.1111,-0.2256,0.1099,-0.0611,-0.0513,-0.0122,1,1,1,1,1,1,1
10.6077,sweep,2,-down,0.02041,0.15125,0.02956,1.57111,0.03338,0.17948,-0.00362,-0.0073,-0.0464,-0.0073,0.0073,0.0073,0.0073,-0.0073,-0.0889,2.8513,-0.2256,0.1001,-0.0611,-0.0464,-0.0073,1,1,1,1,1,1,1
10.6478,sweep,2,-down,0.02041,0.15125,0.02956,1.57111,0.03338,0.17948,-0.00362,-0.0073,-0.0464,-0.0073,0.0073,0.0073,0.0073,-0.0073,-0.0889,2.8513,-0.2256,0.1001,-0.0611,-0.0464,-0.0073,1,1,1,1,1,1,1
10.6879,sweep,2,-down,0.02041,0.14782,0.02956,1.57111,0.03376,0.17948,-0.00324,-0.0024,-0.0513,-0.0024,0.0073,-0.0073,-0.0073,-0.0073,-0.0889,2.9333,-0.2393,0.1050,-0.0611,-0.0464,-0.0122,1,1,1,1,1,1,1
10.7281,sweep,2,-down,0.02041,0.14782,0.02956,1.57111,0.03376,0.17948,-0.00324,-0.0024,-0.0513,-0.0024,0.0073,-0.0073,-0.0073,-0.0073,-0.0889,2.9333,-0.2393,0.1050,-0.0611,-0.0464,-0.0122,1,1,1,1,1,1,1
10.7675,sweep,2,-down,0.02041,0.14782,0.02956,1.57111,0.03376,0.17948,-0.00324,-0.0024,-0.0513,-0.0024,0.0073,-0.0073,-0.0073,-0.0073,-0.0889,2.9333,-0.2393,0.1050,-0.0611,-0.0464,-0.0122,1,1,1,1,1,1,1
10.8075,sweep,2,-down,0.02041,0.14363,0.02956,1.57111,0.03338,0.17948,-0.00324,-0.0024,-0.0611,-0.0024,-0.0220,-0.0073,-0.0073,-0.0073,-0.0752,2.8786,-0.2530,0.0904,-0.0708,-0.0464,-0.0073,1,1,1,1,1,1,1
10.8477,sweep,2,-down,0.02041,0.14363,0.02956,1.57111,0.03338,0.17948,-0.00324,-0.0024,-0.0611,-0.0024,-0.0220,-0.0073,-0.0073,-0.0073,-0.0752,2.8786,-0.2530,0.0904,-0.0708,-0.0464,-0.0073,1,1,1,1,1,1,1
10.8874,sweep,2,-down,0.02041,0.14134,0.02956,1.57073,0.03376,0.17948,-0.00324,-0.0024,-0.0366,-0.0024,-0.0220,-0.0073,-0.0073,-0.0073,-0.0615,3.0701,-0.2530,0.0952,-0.0757,-0.0464,-0.0024,1,1,1,1,1,1,1
10.9277,sweep,2,-down,0.02041,0.14134,0.02956,1.57073,0.03376,0.17948,-0.00324,-0.0024,-0.0366,-0.0024,-0.0220,-0.0073,-0.0073,-0.0073,-0.0615,3.0701,-0.2530,0.0952,-0.0757,-0.0464,-0.0024,1,1,1,1,1,1,1
10.9679,sweep,2,-down,0.02041,0.14134,0.02956,1.57073,0.03376,0.17948,-0.00324,-0.0024,-0.0366,-0.0024,-0.0220,-0.0073,-0.0073,-0.0073,-0.0615,3.0701,-0.2530,0.0952,-0.0757,-0.0464,-0.0024,1,1,1,1,1,1,1
11.0076,sweep,2,-down,0.02041,0.13828,0.02956,1.57111,0.03376,0.17948,-0.00324,-0.0024,-0.0220,-0.0073,-0.0073,-0.0073,-0.0073,0.0073,-0.0615,2.8650,-0.2530,0.0806,-0.0757,-0.0464,-0.0073,1,1,1,1,1,1,1
11.5107,sweep,2,+up,0.02041,0.13714,0.02956,1.57111,0.03376,0.17948,-0.00324,0.0073,-0.0464,0.0024,-0.0073,-0.0073,-0.0073,-0.0073,-0.0479,2.9880,-0.2530,0.0757,-0.0757,-0.0415,-0.0073,1,1,1,1,1,1,1
11.5506,sweep,2,+up,0.02041,0.13714,0.02956,1.57111,0.03376,0.17948,-0.00324,0.0073,-0.0464,0.0024,-0.0073,-0.0073,-0.0073,-0.0073,-0.0479,2.9880,-0.2530,0.0757,-0.0757,-0.0415,-0.0073,1,1,1,1,1,1,1
11.5909,sweep,2,+up,0.02041,0.13333,0.02956,1.57111,0.03338,0.17948,-0.00324,-0.0024,0.1880,-0.0024,0.0073,-0.0073,-0.0073,-0.0220,-0.0479,6.0513,-0.2667,0.0317,-0.0708,-0.0415,-0.0073,1,1,1,1,1,1,1
11.6306,sweep,2,+up,0.02041,0.13333,0.02956,1.57111,0.03338,0.17948,-0.00324,-0.0024,0.1880,-0.0024,0.0073,-0.0073,-0.0073,-0.0220,-0.0479,6.0513,-0.2667,0.0317,-0.0708,-0.0415,-0.0073,1,1,1,1,1,1,1
11.6702,sweep,2,+up,0.02041,0.13333,0.02956,1.57111,0.03338,0.17948,-0.00324,-0.0024,0.1880,-0.0024,0.0073,-0.0073,-0.0073,-0.0220,-0.0479,6.0513,-0.2667,0.0317,-0.0708,-0.0415,-0.0073,1,1,1,1,1,1,1
11.7105,sweep,2,+up,0.02041,0.15774,0.02956,1.57187,0.03338,0.17948,-0.00362,-0.0024,0.2173,-0.0024,-0.0220,-0.0220,-0.0073,-0.0073,-0.0342,5.1487,-0.2667,-0.0171,-0.0611,-0.0415,-0.0073,1,1,1,1,1,1,1
11.7508,sweep,2,+up,0.02041,0.15774,0.02956,1.57187,0.03338,0.17948,-0.00362,-0.0024,0.2173,-0.0024,-0.0220,-0.0220,-0.0073,-0.0073,-0.0342,5.1487,-0.2667,-0.0171,-0.0611,-0.0415,-0.0073,1,1,1,1,1,1,1
11.7908,sweep,2,+up,0.02041,0.17414,0.02956,1.56653,0.03376,0.17987,-0.00324,-0.0024,0.2125,0.0024,-0.0220,-0.0073,-0.0073,-0.0073,-0.0342,4.5607,-0.2803,0.2857,-0.0708,-0.0464,-0.0122,1,1,1,1,1,1,1
11.8304,sweep,2,+up,0.02041,0.17414,0.02956,1.56653,0.03376,0.17987,-0.00324,-0.0024,0.2125,0.0024,-0.0220,-0.0073,-0.0073,-0.0073,-0.0342,4.5607,-0.2803,0.2857,-0.0708,-0.0464,-0.0122,1,1,1,1,1,1,1
11.8709,sweep,2,+up,0.02041,0.17414,0.02956,1.56653,0.03376,0.17987,-0.00324,-0.0024,0.2125,0.0024,-0.0220,-0.0073,-0.0073,-0.0073,-0.0342,4.5607,-0.2803,0.2857,-0.0708,-0.0464,-0.0122,1,1,1,1,1,1,1
11.9106,sweep,2,+up,0.02041,0.19818,0.02956,1.56844,0.03338,0.17987,-0.00362,-0.0024,0.2076,0.0024,-0.0220,-0.0073,0.0073,0.0073,-0.0068,4.9299,-0.2667,0.2759,-0.0708,-0.0415,-0.0122,1,1,1,1,1,1,1
11.9502,sweep,2,+up,0.02041,0.19818,0.02956,1.56844,0.03338,0.17987,-0.00362,-0.0024,0.2076,0.0024,-0.0220,-0.0073,0.0073,0.0073,-0.0068,4.9299,-0.2667,0.2759,-0.0708,-0.0415,-0.0122,1,1,1,1,1,1,1
11.9902,sweep,2,+up,0.02041,0.21420,0.02956,1.56844,0.03338,0.17987,-0.00362,-0.0024,0.1832,-0.0024,-0.0073,-0.0220,0.0073,0.0073,-0.0205,4.6701,-0.2530,0.3541,-0.0708,-0.0415,-0.0122,1,1,1,1,1,1,1
12.0301,sweep,2,+up,0.02041,0.21420,0.02956,1.56844,0.03338,0.17987,-0.00362,-0.0024,0.1832,-0.0024,-0.0073,-0.0220,0.0073,0.0073,-0.0205,4.6701,-0.2530,0.3541,-0.0708,-0.0415,-0.0122,1,1,1,1,1,1,1
12.0704,sweep,2,+up,0.02041,0.21420,0.02956,1.56844,0.03338,0.17987,-0.00362,-0.0024,0.1832,-0.0024,-0.0073,-0.0220,0.0073,0.0073,-0.0205,4.6701,-0.2530,0.3541,-0.0708,-0.0415,-0.0122,1,1,1,1,1,1,1
12.1102,sweep,2,+up,0.02041,0.23861,0.02956,1.56844,0.03376,0.17987,-0.00362,0.0024,0.2173,-0.0024,-0.0073,-0.0073,0.0220,-0.0073,-0.0068,4.2872,-0.2667,0.4274,-0.0708,-0.0464,-0.0171,1,1,1,1,1,1,1
12.1503,sweep,2,+up,0.02041,0.23861,0.02956,1.56844,0.03376,0.17987,-0.00362,0.0024,0.2173,-0.0024,-0.0073,-0.0073,0.0220,-0.0073,-0.0068,4.2872,-0.2667,0.4274,-0.0708,-0.0464,-0.0171,1,1,1,1,1,1,1
12.1902,sweep,2,+up,0.02041,0.25425,0.02956,1.56882,0.03376,0.17948,-0.00324,-0.0073,0.1783,-0.0024,0.0073,-0.0220,-0.0073,-0.0073,-0.0068,4.4650,-0.2667,0.4762,-0.0708,-0.0415,-0.0122,1,1,1,1,1,1,1
12.2304,sweep,2,+up,0.02041,0.25425,0.02956,1.56882,0.03376,0.17948,-0.00324,-0.0073,0.1783,-0.0024,0.0073,-0.0220,-0.0073,-0.0073,-0.0068,4.4650,-0.2667,0.4762,-0.0708,-0.0415,-0.0122,1,1,1,1,1,1,1
12.2703,sweep,2,+up,0.02041,0.25425,0.02956,1.56882,0.03376,0.17948,-0.00324,-0.0073,0.1783,-0.0024,0.0073,-0.0220,-0.0073,-0.0073,-0.0068,4.4650,-0.2667,0.4762,-0.0708,-0.0415,-0.0122,1,1,1,1,1,1,1
12.3104,sweep,2,+up,0.02041,0.27867,0.02956,1.56920,0.03376,0.17987,-0.00324,-0.0024,0.1978,-0.0073,0.0073,-0.0073,-0.0220,0.0073,0.0068,4.1915,-0.2803,0.5543,-0.0708,-0.0415,-0.0171,1,1,1,1,1,1,1
12.3503,sweep,2,+up,0.02041,0.27867,0.02956,1.56920,0.03376,0.17987,-0.00324,-0.0024,0.1978,-0.0073,0.0073,-0.0073,-0.0220,0.0073,0.0068,4.1915,-0.2803,0.5543,-0.0708,-0.0415,-0.0171,1,1,1,1,1,1,1
12.3901,sweep,2,+up,0.02041,0.29431,0.02956,1.56920,0.03338,0.17987,-0.00362,-0.0024,0.2076,-0.0073,-0.0073,-0.0220,-0.0073,-0.0220,0.0205,4.1915,-0.2667,0.5983,-0.0659,-0.0464,-0.0171,1,1,1,1,1,1,1
12.4302,sweep,2,+up,0.02041,0.29431,0.02956,1.56920,0.03338,0.17987,-0.00362,-0.0024,0.2076,-0.0073,-0.0073,-0.0220,-0.0073,-0.0220,0.0205,4.1915,-0.2667,0.5983,-0.0659,-0.0464,-0.0171,1,1,1,1,1,1,1
12.4701,sweep,2,+up,0.02041,0.29431,0.02956,1.56920,0.03338,0.17987,-0.00362,-0.0024,0.2076,-0.0073,-0.0073,-0.0220,-0.0073,-0.0220,0.0205,4.1915,-0.2667,0.5983,-0.0659,-0.0464,-0.0171,1,1,1,1,1,1,1
12.5101,sweep,2,+up,0.02041,0.31872,0.02956,1.56920,0.03376,0.17987,-0.00362,-0.0024,0.1978,-0.0024,-0.0073,-0.0220,0.0073,-0.0073,-0.0068,3.8769,-0.2667,0.6569,-0.0708,-0.0464,-0.0171,1,1,1,1,1,1,1
12.5501,sweep,2,+up,0.02041,0.31872,0.02956,1.56920,0.03376,0.17987,-0.00362,-0.0024,0.1978,-0.0024,-0.0073,-0.0220,0.0073,-0.0073,-0.0068,3.8769,-0.2667,0.6569,-0.0708,-0.0464,-0.0171,1,1,1,1,1,1,1
12.5900,sweep,2,+up,0.02041,0.33474,0.02956,1.56958,0.03376,0.17987,-0.00324,-0.0073,0.2125,-0.0024,-0.0073,-0.0073,-0.0073,0.0073,0.0068,3.7128,-0.2530,0.7057,-0.0659,-0.0464,-0.0122,1,1,1,1,1,1,1
12.6301,sweep,2,+up,0.02041,0.33474,0.02956,1.56958,0.03376,0.17987,-0.00324,-0.0073,0.2125,-0.0024,-0.0073,-0.0073,-0.0073,0.0073,0.0068,3.7128,-0.2530,0.7057,-0.0659,-0.0464,-0.0122,1,1,1,1,1,1,1
12.6701,sweep,2,+up,0.02041,0.33474,0.02956,1.56958,0.03376,0.17987,-0.00324,-0.0073,0.2125,-0.0024,-0.0073,-0.0073,-0.0073,0.0073,0.0068,3.7128,-0.2530,0.7057,-0.0659,-0.0464,-0.0122,1,1,1,1,1,1,1
12.7104,sweep,2,+up,0.02041,0.35878,0.02956,1.56958,0.03338,0.17987,-0.00362,-0.0024,0.1685,-0.0024,0.0073,-0.0220,-0.0073,-0.0073,0.0068,3.7538,-0.2530,0.7595,-0.0611,-0.0464,-0.0122,1,1,1,1,1,1,1
12.7500,sweep,2,+up,0.02041,0.35878,0.02956,1.56958,0.03338,0.17987,-0.00362,-0.0024,0.1685,-0.0024,0.0073,-0.0220,-0.0073,-0.0073,0.0068,3.7538,-0.2530,0.7595,-0.0611,-0.0464,-0.0122,1,1,1,1,1,1,1
12.7904,sweep,2,+up,0.02041,0.37518,0.02956,1.56958,0.03376,0.17987,-0.00324,-0.0024,0.2222,-0.0024,-0.0073,-0.0073,-0.0073,-0.0073,0.0068,3.2889,-0.2530,0.7937,-0.0659,-0.0415,-0.0122,1,1,1,1,1,1,1
12.8304,sweep,2,+up,0.02041,0.37518,0.02956,1.56958,0.03376,0.17987,-0.00324,-0.0024,0.2222,-0.0024,-0.0073,-0.0073,-0.0073,-0.0073,0.0068,3.2889,-0.2530,0.7937,-0.0659,-0.0415,-0.0122,1,1,1,1,1,1,1
12.8703,sweep,2,+up,0.02041,0.37518,0.02956,1.56958,0.03376,0.17987,-0.00324,-0.0024,0.2222,-0.0024,-0.0073,-0.0073,-0.0073,-0.0073,0.0068,3.2889,-0.2530,0.7937,-0.0659,-0.0415,-0.0122,1,1,1,1,1,1,1
12.9102,sweep,2,+up,0.02041,0.39921,0.02956,1.56958,0.03376,0.17987,-0.00362,-0.0024,0.2027,-0.0024,-0.0073,-0.0073,-0.0220,-0.0073,-0.0068,3.4393,-0.2393,0.8425,-0.0659,-0.0464,-0.0073,1,1,1,1,1,1,1
12.9504,sweep,2,+up,0.02041,0.39921,0.02956,1.56958,0.03376,0.17987,-0.00362,-0.0024,0.2027,-0.0024,-0.0073,-0.0073,-0.0220,-0.0073,-0.0068,3.4393,-0.2393,0.8425,-0.0659,-0.0464,-0.0073,1,1,1,1,1,1,1
12.9902,sweep,2,+up,0.02041,0.41524,0.02956,1.56958,0.03376,0.17987,-0.00362,-0.0024,0.2173,-0.0024,-0.0366,-0.0073,-0.0073,-0.0073,0.0205,3.1932,-0.2256,0.8962,-0.0708,-0.0464,-0.0073,1,1,1,1,1,1,1
13.0301,sweep,2,+up,0.02041,0.41524,0.02956,1.56958,0.03376,0.17987,-0.00362,-0.0024,0.2173,-0.0024,-0.0366,-0.0073,-0.0073,-0.0073,0.0205,3.1932,-0.2256,0.8962,-0.0708,-0.0464,-0.0073,1,1,1,1,1,1,1
13.0701,sweep,2,+up,0.02041,0.41524,0.02956,1.56958,0.03376,0.17987,-0.00362,-0.0024,0.2173,-0.0024,-0.0366,-0.0073,-0.0073,-0.0073,0.0205,3.1932,-0.2256,0.8962,-0.0708,-0.0464,-0.0073,1,1,1,1,1,1,1
13.1102,sweep,2,+up,0.02041,0.43927,0.02956,1.56958,0.03376,0.17987,-0.00324,0.0024,0.1880,-0.0024,0.0073,0.0073,-0.0220,0.0073,0.0205,3.2342,-0.2393,0.9402,-0.0659,-0.0464,-0.0073,1,1,1,1,1,1,1
13.1501,sweep,2,+up,0.02041,0.43927,0.02956,1.56958,0.03376,0.17987,-0.00324,0.0024,0.1880,-0.0024,0.0073,0.0073,-0.0220,0.0073,0.0205,3.2342,-0.2393,0.9402,-0.0659,-0.0464,-0.0073,1,1,1,1,1,1,1
13.1901,sweep,2,+up,0.02041,0.45529,0.02956,1.56958,0.03376,0.17987,-0.00324,-0.0073,0.1929,0.0024,-0.0073,-0.0073,-0.0073,0.0073,0.0205,2.9060,-0.2256,0.9695,-0.0708,-0.0464,-0.0073,1,1,1,1,1,1,1
13.2301,sweep,2,+up,0.02041,0.45529,0.02956,1.56958,0.03376,0.17987,-0.00324,-0.0073,0.1929,0.0024,-0.0073,-0.0073,-0.0073,0.0073,0.0205,2.9060,-0.2256,0.9695,-0.0708,-0.0464,-0.0073,1,1,1,1,1,1,1
13.2701,sweep,2,+up,0.02041,0.45529,0.02956,1.56958,0.03376,0.17987,-0.00324,-0.0073,0.1929,0.0024,-0.0073,-0.0073,-0.0073,0.0073,0.0205,2.9060,-0.2256,0.9695,-0.0708,-0.0464,-0.0073,1,1,1,1,1,1,1
13.3100,sweep,2,+up,0.02041,0.47971,0.02956,1.56958,0.03338,0.17987,-0.00324,-0.0024,0.2222,-0.0073,-0.0073,-0.0073,0.0073,0.0073,0.0342,2.9197,-0.2256,1.0183,-0.0708,-0.0513,-0.0073,1,1,1,1,1,1,1
13.3503,sweep,2,+up,0.02041,0.47971,0.02956,1.56958,0.03338,0.17987,-0.00324,-0.0024,0.2222,-0.0073,-0.0073,-0.0073,0.0073,0.0073,0.0342,2.9197,-0.2256,1.0183,-0.0708,-0.0513,-0.0073,1,1,1,1,1,1,1
13.3901,sweep,2,+up,0.02041,0.49573,0.02956,1.56958,0.03338,0.17948,-0.00362,-0.0073,0.1978,-0.0024,0.0073,-0.0073,-0.0220,-0.0073,0.0205,2.7829,-0.2120,1.0525,-0.0757,-0.0513,-0.0073,1,1,1,1,1,1,1
13.4302,sweep,2,+up,0.02041,0.49573,0.02956,1.56958,0.03338,0.17948,-0.00362,-0.0073,0.1978,-0.0024,0.0073,-0.0073,-0.0220,-0.0073,0.0205,2.7829,-0.2120,1.0525,-0.0757,-0.0513,-0.0073,1,1,1,1,1,1,1
13.4702,sweep,2,+up,0.02041,0.49573,0.02956,1.56958,0.03338,0.17948,-0.00362,-0.0073,0.1978,-0.0024,0.0073,-0.0073,-0.0220,-0.0073,0.0205,2.7829,-0.2120,1.0525,-0.0757,-0.0513,-0.0073,1,1,1,1,1,1,1
13.5103,sweep,2,+up,0.02041,0.51976,0.02956,1.56958,0.03376,0.17987,-0.00362,-0.0024,0.2125,-0.0024,0.0073,0.0073,0.0073,-0.0220,-0.0068,2.3727,-0.1983,1.1111,-0.0757,-0.0513,-0.0073,1,1,1,1,1,1,1
13.5505,sweep,2,+up,0.02041,0.51976,0.02956,1.56958,0.03376,0.17987,-0.00362,-0.0024,0.2125,-0.0024,0.0073,0.0073,0.0073,-0.0220,-0.0068,2.3727,-0.1983,1.1111,-0.0757,-0.0513,-0.0073,1,1,1,1,1,1,1
13.5901,sweep,2,+up,0.02041,0.53578,0.02956,1.56958,0.03376,0.17987,-0.00362,-0.0024,0.1734,-0.0024,-0.0220,-0.0073,0.0073,-0.0073,-0.0205,2.5504,-0.1846,1.1355,-0.0757,-0.0562,-0.0073,1,1,1,1,1,1,1
13.6301,sweep,2,+up,0.02041,0.53578,0.02956,1.56958,0.03376,0.17987,-0.00362,-0.0024,0.1734,-0.0024,-0.0220,-0.0073,0.0073,-0.0073,-0.0205,2.5504,-0.1846,1.1355,-0.0757,-0.0562,-0.0073,1,1,1,1,1,1,1
13.6701,sweep,2,+up,0.02041,0.53578,0.02956,1.56958,0.03376,0.17987,-0.00362,-0.0024,0.1734,-0.0024,-0.0220,-0.0073,0.0073,-0.0073,-0.0205,2.5504,-0.1846,1.1355,-0.0757,-0.0562,-0.0073,1,1,1,1,1,1,1
13.7102,sweep,2,+up,0.02041,0.56020,0.02956,1.56958,0.03338,0.17987,-0.00324,-0.0024,0.1929,-0.0024,0.0073,-0.0220,-0.0073,-0.0073,-0.0342,2.2496,-0.1983,1.1941,-0.0757,-0.0611,-0.0073,1,1,1,1,1,1,1
13.7504,sweep,2,+up,0.02041,0.56020,0.02956,1.56958,0.03338,0.17987,-0.00324,-0.0024,0.1929,-0.0024,0.0073,-0.0220,-0.0073,-0.0073,-0.0342,2.2496,-0.1983,1.1941,-0.0757,-0.0611,-0.0073,1,1,1,1,1,1,1
13.7902,sweep,2,+up,0.02041,0.57584,0.02956,1.56958,0.03376,0.17987,-0.00324,-0.0024,0.1929,-0.0024,0.0073,-0.0073,0.0073,-0.0073,-0.0205,2.3590,-0.1983,1.2332,-0.0757,-0.0659,-0.0073,1,1,1,1,1,1,1
13.8303,sweep,2,+up,0.02041,0.57584,0.02956,1.56958,0.03376,0.17987,-0.00324,-0.0024,0.1929,-0.0024,0.0073,-0.0073,0.0073,-0.0073,-0.0205,2.3590,-0.1983,1.2332,-0.0757,-0.0659,-0.0073,1,1,1,1,1,1,1
13.8705,sweep,2,+up,0.02041,0.57584,0.02956,1.56958,0.03376,0.17987,-0.00324,-0.0024,0.1929,-0.0024,0.0073,-0.0073,0.0073,-0.0073,-0.0205,2.3590,-0.1983,1.2332,-0.0757,-0.0659,-0.0073,1,1,1,1,1,1,1
13.9104,sweep,2,+up,0.02041,0.60025,0.02956,1.56958,0.03376,0.17987,-0.00324,-0.0024,0.1880,-0.0073,-0.0220,0.0073,0.0073,0.0073,-0.0068,1.9624,-0.2120,1.2821,-0.0757,-0.0611,-0.0024,1,1,1,1,1,1,1
13.9505,sweep,2,+up,0.02041,0.60025,0.02956,1.56958,0.03376,0.17987,-0.00324,-0.0024,0.1880,-0.0073,-0.0220,0.0073,0.0073,0.0073,-0.0068,1.9624,-0.2120,1.2821,-0.0757,-0.0611,-0.0024,1,1,1,1,1,1,1
13.9902,sweep,2,+up,0.02041,0.61627,0.02956,1.56958,0.03338,0.17948,-0.00324,-0.0024,0.2076,-0.0073,-0.0073,-0.0073,-0.0073,-0.0220,-0.0205,1.9624,-0.2120,1.3211,-0.0757,-0.0611,-0.0024,1,1,1,1,1,1,1
14.0302,sweep,2,+up,0.02041,0.61627,0.02956,1.56958,0.03338,0.17948,-0.00324,-0.0024,0.2076,-0.0073,-0.0073,-0.0073,-0.0073,-0.0220,-0.0205,1.9624,-0.2120,1.3211,-0.0757,-0.0611,-0.0024,1,1,1,1,1,1,1
14.0705,sweep,2,+up,0.02041,0.61627,0.02956,1.56958,0.03338,0.17948,-0.00324,-0.0024,0.2076,-0.0073,-0.0073,-0.0073,-0.0073,-0.0220,-0.0205,1.9624,-0.2120,1.3211,-0.0757,-0.0611,-0.0024,1,1,1,1,1,1,1
14.1105,sweep,2,+up,0.02041,0.64031,0.02956,1.56958,0.03338,0.17987,-0.00324,-0.0073,0.1832,-0.0024,-0.0220,-0.0073,-0.0073,-0.0073,-0.0205,2.0034,-0.1983,1.3846,-0.0708,-0.0611,0.0024,1,1,1,1,1,1,1
14.1501,sweep,2,+up,0.02041,0.64031,0.02956,1.56958,0.03338,0.17987,-0.00324,-0.0073,0.1832,-0.0024,-0.0220,-0.0073,-0.0073,-0.0073,-0.0205,2.0034,-0.1983,1.3846,-0.0708,-0.0611,0.0024,1,1,1,1,1,1,1
14.1903,sweep,2,+up,0.02041,0.65671,0.02956,1.56958,0.03376,0.17987,-0.00324,-0.0024,0.2222,-0.0024,0.0073,-0.0073,0.0073,-0.0073,-0.0068,1.5385,-0.2120,1.4188,-0.0708,-0.0659,0.0024,1,1,1,1,1,1,1
14.2310,sweep,2,+up,0.02041,0.65671,0.02956,1.56958,0.03376,0.17987,-0.00324,-0.0024,0.2222,-0.0024,0.0073,-0.0073,0.0073,-0.0073,-0.0068,1.5385,-0.2120,1.4188,-0.0708,-0.0659,0.0024,1,1,1,1,1,1,1
14.2708,sweep,2,+up,0.02041,0.65671,0.02956,1.56958,0.03376,0.17987,-0.00324,-0.0024,0.2222,-0.0024,0.0073,-0.0073,0.0073,-0.0073,-0.0068,1.5385,-0.2120,1.4188,-0.0708,-0.0659,0.0024,1,1,1,1,1,1,1
14.3103,sweep,2,+up,0.02041,0.67845,0.02956,1.56958,0.03338,0.17987,-0.00324,-0.0024,0.1490,0.0024,-0.0220,-0.0073,-0.0073,-0.0073,0.0342,1.4838,-0.2256,1.4676,-0.0708,-0.0708,0.0024,1,1,1,1,1,1,1
14.3507,sweep,2,+up,0.02041,0.67845,0.02956,1.56958,0.03338,0.17987,-0.00324,-0.0024,0.1490,0.0024,-0.0220,-0.0073,-0.0073,-0.0073,0.0342,1.4838,-0.2256,1.4676,-0.0708,-0.0708,0.0024,1,1,1,1,1,1,1
14.3906,sweep,2,+up,0.02041,0.69104,0.02956,1.56958,0.03376,0.17987,-0.00324,0.0024,0.1343,-0.0024,-0.0073,-0.0073,-0.0073,-0.0073,0.0068,1.5111,-0.2256,1.4969,-0.0708,-0.0708,-0.0024,1,1,1,1,1,1,1
14.4302,sweep,2,+up,0.02041,0.69104,0.02956,1.56958,0.03376,0.17987,-0.00324,0.0024,0.1343,-0.0024,-0.0073,-0.0073,-0.0073,-0.0073,0.0068,1.5111,-0.2256,1.4969,-0.0708,-0.0708,-0.0024,1,1,1,1,1,1,1
14.4705,sweep,2,+up,0.02041,0.69104,0.02956,1.56958,0.03376,0.17987,-0.00324,0.0024,0.1343,-0.0024,-0.0073,-0.0073,-0.0073,-0.0073,0.0068,1.5111,-0.2256,1.4969,-0.0708,-0.0708,-0.0024,1,1,1,1,1,1,1
14.5108,sweep,2,+up,0.02041,0.70745,0.02956,1.56996,0.03376,0.17987,-0.00362,0.0024,0.1294,-0.0024,0.0220,-0.0073,-0.0073,-0.0073,0.0205,1.2786,-0.2256,1.5458,-0.0659,-0.0757,-0.0024,1,1,1,1,1,1,1
14.5502,sweep,2,+up,0.02041,0.70745,0.02956,1.56996,0.03376,0.17987,-0.00362,0.0024,0.1294,-0.0024,0.0220,-0.0073,-0.0073,-0.0073,0.0205,1.2786,-0.2256,1.5458,-0.0659,-0.0757,-0.0024,1,1,1,1,1,1,1
14.5904,sweep,2,+up,0.02041,0.71736,0.02956,1.56996,0.03338,0.17948,-0.00324,-0.0024,0.1050,-0.0024,-0.0073,-0.0220,0.0073,-0.0073,0.0342,1.2786,-0.2393,1.5604,-0.0659,-0.0855,-0.0024,1,1,1,1,1,1,1
14.6303,sweep,2,+up,0.02041,0.71736,0.02956,1.56996,0.03338,0.17948,-0.00324,-0.0024,0.1050,-0.0024,-0.0073,-0.0220,0.0073,-0.0073,0.0342,1.2786,-0.2393,1.5604,-0.0659,-0.0855,-0.0024,1,1,1,1,1,1,1
14.6704,sweep,2,+up,0.02041,0.71736,0.02956,1.56996,0.03338,0.17948,-0.00324,-0.0024,0.1050,-0.0024,-0.0073,-0.0220,0.0073,-0.0073,0.0342,1.2786,-0.2393,1.5604,-0.0659,-0.0855,-0.0024,1,1,1,1,1,1,1
14.7107,sweep,2,+up,0.02041,0.72995,0.02956,1.57034,0.03338,0.17948,-0.00324,-0.0024,0.0952,0.0024,-0.0073,-0.0073,-0.0073,-0.0073,-0.0068,1.1282,-0.2530,1.5604,-0.0708,-0.0855,-0.0122,1,1,1,1,1,1,1
14.7502,sweep,2,+up,0.02041,0.72995,0.02956,1.57034,0.03338,0.17948,-0.00324,-0.0024,0.0952,0.0024,-0.0073,-0.0073,-0.0073,-0.0073,-0.0068,1.1282,-0.2530,1.5604,-0.0708,-0.0855,-0.0122,1,1,1,1,1,1,1
14.7901,sweep,2,+up,0.02041,0.73720,0.02956,1.57034,0.03338,0.17948,-0.00324,-0.0024,0.0806,0.0024,-0.0073,-0.0073,-0.0073,-0.0073,-0.0068,1.1556,-0.2393,1.5653,-0.0708,-0.0855,-0.0073,1,1,1,1,1,1,1
14.8303,sweep,2,+up,0.02041,0.73720,0.02956,1.57034,0.03338,0.17948,-0.00324,-0.0024,0.0806,0.0024,-0.0073,-0.0073,-0.0073,-0.0073,-0.0068,1.1556,-0.2393,1.5653,-0.0708,-0.0855,-0.0073,1,1,1,1,1,1,1
14.8703,sweep,2,+up,0.02041,0.73720,0.02956,1.57034,0.03338,0.17948,-0.00324,-0.0024,0.0806,0.0024,-0.0073,-0.0073,-0.0073,-0.0073,-0.0068,1.1556,-0.2393,1.5653,-0.0708,-0.0855,-0.0073,1,1,1,1,1,1,1
14.9102,sweep,2,+up,0.02041,0.74674,0.02956,1.57034,0.03338,0.17948,-0.00324,0.0024,0.0562,-0.0024,-0.0073,-0.0073,-0.0220,-0.0073,-0.0205,1.0051,-0.2530,1.5800,-0.0708,-0.0904,-0.0073,1,1,1,1,1,1,1
14.9501,sweep,2,+up,0.02041,0.74674,0.02956,1.57034,0.03338,0.17948,-0.00324,0.0024,0.0562,-0.0024,-0.0073,-0.0073,-0.0220,-0.0073,-0.0205,1.0051,-0.2530,1.5800,-0.0708,-0.0904,-0.0073,1,1,1,1,1,1,1
14.9901,sweep,2,+up,0.02041,0.75246,0.02956,1.57034,0.03338,0.17948,-0.00324,-0.0073,0.0757,-0.0073,-0.0073,0.0073,0.0073,-0.0073,0.0342,0.9641,-0.2667,1.5897,-0.0708,-0.0855,-0.0073,1,1,1,1,1,1,1
15.0301,sweep,2,+up,0.02041,0.75246,0.02956,1.57034,0.03338,0.17948,-0.00324,-0.0073,0.0757,-0.0073,-0.0073,0.0073,0.0073,-0.0073,0.0342,0.9641,-0.2667,1.5897,-0.0708,-0.0855,-0.0073,1,1,1,1,1,1,1
15.0701,sweep,2,+up,0.02041,0.75246,0.02956,1.57034,0.03338,0.17948,-0.00324,-0.0073,0.0757,-0.0073,-0.0073,0.0073,0.0073,-0.0073,0.0342,0.9641,-0.2667,1.5897,-0.0708,-0.0855,-0.0073,1,1,1,1,1,1,1
15.1102,sweep,2,+up,0.02041,0.75971,0.02956,1.57034,0.03338,0.17948,-0.00324,-0.0024,0.0415,-0.0024,-0.0073,-0.0073,-0.0220,-0.0073,0.0068,0.9915,-0.2667,1.5849,-0.0708,-0.0855,-0.0073,1,1,1,1,1,1,1
15.1501,sweep,2,+up,0.02041,0.75971,0.02956,1.57034,0.03338,0.17948,-0.00324,-0.0024,0.0415,-0.0024,-0.0073,-0.0073,-0.0220,-0.0073,0.0068,0.9915,-0.2667,1.5849,-0.0708,-0.0855,-0.0073,1,1,1,1,1,1,1
15.1902,sweep,2,+up,0.02041,0.76390,0.02956,1.57034,0.03338,0.17987,-0.00324,-0.0024,0.0464,0.0024,-0.0220,-0.0073,-0.0073,0.0073,0.0068,1.1282,-0.2530,1.5849,-0.0611,-0.0855,-0.0073,1,1,1,1,1,1,1
15.2304,sweep,2,+up,0.02041,0.76390,0.02956,1.57034,0.03338,0.17987,-0.00324,-0.0024,0.0464,0.0024,-0.0220,-0.0073,-0.0073,0.0073,0.0068,1.1282,-0.2530,1.5849,-0.0611,-0.0855,-0.0073,1,1,1,1,1,1,1
15.2701,sweep,2,+up,0.02041,0.76390,0.02956,1.57034,0.03338,0.17987,-0.00324,-0.0024,0.0464,0.0024,-0.0220,-0.0073,-0.0073,0.0073,0.0068,1.1282,-0.2530,1.5849,-0.0611,-0.0855,-0.0073,1,1,1,1,1,1,1
15.3102,sweep,2,+up,0.02041,0.76963,0.02956,1.57034,0.03376,0.17948,-0.00324,-0.0073,0.0464,-0.0024,-0.0073,-0.0073,0.0073,-0.0073,0.0068,0.8274,-0.2803,1.5946,-0.0659,-0.0904,-0.0073,1,1,1,1,1,1,1
15.3503,sweep,2,+up,0.02041,0.76963,0.02956,1.57034,0.03376,0.17948,-0.00324,-0.0073,0.0464,-0.0024,-0.0073,-0.0073,0.0073,-0.0073,0.0068,0.8274,-0.2803,1.5946,-0.0659,-0.0904,-0.0073,1,1,1,1,1,1,1
15.3903,sweep,2,+up,0.02041,0.77268,0.02956,1.57034,0.03376,0.17948,-0.00324,0.0024,0.0171,-0.0073,0.0073,0.0073,-0.0073,-0.0073,0.0068,1.0872,-0.2803,1.5897,-0.0562,-0.0952,-0.0073,1,1,1,1,1,1,1
15.4306,sweep,2,+up,0.02041,0.77268,0.02956,1.57034,0.03376,0.17948,-0.00324,0.0024,0.0171,-0.0073,0.0073,0.0073,-0.0073,-0.0073,0.0068,1.0872,-0.2803,1.5897,-0.0562,-0.0952,-0.0073,1,1,1,1,1,1,1
15.4701,sweep,2,+up,0.02041,0.77268,0.02956,1.57034,0.03376,0.17948,-0.00324,0.0024,0.0171,-0.0073,0.0073,0.0073,-0.0073,-0.0073,0.0068,1.0872,-0.2803,1.5897,-0.0562,-0.0952,-0.0073,1,1,1,1,1,1,1
15.5102,sweep,2,+up,0.02041,0.77687,0.02956,1.57034,0.03338,0.17948,-0.00362,-0.0024,0.0317,-0.0024,-0.0073,-0.0220,-0.0220,-0.0073,0.0342,0.9368,-0.2667,1.6239,-0.0611,-0.1001,-0.0122,1,1,1,1,1,1,1
15.5505,sweep,2,+up,0.02041,0.77687,0.02956,1.57034,0.03338,0.17948,-0.00362,-0.0024,0.0317,-0.0024,-0.0073,-0.0220,-0.0220,-0.0073,0.0342,0.9368,-0.2667,1.6239,-0.0611,-0.1001,-0.0122,1,1,1,1,1,1,1
15.5903,sweep,2,+up,0.02041,0.77916,0.02956,1.57034,0.03376,0.17948,-0.00324,-0.0024,0.0220,-0.0024,-0.0073,0.0073,-0.0073,-0.0073,0.0068,0.9641,-0.2530,1.6142,-0.0611,-0.0952,-0.0073,1,1,1,1,1,1,1
15.6304,sweep,2,+up,0.02041,0.77916,0.02956,1.57034,0.03376,0.17948,-0.00324,-0.0024,0.0220,-0.0024,-0.0073,0.0073,-0.0073,-0.0073,0.0068,0.9641,-0.2530,1.6142,-0.0611,-0.0952,-0.0073,1,1,1,1,1,1,1
15.6707,sweep,2,+up,0.02041,0.77916,0.02956,1.57034,0.03376,0.17948,-0.00324,-0.0024,0.0220,-0.0024,-0.0073,0.0073,-0.0073,-0.0073,0.0068,0.9641,-0.2530,1.6142,-0.0611,-0.0952,-0.0073,1,1,1,1,1,1,1
15.7103,sweep,2,+up,0.02041,0.78260,0.02956,1.57073,0.03338,0.17948,-0.00324,-0.0073,0.0317,-0.0024,0.0073,-0.0220,-0.0073,-0.0073,0.0068,0.9094,-0.2667,1.6288,-0.0611,-0.0806,-0.0122,1,1,1,1,1,1,1
16.2128,sweep,2,-down,0.02041,0.78374,0.02956,1.57034,0.03376,0.17948,-0.00324,0.0024,0.0220,-0.0024,-0.0073,-0.0073,-0.0073,0.0073,0.0068,0.8821,-0.2667,1.6386,-0.0611,-0.0806,-0.0073,1,1,1,1,1,1,1
16.2529,sweep,2,-down,0.02041,0.78374,0.02956,1.57034,0.03376,0.17948,-0.00324,0.0024,0.0220,-0.0024,-0.0073,-0.0073,-0.0073,0.0073,0.0068,0.8821,-0.2667,1.6386,-0.0611,-0.0806,-0.0073,1,1,1,1,1,1,1
16.2929,sweep,2,-down,0.02041,0.78718,0.02956,1.57073,0.03338,0.17948,-0.00324,-0.0073,-0.1978,-0.0024,0.0073,-0.0073,-0.0220,0.0073,-0.0205,-0.3624,-0.2667,1.6142,-0.0659,-0.0904,-0.0122,1,1,1,1,1,1,1
16.3330,sweep,2,-down,0.02041,0.78718,0.02956,1.57073,0.03338,0.17948,-0.00324,-0.0073,-0.1978,-0.0024,0.0073,-0.0073,-0.0220,0.0073,-0.0205,-0.3624,-0.2667,1.6142,-0.0659,-0.0904,-0.0122,1,1,1,1,1,1,1
16.3730,sweep,2,-down,0.02041,0.78718,0.02956,1.57073,0.03338,0.17948,-0.00324,-0.0073,-0.1978,-0.0024,0.0073,-0.0073,-0.0220,0.0073,-0.0205,-0.3624,-0.2667,1.6142,-0.0659,-0.0904,-0.0122,1,1,1,1,1,1,1
16.4131,sweep,2,-down,0.02041,0.76314,0.02956,1.57073,0.03376,0.17948,-0.00362,-0.0024,-0.2173,-0.0024,-0.0220,-0.0073,-0.0073,-0.0073,-0.0205,-0.5128,-0.2940,1.6337,-0.0708,-0.0806,-0.0122,1,1,1,1,1,1,1
16.4533,sweep,2,-down,0.02041,0.76314,0.02956,1.57073,0.03376,0.17948,-0.00362,-0.0024,-0.2173,-0.0024,-0.0220,-0.0073,-0.0073,-0.0073,-0.0205,-0.5128,-0.2940,1.6337,-0.0708,-0.0806,-0.0122,1,1,1,1,1,1,1
16.4930,sweep,2,-down,0.02041,0.74598,0.02956,1.57225,0.03338,0.17948,-0.00324,-0.0024,-0.2125,-0.0024,0.0366,0.0073,-0.0073,-0.0073,-0.0205,0.1846,-0.2803,1.5018,-0.0708,-0.0806,-0.0073,1,1,1,1,1,1,1
16.5328,sweep,2,-down,0.02041,0.74598,0.02956,1.57225,0.03338,0.17948,-0.00324,-0.0024,-0.2125,-0.0024,0.0366,0.0073,-0.0073,-0.0073,-0.0205,0.1846,-0.2803,1.5018,-0.0708,-0.0806,-0.0073,1,1,1,1,1,1,1
16.5731,sweep,2,-down,0.02041,0.74598,0.02956,1.57225,0.03338,0.17948,-0.00324,-0.0024,-0.2125,-0.0024,0.0366,0.0073,-0.0073,-0.0073,-0.0205,0.1846,-0.2803,1.5018,-0.0708,-0.0806,-0.0073,1,1,1,1,1,1,1
16.6129,sweep,2,-down,0.02041,0.72271,0.02956,1.57263,0.03376,0.17948,-0.00324,-0.0024,-0.2125,-0.0024,-0.0220,-0.0073,-0.0073,-0.0073,-0.0205,-0.1299,-0.2803,1.3553,-0.0659,-0.0855,-0.0073,1,1,1,1,1,1,1
16.6529,sweep,2,-down,0.02041,0.72271,0.02956,1.57263,0.03376,0.17948,-0.00324,-0.0024,-0.2125,-0.0024,-0.0220,-0.0073,-0.0073,-0.0073,-0.0205,-0.1299,-0.2803,1.3553,-0.0659,-0.0855,-0.0073,1,1,1,1,1,1,1
16.6929,sweep,2,-down,0.02041,0.70630,0.02956,1.57187,0.03376,0.17948,-0.00324,-0.0073,-0.1929,-0.0024,-0.0220,-0.0073,-0.0073,-0.0073,0.0068,0.1299,-0.2803,1.3309,-0.0659,-0.0806,-0.0122,1,1,1,1,1,1,1
16.7329,sweep,2,-down,0.02041,0.70630,0.02956,1.57187,0.03376,0.17948,-0.00324,-0.0073,-0.1929,-0.0024,-0.0220,-0.0073,-0.0073,-0.0073,0.0068,0.1299,-0.2803,1.3309,-0.0659,-0.0806,-0.0122,1,1,1,1,1,1,1
16.7728,sweep,2,-down,0.02041,0.70630,0.02956,1.57187,0.03376,0.17948,-0.00324,-0.0073,-0.1929,-0.0024,-0.0220,-0.0073,-0.0073,-0.0073,0.0068,0.1299,-0.2803,1.3309,-0.0659,-0.0806,-0.0122,1,1,1,1,1,1,1
16.8128,sweep,2,-down,0.02041,0.68189,0.02956,1.57225,0.03338,0.17948,-0.00324,-0.0024,-0.2173,-0.0024,-0.0073,-0.0073,-0.0220,-0.0073,-0.0205,0.4855,-0.2803,1.2527,-0.0659,-0.0855,-0.0122,1,1,1,1,1,1,1
16.8530,sweep,2,-down,0.02041,0.68189,0.02956,1.57225,0.03338,0.17948,-0.00324,-0.0024,-0.2173,-0.0024,-0.0073,-0.0073,-0.0220,-0.0073,-0.0205,0.4855,-0.2803,1.2527,-0.0659,-0.0855,-0.0122,1,1,1,1,1,1,1
16.8929,sweep,2,-down,0.02041,0.66587,0.02956,1.57187,0.03376,0.17948,-0.00362,0.0024,-0.1978,-0.0073,0.0073,-0.0073,-0.0220,-0.0073,-0.0205,0.2256,-0.2803,1.2234,-0.0659,-0.0855,-0.0122,1,1,1,1,1,1,1
16.9330,sweep,2,-down,0.02041,0.66587,0.02956,1.57187,0.03376,0.17948,-0.00362,0.0024,-0.1978,-0.0073,0.0073,-0.0073,-0.0220,-0.0073,-0.0205,0.2256,-0.2803,1.2234,-0.0659,-0.0855,-0.0122,1,1,1,1,1,1,1
16.9728,sweep,2,-down,0.02041,0.66587,0.02956,1.57187,0.03376,0.17948,-0.00362,0.0024,-0.1978,-0.0073,0.0073,-0.0073,-0.0220,-0.0073,-0.0205,0.2256,-0.2803,1.2234,-0.0659,-0.0855,-0.0122,1,1,1,1,1,1,1
17.0130,sweep,2,-down,0.02041,0.64183,0.02956,1.57187,0.03338,0.17948,-0.00324,-0.0024,-0.1783,-0.0073,-0.0073,-0.0220,-0.0073,-0.0073,-0.0205,0.5402,-0.2940,1.1600,-0.0659,-0.0806,-0.0073,1,1,1,1,1,1,1
17.0531,sweep,2,-down,0.02041,0.64183,0.02956,1.57187,0.03338,0.17948,-0.00324,-0.0024,-0.1783,-0.0073,-0.0073,-0.0220,-0.0073,-0.0073,-0.0205,0.5402,-0.2940,1.1600,-0.0659,-0.0806,-0.0073,1,1,1,1,1,1,1
17.0932,sweep,2,-down,0.02041,0.62543,0.02956,1.57187,0.03376,0.17948,-0.00324,-0.0024,-0.2125,-0.0024,-0.0073,-0.0073,-0.0073,0.0073,-0.0068,0.6359,-0.2803,1.1209,-0.0708,-0.0806,-0.0073,1,1,1,1,1,1,1
17.1330,sweep,2,-down,0.02041,0.62543,0.02956,1.57187,0.03376,0.17948,-0.00324,-0.0024,-0.2125,-0.0024,-0.0073,-0.0073,-0.0073,0.0073,-0.0068,0.6359,-0.2803,1.1209,-0.0708,-0.0806,-0.0073,1,1,1,1,1,1,1
17.1730,sweep,2,-down,0.02041,0.62543,0.02956,1.57187,0.03376,0.17948,-0.00324,-0.0024,-0.2125,-0.0024,-0.0073,-0.0073,-0.0073,0.0073,-0.0068,0.6359,-0.2803,1.1209,-0.0708,-0.0806,-0.0073,1,1,1,1,1,1,1
17.2130,sweep,2,-down,0.02041,0.60140,0.02956,1.57187,0.03376,0.17948,-0.00362,-0.0024,-0.1880,-0.0024,-0.0073,-0.0073,-0.0073,-0.0220,-0.0342,0.6769,-0.2530,1.0672,-0.0708,-0.0855,-0.0073,1,1,1,1,1,1,1
17.2530,sweep,2,-down,0.02041,0.60140,0.02956,1.57187,0.03376,0.17948,-0.00362,-0.0024,-0.1880,-0.0024,-0.0073,-0.0073,-0.0073,-0.0220,-0.0342,0.6769,-0.2530,1.0672,-0.0708,-0.0855,-0.0073,1,1,1,1,1,1,1
17.2931,sweep,2,-down,0.02041,0.58537,0.02956,1.57187,0.03338,0.17948,-0.00362,-0.0024,-0.2271,-0.0024,-0.0220,-0.0073,-0.0073,-0.0073,-0.0479,0.9094,-0.2530,1.0232,-0.0659,-0.0855,-0.0024,1,1,1,1,1,1,1
17.3331,sweep,2,-down,0.02041,0.58537,0.02956,1.57187,0.03338,0.17948,-0.00362,-0.0024,-0.2271,-0.0024,-0.0220,-0.0073,-0.0073,-0.0073,-0.0479,0.9094,-0.2530,1.0232,-0.0659,-0.0855,-0.0024,1,1,1,1,1,1,1
17.3730,sweep,2,-down,0.02041,0.58537,0.02956,1.57187,0.03338,0.17948,-0.00362,-0.0024,-0.2271,-0.0024,-0.0220,-0.0073,-0.0073,-0.0073,-0.0479,0.9094,-0.2530,1.0232,-0.0659,-0.0855,-0.0024,1,1,1,1,1,1,1
17.4130,sweep,2,-down,0.02041,0.56134,0.02956,1.57149,0.03338,0.17948,-0.00362,-0.0024,-0.1929,-0.0024,0.0073,-0.0073,-0.0073,-0.0220,-0.0205,0.9368,-0.2393,0.9695,-0.0611,-0.0806,-0.0073,1,1,1,1,1,1,1
17.4530,sweep,2,-down,0.02041,0.56134,0.02956,1.57149,0.03338,0.17948,-0.00362,-0.0024,-0.1929,-0.0024,0.0073,-0.0073,-0.0073,-0.0220,-0.0205,0.9368,-0.2393,0.9695,-0.0611,-0.0806,-0.0073,1,1,1,1,1,1,1
17.4930,sweep,2,-down,0.02041,0.54494,0.02956,1.57149,0.03376,0.17948,-0.00324,-0.0024,-0.2222,-0.0024,-0.0220,-0.0073,-0.0073,-0.0073,0.0068,1.3333,-0.2256,0.9353,-0.0611,-0.0806,-0.0073,1,1,1,1,1,1,1
17.5329,sweep,2,-down,0.02041,0.54494,0.02956,1.57149,0.03376,0.17948,-0.00324,-0.0024,-0.2222,-0.0024,-0.0220,-0.0073,-0.0073,-0.0073,0.0068,1.3333,-0.2256,0.9353,-0.0611,-0.0806,-0.0073,1,1,1,1,1,1,1
17.5730,sweep,2,-down,0.02041,0.54494,0.02956,1.57149,0.03376,0.17948,-0.00324,-0.0024,-0.2222,-0.0024,-0.0220,-0.0073,-0.0073,-0.0073,0.0068,1.3333,-0.2256,0.9353,-0.0611,-0.0806,-0.0073,1,1,1,1,1,1,1
17.6130,sweep,2,-down,0.02041,0.52129,0.02956,1.57149,0.03338,0.17948,-0.00324,-0.0024,-0.1978,-0.0024,0.0073,-0.0073,-0.0220,0.0073,-0.0068,1.0598,-0.2120,0.8913,-0.0611,-0.0806,-0.0024,1,1,1,1,1,1,1
17.6531,sweep,2,-down,0.02041,0.52129,0.02956,1.57149,0.03338,0.17948,-0.00324,-0.0024,-0.1978,-0.0024,0.0073,-0.0073,-0.0220,0.0073,-0.0068,1.0598,-0.2120,0.8913,-0.0611,-0.0806,-0.0024,1,1,1,1,1,1,1
17.6931,sweep,2,-down,0.02041,0.50488,0.02956,1.57149,0.03376,0.17948,-0.00362,-0.0024,-0.2173,-0.0024,-0.0073,-0.0073,-0.0073,-0.0073,-0.0068,1.4838,-0.1983,0.8571,-0.0611,-0.0806,-0.0024,1,1,1,1,1,1,1
17.7330,sweep,2,-down,0.02041,0.50488,0.02956,1.57149,0.03376,0.17948,-0.00362,-0.0024,-0.2173,-0.0024,-0.0073,-0.0073,-0.0073,-0.0073,-0.0068,1.4838,-0.1983,0.8571,-0.0611,-0.0806,-0.0024,1,1,1,1,1,1,1
17.7730,sweep,2,-down,0.02041,0.50488,0.02956,1.57149,0.03376,0.17948,-0.00362,-0.0024,-0.2173,-0.0024,-0.0073,-0.0073,-0.0073,-0.0073,-0.0068,1.4838,-0.1983,0.8571,-0.0611,-0.0806,-0.0024,1,1,1,1,1,1,1
17.8132,sweep,2,-down,0.02041,0.48085,0.02956,1.57149,0.03338,0.17948,-0.00324,-0.0024,-0.2027,-0.0024,0.0073,-0.0220,-0.0073,-0.0073,-0.0479,1.5111,-0.1983,0.8034,-0.0659,-0.0757,-0.0073,1,1,1,1,1,1,1
17.8533,sweep,2,-down,0.02041,0.48085,0.02956,1.57149,0.03338,0.17948,-0.00324,-0.0024,-0.2027,-0.0024,0.0073,-0.0220,-0.0073,-0.0073,-0.0479,1.5111,-0.1983,0.8034,-0.0659,-0.0757,-0.0073,1,1,1,1,1,1,1
17.8930,sweep,2,-down,0.02041,0.46483,0.02956,1.57149,0.03338,0.17948,-0.00324,0.0024,-0.1832,-0.0073,-0.0220,-0.0220,-0.0220,-0.0073,-0.0479,1.6889,-0.2256,0.7643,-0.0659,-0.0757,-0.0024,1,1,1,1,1,1,1
17.9331,sweep,2,-down,0.02041,0.46483,0.02956,1.57149,0.03338,0.17948,-0.00324,0.0024,-0.1832,-0.0073,-0.0220,-0.0220,-0.0220,-0.0073,-0.0479,1.6889,-0.2256,0.7643,-0.0659,-0.0757,-0.0024,1,1,1,1,1,1,1
17.9727,sweep,2,-down,0.02041,0.46483,0.02956,1.57149,0.03338,0.17948,-0.00324,0.0024,-0.1832,-0.0073,-0.0220,-0.0220,-0.0220,-0.0073,-0.0479,1.6889,-0.2256,0.7643,-0.0659,-0.0757,-0.0024,1,1,1,1,1,1,1
18.0132,sweep,2,-down,0.02041,0.44079,0.02956,1.57149,0.03376,0.17948,-0.00324,-0.0024,-0.2173,-0.0024,0.0073,-0.0073,-0.0220,0.0073,-0.0479,1.6752,-0.2256,0.7155,-0.0659,-0.0708,0.0024,1,1,1,1,1,1,1
18.0531,sweep,2,-down,0.02041,0.44079,0.02956,1.57149,0.03376,0.17948,-0.00324,-0.0024,-0.2173,-0.0024,0.0073,-0.0073,-0.0220,0.0073,-0.0479,1.6752,-0.2256,0.7155,-0.0659,-0.0708,0.0024,1,1,1,1,1,1,1
18.0931,sweep,2,-down,0.02041,0.42477,0.02956,1.57149,0.03338,0.17948,-0.00324,-0.0024,-0.1832,-0.0073,-0.0220,-0.0073,-0.0073,-0.0073,-0.0342,1.7436,-0.2120,0.6813,-0.0708,-0.0757,0.0024,1,1,1,1,1,1,1
18.1330,sweep,2,-down,0.02041,0.42477,0.02956,1.57149,0.03338,0.17948,-0.00324,-0.0024,-0.1832,-0.0073,-0.0220,-0.0073,-0.0073,-0.0073,-0.0342,1.7436,-0.2120,0.6813,-0.0708,-0.0757,0.0024,1,1,1,1,1,1,1
18.1731,sweep,2,-down,0.02041,0.42477,0.02956,1.57149,0.03338,0.17948,-0.00324,-0.0024,-0.1832,-0.0073,-0.0220,-0.0073,-0.0073,-0.0073,-0.0342,1.7436,-0.2120,0.6813,-0.0708,-0.0757,0.0024,1,1,1,1,1,1,1
18.2128,sweep,2,-down,0.02041,0.40036,0.02956,1.57187,0.03376,0.17948,-0.00324,-0.0024,-0.2173,-0.0024,0.0073,-0.0073,-0.0073,-0.0073,-0.0205,2.1402,-0.2120,0.6325,-0.0659,-0.0757,0.0024,1,1,1,1,1,1,1
18.2531,sweep,2,-down,0.02041,0.40036,0.02956,1.57187,0.03376,0.17948,-0.00324,-0.0024,-0.2173,-0.0024,0.0073,-0.0073,-0.0073,-0.0073,-0.0205,2.1402,-0.2120,0.6325,-0.0659,-0.0757,0.0024,1,1,1,1,1,1,1
18.2929,sweep,2,-down,0.02041,0.38472,0.02956,1.57149,0.03376,0.17948,-0.00324,-0.0073,-0.1978,-0.0024,-0.0220,0.0073,-0.0073,-0.0073,-0.0205,2.0718,-0.1846,0.5983,-0.0708,-0.0708,0.0024,1,1,1,1,1,1,1
18.3329,sweep,2,-down,0.02041,0.38472,0.02956,1.57149,0.03376,0.17948,-0.00324,-0.0073,-0.1978,-0.0024,-0.0220,0.0073,-0.0073,-0.0073,-0.0205,2.0718,-0.1846,0.5983,-0.0708,-0.0708,0.0024,1,1,1,1,1,1,1
18.3729,sweep,2,-down,0.02041,0.38472,0.02956,1.57149,0.03376,0.17948,-0.00324,-0.0073,-0.1978,-0.0024,-0.0220,0.0073,-0.0073,-0.0073,-0.0205,2.0718,-0.1846,0.5983,-0.0708,-0.0708,0.0024,1,1,1,1,1,1,1
18.4133,sweep,2,-down,0.02041,0.36030,0.02956,1.57149,0.03376,0.17948,-0.00324,-0.0024,-0.2027,-0.0073,-0.0220,-0.0073,-0.0073,-0.0073,-0.0342,2.1812,-0.2120,0.5495,-0.0659,-0.0659,0.0024,1,1,1,1,1,1,1
18.4530,sweep,2,-down,0.02041,0.36030,0.02956,1.57149,0.03376,0.17948,-0.00324,-0.0024,-0.2027,-0.0073,-0.0220,-0.0073,-0.0073,-0.0073,-0.0342,2.1812,-0.2120,0.5495,-0.0659,-0.0659,0.0024,1,1,1,1,1,1,1
18.4932,sweep,2,-down,0.02041,0.34428,0.02956,1.57149,0.03376,0.17948,-0.00362,-0.0024,-0.1978,-0.0024,-0.0073,-0.0073,-0.0220,-0.0220,-0.0479,2.1402,-0.2120,0.5006,-0.0659,-0.0659,-0.0024,1,1,1,1,1,1,1
18.5332,sweep,2,-down,0.02041,0.34428,0.02956,1.57149,0.03376,0.17948,-0.00362,-0.0024,-0.1978,-0.0024,-0.0073,-0.0073,-0.0220,-0.0220,-0.0479,2.1402,-0.2120,0.5006,-0.0659,-0.0659,-0.0024,1,1,1,1,1,1,1
18.5731,sweep,2,-down,0.02041,0.34428,0.02956,1.57149,0.03376,0.17948,-0.00362,-0.0024,-0.1978,-0.0024,-0.0073,-0.0073,-0.0220,-0.0220,-0.0479,2.1402,-0.2120,0.5006,-0.0659,-0.0659,-0.0024,1,1,1,1,1,1,1
18.6128,sweep,2,-down,0.02041,0.32025,0.02956,1.57149,0.03338,0.17948,-0.00324,-0.0024,-0.1734,-0.0024,-0.0220,-0.0073,-0.0073,-0.0073,-0.0752,2.3590,-0.2120,0.4567,-0.0708,-0.0611,-0.0024,1,1,1,1,1,1,1
18.6530,sweep,2,-down,0.02041,0.32025,0.02956,1.57149,0.03338,0.17948,-0.00324,-0.0024,-0.1734,-0.0024,-0.0220,-0.0073,-0.0073,-0.0073,-0.0752,2.3590,-0.2120,0.4567,-0.0708,-0.0611,-0.0024,1,1,1,1,1,1,1
18.6930,sweep,2,-down,0.02041,0.30423,0.02956,1.57187,0.03338,0.17948,-0.00324,-0.0024,-0.2173,-0.0024,-0.0073,-0.0073,-0.0220,-0.0073,-0.0479,2.5368,-0.2256,0.4225,-0.0708,-0.0562,-0.0024,1,1,1,1,1,1,1
18.7328,sweep,2,-down,0.02041,0.30423,0.02956,1.57187,0.03338,0.17948,-0.00324,-0.0024,-0.2173,-0.0024,-0.0073,-0.0073,-0.0220,-0.0073,-0.0479,2.5368,-0.2256,0.4225,-0.0708,-0.0562,-0.0024,1,1,1,1,1,1,1
18.7728,sweep,2,-down,0.02041,0.30423,0.02956,1.57187,0.03338,0.17948,-0.00324,-0.0024,-0.2173,-0.0024,-0.0073,-0.0073,-0.0220,-0.0073,-0.0479,2.5368,-0.2256,0.4225,-0.0708,-0.0562,-0.0024,1,1,1,1,1,1,1
18.8130,sweep,2,-down,0.02041,0.28019,0.02956,1.57149,0.03338,0.17948,-0.00324,-0.0073,-0.1978,-0.0073,-0.0220,-0.0220,0.0073,0.0073,-0.0615,2.4274,-0.1983,0.3736,-0.0757,-0.0611,-0.0073,1,1,1,1,1,1,1
18.8535,sweep,2,-down,0.02041,0.28019,0.02956,1.57149,0.03338,0.17948,-0.00324,-0.0073,-0.1978,-0.0073,-0.0220,-0.0220,0.0073,0.0073,-0.0615,2.4274,-0.1983,0.3736,-0.0757,-0.0611,-0.0073,1,1,1,1,1,1,1
18.8933,sweep,2,-down,0.02041,0.26379,0.02956,1.57187,0.03376,0.17948,-0.00324,-0.0073,-0.2125,-0.0024,0.0073,-0.0073,-0.0220,-0.0073,-0.0479,2.8513,-0.1983,0.3297,-0.0708,-0.0611,-0.0073,1,1,1,1,1,1,1
18.9331,sweep,2,-down,0.02041,0.26379,0.02956,1.57187,0.03376,0.17948,-0.00324,-0.0073,-0.2125,-0.0024,0.0073,-0.0073,-0.0220,-0.0073,-0.0479,2.8513,-0.1983,0.3297,-0.0708,-0.0611,-0.0073,1,1,1,1,1,1,1
18.9728,sweep,2,-down,0.02041,0.26379,0.02956,1.57187,0.03376,0.17948,-0.00324,-0.0073,-0.2125,-0.0024,0.0073,-0.0073,-0.0220,-0.0073,-0.0479,2.8513,-0.1983,0.3297,-0.0708,-0.0611,-0.0073,1,1,1,1,1,1,1
19.0129,sweep,2,-down,0.02041,0.24243,0.02956,1.57187,0.03338,0.17948,-0.00362,-0.0024,-0.1392,-0.0024,-0.0220,-0.0073,-0.0073,-0.0220,-0.0479,2.7282,-0.2120,0.2857,-0.0757,-0.0562,-0.0073,1,1,1,1,1,1,1
19.0530,sweep,2,-down,0.02041,0.24243,0.02956,1.57187,0.03338,0.17948,-0.00362,-0.0024,-0.1392,-0.0024,-0.0220,-0.0073,-0.0073,-0.0220,-0.0479,2.7282,-0.2120,0.2857,-0.0757,-0.0562,-0.0073,1,1,1,1,1,1,1
19.0931,sweep,2,-down,0.02041,0.22984,0.02956,1.57187,0.03338,0.17948,-0.00324,-0.0073,-0.1392,-0.0024,-0.0220,-0.0220,-0.0220,-0.0073,-0.0479,2.8376,-0.1983,0.2466,-0.0757,-0.0611,-0.0073,1,1,1,1,1,1,1
19.1328,sweep,2,-down,0.02041,0.22984,0.02956,1.57187,0.03338,0.17948,-0.00324,-0.0073,-0.1392,-0.0024,-0.0220,-0.0220,-0.0220,-0.0073,-0.0479,2.8376,-0.1983,0.2466,-0.0757,-0.0611,-0.0073,1,1,1,1,1,1,1
19.1730,sweep,2,-down,0.02041,0.22984,0.02956,1.57187,0.03338,0.17948,-0.00324,-0.0073,-0.1392,-0.0024,-0.0220,-0.0220,-0.0220,-0.0073,-0.0479,2.8376,-0.1983,0.2466,-0.0757,-0.0611,-0.0073,1,1,1,1,1,1,1
19.2133,sweep,2,-down,0.02041,0.21305,0.02956,1.57187,0.03376,0.17948,-0.00324,-0.0024,-0.1490,-0.0073,-0.0073,-0.0073,-0.0073,-0.0073,-0.0342,2.9060,-0.1983,0.1880,-0.0659,-0.0562,-0.0073,1,1,1,1,1,1,1
19.2528,sweep,2,-down,0.02041,0.21305,0.02956,1.57187,0.03376,0.17948,-0.00324,-0.0024,-0.1490,-0.0073,-0.0073,-0.0073,-0.0073,-0.0073,-0.0342,2.9060,-0.1983,0.1880,-0.0659,-0.0562,-0.0073,1,1,1,1,1,1,1
19.2929,sweep,2,-down,0.02041,0.20352,0.02956,1.57149,0.03338,0.17948,-0.00324,-0.0024,-0.1099,-0.0024,-0.0073,-0.0073,0.0073,-0.0073,-0.0342,2.9197,-0.1846,0.1783,-0.0659,-0.0562,-0.0122,1,1,1,1,1,1,1
19.3330,sweep,2,-down,0.02041,0.20352,0.02956,1.57149,0.03338,0.17948,-0.00324,-0.0024,-0.1099,-0.0024,-0.0073,-0.0073,0.0073,-0.0073,-0.0342,2.9197,-0.1846,0.1783,-0.0659,-0.0562,-0.0122,1,1,1,1,1,1,1
19.3730,sweep,2,-down,0.02041,0.20352,0.02956,1.57149,0.03338,0.17948,-0.00324,-0.0024,-0.1099,-0.0024,-0.0073,-0.0073,0.0073,-0.0073,-0.0342,2.9197,-0.1846,0.1783,-0.0659,-0.0562,-0.0122,1,1,1,1,1,1,1
19.4129,sweep,2,-down,0.02041,0.19093,0.02956,1.57073,0.03376,0.17948,-0.00324,-0.0024,-0.0952,-0.0073,-0.0073,0.0073,-0.0073,0.0073,-0.0068,2.9880,-0.2120,0.1832,-0.0708,-0.0611,-0.0073,1,1,1,1,1,1,1
19.4529,sweep,2,-down,0.02041,0.19093,0.02956,1.57073,0.03376,0.17948,-0.00324,-0.0024,-0.0952,-0.0073,-0.0073,0.0073,-0.0073,0.0073,-0.0068,2.9880,-0.2120,0.1832,-0.0708,-0.0611,-0.0073,1,1,1,1,1,1,1
19.4929,sweep,2,-down,0.02041,0.18368,0.02956,1.57073,0.03338,0.17948,-0.00324,0.0024,-0.0708,0.0024,-0.0073,-0.0220,-0.0073,-0.0073,-0.0205,2.7009,-0.1983,0.1685,-0.0708,-0.0611,-0.0073,1,1,1,1,1,1,1
19.5331,sweep,2,-down,0.02041,0.18368,0.02956,1.57073,0.03338,0.17948,-0.00324,0.0024,-0.0708,0.0024,-0.0073,-0.0220,-0.0073,-0.0073,-0.0205,2.7009,-0.1983,0.1685,-0.0708,-0.0611,-0.0073,1,1,1,1,1,1,1
19.5730,sweep,2,-down,0.02041,0.18368,0.02956,1.57073,0.03338,0.17948,-0.00324,0.0024,-0.0708,0.0024,-0.0073,-0.0220,-0.0073,-0.0073,-0.0205,2.7009,-0.1983,0.1685,-0.0708,-0.0611,-0.0073,1,1,1,1,1,1,1
19.6130,sweep,2,-down,0.02041,0.17376,0.02956,1.57073,0.03376,0.17948,-0.00324,-0.0024,-0.0855,-0.0073,-0.0073,-0.0073,0.0073,-0.0073,0.0205,3.1521,-0.1709,0.1783,-0.0757,-0.0562,-0.0024,1,1,1,1,1,1,1
19.6531,sweep,2,-down,0.02041,0.17376,0.02956,1.57073,0.03376,0.17948,-0.00324,-0.0024,-0.0855,-0.0073,-0.0073,-0.0073,0.0073,-0.0073,0.0205,3.1521,-0.1709,0.1783,-0.0757,-0.0562,-0.0024,1,1,1,1,1,1,1
19.6929,sweep,2,-down,0.02041,0.16842,0.02956,1.57073,0.03338,0.17948,-0.00324,-0.0024,-0.0659,-0.0024,-0.0366,-0.0073,0.0073,-0.0073,0.0205,2.9470,-0.1709,0.1636,-0.0757,-0.0562,-0.0073,1,1,1,1,1,1,1
19.7328,sweep,2,-down,0.02041,0.16842,0.02956,1.57073,0.03338,0.17948,-0.00324,-0.0024,-0.0659,-0.0024,-0.0366,-0.0073,0.0073,-0.0073,0.0205,2.9470,-0.1709,0.1636,-0.0757,-0.0562,-0.0073,1,1,1,1,1,1,1
19.7730,sweep,2,-down,0.02041,0.16842,0.02956,1.57073,0.03338,0.17948,-0.00324,-0.0024,-0.0659,-0.0024,-0.0366,-0.0073,0.0073,-0.0073,0.0205,2.9470,-0.1709,0.1636,-0.0757,-0.0562,-0.0073,1,1,1,1,1,1,1
19.8130,sweep,2,-down,0.02041,0.16117,0.02956,1.57111,0.03338,0.17948,-0.00324,-0.0024,-0.0708,-0.0024,-0.0073,-0.0073,-0.0220,-0.0073,-0.0205,3.0154,-0.1846,0.1490,-0.0708,-0.0562,-0.0073,1,1,1,1,1,1,1
19.8533,sweep,2,-down,0.02041,0.16117,0.02956,1.57111,0.03338,0.17948,-0.00324,-0.0024,-0.0708,-0.0024,-0.0073,-0.0073,-0.0220,-0.0073,-0.0205,3.0154,-0.1846,0.1490,-0.0708,-0.0562,-0.0073,1,1,1,1,1,1,1
19.8928,sweep,2,-down,0.02041,0.15660,0.02956,1.57111,0.03338,0.17948,-0.00324,-0.0024,-0.0806,-0.0024,-0.0073,-0.0073,-0.0073,-0.0073,-0.0068,3.1248,-0.1573,0.1148,-0.0708,-0.0562,-0.0024,1,1,1,1,1,1,1
19.9330,sweep,2,-down,0.02041,0.15660,0.02956,1.57111,0.03338,0.17948,-0.00324,-0.0024,-0.0806,-0.0024,-0.0073,-0.0073,-0.0073,-0.0073,-0.0068,3.1248,-0.1573,0.1148,-0.0708,-0.0562,-0.0024,1,1,1,1,1,1,1
19.9729,sweep,2,-down,0.02041,0.15660,0.02956,1.57111,0.03338,0.17948,-0.00324,-0.0024,-0.0806,-0.0024,-0.0073,-0.0073,-0.0073,-0.0073,-0.0068,3.1248,-0.1573,0.1148,-0.0708,-0.0562,-0.0024,1,1,1,1,1,1,1
20.0129,sweep,2,-down,0.02041,0.15125,0.02956,1.57111,0.03338,0.17948,-0.00362,-0.0024,-0.0415,-0.0024,-0.0220,0.0073,-0.0073,-0.0073,-0.0205,2.8923,-0.1709,0.1050,-0.0708,-0.0562,-0.0024,1,1,1,1,1,1,1
20.0534,sweep,2,-down,0.02041,0.15125,0.02956,1.57111,0.03338,0.17948,-0.00362,-0.0024,-0.0415,-0.0024,-0.0220,0.0073,-0.0073,-0.0073,-0.0205,2.8923,-0.1709,0.1050,-0.0708,-0.0562,-0.0024,1,1,1,1,1,1,1
20.0929,sweep,2,-down,0.02041,0.14782,0.02956,1.57073,0.03338,0.17948,-0.00324,-0.0073,-0.0513,-0.0024,-0.0073,-0.0220,0.0073,0.0073,-0.0205,2.9333,-0.1846,0.1148,-0.0708,-0.0562,-0.0024,1,1,1,1,1,1,1
20.1329,sweep,2,-down,0.02041,0.14782,0.02956,1.57073,0.03338,0.17948,-0.00324,-0.0073,-0.0513,-0.0024,-0.0073,-0.0220,0.0073,0.0073,-0.0205,2.9333,-0.1846,0.1148,-0.0708,-0.0562,-0.0024,1,1,1,1,1,1,1
20.1730,sweep,2,-down,0.02041,0.14782,0.02956,1.57073,0.03338,0.17948,-0.00324,-0.0073,-0.0513,-0.0024,-0.0073,-0.0220,0.0073,0.0073,-0.0205,2.9333,-0.1846,0.1148,-0.0708,-0.0562,-0.0024,1,1,1,1,1,1,1
20.2131,sweep,2,-down,0.02041,0.14401,0.02956,1.57111,0.03338,0.17948,-0.00362,-0.0024,-0.0513,-0.0024,-0.0220,-0.0073,-0.0073,-0.0073,-0.0342,2.7966,-0.1983,0.0952,-0.0757,-0.0513,-0.0122,1,1,1,1,1,1,1
20.2532,sweep,2,-down,0.02041,0.14401,0.02956,1.57111,0.03338,0.17948,-0.00362,-0.0024,-0.0513,-0.0024,-0.0220,-0.0073,-0.0073,-0.0073,-0.0342,2.7966,-0.1983,0.0952,-0.0757,-0.0513,-0.0122,1,1,1,1,1,1,1
20.2929,sweep,2,-down,0.02041,0.14134,0.02956,1.57073,0.03376,0.17948,-0.00324,-0.0073,-0.0269,-0.0024,-0.0073,0.0073,0.0073,0.0073,-0.0342,3.0838,-0.1983,0.1001,-0.0708,-0.0513,-0.0073,1,1,1,1,1,1,1
20.3330,sweep,2,-down,0.02041,0.14134,0.02956,1.57073,0.03376,0.17948,-0.00324,-0.0073,-0.0269,-0.0024,-0.0073,0.0073,0.0073,0.0073,-0.0342,3.0838,-0.1983,0.1001,-0.0708,-0.0513,-0.0073,1,1,1,1,1,1,1
20.3732,sweep,2,-down,0.02041,0.14134,0.02956,1.57073,0.03376,0.17948,-0.00324,-0.0073,-0.0269,-0.0024,-0.0073,0.0073,0.0073,0.0073,-0.0342,3.0838,-0.1983,0.1001,-0.0708,-0.0513,-0.0073,1,1,1,1,1,1,1
20.4131,sweep,2,-down,0.02041,0.13828,0.02956,1.57111,0.03338,0.17948,-0.00324,-0.0024,-0.0220,-0.0073,-0.0073,-0.0220,-0.0073,0.0073,-0.0479,2.8923,-0.1846,0.0855,-0.0659,-0.0513,-0.0073,1,1,1,1,1,1,1
20.9155,approach,2,return,0.02041,0.13714,0.02956,1.57111,0.03376,0.17948,-0.00324,-0.0024,-0.0464,-0.0024,-0.0073,0.0073,-0.0220,-0.0073,-0.0342,2.9880,-0.1846,0.0757,-0.0659,-0.0464,-0.0073,1,1,1,1,1,1,1
20.9557,approach,2,return,0.02041,0.13714,0.02956,1.57111,0.03376,0.17948,-0.00324,-0.0024,-0.0464,-0.0024,-0.0073,0.0073,-0.0220,-0.0073,-0.0342,2.9880,-0.1846,0.0757,-0.0659,-0.0464,-0.0073,1,1,1,1,1,1,1
20.9958,approach,2,return,0.02041,0.12303,0.02956,1.56806,0.03376,0.17948,-0.00324,0.0024,-0.1685,-0.0024,-0.1685,-0.0073,-0.0073,-0.0073,0.0205,2.4410,-0.1846,0.1978,-0.0659,-0.0464,-0.0073,1,1,1,1,1,1,1
21.0356,approach,2,return,0.02041,0.12303,0.02956,1.56806,0.03376,0.17948,-0.00324,0.0024,-0.1685,-0.0024,-0.1685,-0.0073,-0.0073,-0.0073,0.0205,2.4410,-0.1846,0.1978,-0.0659,-0.0464,-0.0073,1,1,1,1,1,1,1
21.0758,approach,2,return,0.02041,0.12303,0.02956,1.56806,0.03376,0.17948,-0.00324,0.0024,-0.1685,-0.0024,-0.1685,-0.0073,-0.0073,-0.0073,0.0205,2.4410,-0.1846,0.1978,-0.0659,-0.0464,-0.0073,1,1,1,1,1,1,1
21.1157,approach,2,return,0.02041,0.10395,0.02956,1.57263,0.03338,0.17948,-0.00362,-0.0024,-0.1392,-0.0024,0.0220,-0.0220,-0.0220,-0.0073,0.0068,3.4530,-0.1846,0.0220,-0.0659,-0.0464,-0.0073,1,1,1,1,1,1,1
21.1556,approach,2,return,0.02041,0.10395,0.02956,1.57263,0.03338,0.17948,-0.00362,-0.0024,-0.1392,-0.0024,0.0220,-0.0220,-0.0220,-0.0073,0.0068,3.4530,-0.1846,0.0220,-0.0659,-0.0464,-0.0073,1,1,1,1,1,1,1
21.1956,approach,2,return,0.02041,0.09289,0.02956,1.57263,0.03338,0.17948,-0.00324,-0.0024,-0.1392,-0.0073,-0.0220,-0.0220,-0.0073,-0.0073,-0.0342,3.5761,-0.1709,-0.0073,-0.0659,-0.0415,-0.0073,1,1,1,1,1,1,1
21.2357,approach,2,return,0.02041,0.09289,0.02956,1.57263,0.03338,0.17948,-0.00324,-0.0024,-0.1392,-0.0073,-0.0220,-0.0220,-0.0073,-0.0073,-0.0342,3.5761,-0.1709,-0.0073,-0.0659,-0.0415,-0.0073,1,1,1,1,1,1,1
21.2758,approach,2,return,0.02041,0.09289,0.02956,1.57263,0.03338,0.17948,-0.00324,-0.0024,-0.1392,-0.0073,-0.0220,-0.0220,-0.0073,-0.0073,-0.0342,3.5761,-0.1709,-0.0073,-0.0659,-0.0415,-0.0073,1,1,1,1,1,1,1
21.3156,approach,2,return,0.02041,0.07954,0.02956,1.57225,0.03376,0.17948,-0.00362,0.0024,-0.0952,-0.0024,-0.0220,0.0073,-0.0073,-0.0073,-0.0205,3.2889,-0.1709,-0.0366,-0.0659,-0.0415,-0.0073,1,1,1,1,1,1,1
21.3558,approach,2,return,0.02041,0.07954,0.02956,1.57225,0.03376,0.17948,-0.00362,0.0024,-0.0952,-0.0024,-0.0220,0.0073,-0.0073,-0.0073,-0.0205,3.2889,-0.1709,-0.0366,-0.0659,-0.0415,-0.0073,1,1,1,1,1,1,1
21.3958,approach,2,return,0.02041,0.07153,0.02956,1.57263,0.03338,0.17948,-0.00324,-0.0024,-0.1050,-0.0024,-0.0073,-0.0073,-0.0220,0.0073,-0.0205,3.1385,-0.1709,-0.0611,-0.0659,-0.0366,-0.0073,1,1,1,1,1,1,1
21.4358,approach,2,return,0.02041,0.07153,0.02956,1.57263,0.03338,0.17948,-0.00324,-0.0024,-0.1050,-0.0024,-0.0073,-0.0073,-0.0220,0.0073,-0.0205,3.1385,-0.1709,-0.0611,-0.0659,-0.0366,-0.0073,1,1,1,1,1,1,1
21.4758,approach,2,return,0.02041,0.07153,0.02956,1.57263,0.03338,0.17948,-0.00324,-0.0024,-0.1050,-0.0024,-0.0073,-0.0073,-0.0220,0.0073,-0.0205,3.1385,-0.1709,-0.0611,-0.0659,-0.0366,-0.0073,1,1,1,1,1,1,1
21.5159,approach,2,return,0.02041,0.06046,0.02956,1.57225,0.03376,0.17948,-0.00324,-0.0024,-0.0952,0.0024,-0.0073,-0.0073,-0.0073,-0.0073,-0.0205,3.4120,-0.1573,-0.1050,-0.0659,-0.0366,-0.0073,1,1,1,1,1,1,1
21.5556,approach,2,return,0.02041,0.06046,0.02956,1.57225,0.03376,0.17948,-0.00324,-0.0024,-0.0952,0.0024,-0.0073,-0.0073,-0.0073,-0.0073,-0.0205,3.4120,-0.1573,-0.1050,-0.0659,-0.0366,-0.0073,1,1,1,1,1,1,1
21.5957,approach,2,return,0.02041,0.05436,0.02956,1.57225,0.03338,0.17987,-0.00324,-0.0024,-0.0855,-0.0024,-0.0220,-0.0073,-0.0220,-0.0073,0.0068,3.5350,-0.1573,-0.1392,-0.0659,-0.0366,-0.0122,1,1,1,1,1,1,1
21.6357,approach,2,return,0.02041,0.05436,0.02956,1.57225,0.03338,0.17987,-0.00324,-0.0024,-0.0855,-0.0024,-0.0220,-0.0073,-0.0220,-0.0073,0.0068,3.5350,-0.1573,-0.1392,-0.0659,-0.0366,-0.0122,1,1,1,1,1,1,1
21.6757,approach,2,return,0.02041,0.05436,0.02956,1.57225,0.03338,0.17987,-0.00324,-0.0024,-0.0855,-0.0024,-0.0220,-0.0073,-0.0220,-0.0073,0.0068,3.5350,-0.1573,-0.1392,-0.0659,-0.0366,-0.0122,1,1,1,1,1,1,1
21.7157,approach,2,return,0.02041,0.04635,0.02956,1.57416,0.03338,0.17948,-0.00324,-0.0024,-0.0464,0.0024,0.0366,-0.0220,-0.0073,-0.0073,0.0205,3.6308,-0.1846,-0.3785,-0.0659,-0.0366,-0.0122,1,1,1,1,1,1,1
21.7558,approach,2,return,0.02041,0.04635,0.02956,1.57416,0.03338,0.17948,-0.00324,-0.0024,-0.0464,0.0024,0.0366,-0.0220,-0.0073,-0.0073,0.0205,3.6308,-0.1846,-0.3785,-0.0659,-0.0366,-0.0122,1,1,1,1,1,1,1
21.7957,approach,2,return,0.02041,0.04177,0.02956,1.57187,0.03338,0.17948,-0.00324,-0.0024,-0.0513,-0.0073,-0.0220,0.0073,0.0073,-0.0073,0.0205,3.3846,-0.1846,-0.2711,-0.0708,-0.0366,-0.0073,1,1,1,1,1,1,1
21.8358,approach,2,return,0.02041,0.04177,0.02956,1.57187,0.03338,0.17948,-0.00324,-0.0024,-0.0513,-0.0073,-0.0220,0.0073,0.0073,-0.0073,0.0205,3.3846,-0.1846,-0.2711,-0.0708,-0.0366,-0.0073,1,1,1,1,1,1,1
21.8756,approach,2,return,0.02041,0.04177,0.02956,1.57187,0.03338,0.17948,-0.00324,-0.0024,-0.0513,-0.0073,-0.0220,0.0073,0.0073,-0.0073,0.0205,3.3846,-0.1846,-0.2711,-0.0708,-0.0366,-0.0073,1,1,1,1,1,1,1
21.9159,approach,2,return,0.02041,0.03529,0.02956,1.57149,0.03338,0.17948,-0.00324,-0.0024,-0.0464,-0.0024,-0.0220,-0.0073,-0.0073,-0.0073,-0.0205,3.8359,-0.1573,-0.3053,-0.0659,-0.0366,-0.0024,1,1,1,1,1,1,1
21.9556,approach,2,return,0.02041,0.03529,0.02956,1.57149,0.03338,0.17948,-0.00324,-0.0024,-0.0464,-0.0024,-0.0220,-0.0073,-0.0073,-0.0073,-0.0205,3.8359,-0.1573,-0.3053,-0.0659,-0.0366,-0.0024,1,1,1,1,1,1,1
21.9960,approach,2,return,0.02041,0.03185,0.02956,1.57149,0.03376,0.17948,-0.00324,-0.0073,-0.0513,-0.0024,-0.0073,-0.0220,-0.0073,-0.0073,-0.0342,3.4667,-0.1709,-0.3199,-0.0611,-0.0366,-0.0073,1,1,1,1,1,1,1
22.0362,approach,2,return,0.02041,0.03185,0.02956,1.57149,0.03376,0.17948,-0.00324,-0.0073,-0.0513,-0.0024,-0.0073,-0.0220,-0.0073,-0.0073,-0.0342,3.4667,-0.1709,-0.3199,-0.0611,-0.0366,-0.0073,1,1,1,1,1,1,1
22.0761,approach,2,return,0.02041,0.03185,0.02956,1.57149,0.03376,0.17948,-0.00324,-0.0073,-0.0513,-0.0024,-0.0073,-0.0220,-0.0073,-0.0073,-0.0342,3.4667,-0.1709,-0.3199,-0.0611,-0.0366,-0.0073,1,1,1,1,1,1,1
