peipl15/reBot_Arm/outputs/gravity_calib_20260621_232754.csv
t_s,phase,swept_joint,direction,q1,q2,q3,q4,q5,q6,q7,v1,v2,v3,v4,v5,v6,v7,tau1,tau2,tau3,tau4,tau5,tau6,tau7,st1,st2,st3,st4,st5,st6,st7
0.0022,approach,2,to_lo,-0.00591,0.00782,0.03185,0.00095,0.00401,0.02689,-0.00362,-0.0024,-0.0073,-0.0024,0.0073,-0.0073,-0.0073,-0.0073,-0.0068,-0.0068,-0.0479,0.0024,-0.0073,0.0024,-0.0122,1,1,1,1,1,1,1
0.0437,approach,2,to_lo,-0.00629,0.00782,0.03185,0.00095,0.00134,0.02689,-0.00362,-0.0024,0.0024,-0.0024,0.0073,-0.0073,-0.0073,-0.0073,-0.0205,-0.0068,0.0068,0.0024,0.0855,0.0073,0.0073,1,1,1,1,1,1,1
0.0828,approach,2,to_lo,-0.00629,0.00782,0.03185,0.00095,0.00134,0.02689,-0.00362,-0.0024,0.0024,-0.0024,0.0073,-0.0073,-0.0073,-0.0073,-0.0205,-0.0068,0.0068,0.0024,0.0855,0.0073,0.0073,1,1,1,1,1,1,1
0.1223,approach,2,to_lo,-0.00629,0.00782,0.03185,0.00095,0.00134,0.02689,-0.00362,-0.0024,0.0024,-0.0024,0.0073,-0.0073,-0.0073,-0.0073,-0.0205,-0.0068,0.0068,0.0024,0.0855,0.0073,0.0073,1,1,1,1,1,1,1
0.1625,approach,2,to_lo,-0.00629,0.02232,0.03185,0.00095,0.00134,0.02689,-0.00324,-0.0024,0.1099,0.0024,-0.0073,-0.0220,-0.0073,0.0073,0.0068,1.9487,-0.0068,-0.0073,0.1636,0.0122,0.0024,1,1,1,1,1,1,1
0.2025,approach,2,to_lo,-0.00629,0.02232,0.03185,0.00095,0.00134,0.02689,-0.00324,-0.0024,0.1099,0.0024,-0.0073,-0.0220,-0.0073,0.0073,0.0068,1.9487,-0.0068,-0.0073,0.1636,0.0122,0.0024,1,1,1,1,1,1,1
0.2429,approach,2,to_lo,-0.00629,0.03185,0.03185,0.00095,0.00172,0.02689,-0.00324,-0.0024,0.1197,-0.0024,-0.0220,0.0073,-0.0073,-0.0073,0.0068,2.6598,-0.0342,0.0024,0.2076,0.0171,-0.0024,1,1,1,1,1,1,1
0.2827,approach,2,to_lo,-0.00629,0.03185,0.03185,0.00095,0.00172,0.02689,-0.00324,-0.0024,0.1197,-0.0024,-0.0220,0.0073,-0.0073,-0.0073,0.0068,2.6598,-0.0342,0.0024,0.2076,0.0171,-0.0024,1,1,1,1,1,1,1
0.3223,approach,2,to_lo,-0.00629,0.03185,0.03185,0.00095,0.00172,0.02689,-0.00324,-0.0024,0.1197,-0.0024,-0.0220,0.0073,-0.0073,-0.0073,0.0068,2.6598,-0.0342,0.0024,0.2076,0.0171,-0.0024,1,1,1,1,1,1,1
0.3630,approach,2,to_lo,-0.00629,0.04482,0.03185,0.00095,0.00210,0.02689,-0.00362,-0.0024,0.1099,-0.0073,-0.0073,-0.0073,-0.0073,-0.0073,0.0205,2.7009,-0.0342,0.0024,0.2613,0.0220,-0.0073,1,1,1,1,1,1,1
0.4024,approach,2,to_lo,-0.00629,0.04482,0.03185,0.00095,0.00210,0.02689,-0.00362,-0.0024,0.1099,-0.0073,-0.0073,-0.0073,-0.0073,-0.0073,0.0205,2.7009,-0.0342,0.0024,0.2613,0.0220,-0.0073,1,1,1,1,1,1,1
0.4424,approach,2,to_lo,-0.00629,0.05245,0.03185,0.00095,0.00248,0.02689,-0.00362,0.0024,0.0904,-0.0024,-0.0073,0.0073,0.0073,-0.0073,0.0205,2.8376,-0.0615,0.0024,0.3004,0.0269,-0.0073,1,1,1,1,1,1,1
0.4825,approach,2,to_lo,-0.00629,0.05245,0.03185,0.00095,0.00248,0.02689,-0.00362,0.0024,0.0904,-0.0024,-0.0073,0.0073,0.0073,-0.0073,0.0205,2.8376,-0.0615,0.0024,0.3004,0.0269,-0.0073,1,1,1,1,1,1,1
0.5231,approach,2,to_lo,-0.00629,0.05245,0.03185,0.00095,0.00248,0.02689,-0.00362,0.0024,0.0904,-0.0024,-0.0073,0.0073,0.0073,-0.0073,0.0205,2.8376,-0.0615,0.0024,0.3004,0.0269,-0.0073,1,1,1,1,1,1,1
0.5623,approach,2,to_lo,-0.00629,0.06275,0.03185,0.00057,0.00286,0.02689,-0.00324,-0.0024,0.0855,-0.0073,-0.0073,-0.0073,0.0073,-0.0073,0.0342,2.7556,-0.0479,0.0024,0.3394,0.0269,-0.0024,1,1,1,1,1,1,1
0.6023,approach,2,to_lo,-0.00629,0.06275,0.03185,0.00057,0.00286,0.02689,-0.00324,-0.0024,0.0855,-0.0073,-0.0073,-0.0073,0.0073,-0.0073,0.0342,2.7556,-0.0479,0.0024,0.3394,0.0269,-0.0024,1,1,1,1,1,1,1
0.6421,approach,2,to_lo,-0.00629,0.06847,0.03185,0.00057,0.00286,0.02689,-0.00324,-0.0073,0.0611,-0.0024,-0.0073,-0.0073,-0.0220,-0.0220,0.0342,2.9470,-0.0479,0.0073,0.3639,0.0269,-0.0024,1,1,1,1,1,1,1
0.6824,approach,2,to_lo,-0.00629,0.06847,0.03185,0.00057,0.00286,0.02689,-0.00324,-0.0073,0.0611,-0.0024,-0.0073,-0.0073,-0.0220,-0.0220,0.0342,2.9470,-0.0479,0.0073,0.3639,0.0269,-0.0024,1,1,1,1,1,1,1
0.7227,approach,2,to_lo,-0.00629,0.06847,0.03185,0.00057,0.00286,0.02689,-0.00324,-0.0073,0.0611,-0.0024,-0.0073,-0.0073,-0.0220,-0.0220,0.0342,2.9470,-0.0479,0.0073,0.3639,0.0269,-0.0024,1,1,1,1,1,1,1
0.7623,approach,2,to_lo,-0.00629,0.07649,0.03185,0.00057,0.00324,0.02689,-0.00324,-0.0073,0.0513,-0.0024,0.0073,0.0073,-0.0073,-0.0220,0.0342,2.6462,-0.0752,0.0073,0.3834,0.0317,0.0024,1,1,1,1,1,1,1
0.8023,approach,2,to_lo,-0.00629,0.07649,0.03185,0.00057,0.00324,0.02689,-0.00324,-0.0073,0.0513,-0.0024,0.0073,0.0073,-0.0073,-0.0220,0.0342,2.6462,-0.0752,0.0073,0.3834,0.0317,0.0024,1,1,1,1,1,1,1
0.8426,approach,2,to_lo,-0.00629,0.08068,0.03185,0.00057,0.00324,0.02689,-0.00324,0.0024,0.0366,-0.0024,-0.0073,-0.0220,0.0073,-0.0073,0.0479,2.7419,-0.0342,0.0122,0.4078,0.0317,-0.0024,1,1,1,1,1,1,1
0.8825,approach,2,to_lo,-0.00629,0.08068,0.03185,0.00057,0.00324,0.02689,-0.00324,0.0024,0.0366,-0.0024,-0.0073,-0.0220,0.0073,-0.0073,0.0479,2.7419,-0.0342,0.0122,0.4078,0.0317,-0.0024,1,1,1,1,1,1,1
0.9223,approach,2,to_lo,-0.00629,0.08068,0.03185,0.00057,0.00324,0.02689,-0.00324,0.0024,0.0366,-0.0024,-0.0073,-0.0220,0.0073,-0.0073,0.0479,2.7419,-0.0342,0.0122,0.4078,0.0317,-0.0024,1,1,1,1,1,1,1
0.9624,approach,2,to_lo,-0.00629,0.08679,0.03185,0.00057,0.00362,0.02689,-0.00324,-0.0024,0.0513,0.0024,-0.0073,-0.0073,-0.0073,-0.0073,0.0479,2.4547,-0.0342,0.0171,0.4029,0.0269,-0.0024,1,1,1,1,1,1,1
1.0024,approach,2,to_lo,-0.00629,0.08679,0.03185,0.00057,0.00362,0.02689,-0.00324,-0.0024,0.0513,0.0024,-0.0073,-0.0073,-0.0073,-0.0073,0.0479,2.4547,-0.0342,0.0171,0.4029,0.0269,-0.0024,1,1,1,1,1,1,1
1.0427,approach,2,to_lo,-0.00629,0.09022,0.03185,0.00057,0.00362,0.02689,-0.00324,-0.0024,0.0269,-0.0073,0.0073,-0.0220,-0.0220,-0.0073,0.0615,2.7692,-0.0479,0.0171,0.4078,0.0317,0.0024,1,1,1,1,1,1,1
1.0822,approach,2,to_lo,-0.00629,0.09022,0.03185,0.00057,0.00362,0.02689,-0.00324,-0.0024,0.0269,-0.0073,0.0073,-0.0220,-0.0220,-0.0073,0.0615,2.7692,-0.0479,0.0171,0.4078,0.0317,0.0024,1,1,1,1,1,1,1
1.1224,approach,2,to_lo,-0.00629,0.09022,0.03185,0.00057,0.00362,0.02689,-0.00324,-0.0024,0.0269,-0.0073,0.0073,-0.0220,-0.0220,-0.0073,0.0615,2.7692,-0.0479,0.0171,0.4078,0.0317,0.0024,1,1,1,1,1,1,1
1.1625,approach,2,to_lo,-0.00629,0.09480,0.03185,0.00057,0.00362,0.02689,-0.00324,-0.0024,0.0415,-0.0024,-0.0073,-0.0220,-0.0073,-0.0073,0.0615,2.5778,-0.0615,0.0220,0.4176,0.0317,-0.0024,1,1,1,1,1,1,1
1.2030,approach,2,to_lo,-0.00629,0.09480,0.03185,0.00057,0.00362,0.02689,-0.00324,-0.0024,0.0415,-0.0024,-0.0073,-0.0220,-0.0073,-0.0073,0.0615,2.5778,-0.0615,0.0220,0.4176,0.0317,-0.0024,1,1,1,1,1,1,1
1.2425,approach,2,to_lo,-0.00629,0.09747,0.03185,0.00057,0.00362,0.02689,-0.00324,-0.0024,0.0464,0.0024,-0.0073,-0.0073,-0.0220,-0.0073,0.0615,2.5504,-0.0479,0.0220,0.4176,0.0366,-0.0024,1,1,1,1,1,1,1
1.2823,approach,2,to_lo,-0.00629,0.09747,0.03185,0.00057,0.00362,0.02689,-0.00324,-0.0024,0.0464,0.0024,-0.0073,-0.0073,-0.0220,-0.0073,0.0615,2.5504,-0.0479,0.0220,0.4176,0.0366,-0.0024,1,1,1,1,1,1,1
1.3225,approach,2,to_lo,-0.00629,0.09747,0.03185,0.00057,0.00362,0.02689,-0.00324,-0.0024,0.0464,0.0024,-0.0073,-0.0073,-0.0220,-0.0073,0.0615,2.5504,-0.0479,0.0220,0.4176,0.0366,-0.0024,1,1,1,1,1,1,1
1.3625,approach,2,to_lo,-0.00629,0.10052,0.03185,0.00057,0.00362,0.02689,-0.00324,-0.0024,0.0122,-0.0024,-0.0073,-0.0220,-0.0073,0.0073,0.0615,2.9470,-0.0615,0.0269,0.4176,0.0415,-0.0073,1,1,1,1,1,1,1
1.8650,sweep,2,+up,-0.00629,0.10128,0.03185,0.00057,0.00362,0.02689,-0.00324,0.0024,0.0073,-0.0024,-0.0073,-0.0073,-0.0073,-0.0073,0.0615,3.0154,-0.0615,0.0269,0.4274,0.0415,-0.0073,1,1,1,1,1,1,1
1.9051,sweep,2,+up,-0.00629,0.10128,0.03185,0.00057,0.00362,0.02689,-0.00324,0.0024,0.0073,-0.0024,-0.0073,-0.0073,-0.0073,-0.0073,0.0615,3.0154,-0.0615,0.0269,0.4274,0.0415,-0.0073,1,1,1,1,1,1,1
1.9454,sweep,2,+up,-0.00629,0.11769,0.03185,0.00057,0.00362,0.02689,-0.00324,-0.0024,0.2076,-0.0024,-0.0073,-0.0073,-0.0073,-0.0073,0.1026,2.8923,-0.0342,0.0366,0.4127,0.0415,-0.0024,1,1,1,1,1,1,1
1.9851,sweep,2,+up,-0.00629,0.11769,0.03185,0.00057,0.00362,0.02689,-0.00324,-0.0024,0.2076,-0.0024,-0.0073,-0.0073,-0.0073,-0.0073,0.1026,2.8923,-0.0342,0.0366,0.4127,0.0415,-0.0024,1,1,1,1,1,1,1
2.0252,sweep,2,+up,-0.00629,0.11769,0.03185,0.00057,0.00362,0.02689,-0.00324,-0.0024,0.2076,-0.0024,-0.0073,-0.0073,-0.0073,-0.0073,0.1026,2.8923,-0.0342,0.0366,0.4127,0.0415,-0.0024,1,1,1,1,1,1,1
2.0651,sweep,2,+up,-0.00629,0.14248,0.03185,0.00057,0.00401,0.02689,-0.00324,0.0024,0.1978,0.0024,-0.0073,-0.0220,-0.0073,-0.0073,0.1026,1.8256,-0.0342,0.0415,0.4078,0.0415,-0.0024,1,1,1,1,1,1,1
2.1051,sweep,2,+up,-0.00629,0.14248,0.03185,0.00057,0.00401,0.02689,-0.00324,0.0024,0.1978,0.0024,-0.0073,-0.0220,-0.0073,-0.0073,0.1026,1.8256,-0.0342,0.0415,0.4078,0.0415,-0.0024,1,1,1,1,1,1,1
2.1452,sweep,2,+up,-0.00629,0.15774,0.03185,0.00057,0.00401,0.02689,-0.00324,-0.0024,0.1929,-0.0024,-0.0073,0.0073,-0.0073,-0.0073,0.1162,2.6872,-0.0342,0.0464,0.4078,0.0513,-0.0073,1,1,1,1,1,1,1
2.1851,sweep,2,+up,-0.00629,0.15774,0.03185,0.00057,0.00401,0.02689,-0.00324,-0.0024,0.1929,-0.0024,-0.0073,0.0073,-0.0073,-0.0073,0.1162,2.6872,-0.0342,0.0464,0.4078,0.0513,-0.0073,1,1,1,1,1,1,1
2.2251,sweep,2,+up,-0.00629,0.15774,0.03185,0.00057,0.00401,0.02689,-0.00324,-0.0024,0.1929,-0.0024,-0.0073,0.0073,-0.0073,-0.0073,0.1162,2.6872,-0.0342,0.0464,0.4078,0.0513,-0.0073,1,1,1,1,1,1,1
2.2654,sweep,2,+up,-0.00629,0.18215,0.03185,0.00057,0.00401,0.02689,-0.00324,-0.0024,0.1832,-0.0024,-0.0073,-0.0073,0.0073,-0.0073,0.1026,2.0718,-0.0342,0.0464,0.3883,0.0513,-0.0073,1,1,1,1,1,1,1
2.3052,sweep,2,+up,-0.00629,0.18215,0.03185,0.00057,0.00401,0.02689,-0.00324,-0.0024,0.1832,-0.0024,-0.0073,-0.0073,0.0073,-0.0073,0.1026,2.0718,-0.0342,0.0464,0.3883,0.0513,-0.0073,1,1,1,1,1,1,1
2.3453,sweep,2,+up,-0.00629,0.19779,0.03185,0.00057,0.00401,0.02689,-0.00324,0.0024,0.1978,-0.0073,-0.0073,-0.0220,-0.0220,0.0073,0.1026,2.5094,-0.0342,0.0513,0.3834,0.0513,-0.0073,1,1,1,1,1,1,1
2.3852,sweep,2,+up,-0.00629,0.19779,0.03185,0.00057,0.00401,0.02689,-0.00324,0.0024,0.1978,-0.0073,-0.0073,-0.0220,-0.0220,0.0073,0.1026,2.5094,-0.0342,0.0513,0.3834,0.0513,-0.0073,1,1,1,1,1,1,1
2.4253,sweep,2,+up,-0.00629,0.19779,0.03185,0.00057,0.00401,0.02689,-0.00324,0.0024,0.1978,-0.0073,-0.0073,-0.0220,-0.0220,0.0073,0.1026,2.5094,-0.0342,0.0513,0.3834,0.0513,-0.0073,1,1,1,1,1,1,1
2.4652,sweep,2,+up,-0.00629,0.22221,0.03185,0.00057,0.00401,0.02689,-0.00324,-0.0024,0.1880,-0.0024,-0.0073,-0.0073,-0.0220,-0.0073,0.1026,2.1265,-0.0205,0.0513,0.3736,0.0562,-0.0024,1,1,1,1,1,1,1
2.5051,sweep,2,+up,-0.00629,0.22221,0.03185,0.00057,0.00401,0.02689,-0.00324,-0.0024,0.1880,-0.0024,-0.0073,-0.0073,-0.0220,-0.0073,0.1026,2.1265,-0.0205,0.0513,0.3736,0.0562,-0.0024,1,1,1,1,1,1,1
2.5450,sweep,2,+up,-0.00629,0.23823,0.03185,0.00057,0.00401,0.02689,-0.00324,-0.0024,0.2222,-0.0024,-0.0073,0.0073,0.0073,-0.0073,0.1162,2.0855,-0.0479,0.0562,0.3736,0.0611,-0.0024,1,1,1,1,1,1,1
2.5854,sweep,2,+up,-0.00629,0.23823,0.03185,0.00057,0.00401,0.02689,-0.00324,-0.0024,0.2222,-0.0024,-0.0073,0.0073,0.0073,-0.0073,0.1162,2.0855,-0.0479,0.0562,0.3736,0.0611,-0.0024,1,1,1,1,1,1,1
2.6251,sweep,2,+up,-0.00629,0.23823,0.03185,0.00057,0.00401,0.02689,-0.00324,-0.0024,0.2222,-0.0024,-0.0073,0.0073,0.0073,-0.0073,0.1162,2.0855,-0.0479,0.0562,0.3736,0.0611,-0.0024,1,1,1,1,1,1,1
2.6652,sweep,2,+up,-0.00629,0.26226,0.03185,0.00057,0.00401,0.02689,-0.00324,-0.0073,0.1929,-0.0024,-0.0073,-0.0073,-0.0073,-0.0220,0.1162,2.0855,-0.0342,0.0659,0.3736,0.0659,-0.0024,1,1,1,1,1,1,1
2.7055,sweep,2,+up,-0.00629,0.26226,0.03185,0.00057,0.00401,0.02689,-0.00324,-0.0073,0.1929,-0.0024,-0.0073,-0.0073,-0.0073,-0.0220,0.1162,2.0855,-0.0342,0.0659,0.3736,0.0659,-0.0024,1,1,1,1,1,1,1
2.7459,sweep,2,+up,-0.00629,0.27829,0.03185,0.00057,0.00401,0.02689,-0.00362,-0.0024,0.1978,-0.0073,-0.0073,-0.0073,-0.0220,-0.0220,0.1299,2.0171,-0.0479,0.0757,0.3687,0.0659,-0.0073,1,1,1,1,1,1,1
2.7855,sweep,2,+up,-0.00629,0.27829,0.03185,0.00057,0.00401,0.02689,-0.00362,-0.0024,0.1978,-0.0073,-0.0073,-0.0073,-0.0220,-0.0220,0.1299,2.0171,-0.0479,0.0757,0.3687,0.0659,-0.0073,1,1,1,1,1,1,1
2.8251,sweep,2,+up,-0.00629,0.27829,0.03185,0.00057,0.00401,0.02689,-0.00362,-0.0024,0.1978,-0.0073,-0.0073,-0.0073,-0.0220,-0.0220,0.1299,2.0171,-0.0479,0.0757,0.3687,0.0659,-0.0073,1,1,1,1,1,1,1
2.8652,sweep,2,+up,-0.00629,0.30232,0.03185,0.00057,0.00401,0.02728,-0.00324,-0.0024,0.1978,-0.0024,-0.0073,-0.0073,0.0073,-0.0073,0.1162,2.0308,-0.0479,0.0708,0.3590,0.0611,-0.0073,1,1,1,1,1,1,1
2.9055,sweep,2,+up,-0.00629,0.30232,0.03185,0.00057,0.00401,0.02728,-0.00324,-0.0024,0.1978,-0.0024,-0.0073,-0.0073,0.0073,-0.0073,0.1162,2.0308,-0.0479,0.0708,0.3590,0.0611,-0.0073,1,1,1,1,1,1,1
2.9455,sweep,2,+up,-0.00629,0.31872,0.03185,0.00057,0.00401,0.02728,-0.00324,0.0024,0.2027,-0.0024,-0.0073,-0.0073,0.0073,-0.0220,0.1299,1.6889,-0.0205,0.0757,0.3590,0.0611,-0.0073,1,1,1,1,1,1,1
2.9853,sweep,2,+up,-0.00629,0.31872,0.03185,0.00057,0.00401,0.02728,-0.00324,0.0024,0.2027,-0.0024,-0.0073,-0.0073,0.0073,-0.0220,0.1299,1.6889,-0.0205,0.0757,0.3590,0.0611,-0.0073,1,1,1,1,1,1,1
3.0254,sweep,2,+up,-0.00629,0.31872,0.03185,0.00057,0.00401,0.02728,-0.00324,0.0024,0.2027,-0.0024,-0.0073,-0.0073,0.0073,-0.0220,0.1299,1.6889,-0.0205,0.0757,0.3590,0.0611,-0.0073,1,1,1,1,1,1,1
3.0650,sweep,2,+up,-0.00629,0.34276,0.03185,0.00057,0.00401,0.02728,-0.00324,-0.0024,0.2173,-0.0024,0.0073,0.0073,-0.0073,-0.0073,0.1299,1.6889,-0.0479,0.0855,0.3443,0.0562,-0.0073,1,1,1,1,1,1,1
3.1053,sweep,2,+up,-0.00629,0.34276,0.03185,0.00057,0.00401,0.02728,-0.00324,-0.0024,0.2173,-0.0024,0.0073,0.0073,-0.0073,-0.0073,0.1299,1.6889,-0.0479,0.0855,0.3443,0.0562,-0.0073,1,1,1,1,1,1,1
3.1451,sweep,2,+up,-0.00629,0.35840,0.03185,0.00057,0.00401,0.02689,-0.00324,-0.0024,0.1832,-0.0024,-0.0073,-0.0073,0.0073,-0.0073,0.1299,1.7299,-0.0479,0.0855,0.3394,0.0562,-0.0073,1,1,1,1,1,1,1
3.1852,sweep,2,+up,-0.00629,0.35840,0.03185,0.00057,0.00401,0.02689,-0.00324,-0.0024,0.1832,-0.0024,-0.0073,-0.0073,0.0073,-0.0073,0.1299,1.7299,-0.0479,0.0855,0.3394,0.0562,-0.0073,1,1,1,1,1,1,1
3.2252,sweep,2,+up,-0.00629,0.35840,0.03185,0.00057,0.00401,0.02689,-0.00324,-0.0024,0.1832,-0.0024,-0.0073,-0.0073,0.0073,-0.0073,0.1299,1.7299,-0.0479,0.0855,0.3394,0.0562,-0.0073,1,1,1,1,1,1,1
3.2653,sweep,2,+up,-0.00629,0.38243,0.03185,0.00057,0.00401,0.02728,-0.00324,-0.0024,0.2076,-0.0024,-0.0073,-0.0220,0.0073,-0.0073,0.1299,1.5932,-0.0205,0.0904,0.3297,0.0513,-0.0024,1,1,1,1,1,1,1
3.3052,sweep,2,+up,-0.00629,0.38243,0.03185,0.00057,0.00401,0.02728,-0.00324,-0.0024,0.2076,-0.0024,-0.0073,-0.0220,0.0073,-0.0073,0.1299,1.5932,-0.0205,0.0904,0.3297,0.0513,-0.0024,1,1,1,1,1,1,1
3.3453,sweep,2,+up,-0.00629,0.39845,0.03185,0.00057,0.00401,0.02689,-0.00324,-0.0073,0.2027,-0.0024,-0.0220,0.0073,-0.0073,-0.0073,0.1299,1.5521,-0.0068,0.0952,0.3248,0.0562,-0.0073,1,1,1,1,1,1,1
3.3852,sweep,2,+up,-0.00629,0.39845,0.03185,0.00057,0.00401,0.02689,-0.00324,-0.0073,0.2027,-0.0024,-0.0220,0.0073,-0.0073,-0.0073,0.1299,1.5521,-0.0068,0.0952,0.3248,0.0562,-0.0073,1,1,1,1,1,1,1
3.4253,sweep,2,+up,-0.00629,0.39845,0.03185,0.00057,0.00401,0.02689,-0.00324,-0.0073,0.2027,-0.0024,-0.0220,0.0073,-0.0073,-0.0073,0.1299,1.5521,-0.0068,0.0952,0.3248,0.0562,-0.0073,1,1,1,1,1,1,1
3.4652,sweep,2,+up,-0.00629,0.42248,0.03185,0.00057,0.00401,0.02689,-0.00324,-0.0024,0.1978,-0.0073,-0.0073,-0.0220,-0.0073,-0.0073,0.1299,1.4427,-0.0342,0.0952,0.3150,0.0562,-0.0073,1,1,1,1,1,1,1
3.5053,sweep,2,+up,-0.00629,0.42248,0.03185,0.00057,0.00401,0.02689,-0.00324,-0.0024,0.1978,-0.0073,-0.0073,-0.0220,-0.0073,-0.0073,0.1299,1.4427,-0.0342,0.0952,0.3150,0.0562,-0.0073,1,1,1,1,1,1,1
3.5452,sweep,2,+up,-0.00629,0.43851,0.03185,0.00057,0.00362,0.02689,-0.00324,-0.0073,0.1929,-0.0024,-0.0073,-0.0073,-0.0073,-0.0073,0.1299,1.5795,-0.0342,0.1001,0.3101,0.0513,-0.0122,1,1,1,1,1,1,1
3.5850,sweep,2,+up,-0.00629,0.43851,0.03185,0.00057,0.00362,0.02689,-0.00324,-0.0073,0.1929,-0.0024,-0.0073,-0.0073,-0.0073,-0.0073,0.1299,1.5795,-0.0342,0.1001,0.3101,0.0513,-0.0122,1,1,1,1,1,1,1
3.6252,sweep,2,+up,-0.00629,0.43851,0.03185,0.00057,0.00362,0.02689,-0.00324,-0.0073,0.1929,-0.0024,-0.0073,-0.0073,-0.0073,-0.0073,0.1299,1.5795,-0.0342,0.1001,0.3101,0.0513,-0.0122,1,1,1,1,1,1,1
3.6651,sweep,2,+up,-0.00629,0.46254,0.03185,0.00057,0.00401,0.02689,-0.00324,-0.0024,0.1978,-0.0024,0.0073,-0.0073,0.0073,-0.0073,0.1299,1.4427,-0.0479,0.1050,0.3101,0.0513,-0.0122,1,1,1,1,1,1,1
3.7053,sweep,2,+up,-0.00629,0.46254,0.03185,0.00057,0.00401,0.02689,-0.00324,-0.0024,0.1978,-0.0024,0.0073,-0.0073,0.0073,-0.0073,0.1299,1.4427,-0.0479,0.1050,0.3101,0.0513,-0.0122,1,1,1,1,1,1,1
3.7450,sweep,2,+up,-0.00629,0.47856,0.03185,0.00057,0.00401,0.02689,-0.00362,-0.0024,0.1929,0.0024,-0.0073,-0.0073,0.0073,-0.0366,0.1299,1.5111,-0.0205,0.1099,0.3199,0.0513,-0.0122,1,1,1,1,1,1,1
3.7852,sweep,2,+up,-0.00629,0.47856,0.03185,0.00057,0.00401,0.02689,-0.00362,-0.0024,0.1929,0.0024,-0.0073,-0.0073,0.0073,-0.0366,0.1299,1.5111,-0.0205,0.1099,0.3199,0.0513,-0.0122,1,1,1,1,1,1,1
3.8253,sweep,2,+up,-0.00629,0.47856,0.03185,0.00057,0.00401,0.02689,-0.00362,-0.0024,0.1929,0.0024,-0.0073,-0.0073,0.0073,-0.0366,0.1299,1.5111,-0.0205,0.1099,0.3199,0.0513,-0.0122,1,1,1,1,1,1,1
3.8651,sweep,2,+up,-0.00629,0.50259,0.03185,0.00057,0.00401,0.02689,-0.00324,-0.0024,0.1832,-0.0024,-0.0073,-0.0073,-0.0073,-0.0073,0.1299,1.3470,-0.0342,0.1148,0.3199,0.0562,-0.0073,1,1,1,1,1,1,1
3.9051,sweep,2,+up,-0.00629,0.50259,0.03185,0.00057,0.00401,0.02689,-0.00324,-0.0024,0.1832,-0.0024,-0.0073,-0.0073,-0.0073,-0.0073,0.1299,1.3470,-0.0342,0.1148,0.3199,0.0562,-0.0073,1,1,1,1,1,1,1
3.9451,sweep,2,+up,-0.00629,0.51900,0.03147,0.00057,0.00401,0.02689,-0.00324,-0.0024,0.2173,-0.0024,-0.0073,-0.0073,-0.0220,-0.0073,0.1162,1.1692,-0.0615,0.1245,0.3199,0.0562,-0.0073,1,1,1,1,1,1,1
3.9850,sweep,2,+up,-0.00629,0.51900,0.03147,0.00057,0.00401,0.02689,-0.00324,-0.0024,0.2173,-0.0024,-0.0073,-0.0073,-0.0220,-0.0073,0.1162,1.1692,-0.0615,0.1245,0.3199,0.0562,-0.0073,1,1,1,1,1,1,1
4.0253,sweep,2,+up,-0.00629,0.51900,0.03147,0.00057,0.00401,0.02689,-0.00324,-0.0024,0.2173,-0.0024,-0.0073,-0.0073,-0.0220,-0.0073,0.1162,1.1692,-0.0615,0.1245,0.3199,0.0562,-0.0073,1,1,1,1,1,1,1
4.0650,sweep,2,+up,-0.00629,0.54265,0.03147,0.00057,0.00401,0.02689,-0.00324,-0.0024,0.1978,-0.0024,-0.0073,-0.0220,-0.0073,-0.0073,0.1299,1.1966,-0.0205,0.1245,0.3150,0.0611,-0.0073,1,1,1,1,1,1,1
4.1051,sweep,2,+up,-0.00629,0.54265,0.03147,0.00057,0.00401,0.02689,-0.00324,-0.0024,0.1978,-0.0024,-0.0073,-0.0220,-0.0073,-0.0073,0.1299,1.1966,-0.0205,0.1245,0.3150,0.0611,-0.0073,1,1,1,1,1,1,1
4.1450,sweep,2,+up,-0.00629,0.55905,0.03147,0.00057,0.00362,0.02689,-0.00362,0.0024,0.2076,-0.0024,-0.0073,-0.0220,0.0073,-0.0220,0.1299,1.0325,-0.0068,0.1294,0.3101,0.0659,-0.0122,1,1,1,1,1,1,1
4.1849,sweep,2,+up,-0.00629,0.55905,0.03147,0.00057,0.00362,0.02689,-0.00362,0.0024,0.2076,-0.0024,-0.0073,-0.0220,0.0073,-0.0220,0.1299,1.0325,-0.0068,0.1294,0.3101,0.0659,-0.0122,1,1,1,1,1,1,1
4.2254,sweep,2,+up,-0.00629,0.55905,0.03147,0.00057,0.00362,0.02689,-0.00362,0.0024,0.2076,-0.0024,-0.0073,-0.0220,0.0073,-0.0220,0.1299,1.0325,-0.0068,0.1294,0.3101,0.0659,-0.0122,1,1,1,1,1,1,1
4.2650,sweep,2,+up,-0.00629,0.58309,0.03147,0.00057,0.00401,0.02689,-0.00324,-0.0024,0.1978,-0.0024,-0.0073,-0.0073,-0.0073,0.0073,0.1162,1.0462,0.0205,0.1294,0.3004,0.0611,-0.0122,1,1,1,1,1,1,1
4.3051,sweep,2,+up,-0.00629,0.58309,0.03147,0.00057,0.00401,0.02689,-0.00324,-0.0024,0.1978,-0.0024,-0.0073,-0.0073,-0.0073,0.0073,0.1162,1.0462,0.0205,0.1294,0.3004,0.0611,-0.0122,1,1,1,1,1,1,1
4.3451,sweep,2,+up,-0.00629,0.59911,0.03147,0.00057,0.00401,0.02689,-0.00324,-0.0024,0.1978,-0.0024,-0.0220,-0.0073,-0.0220,-0.0073,0.1299,0.8547,0.0205,0.1392,0.3004,0.0659,-0.0122,1,1,1,1,1,1,1
4.3855,sweep,2,+up,-0.00629,0.59911,0.03147,0.00057,0.00401,0.02689,-0.00324,-0.0024,0.1978,-0.0024,-0.0220,-0.0073,-0.0220,-0.0073,0.1299,0.8547,0.0205,0.1392,0.3004,0.0659,-0.0122,1,1,1,1,1,1,1
4.4255,sweep,2,+up,-0.00629,0.59911,0.03147,0.00057,0.00401,0.02689,-0.00324,-0.0024,0.1978,-0.0024,-0.0220,-0.0073,-0.0220,-0.0073,0.1299,0.8547,0.0205,0.1392,0.3004,0.0659,-0.0122,1,1,1,1,1,1,1
4.4653,sweep,2,+up,-0.00629,0.62314,0.03147,0.00057,0.00401,0.02689,-0.00324,-0.0073,0.2027,-0.0073,0.0073,0.0073,-0.0220,-0.0073,0.1299,0.8547,0.0479,0.1538,0.2955,0.0708,-0.0122,1,1,1,1,1,1,1
4.5053,sweep,2,+up,-0.00629,0.62314,0.03147,0.00057,0.00401,0.02689,-0.00324,-0.0073,0.2027,-0.0073,0.0073,0.0073,-0.0220,-0.0073,0.1299,0.8547,0.0479,0.1538,0.2955,0.0708,-0.0122,1,1,1,1,1,1,1
4.5450,sweep,2,+up,-0.00629,0.63916,0.03147,0.00057,0.00401,0.02689,-0.00362,-0.0024,0.1929,-0.0024,-0.0220,-0.0073,0.0073,-0.0220,0.1162,0.9094,0.0752,0.1587,0.3004,0.0708,-0.0122,1,1,1,1,1,1,1
4.5851,sweep,2,+up,-0.00629,0.63916,0.03147,0.00057,0.00401,0.02689,-0.00362,-0.0024,0.1929,-0.0024,-0.0220,-0.0073,0.0073,-0.0220,0.1162,0.9094,0.0752,0.1587,0.3004,0.0708,-0.0122,1,1,1,1,1,1,1
4.6250,sweep,2,+up,-0.00629,0.63916,0.03147,0.00057,0.00401,0.02689,-0.00362,-0.0024,0.1929,-0.0024,-0.0220,-0.0073,0.0073,-0.0220,0.1162,0.9094,0.0752,0.1587,0.3004,0.0708,-0.0122,1,1,1,1,1,1,1
4.6654,sweep,2,+up,-0.00629,0.66320,0.03147,0.00057,0.00401,0.02689,-0.00324,-0.0024,0.2027,-0.0024,-0.0073,-0.0073,-0.0073,-0.0073,0.1299,0.6769,0.0752,0.1587,0.3004,0.0806,-0.0122,1,1,1,1,1,1,1
4.7052,sweep,2,+up,-0.00629,0.66320,0.03147,0.00057,0.00401,0.02689,-0.00324,-0.0024,0.2027,-0.0024,-0.0073,-0.0073,-0.0073,-0.0073,0.1299,0.6769,0.0752,0.1587,0.3004,0.0806,-0.0122,1,1,1,1,1,1,1
4.7453,sweep,2,+up,-0.00629,0.67807,0.03147,0.00057,0.00401,0.02689,-0.00324,-0.0024,0.1685,0.0024,-0.0220,-0.0073,-0.0073,-0.0073,0.1299,0.6359,0.1026,0.1636,0.3004,0.0806,-0.0073,1,1,1,1,1,1,1
4.7850,sweep,2,+up,-0.00629,0.67807,0.03147,0.00057,0.00401,0.02689,-0.00324,-0.0024,0.1685,0.0024,-0.0220,-0.0073,-0.0073,-0.0073,0.1299,0.6359,0.1026,0.1636,0.3004,0.0806,-0.0073,1,1,1,1,1,1,1
4.8251,sweep,2,+up,-0.00629,0.67807,0.03147,0.00057,0.00401,0.02689,-0.00324,-0.0024,0.1685,0.0024,-0.0220,-0.0073,-0.0073,-0.0073,0.1299,0.6359,0.1026,0.1636,0.3004,0.0806,-0.0073,1,1,1,1,1,1,1
4.8651,sweep,2,+up,-0.00629,0.69753,0.03147,0.00057,0.00362,0.02689,-0.00324,0.0024,0.1441,-0.0024,-0.0073,-0.0073,-0.0073,-0.0073,0.1299,0.5949,0.1162,0.1734,0.3004,0.0855,-0.0122,1,1,1,1,1,1,1
4.9060,sweep,2,+up,-0.00629,0.69753,0.03147,0.00057,0.00362,0.02689,-0.00324,0.0024,0.1441,-0.0024,-0.0073,-0.0073,-0.0073,-0.0073,0.1299,0.5949,0.1162,0.1734,0.3004,0.0855,-0.0122,1,1,1,1,1,1,1
4.9452,sweep,2,+up,-0.00629,0.70935,0.03147,0.00057,0.00401,0.02689,-0.00324,-0.0024,0.1392,-0.0024,0.0073,-0.0073,-0.0073,-0.0073,0.1299,0.3761,0.1162,0.1685,0.3004,0.0806,-0.0171,1,1,1,1,1,1,1
4.9852,sweep,2,+up,-0.00629,0.70935,0.03147,0.00057,0.00401,0.02689,-0.00324,-0.0024,0.1392,-0.0024,0.0073,-0.0073,-0.0073,-0.0073,0.1299,0.3761,0.1162,0.1685,0.3004,0.0806,-0.0171,1,1,1,1,1,1,1
5.0254,sweep,2,+up,-0.00629,0.70935,0.03147,0.00057,0.00401,0.02689,-0.00324,-0.0024,0.1392,-0.0024,0.0073,-0.0073,-0.0073,-0.0073,0.1299,0.3761,0.1162,0.1685,0.3004,0.0806,-0.0171,1,1,1,1,1,1,1
5.0652,sweep,2,+up,-0.00629,0.72385,0.03147,0.00057,0.00401,0.02689,-0.00324,0.0024,0.1197,-0.0073,-0.0073,-0.0073,-0.0220,0.0073,0.1299,0.5675,0.1436,0.1734,0.2906,0.0855,-0.0171,1,1,1,1,1,1,1
5.1050,sweep,2,+up,-0.00629,0.72385,0.03147,0.00057,0.00401,0.02689,-0.00324,0.0024,0.1197,-0.0073,-0.0073,-0.0073,-0.0220,0.0073,0.1299,0.5675,0.1436,0.1734,0.2906,0.0855,-0.0171,1,1,1,1,1,1,1
5.1451,sweep,2,+up,-0.00629,0.73262,0.03147,0.00057,0.00401,0.02689,-0.00324,-0.0024,0.1197,-0.0024,0.0073,0.0073,-0.0073,0.0073,0.1162,0.4444,0.1573,0.1783,0.2955,0.0904,-0.0171,1,1,1,1,1,1,1
5.1851,sweep,2,+up,-0.00629,0.73262,0.03147,0.00057,0.00401,0.02689,-0.00324,-0.0024,0.1197,-0.0024,0.0073,0.0073,-0.0073,0.0073,0.1162,0.4444,0.1573,0.1783,0.2955,0.0904,-0.0171,1,1,1,1,1,1,1
5.2252,sweep,2,+up,-0.00629,0.73262,0.03147,0.00057,0.00401,0.02689,-0.00324,-0.0024,0.1197,-0.0024,0.0073,0.0073,-0.0073,0.0073,0.1162,0.4444,0.1573,0.1783,0.2955,0.0904,-0.0171,1,1,1,1,1,1,1
5.2651,sweep,2,+up,-0.00629,0.74407,0.03147,0.00057,0.00401,0.02728,-0.00324,0.0024,0.0855,-0.0024,-0.0073,0.0073,0.0073,-0.0073,0.1299,0.4991,0.1846,0.1832,0.2857,0.0952,-0.0171,1,1,1,1,1,1,1
5.3052,sweep,2,+up,-0.00629,0.74407,0.03147,0.00057,0.00401,0.02728,-0.00324,0.0024,0.0855,-0.0024,-0.0073,0.0073,0.0073,-0.0073,0.1299,0.4991,0.1846,0.1832,0.2857,0.0952,-0.0171,1,1,1,1,1,1,1
5.3452,sweep,2,+up,-0.00629,0.75055,0.03147,0.00057,0.00401,0.02689,-0.00362,-0.0024,0.0659,-0.0024,-0.0073,-0.0073,-0.0220,-0.0073,0.1299,0.5402,0.1983,0.1832,0.2808,0.0952,-0.0171,1,1,1,1,1,1,1
5.3850,sweep,2,+up,-0.00629,0.75055,0.03147,0.00057,0.00401,0.02689,-0.00362,-0.0024,0.0659,-0.0024,-0.0073,-0.0073,-0.0220,-0.0073,0.1299,0.5402,0.1983,0.1832,0.2808,0.0952,-0.0171,1,1,1,1,1,1,1
5.4251,sweep,2,+up,-0.00629,0.75055,0.03147,0.00057,0.00401,0.02689,-0.00362,-0.0024,0.0659,-0.0024,-0.0073,-0.0073,-0.0220,-0.0073,0.1299,0.5402,0.1983,0.1832,0.2808,0.0952,-0.0171,1,1,1,1,1,1,1
5.4652,sweep,2,+up,-0.00629,0.75933,0.03147,0.00057,0.00401,0.02689,-0.00362,-0.0024,0.0708,-0.0024,-0.0220,0.0073,-0.0073,-0.0073,0.1299,0.3487,0.2256,0.1783,0.2759,0.1050,-0.0171,1,1,1,1,1,1,1
5.5051,sweep,2,+up,-0.00629,0.75933,0.03147,0.00057,0.00401,0.02689,-0.00362,-0.0024,0.0708,-0.0024,-0.0220,0.0073,-0.0073,-0.0073,0.1299,0.3487,0.2256,0.1783,0.2759,0.1050,-0.0171,1,1,1,1,1,1,1
5.5451,sweep,2,+up,-0.00629,0.76390,0.03147,0.00095,0.00401,0.02689,-0.00324,-0.0024,0.0464,0.0024,0.0073,-0.0073,-0.0073,0.0073,0.1299,0.5675,0.2256,0.1734,0.2662,0.1050,-0.0122,1,1,1,1,1,1,1
5.5854,sweep,2,+up,-0.00629,0.76390,0.03147,0.00095,0.00401,0.02689,-0.00324,-0.0024,0.0464,0.0024,0.0073,-0.0073,-0.0073,0.0073,0.1299,0.5675,0.2256,0.1734,0.2662,0.1050,-0.0122,1,1,1,1,1,1,1
5.6252,sweep,2,+up,-0.00629,0.76390,0.03147,0.00095,0.00401,0.02689,-0.00324,-0.0024,0.0464,0.0024,0.0073,-0.0073,-0.0073,0.0073,0.1299,0.5675,0.2256,0.1734,0.2662,0.1050,-0.0122,1,1,1,1,1,1,1
5.6651,sweep,2,+up,-0.00591,0.76963,0.03147,0.00134,0.00401,0.02728,-0.00324,-0.0073,0.0513,-0.0073,-0.0073,-0.0220,0.0073,-0.0073,0.1026,1.6205,0.2256,0.1392,0.2320,0.1001,-0.0122,1,1,1,1,1,1,1
5.7050,sweep,2,+up,-0.00591,0.76963,0.03147,0.00134,0.00401,0.02728,-0.00324,-0.0073,0.0513,-0.0073,-0.0073,-0.0220,0.0073,-0.0073,0.1026,1.6205,0.2256,0.1392,0.2320,0.1001,-0.0122,1,1,1,1,1,1,1
5.7451,sweep,2,+up,-0.00591,0.77344,0.03147,0.00172,0.00439,0.02689,-0.00324,0.0024,0.0562,-0.0024,0.0073,0.0073,-0.0073,0.0073,0.1026,2.0034,0.2256,0.1148,0.1929,0.1050,-0.0073,1,1,1,1,1,1,1
5.7852,sweep,2,+up,-0.00591,0.77344,0.03147,0.00172,0.00439,0.02689,-0.00324,0.0024,0.0562,-0.0024,0.0073,0.0073,-0.0073,0.0073,0.1026,2.0034,0.2256,0.1148,0.1929,0.1050,-0.0073,1,1,1,1,1,1,1
5.8251,sweep,2,+up,-0.00591,0.77344,0.03147,0.00172,0.00439,0.02689,-0.00324,0.0024,0.0562,-0.0024,0.0073,0.0073,-0.0073,0.0073,0.1026,2.0034,0.2256,0.1148,0.1929,0.1050,-0.0073,1,1,1,1,1,1,1
5.8653,sweep,2,+up,-0.00591,0.77840,0.03147,0.00210,0.00553,0.02728,-0.00324,-0.0024,0.0269,-0.0024,-0.0073,-0.0073,-0.0073,-0.0220,0.0889,2.3590,0.2393,0.0611,0.0757,0.0904,-0.0122,1,1,1,1,1,1,1
5.9052,sweep,2,+up,-0.00591,0.77840,0.03147,0.00210,0.00553,0.02728,-0.00324,-0.0024,0.0269,-0.0024,-0.0073,-0.0073,-0.0073,-0.0220,0.0889,2.3590,0.2393,0.0611,0.0757,0.0904,-0.0122,1,1,1,1,1,1,1
5.9452,sweep,2,+up,-0.00591,0.78107,0.03147,0.00248,0.00553,0.02689,-0.00324,-0.0073,0.0269,-0.0024,0.0073,-0.0073,-0.0073,-0.0073,0.0752,2.6872,0.2393,0.0317,0.0464,0.0952,-0.0073,1,1,1,1,1,1,1
5.9851,sweep,2,+up,-0.00591,0.78107,0.03147,0.00248,0.00553,0.02689,-0.00324,-0.0073,0.0269,-0.0024,0.0073,-0.0073,-0.0073,-0.0073,0.0752,2.6872,0.2393,0.0317,0.0464,0.0952,-0.0073,1,1,1,1,1,1,1
6.0250,sweep,2,+up,-0.00591,0.78107,0.03147,0.00248,0.00553,0.02689,-0.00324,-0.0073,0.0269,-0.0024,0.0073,-0.0073,-0.0073,-0.0073,0.0752,2.6872,0.2393,0.0317,0.0464,0.0952,-0.0073,1,1,1,1,1,1,1
6.0653,sweep,2,+up,-0.00591,0.78489,0.03147,0.00286,0.00553,0.02689,-0.00362,-0.0024,0.0269,-0.0024,0.0073,-0.0220,-0.0073,-0.0220,0.0615,2.6325,0.2530,0.0024,0.0220,0.1001,-0.0073,1,1,1,1,1,1,1
6.1052,sweep,2,+up,-0.00591,0.78489,0.03147,0.00286,0.00553,0.02689,-0.00362,-0.0024,0.0269,-0.0024,0.0073,-0.0220,-0.0073,-0.0220,0.0615,2.6325,0.2530,0.0024,0.0220,0.1001,-0.0073,1,1,1,1,1,1,1
6.1452,sweep,2,+up,-0.00591,0.78718,0.03147,0.00362,0.00515,0.02689,-0.00324,-0.0073,0.0122,-0.0024,0.0073,0.0073,-0.0073,-0.0073,0.0615,2.7009,0.2667,-0.1050,-0.0024,0.0952,-0.0122,1,1,1,1,1,1,1
6.1853,sweep,2,+up,-0.00591,0.78718,0.03147,0.00362,0.00515,0.02689,-0.00324,-0.0073,0.0122,-0.0024,0.0073,0.0073,-0.0073,-0.0073,0.0615,2.7009,0.2667,-0.1050,-0.0024,0.0952,-0.0122,1,1,1,1,1,1,1
6.2253,sweep,2,+up,-0.00591,0.78718,0.03147,0.00362,0.00515,0.02689,-0.00324,-0.0073,0.0122,-0.0024,0.0073,0.0073,-0.0073,-0.0073,0.0615,2.7009,0.2667,-0.1050,-0.0024,0.0952,-0.0122,1,1,1,1,1,1,1
6.2651,sweep,2,+up,-0.00591,0.79023,0.03147,0.00324,0.00515,0.02728,-0.00324,-0.0024,0.0220,-0.0024,-0.0220,-0.0073,-0.0073,0.0073,0.0615,3.1385,0.2530,-0.1783,-0.0269,0.1001,-0.0073,1,1,1,1,1,1,1
6.7677,sweep,2,-down,-0.00591,0.79137,0.03147,0.00248,0.00515,0.02689,-0.00324,-0.0024,0.0122,-0.0024,-0.0220,-0.0073,-0.0220,0.0073,0.0479,2.7145,0.2667,-0.1783,-0.0269,0.1001,-0.0122,1,1,1,1,1,1,1
6.8078,sweep,2,-down,-0.00591,0.79137,0.03147,0.00248,0.00515,0.02689,-0.00324,-0.0024,0.0122,-0.0024,-0.0220,-0.0073,-0.0220,0.0073,0.0479,2.7145,0.2667,-0.1783,-0.0269,0.1001,-0.0122,1,1,1,1,1,1,1
6.8476,sweep,2,-down,-0.00591,0.79404,0.03147,0.00019,0.00439,0.02689,-0.00324,-0.0024,-0.2027,-0.0024,-0.0366,0.0220,-0.0073,-0.0073,0.0205,1.3060,0.2120,-0.1392,-0.0659,0.0952,-0.0073,1,1,1,1,1,1,1
6.8876,sweep,2,-down,-0.00591,0.79404,0.03147,0.00019,0.00439,0.02689,-0.00324,-0.0024,-0.2027,-0.0024,-0.0366,0.0220,-0.0073,-0.0073,0.0205,1.3060,0.2120,-0.1392,-0.0659,0.0952,-0.0073,1,1,1,1,1,1,1
6.9276,sweep,2,-down,-0.00591,0.79404,0.03147,0.00019,0.00439,0.02689,-0.00324,-0.0024,-0.2027,-0.0024,-0.0366,0.0220,-0.0073,-0.0073,0.0205,1.3060,0.2120,-0.1392,-0.0659,0.0952,-0.0073,1,1,1,1,1,1,1
6.9676,sweep,2,-down,-0.00591,0.77077,0.03147,-0.00057,0.00362,0.02728,-0.00324,-0.0073,-0.1734,-0.0024,-0.0366,-0.0220,-0.0073,-0.0073,0.0205,0.2667,0.2393,-0.0757,-0.0562,0.0952,-0.0073,1,1,1,1,1,1,1
7.0077,sweep,2,-down,-0.00591,0.77077,0.03147,-0.00057,0.00362,0.02728,-0.00324,-0.0073,-0.1734,-0.0024,-0.0366,-0.0220,-0.0073,-0.0073,0.0205,0.2667,0.2393,-0.0757,-0.0562,0.0952,-0.0073,1,1,1,1,1,1,1
7.0476,sweep,2,-down,-0.00591,0.75628,0.03147,-0.00210,0.00210,0.02728,-0.00324,-0.0024,-0.2222,-0.0024,0.0073,-0.0220,0.0073,-0.0073,0.0205,-0.5402,0.2803,0.0122,0.0073,0.0855,-0.0073,1,1,1,1,1,1,1
7.0880,sweep,2,-down,-0.00591,0.75628,0.03147,-0.00210,0.00210,0.02728,-0.00324,-0.0024,-0.2222,-0.0024,0.0073,-0.0220,0.0073,-0.0073,0.0205,-0.5402,0.2803,0.0122,0.0073,0.0855,-0.0073,1,1,1,1,1,1,1
7.1278,sweep,2,-down,-0.00591,0.75628,0.03147,-0.00210,0.00210,0.02728,-0.00324,-0.0024,-0.2222,-0.0024,0.0073,-0.0220,0.0073,-0.0073,0.0205,-0.5402,0.2803,0.0122,0.0073,0.0855,-0.0073,1,1,1,1,1,1,1
7.1680,sweep,2,-down,-0.00591,0.73224,0.03147,-0.00210,0.00210,0.02728,-0.00324,-0.0024,-0.1880,-0.0024,0.0073,-0.0073,0.0073,-0.0073,0.0205,-0.5949,0.2940,0.0611,0.0415,0.0855,-0.0024,1,1,1,1,1,1,1
7.2081,sweep,2,-down,-0.00591,0.73224,0.03147,-0.00210,0.00210,0.02728,-0.00324,-0.0024,-0.1880,-0.0024,0.0073,-0.0073,0.0073,-0.0073,0.0205,-0.5949,0.2940,0.0611,0.0415,0.0855,-0.0024,1,1,1,1,1,1,1
7.2477,sweep,2,-down,-0.00591,0.71584,0.03147,-0.00210,0.00210,0.02728,-0.00324,-0.0024,-0.2173,-0.0024,-0.0220,-0.0073,-0.0073,-0.0220,0.0068,-0.0889,0.3077,0.1050,0.0659,0.0855,-0.0024,1,1,1,1,1,1,1
7.2877,sweep,2,-down,-0.00591,0.71584,0.03147,-0.00210,0.00210,0.02728,-0.00324,-0.0024,-0.2173,-0.0024,-0.0220,-0.0073,-0.0073,-0.0220,0.0068,-0.0889,0.3077,0.1050,0.0659,0.0855,-0.0024,1,1,1,1,1,1,1
7.3275,sweep,2,-down,-0.00591,0.71584,0.03147,-0.00210,0.00210,0.02728,-0.00324,-0.0024,-0.2173,-0.0024,-0.0220,-0.0073,-0.0073,-0.0220,0.0068,-0.0889,0.3077,0.1050,0.0659,0.0855,-0.0024,1,1,1,1,1,1,1
7.3676,sweep,2,-down,-0.00591,0.69219,0.03147,-0.00172,0.00210,0.02728,-0.00324,-0.0024,-0.1978,-0.0024,-0.0073,-0.0073,-0.0220,-0.0073,0.0205,-0.4308,0.3077,0.1880,0.1099,0.0806,-0.0024,1,1,1,1,1,1,1
7.4077,sweep,2,-down,-0.00591,0.69219,0.03147,-0.00172,0.00210,0.02728,-0.00324,-0.0024,-0.1978,-0.0024,-0.0073,-0.0073,-0.0220,-0.0073,0.0205,-0.4308,0.3077,0.1880,0.1099,0.0806,-0.0024,1,1,1,1,1,1,1
7.4476,sweep,2,-down,-0.00591,0.67578,0.03147,-0.00134,0.00210,0.02728,-0.00324,-0.0024,-0.2173,-0.0024,-0.0073,-0.0220,-0.0073,-0.0073,0.0205,-0.1026,0.3350,0.2271,0.1538,0.0806,-0.0073,1,1,1,1,1,1,1
7.4875,sweep,2,-down,-0.00591,0.67578,0.03147,-0.00134,0.00210,0.02728,-0.00324,-0.0024,-0.2173,-0.0024,-0.0073,-0.0220,-0.0073,-0.0073,0.0205,-0.1026,0.3350,0.2271,0.1538,0.0806,-0.0073,1,1,1,1,1,1,1
7.5278,sweep,2,-down,-0.00591,0.67578,0.03147,-0.00134,0.00210,0.02728,-0.00324,-0.0024,-0.2173,-0.0024,-0.0073,-0.0220,-0.0073,-0.0073,0.0205,-0.1026,0.3350,0.2271,0.1538,0.0806,-0.0073,1,1,1,1,1,1,1
7.5675,sweep,2,-down,-0.00591,0.65175,0.03147,-0.00095,0.00248,0.02728,-0.00324,-0.0073,-0.2125,-0.0024,-0.0073,-0.0073,-0.0073,0.0073,0.0205,-0.2667,0.3350,0.2808,0.2027,0.0757,-0.0024,1,1,1,1,1,1,1
7.6076,sweep,2,-down,-0.00591,0.65175,0.03147,-0.00095,0.00248,0.02728,-0.00324,-0.0073,-0.2125,-0.0024,-0.0073,-0.0073,-0.0073,0.0073,0.0205,-0.2667,0.3350,0.2808,0.2027,0.0757,-0.0024,1,1,1,1,1,1,1
7.6477,sweep,2,-down,-0.00591,0.63535,0.03147,-0.00057,0.00248,0.02728,-0.00324,-0.0024,-0.2076,0.0024,-0.0073,-0.0073,-0.0073,-0.0073,-0.0068,0.0068,0.3761,0.3004,0.2466,0.0708,-0.0024,1,1,1,1,1,1,1
7.6878,sweep,2,-down,-0.00591,0.63535,0.03147,-0.00057,0.00248,0.02728,-0.00324,-0.0024,-0.2076,0.0024,-0.0073,-0.0073,-0.0073,-0.0073,-0.0068,0.0068,0.3761,0.3004,0.2466,0.0708,-0.0024,1,1,1,1,1,1,1
7.7280,sweep,2,-down,-0.00591,0.63535,0.03147,-0.00057,0.00248,0.02728,-0.00324,-0.0024,-0.2076,0.0024,-0.0073,-0.0073,-0.0073,-0.0073,-0.0068,0.0068,0.3761,0.3004,0.2466,0.0708,-0.0024,1,1,1,1,1,1,1
7.7676,sweep,2,-down,-0.00591,0.61131,0.03147,-0.00019,0.00286,0.02728,-0.00324,-0.0024,-0.2173,-0.0024,-0.0220,-0.0073,-0.0220,-0.0073,-0.0068,-0.0615,0.3624,0.3053,0.2857,0.0659,-0.0024,1,1,1,1,1,1,1
7.8077,sweep,2,-down,-0.00591,0.61131,0.03147,-0.00019,0.00286,0.02728,-0.00324,-0.0024,-0.2173,-0.0024,-0.0220,-0.0073,-0.0220,-0.0073,-0.0068,-0.0615,0.3624,0.3053,0.2857,0.0659,-0.0024,1,1,1,1,1,1,1
7.8477,sweep,2,-down,-0.00591,0.59529,0.03147,0.00019,0.00286,0.02728,-0.00324,0.0024,-0.1832,-0.0073,0.0073,-0.0073,-0.0073,-0.0073,0.0068,0.0342,0.3624,0.3053,0.3150,0.0659,-0.0024,1,1,1,1,1,1,1
7.8876,sweep,2,-down,-0.00591,0.59529,0.03147,0.00019,0.00286,0.02728,-0.00324,0.0024,-0.1832,-0.0073,0.0073,-0.0073,-0.0073,-0.0073,0.0068,0.0342,0.3624,0.3053,0.3150,0.0659,-0.0024,1,1,1,1,1,1,1
7.9276,sweep,2,-down,-0.00591,0.59529,0.03147,0.00019,0.00286,0.02728,-0.00324,0.0024,-0.1832,-0.0073,0.0073,-0.0073,-0.0073,-0.0073,0.0068,0.0342,0.3624,0.3053,0.3150,0.0659,-0.0024,1,1,1,1,1,1,1
7.9677,sweep,2,-down,-0.00591,0.57088,0.03147,0.00057,0.00324,0.02728,-0.00324,-0.0073,-0.2222,0.0024,-0.0073,0.0073,-0.0073,-0.0073,0.0205,0.1026,0.3761,0.3101,0.3443,0.0659,-0.0073,1,1,1,1,1,1,1
8.0077,sweep,2,-down,-0.00591,0.57088,0.03147,0.00057,0.00324,0.02728,-0.00324,-0.0073,-0.2222,0.0024,-0.0073,0.0073,-0.0073,-0.0073,0.0205,0.1026,0.3761,0.3101,0.3443,0.0659,-0.0073,1,1,1,1,1,1,1
8.0475,sweep,2,-down,-0.00591,0.55486,0.03147,0.00057,0.00324,0.02728,-0.00324,-0.0073,-0.2027,-0.0073,0.0073,-0.0073,-0.0073,0.0073,0.0068,0.1162,0.3897,0.3053,0.3492,0.0611,-0.0073,1,1,1,1,1,1,1
8.0878,sweep,2,-down,-0.00591,0.55486,0.03147,0.00057,0.00324,0.02728,-0.00324,-0.0073,-0.2027,-0.0073,0.0073,-0.0073,-0.0073,0.0073,0.0068,0.1162,0.3897,0.3053,0.3492,0.0611,-0.0073,1,1,1,1,1,1,1
8.1279,sweep,2,-down,-0.00591,0.55486,0.03147,0.00057,0.00324,0.02728,-0.00324,-0.0073,-0.2027,-0.0073,0.0073,-0.0073,-0.0073,0.0073,0.0068,0.1162,0.3897,0.3053,0.3492,0.0611,-0.0073,1,1,1,1,1,1,1
8.1677,sweep,2,-down,-0.00591,0.53082,0.03147,0.00057,0.00324,0.02728,-0.00324,-0.0024,-0.2027,0.0024,0.0073,-0.0220,-0.0220,-0.0220,0.0205,0.2120,0.4308,0.3150,0.3736,0.0562,-0.0073,1,1,1,1,1,1,1
8.2076,sweep,2,-down,-0.00591,0.53082,0.03147,0.00057,0.00324,0.02728,-0.00324,-0.0024,-0.2027,0.0024,0.0073,-0.0220,-0.0220,-0.0220,0.0205,0.2120,0.4308,0.3150,0.3736,0.0562,-0.0073,1,1,1,1,1,1,1
8.2476,sweep,2,-down,-0.00591,0.51480,0.03147,0.00057,0.00362,0.02728,-0.00324,-0.0073,-0.2027,-0.0024,-0.0073,-0.0073,0.0073,-0.0073,0.0205,0.2256,0.4444,0.3053,0.3590,0.0562,-0.0073,1,1,1,1,1,1,1
8.2877,sweep,2,-down,-0.00591,0.51480,0.03147,0.00057,0.00362,0.02728,-0.00324,-0.0073,-0.2027,-0.0024,-0.0073,-0.0073,0.0073,-0.0073,0.0205,0.2256,0.4444,0.3053,0.3590,0.0562,-0.0073,1,1,1,1,1,1,1
8.3277,sweep,2,-down,-0.00591,0.51480,0.03147,0.00057,0.00362,0.02728,-0.00324,-0.0073,-0.2027,-0.0024,-0.0073,-0.0073,0.0073,-0.0073,0.0205,0.2256,0.4444,0.3053,0.3590,0.0562,-0.0073,1,1,1,1,1,1,1
8.3678,sweep,2,-down,-0.00591,0.49077,0.03147,0.00057,0.00362,0.02728,-0.00362,0.0024,-0.1783,-0.0024,-0.0073,-0.0073,-0.0073,-0.0220,0.0205,0.3214,0.4581,0.3199,0.3785,0.0513,-0.0073,1,1,1,1,1,1,1
8.4077,sweep,2,-down,-0.00591,0.49077,0.03147,0.00057,0.00362,0.02728,-0.00362,0.0024,-0.1783,-0.0024,-0.0073,-0.0073,-0.0073,-0.0220,0.0205,0.3214,0.4581,0.3199,0.3785,0.0513,-0.0073,1,1,1,1,1,1,1
8.4477,sweep,2,-down,-0.00591,0.47475,0.03147,0.00057,0.00362,0.02728,-0.00324,-0.0024,-0.2076,-0.0024,-0.0073,0.0073,-0.0220,-0.0220,0.0205,0.2530,0.4581,0.3199,0.3883,0.0464,-0.0073,1,1,1,1,1,1,1
8.4876,sweep,2,-down,-0.00591,0.47475,0.03147,0.00057,0.00362,0.02728,-0.00324,-0.0024,-0.2076,-0.0024,-0.0073,0.0073,-0.0220,-0.0220,0.0205,0.2530,0.4581,0.3199,0.3883,0.0464,-0.0073,1,1,1,1,1,1,1
8.5277,sweep,2,-down,-0.00591,0.47475,0.03147,0.00057,0.00362,0.02728,-0.00324,-0.0024,-0.2076,-0.0024,-0.0073,0.0073,-0.0220,-0.0220,0.0205,0.2530,0.4581,0.3199,0.3883,0.0464,-0.0073,1,1,1,1,1,1,1
8.5677,sweep,2,-down,-0.00591,0.45071,0.03147,0.00057,0.00362,0.02728,-0.00324,0.0024,-0.1880,-0.0024,-0.0220,0.0073,-0.0220,-0.0220,-0.0205,0.2940,0.5402,0.3101,0.3834,0.0415,-0.0073,1,1,1,1,1,1,1
8.6076,sweep,2,-down,-0.00591,0.45071,0.03147,0.00057,0.00362,0.02728,-0.00324,0.0024,-0.1880,-0.0024,-0.0220,0.0073,-0.0220,-0.0220,-0.0205,0.2940,0.5402,0.3101,0.3834,0.0415,-0.0073,1,1,1,1,1,1,1
8.6476,sweep,2,-down,-0.00591,0.43469,0.03147,0.00057,0.00362,0.02728,-0.00324,-0.0024,-0.2076,-0.0024,-0.0073,0.0073,-0.0073,-0.0073,-0.0068,0.5538,0.5675,0.3199,0.4029,0.0415,-0.0122,1,1,1,1,1,1,1
8.6876,sweep,2,-down,-0.00591,0.43469,0.03147,0.00057,0.00362,0.02728,-0.00324,-0.0024,-0.2076,-0.0024,-0.0073,0.0073,-0.0073,-0.0073,-0.0068,0.5538,0.5675,0.3199,0.4029,0.0415,-0.0122,1,1,1,1,1,1,1
8.7277,sweep,2,-down,-0.00591,0.43469,0.03147,0.00057,0.00362,0.02728,-0.00324,-0.0024,-0.2076,-0.0024,-0.0073,0.0073,-0.0073,-0.0073,-0.0068,0.5538,0.5675,0.3199,0.4029,0.0415,-0.0122,1,1,1,1,1,1,1
8.7676,sweep,2,-down,-0.00591,0.41867,0.03147,0.00057,0.00362,0.02728,-0.00324,0.0024,-0.1783,0.0024,-0.0073,0.0073,-0.0220,-0.0073,-0.0068,0.4171,0.5675,0.3199,0.3980,0.0366,-0.0073,1,1,1,1,1,1,1
8.8076,sweep,2,-down,-0.00591,0.41867,0.03147,0.00057,0.00362,0.02728,-0.00324,0.0024,-0.1783,0.0024,-0.0073,0.0073,-0.0220,-0.0073,-0.0068,0.4171,0.5675,0.3199,0.3980,0.0366,-0.0073,1,1,1,1,1,1,1
8.8475,sweep,2,-down,-0.00591,0.39425,0.03147,0.00095,0.00362,0.02728,-0.00324,0.0024,-0.2027,-0.0073,-0.0073,-0.0073,-0.0220,0.0073,0.0068,0.6632,0.5949,0.3199,0.4127,0.0317,-0.0122,1,1,1,1,1,1,1
8.8876,sweep,2,-down,-0.00591,0.39425,0.03147,0.00095,0.00362,0.02728,-0.00324,0.0024,-0.2027,-0.0073,-0.0073,-0.0073,-0.0220,0.0073,0.0068,0.6632,0.5949,0.3199,0.4127,0.0317,-0.0122,1,1,1,1,1,1,1
8.9278,sweep,2,-down,-0.00591,0.39425,0.03147,0.00095,0.00362,0.02728,-0.00324,0.0024,-0.2027,-0.0073,-0.0073,-0.0073,-0.0220,0.0073,0.0068,0.6632,0.5949,0.3199,0.4127,0.0317,-0.0122,1,1,1,1,1,1,1
8.9678,sweep,2,-down,-0.00629,0.37060,0.03147,0.00057,0.00362,0.02728,-0.00324,-0.0024,-0.2076,-0.0024,-0.0073,-0.0073,-0.0073,-0.0073,0.0068,0.5265,0.5949,0.3150,0.4127,0.0317,-0.0122,1,1,1,1,1,1,1
9.0079,sweep,2,-down,-0.00629,0.37060,0.03147,0.00057,0.00362,0.02728,-0.00324,-0.0024,-0.2076,-0.0024,-0.0073,-0.0073,-0.0073,-0.0073,0.0068,0.5265,0.5949,0.3150,0.4127,0.0317,-0.0122,1,1,1,1,1,1,1
9.0476,sweep,2,-down,-0.00591,0.35420,0.03147,0.00095,0.00362,0.02728,-0.00362,-0.0024,-0.2076,-0.0024,-0.0073,0.0073,-0.0220,-0.0073,-0.0205,0.8000,0.6496,0.3199,0.4176,0.0269,-0.0122,1,1,1,1,1,1,1
9.0876,sweep,2,-down,-0.00591,0.35420,0.03147,0.00095,0.00362,0.02728,-0.00362,-0.0024,-0.2076,-0.0024,-0.0073,0.0073,-0.0220,-0.0073,-0.0205,0.8000,0.6496,0.3199,0.4176,0.0269,-0.0122,1,1,1,1,1,1,1
9.1276,sweep,2,-down,-0.00591,0.35420,0.03147,0.00095,0.00362,0.02728,-0.00362,-0.0024,-0.2076,-0.0024,-0.0073,0.0073,-0.0220,-0.0073,-0.0205,0.8000,0.6496,0.3199,0.4176,0.0269,-0.0122,1,1,1,1,1,1,1
9.1677,sweep,2,-down,-0.00591,0.33017,0.03147,0.00057,0.00362,0.02728,-0.00324,-0.0024,-0.2173,-0.0024,-0.0073,-0.0220,-0.0073,-0.0073,-0.0068,0.7863,0.6906,0.3150,0.4225,0.0269,-0.0122,1,1,1,1,1,1,1
9.2076,sweep,2,-down,-0.00591,0.33017,0.03147,0.00057,0.00362,0.02728,-0.00324,-0.0024,-0.2173,-0.0024,-0.0073,-0.0220,-0.0073,-0.0073,-0.0068,0.7863,0.6906,0.3150,0.4225,0.0269,-0.0122,1,1,1,1,1,1,1
9.2478,sweep,2,-down,-0.00591,0.31415,0.03147,0.00095,0.00362,0.02728,-0.00324,-0.0024,-0.1929,-0.0024,0.0073,-0.0073,-0.0073,-0.0073,-0.0068,0.7590,0.6769,0.3199,0.4225,0.0220,-0.0122,1,1,1,1,1,1,1
9.2877,sweep,2,-down,-0.00591,0.31415,0.03147,0.00095,0.00362,0.02728,-0.00324,-0.0024,-0.1929,-0.0024,0.0073,-0.0073,-0.0073,-0.0073,-0.0068,0.7590,0.6769,0.3199,0.4225,0.0220,-0.0122,1,1,1,1,1,1,1
9.3277,sweep,2,-down,-0.00591,0.31415,0.03147,0.00095,0.00362,0.02728,-0.00324,-0.0024,-0.1929,-0.0024,0.0073,-0.0073,-0.0073,-0.0073,-0.0068,0.7590,0.6769,0.3199,0.4225,0.0220,-0.0122,1,1,1,1,1,1,1
9.3677,sweep,2,-down,-0.00629,0.29011,0.03147,0.00095,0.00362,0.02728,-0.00324,-0.0073,-0.2222,-0.0073,-0.0220,0.0073,-0.0073,-0.0073,-0.0205,0.8410,0.7043,0.3199,0.4371,0.0171,-0.0171,1,1,1,1,1,1,1
9.4078,sweep,2,-down,-0.00629,0.29011,0.03147,0.00095,0.00362,0.02728,-0.00324,-0.0073,-0.2222,-0.0073,-0.0220,0.0073,-0.0073,-0.0073,-0.0205,0.8410,0.7043,0.3199,0.4371,0.0171,-0.0171,1,1,1,1,1,1,1
9.4477,sweep,2,-down,-0.00629,0.27409,0.03147,0.00095,0.00401,0.02728,-0.00324,-0.0073,-0.1880,-0.0024,-0.0073,0.0073,-0.0073,-0.0073,-0.0068,0.8137,0.6769,0.3150,0.4322,0.0122,-0.0171,1,1,1,1,1,1,1
9.4880,sweep,2,-down,-0.00629,0.27409,0.03147,0.00095,0.00401,0.02728,-0.00324,-0.0073,-0.1880,-0.0024,-0.0073,0.0073,-0.0073,-0.0073,-0.0068,0.8137,0.6769,0.3150,0.4322,0.0122,-0.0171,1,1,1,1,1,1,1
9.5278,sweep,2,-down,-0.00629,0.27409,0.03147,0.00095,0.00401,0.02728,-0.00324,-0.0073,-0.1880,-0.0024,-0.0073,0.0073,-0.0073,-0.0073,-0.0068,0.8137,0.6769,0.3150,0.4322,0.0122,-0.0171,1,1,1,1,1,1,1
9.5677,sweep,2,-down,-0.00591,0.25082,0.03147,0.00057,0.00362,0.02728,-0.00324,-0.0024,-0.1880,-0.0073,-0.0220,-0.0073,0.0073,-0.0073,-0.0205,1.0872,0.7316,0.3199,0.4371,0.0073,-0.0171,1,1,1,1,1,1,1
9.6077,sweep,2,-down,-0.00591,0.25082,0.03147,0.00057,0.00362,0.02728,-0.00324,-0.0024,-0.1880,-0.0073,-0.0220,-0.0073,0.0073,-0.0073,-0.0205,1.0872,0.7316,0.3199,0.4371,0.0073,-0.0171,1,1,1,1,1,1,1
9.6476,sweep,2,-down,-0.00591,0.23747,0.03147,0.00095,0.00362,0.02728,-0.00362,-0.0024,-0.1685,-0.0024,-0.0073,-0.0073,-0.0073,-0.0073,-0.0068,1.1282,0.7316,0.3199,0.4322,0.0073,-0.0122,1,1,1,1,1,1,1
9.6877,sweep,2,-down,-0.00591,0.23747,0.03147,0.00095,0.00362,0.02728,-0.00362,-0.0024,-0.1685,-0.0024,-0.0073,-0.0073,-0.0073,-0.0073,-0.0068,1.1282,0.7316,0.3199,0.4322,0.0073,-0.0122,1,1,1,1,1,1,1
9.7282,sweep,2,-down,-0.00591,0.23747,0.03147,0.00095,0.00362,0.02728,-0.00362,-0.0024,-0.1685,-0.0024,-0.0073,-0.0073,-0.0073,-0.0073,-0.0068,1.1282,0.7316,0.3199,0.4322,0.0073,-0.0122,1,1,1,1,1,1,1
9.7679,sweep,2,-down,-0.00591,0.21992,0.03147,0.00057,0.00362,0.02728,-0.00324,-0.0024,-0.1441,-0.0024,-0.0220,-0.0073,-0.0073,-0.0073,0.0068,1.1009,0.8000,0.3150,0.4274,0.0122,-0.0122,1,1,1,1,1,1,1
9.8078,sweep,2,-down,-0.00591,0.21992,0.03147,0.00057,0.00362,0.02728,-0.00324,-0.0024,-0.1441,-0.0024,-0.0220,-0.0073,-0.0073,-0.0073,0.0068,1.1009,0.8000,0.3150,0.4274,0.0122,-0.0122,1,1,1,1,1,1,1
9.8476,sweep,2,-down,-0.00591,0.20962,0.03147,0.00095,0.00362,0.02728,-0.00324,-0.0024,-0.1099,-0.0024,-0.0073,-0.0073,-0.0073,-0.0073,-0.0068,0.7863,0.7863,0.3053,0.4322,0.0122,-0.0122,1,1,1,1,1,1,1
9.8876,sweep,2,-down,-0.00591,0.20962,0.03147,0.00095,0.00362,0.02728,-0.00324,-0.0024,-0.1099,-0.0024,-0.0073,-0.0073,-0.0073,-0.0073,-0.0068,0.7863,0.7863,0.3053,0.4322,0.0122,-0.0122,1,1,1,1,1,1,1
9.9278,sweep,2,-down,-0.00591,0.20962,0.03147,0.00095,0.00362,0.02728,-0.00324,-0.0024,-0.1099,-0.0024,-0.0073,-0.0073,-0.0073,-0.0073,-0.0068,0.7863,0.7863,0.3053,0.4322,0.0122,-0.0122,1,1,1,1,1,1,1
9.9677,sweep,2,-down,-0.00629,0.19589,0.03147,0.00095,0.00362,0.02728,-0.00362,-0.0024,-0.1148,-0.0024,0.0073,-0.0073,-0.0220,-0.0073,0.0068,0.9504,0.8000,0.3004,0.4274,0.0073,-0.0122,1,1,1,1,1,1,1
10.0077,sweep,2,-down,-0.00629,0.19589,0.03147,0.00095,0.00362,0.02728,-0.00362,-0.0024,-0.1148,-0.0024,0.0073,-0.0073,-0.0220,-0.0073,0.0068,0.9504,0.8000,0.3004,0.4274,0.0073,-0.0122,1,1,1,1,1,1,1
10.0476,sweep,2,-down,-0.00591,0.18444,0.03147,0.00057,0.00362,0.02728,-0.00362,-0.0024,-0.0757,-0.0024,-0.0220,-0.0220,-0.0073,-0.0073,-0.0068,1.1692,0.8137,0.2955,0.4225,0.0024,-0.0171,1,1,1,1,1,1,1
10.0877,sweep,2,-down,-0.00591,0.18444,0.03147,0.00057,0.00362,0.02728,-0.00362,-0.0024,-0.0757,-0.0024,-0.0220,-0.0220,-0.0073,-0.0073,-0.0068,1.1692,0.8137,0.2955,0.4225,0.0024,-0.0171,1,1,1,1,1,1,1
10.1277,sweep,2,-down,-0.00591,0.18444,0.03147,0.00057,0.00362,0.02728,-0.00362,-0.0024,-0.0757,-0.0024,-0.0220,-0.0220,-0.0073,-0.0073,-0.0068,1.1692,0.8137,0.2955,0.4225,0.0024,-0.0171,1,1,1,1,1,1,1
10.1676,sweep,2,-down,-0.00591,0.17796,0.03147,0.00057,0.00362,0.02728,-0.00362,-0.0024,-0.0708,-0.0073,-0.0220,-0.0073,-0.0073,-0.0073,-0.0205,1.0872,0.7726,0.2906,0.4176,0.0024,-0.0122,1,1,1,1,1,1,1
10.2077,sweep,2,-down,-0.00591,0.17796,0.03147,0.00057,0.00362,0.02728,-0.00362,-0.0024,-0.0708,-0.0073,-0.0220,-0.0073,-0.0073,-0.0073,-0.0205,1.0872,0.7726,0.2906,0.4176,0.0024,-0.0122,1,1,1,1,1,1,1
10.2478,sweep,2,-down,-0.00591,0.17185,0.03147,0.00057,0.00362,0.02728,-0.00324,-0.0024,-0.0806,0.0024,-0.0220,-0.0073,0.0073,-0.0073,-0.0068,1.1829,0.7590,0.2857,0.4225,0.0024,-0.0122,1,1,1,1,1,1,1
10.2878,sweep,2,-down,-0.00591,0.17185,0.03147,0.00057,0.00362,0.02728,-0.00324,-0.0024,-0.0806,0.0024,-0.0220,-0.0073,0.0073,-0.0073,-0.0068,1.1829,0.7590,0.2857,0.4225,0.0024,-0.0122,1,1,1,1,1,1,1
10.3277,sweep,2,-down,-0.00591,0.17185,0.03147,0.00057,0.00362,0.02728,-0.00324,-0.0024,-0.0806,0.0024,-0.0220,-0.0073,0.0073,-0.0073,-0.0068,1.1829,0.7590,0.2857,0.4225,0.0024,-0.0122,1,1,1,1,1,1,1
10.3676,sweep,2,-down,-0.00591,0.16423,0.03147,0.00057,0.00362,0.02728,-0.00362,-0.0024,-0.0513,-0.0024,-0.0073,-0.0073,-0.0220,-0.0073,-0.0205,0.9368,0.8000,0.2759,0.4225,0.0024,-0.0171,1,1,1,1,1,1,1
10.4076,sweep,2,-down,-0.00591,0.16423,0.03147,0.00057,0.00362,0.02728,-0.00362,-0.0024,-0.0513,-0.0024,-0.0073,-0.0073,-0.0220,-0.0073,-0.0205,0.9368,0.8000,0.2759,0.4225,0.0024,-0.0171,1,1,1,1,1,1,1
10.4476,sweep,2,-down,-0.00591,0.15774,0.03147,0.00057,0.00362,0.02728,-0.00362,-0.0024,-0.0464,-0.0024,-0.0073,0.0073,-0.0073,-0.0073,-0.0205,0.8274,0.7590,0.2857,0.4371,-0.0073,-0.0171,1,1,1,1,1,1,1
10.4875,sweep,2,-down,-0.00629,0.15774,0.03147,0.00057,0.00362,0.02728,-0.00362,-0.0024,-0.0464,-0.0024,-0.0073,0.0073,-0.0073,-0.0073,-0.0068,0.8274,0.7590,0.2857,0.4371,-0.0073,-0.0171,1,1,1,1,1,1,1
10.5276,sweep,2,-down,-0.00629,0.15774,0.03147,0.00057,0.00362,0.02728,-0.00362,-0.0024,-0.0464,-0.0024,-0.0073,0.0073,-0.0073,-0.0073,-0.0068,0.8274,0.7590,0.2857,0.4371,-0.0073,-0.0171,1,1,1,1,1,1,1
10.5675,sweep,2,-down,-0.00591,0.15354,0.03147,0.00095,0.00362,0.02728,-0.00324,-0.0024,-0.0366,-0.0073,-0.0220,-0.0073,0.0073,-0.0073,-0.0068,1.1009,0.7316,0.2857,0.4420,-0.0024,-0.0171,1,1,1,1,1,1,1
10.6077,sweep,2,-down,-0.00591,0.15354,0.03147,0.00095,0.00362,0.02728,-0.00324,-0.0024,-0.0366,-0.0073,-0.0220,-0.0073,0.0073,-0.0073,-0.0068,1.1009,0.7316,0.2857,0.4420,-0.0024,-0.0171,1,1,1,1,1,1,1
10.6476,sweep,2,-down,-0.00591,0.15354,0.03147,0.00095,0.00362,0.02728,-0.00324,-0.0024,-0.0366,-0.0073,0.0073,0.0073,-0.0073,-0.0073,-0.0068,1.1009,0.7316,0.2857,0.4469,0.0024,-0.0171,1,1,1,1,1,1,1
10.6877,sweep,2,-down,-0.00629,0.14858,0.03147,0.00095,0.00362,0.02728,-0.00324,-0.0073,-0.0513,-0.0073,0.0073,0.0073,-0.0073,-0.0073,0.0068,0.9504,0.7316,0.2857,0.4469,0.0024,-0.0171,1,1,1,1,1,1,1
10.7278,sweep,2,-down,-0.00629,0.14858,0.03147,0.00095,0.00362,0.02728,-0.00324,-0.0073,-0.0513,-0.0073,0.0073,0.0073,-0.0073,-0.0073,0.0068,0.9504,0.7316,0.2857,0.4469,0.0024,-0.0171,1,1,1,1,1,1,1
10.7676,sweep,2,-down,-0.00629,0.14553,0.03147,0.00057,0.00362,0.02728,-0.00362,-0.0024,-0.0220,-0.0024,-0.0220,-0.0220,0.0073,-0.0073,0.0068,1.1556,0.7726,0.2808,0.4420,-0.0024,-0.0171,1,1,1,1,1,1,1
10.8077,sweep,2,-down,-0.00629,0.14553,0.03147,0.00057,0.00362,0.02728,-0.00362,-0.0024,-0.0220,-0.0024,-0.0220,-0.0220,0.0073,-0.0073,0.0068,1.1556,0.7726,0.2808,0.4420,-0.0024,-0.0171,1,1,1,1,1,1,1
10.8476,sweep,2,-down,-0.00629,0.14553,0.03147,0.00057,0.00362,0.02728,-0.00362,-0.0024,-0.0220,-0.0024,-0.0220,-0.0220,0.0073,-0.0073,0.0068,1.1556,0.7726,0.2808,0.4469,0.0024,-0.0122,1,1,1,1,1,1,1
10.8876,sweep,2,-down,-0.00591,0.14172,0.03147,0.00095,0.00362,0.02728,-0.00362,-0.0024,-0.0317,-0.0024,0.0073,-0.0220,0.0073,-0.0073,-0.0068,1.2103,0.7590,0.2759,0.4469,0.0024,-0.0122,1,1,1,1,1,1,1
10.9277,sweep,2,-down,-0.00591,0.14172,0.03147,0.00095,0.00362,0.02728,-0.00362,-0.0024,-0.0317,-0.0024,0.0073,-0.0220,0.0073,-0.0073,-0.0068,1.2103,0.7590,0.2759,0.4469,0.0024,-0.0122,1,1,1,1,1,1,1
10.9676,sweep,2,-down,-0.00591,0.13943,0.03147,0.00095,0.00362,0.02689,-0.00324,-0.0024,-0.0317,-0.0024,0.0073,0.0073,-0.0073,-0.0073,-0.0205,1.1829,0.8274,0.2808,0.4518,-0.0024,-0.0122,1,1,1,1,1,1,1
11.4700,sweep,2,+up,-0.00629,0.13867,0.03147,0.00095,0.00362,0.02728,-0.00362,-0.0024,-0.0220,-0.0024,0.0220,-0.0220,0.0073,-0.0073,-0.0068,0.8137,0.8274,0.2808,0.4469,-0.0024,-0.0073,1,1,1,1,1,1,1
11.5102,sweep,2,+up,-0.00629,0.13867,0.03147,0.00095,0.00362,0.02728,-0.00362,-0.0024,-0.0220,-0.0024,0.0220,-0.0220,0.0073,-0.0073,-0.0068,0.8137,0.8274,0.2808,0.4469,-0.0024,-0.0073,1,1,1,1,1,1,1
11.5503,sweep,2,+up,-0.00591,0.13447,0.03147,0.00057,0.00401,0.02728,-0.00324,-0.0024,0.1929,-0.0024,-0.0073,-0.0073,-0.0073,-0.0073,-0.0068,3.0017,0.7726,0.2662,0.4518,-0.0024,-0.0073,1,1,1,1,1,1,1
11.5904,sweep,2,+up,-0.00591,0.13447,0.03147,0.00057,0.00401,0.02728,-0.00324,-0.0024,0.1929,-0.0024,-0.0073,-0.0073,-0.0073,-0.0073,-0.0068,3.0017,0.7726,0.2662,0.4518,-0.0024,-0.0073,1,1,1,1,1,1,1
11.6302,sweep,2,+up,-0.00591,0.13447,0.03147,0.00057,0.00401,0.02728,-0.00324,-0.0024,0.1929,-0.0024,-0.0073,-0.0073,-0.0073,-0.0073,-0.0068,3.0017,0.7726,0.2662,0.4518,-0.0024,-0.0073,1,1,1,1,1,1,1
11.6702,sweep,2,+up,-0.00591,0.15965,0.03147,0.00057,0.00401,0.02689,-0.00324,-0.0024,0.2125,-0.0024,-0.0073,-0.0073,-0.0073,-0.0073,-0.0068,1.5795,0.8137,0.2662,0.4518,0.0024,-0.0073,1,1,1,1,1,1,1
11.7109,sweep,2,+up,-0.00591,0.15965,0.03147,0.00057,0.00401,0.02689,-0.00324,-0.0024,0.2125,-0.0024,-0.0073,-0.0073,-0.0073,-0.0073,-0.0068,1.5795,0.8137,0.2662,0.4518,0.0024,-0.0073,1,1,1,1,1,1,1
11.7502,sweep,2,+up,-0.00591,0.18254,0.03147,0.00095,0.00362,0.02728,-0.00324,-0.0024,0.1880,-0.0024,0.0073,-0.0220,-0.0073,-0.0073,-0.0205,2.6462,0.8410,0.2662,0.4518,0.0024,-0.0024,1,1,1,1,1,1,1
11.7902,sweep,2,+up,-0.00591,0.18254,0.03147,0.00095,0.00362,0.02728,-0.00324,-0.0024,0.1880,-0.0024,0.0073,-0.0220,-0.0073,-0.0073,-0.0205,2.6462,0.8410,0.2662,0.4518,0.0024,-0.0024,1,1,1,1,1,1,1
11.8303,sweep,2,+up,-0.00591,0.18254,0.03147,0.00095,0.00362,0.02728,-0.00324,-0.0024,0.1880,-0.0024,0.0073,-0.0220,-0.0073,-0.0073,-0.0205,2.6462,0.8410,0.2662,0.4518,0.0024,-0.0024,1,1,1,1,1,1,1
11.8701,sweep,2,+up,-0.00591,0.19932,0.03147,0.00057,0.00401,0.02689,-0.00324,-0.0073,0.1978,-0.0024,-0.0073,-0.0220,-0.0073,-0.0073,-0.0342,2.0581,0.8547,0.2711,0.4469,0.0073,-0.0024,1,1,1,1,1,1,1
11.9101,sweep,2,+up,-0.00591,0.19932,0.03147,0.00057,0.00401,0.02689,-0.00324,-0.0073,0.1978,-0.0024,-0.0073,-0.0220,-0.0073,-0.0073,-0.0342,2.0581,0.8547,0.2711,0.4469,0.0073,-0.0024,1,1,1,1,1,1,1
11.9503,sweep,2,+up,-0.00591,0.22297,0.03147,0.00057,0.00401,0.02689,-0.00324,-0.0024,0.1978,-0.0024,-0.0073,-0.0073,0.0073,-0.0073,-0.0068,2.0444,0.9094,0.2662,0.4420,0.0073,-0.0024,1,1,1,1,1,1,1
11.9910,sweep,2,+up,-0.00591,0.22297,0.03147,0.00057,0.00401,0.02689,-0.00324,-0.0024,0.1978,-0.0024,-0.0073,-0.0073,0.0073,-0.0073,-0.0068,2.0444,0.9094,0.2662,0.4420,0.0073,-0.0024,1,1,1,1,1,1,1
12.0303,sweep,2,+up,-0.00591,0.22297,0.03147,0.00057,0.00401,0.02689,-0.00324,-0.0024,0.1978,-0.0024,-0.0073,-0.0073,0.0073,-0.0073,-0.0068,2.0444,0.9094,0.2662,0.4420,0.0073,-0.0024,1,1,1,1,1,1,1
12.0702,sweep,2,+up,-0.00591,0.23938,0.03147,0.00057,0.00362,0.02689,-0.00324,-0.0024,0.1978,0.0024,-0.0073,-0.0073,-0.0073,-0.0073,-0.0205,2.0444,0.9231,0.2711,0.4420,0.0024,-0.0024,1,1,1,1,1,1,1
12.1105,sweep,2,+up,-0.00591,0.23938,0.03147,0.00057,0.00362,0.02689,-0.00324,-0.0024,0.1978,0.0024,-0.0073,-0.0073,-0.0073,-0.0073,-0.0205,2.0444,0.9231,0.2711,0.4420,0.0024,-0.0024,1,1,1,1,1,1,1
12.1503,sweep,2,+up,-0.00591,0.26303,0.03185,0.00095,0.00362,0.02689,-0.00324,-0.0024,0.1929,-0.0024,0.0073,-0.0073,0.0073,-0.0073,-0.0068,2.1949,0.8957,0.2711,0.4371,0.0073,-0.0073,1,1,1,1,1,1,1
12.1915,sweep,2,+up,-0.00591,0.26303,0.03185,0.00095,0.00362,0.02689,-0.00324,-0.0024,0.1929,-0.0024,0.0073,-0.0073,0.0073,-0.0073,-0.0068,2.1949,0.8957,0.2711,0.4371,0.0073,-0.0073,1,1,1,1,1,1,1
12.2302,sweep,2,+up,-0.00591,0.26303,0.03185,0.00095,0.00362,0.02689,-0.00324,-0.0024,0.1929,-0.0024,0.0073,-0.0073,0.0073,-0.0073,-0.0068,2.1949,0.8957,0.2711,0.4371,0.0073,-0.0073,1,1,1,1,1,1,1
12.2704,sweep,2,+up,-0.00591,0.27943,0.03147,0.00057,0.00362,0.02689,-0.00324,0.0024,0.1929,-0.0024,-0.0073,-0.0073,-0.0220,-0.0073,-0.0068,1.8667,0.8957,0.2857,0.4322,0.0122,-0.0024,1,1,1,1,1,1,1
12.3104,sweep,2,+up,-0.00591,0.27943,0.03147,0.00057,0.00362,0.02689,-0.00324,0.0024,0.1929,-0.0024,-0.0073,-0.0073,-0.0220,-0.0073,-0.0068,1.8667,0.8957,0.2857,0.4322,0.0122,-0.0024,1,1,1,1,1,1,1
12.3502,sweep,2,+up,-0.00591,0.27943,0.03147,0.00095,0.00401,0.02689,-0.00324,0.0024,0.1929,-0.0024,0.0073,-0.0220,-0.0220,-0.0073,-0.0068,1.8667,0.8957,0.2857,0.4322,0.0073,-0.0024,1,1,1,1,1,1,1
12.3903,sweep,2,+up,-0.00591,0.30346,0.03185,0.00095,0.00401,0.02689,-0.00324,-0.0073,0.2222,-0.0024,0.0073,-0.0220,-0.0220,-0.0073,-0.0342,1.7299,0.8410,0.2857,0.4322,0.0073,-0.0024,1,1,1,1,1,1,1
12.4303,sweep,2,+up,-0.00591,0.30346,0.03185,0.00095,0.00401,0.02689,-0.00324,-0.0073,0.2222,-0.0024,0.0073,-0.0220,-0.0220,-0.0073,-0.0342,1.7299,0.8410,0.2857,0.4322,0.0073,-0.0024,1,1,1,1,1,1,1
12.4705,sweep,2,+up,-0.00591,0.31949,0.03147,0.00057,0.00362,0.02689,-0.00324,-0.0024,0.1880,-0.0024,-0.0073,-0.0073,0.0073,-0.0073,-0.0342,2.0034,0.8547,0.2759,0.4371,0.0122,-0.0024,1,1,1,1,1,1,1
12.5103,sweep,2,+up,-0.00591,0.31949,0.03147,0.00057,0.00362,0.02689,-0.00324,-0.0024,0.1880,-0.0024,-0.0073,-0.0073,0.0073,-0.0073,-0.0342,2.0034,0.8547,0.2759,0.4371,0.0122,-0.0024,1,1,1,1,1,1,1
12.5504,sweep,2,+up,-0.00591,0.31949,0.03147,0.00095,0.00401,0.02689,-0.00362,-0.0024,0.1880,0.0024,0.0073,-0.0073,-0.0073,-0.0073,-0.0342,2.0034,0.8957,0.2759,0.4322,0.0171,-0.0073,1,1,1,1,1,1,1
12.5905,sweep,2,+up,-0.00591,0.34352,0.03147,0.00095,0.00401,0.02689,-0.00362,-0.0024,0.2076,0.0024,0.0073,-0.0073,-0.0073,-0.0073,-0.0479,1.6479,0.8957,0.2759,0.4322,0.0171,-0.0073,1,1,1,1,1,1,1
12.6304,sweep,2,+up,-0.00591,0.34352,0.03147,0.00095,0.00401,0.02689,-0.00362,-0.0024,0.2076,0.0024,0.0073,-0.0073,-0.0073,-0.0073,-0.0479,1.6479,0.8957,0.2759,0.4322,0.0171,-0.0073,1,1,1,1,1,1,1
12.6702,sweep,2,+up,-0.00591,0.35954,0.03185,0.00057,0.00401,0.02689,-0.00324,0.0073,0.1929,-0.0024,-0.0073,-0.0220,-0.0220,-0.0073,-0.0342,1.8120,0.8410,0.2857,0.4225,0.0122,-0.0073,1,1,1,1,1,1,1
12.7106,sweep,2,+up,-0.00591,0.35954,0.03185,0.00057,0.00401,0.02689,-0.00324,0.0073,0.1929,-0.0024,-0.0073,-0.0220,-0.0220,-0.0073,-0.0342,1.8120,0.8410,0.2857,0.4225,0.0122,-0.0073,1,1,1,1,1,1,1
12.7507,sweep,2,+up,-0.00591,0.35954,0.03185,0.00057,0.00401,0.02689,-0.00324,0.0073,0.1929,-0.0024,-0.0073,-0.0073,-0.0073,-0.0073,-0.0342,1.8120,0.8410,0.2906,0.4274,0.0171,-0.0024,1,1,1,1,1,1,1
12.7905,sweep,2,+up,-0.00629,0.38357,0.03147,0.00057,0.00401,0.02689,-0.00324,-0.0024,0.1929,-0.0073,-0.0073,-0.0073,-0.0073,-0.0073,-0.0479,1.5795,0.8957,0.2906,0.4274,0.0171,-0.0024,1,1,1,1,1,1,1
12.8302,sweep,2,+up,-0.00629,0.38357,0.03147,0.00057,0.00401,0.02689,-0.00324,-0.0024,0.1929,-0.0073,-0.0073,-0.0073,-0.0073,-0.0073,-0.0479,1.5795,0.8957,0.2906,0.4274,0.0171,-0.0024,1,1,1,1,1,1,1
12.8702,sweep,2,+up,-0.00629,0.39960,0.03185,0.00095,0.00401,0.02689,-0.00324,-0.0073,0.1929,-0.0024,0.0073,-0.0073,-0.0220,-0.0073,-0.0342,1.5932,0.9094,0.2808,0.4322,0.0122,-0.0073,1,1,1,1,1,1,1
12.9101,sweep,2,+up,-0.00629,0.39960,0.03185,0.00095,0.00401,0.02689,-0.00324,-0.0073,0.1929,-0.0024,0.0073,-0.0073,-0.0220,-0.0073,-0.0342,1.5932,0.9094,0.2808,0.4322,0.0122,-0.0073,1,1,1,1,1,1,1
12.9502,sweep,2,+up,-0.00629,0.39960,0.03185,0.00095,0.00401,0.02689,-0.00324,-0.0073,0.1929,-0.0024,0.0073,-0.0073,-0.0220,-0.0073,-0.0342,1.5932,0.9094,0.2808,0.4322,0.0122,-0.0073,1,1,1,1,1,1,1
12.9904,sweep,2,+up,-0.00591,0.42363,0.03147,0.00057,0.00362,0.02689,-0.00324,0.0024,0.1832,-0.0024,-0.0073,-0.0073,0.0073,-0.0073,-0.0342,1.5795,0.8684,0.2808,0.4274,0.0171,-0.0024,1,1,1,1,1,1,1
13.0300,sweep,2,+up,-0.00591,0.42363,0.03147,0.00057,0.00362,0.02689,-0.00324,0.0024,0.1832,-0.0024,-0.0073,-0.0073,0.0073,-0.0073,-0.0342,1.5795,0.8684,0.2808,0.4274,0.0171,-0.0024,1,1,1,1,1,1,1
13.0701,sweep,2,+up,-0.00591,0.43965,0.03185,0.00057,0.00401,0.02689,-0.00362,0.0024,0.2027,-0.0024,-0.0220,0.0073,0.0073,-0.0073,-0.0479,1.4974,0.8684,0.2808,0.4127,0.0122,-0.0073,1,1,1,1,1,1,1
13.1105,sweep,2,+up,-0.00591,0.43965,0.03185,0.00057,0.00401,0.02689,-0.00362,0.0024,0.2027,-0.0024,-0.0220,0.0073,0.0073,-0.0073,-0.0479,1.4974,0.8684,0.2808,0.4127,0.0122,-0.0073,1,1,1,1,1,1,1
13.1502,sweep,2,+up,-0.00591,0.43965,0.03185,0.00057,0.00401,0.02689,-0.00362,0.0024,0.2027,-0.0024,-0.0220,0.0073,0.0073,-0.0073,-0.0479,1.4974,0.8684,0.2808,0.4127,0.0122,-0.0073,1,1,1,1,1,1,1
13.1908,sweep,2,+up,-0.00629,0.46368,0.03185,0.00057,0.00362,0.02689,-0.00324,-0.0024,0.1880,-0.0024,-0.0073,-0.0073,-0.0220,0.0073,-0.0342,1.5658,0.8821,0.2906,0.4127,0.0220,-0.0073,1,1,1,1,1,1,1
13.2302,sweep,2,+up,-0.00629,0.46368,0.03185,0.00057,0.00362,0.02689,-0.00324,-0.0024,0.1880,-0.0024,-0.0073,-0.0073,-0.0220,0.0073,-0.0342,1.5658,0.8821,0.2906,0.4127,0.0220,-0.0073,1,1,1,1,1,1,1
13.2703,sweep,2,+up,-0.00591,0.48009,0.03147,0.00095,0.00401,0.02689,-0.00324,-0.0024,0.2222,-0.0024,0.0073,0.0073,-0.0073,-0.0073,-0.0342,1.2239,0.8547,0.2955,0.4078,0.0171,-0.0024,1,1,1,1,1,1,1
13.3102,sweep,2,+up,-0.00591,0.48009,0.03147,0.00095,0.00401,0.02689,-0.00324,-0.0024,0.2222,-0.0024,0.0073,0.0073,-0.0073,-0.0073,-0.0342,1.2239,0.8547,0.2955,0.4078,0.0171,-0.0024,1,1,1,1,1,1,1
13.3503,sweep,2,+up,-0.00591,0.48009,0.03147,0.00095,0.00401,0.02689,-0.00324,-0.0024,0.2222,-0.0024,0.0073,0.0073,-0.0073,-0.0073,-0.0342,1.2239,0.8547,0.2955,0.4078,0.0171,-0.0024,1,1,1,1,1,1,1
13.3901,sweep,2,+up,-0.00591,0.50374,0.03185,0.00095,0.00401,0.02689,-0.00324,-0.0024,0.1929,0.0024,0.0073,-0.0073,-0.0073,-0.0073,-0.0342,1.3607,0.8410,0.2955,0.4078,0.0220,-0.0024,1,1,1,1,1,1,1
13.4303,sweep,2,+up,-0.00591,0.50374,0.03185,0.00095,0.00401,0.02689,-0.00324,-0.0024,0.1929,0.0024,0.0073,-0.0073,-0.0073,-0.0073,-0.0342,1.3607,0.8410,0.2955,0.4078,0.0220,-0.0024,1,1,1,1,1,1,1
13.4704,sweep,2,+up,-0.00591,0.52014,0.03147,0.00095,0.00401,0.02689,-0.00324,0.0024,0.2027,-0.0024,-0.0073,-0.0220,0.0073,-0.0073,-0.0342,1.0735,0.8000,0.2955,0.4029,0.0220,0.0024,1,1,1,1,1,1,1
13.5100,sweep,2,+up,-0.00591,0.52014,0.03147,0.00095,0.00401,0.02689,-0.00324,0.0024,0.2027,-0.0024,-0.0073,-0.0220,0.0073,-0.0073,-0.0342,1.0735,0.8000,0.2955,0.4029,0.0220,0.0024,1,1,1,1,1,1,1
13.5500,sweep,2,+up,-0.00591,0.52014,0.03147,0.00095,0.00401,0.02689,-0.00324,0.0024,0.2027,-0.0024,-0.0073,-0.0220,0.0073,-0.0073,-0.0342,1.0735,0.8000,0.2955,0.4029,0.0220,0.0024,1,1,1,1,1,1,1
13.5902,sweep,2,+up,-0.00591,0.54379,0.03147,0.00095,0.00401,0.02689,-0.00324,-0.0024,0.2027,-0.0024,-0.0073,-0.0073,-0.0073,-0.0220,-0.0205,1.1692,0.8684,0.2955,0.3980,0.0220,-0.0024,1,1,1,1,1,1,1
13.6306,sweep,2,+up,-0.00591,0.54379,0.03147,0.00095,0.00401,0.02689,-0.00324,-0.0024,0.2027,-0.0024,-0.0073,-0.0073,-0.0073,-0.0220,-0.0205,1.1692,0.8684,0.2955,0.3980,0.0220,-0.0024,1,1,1,1,1,1,1
13.6705,sweep,2,+up,-0.00629,0.56020,0.03147,0.00095,0.00401,0.02689,-0.00324,-0.0073,0.1880,-0.0024,-0.0220,-0.0220,0.0073,-0.0073,-0.0205,1.1419,0.8957,0.2955,0.3883,0.0220,0.0024,1,1,1,1,1,1,1
13.7101,sweep,2,+up,-0.00629,0.56020,0.03147,0.00095,0.00401,0.02689,-0.00324,-0.0073,0.1880,-0.0024,-0.0220,-0.0220,0.0073,-0.0073,-0.0205,1.1419,0.8957,0.2955,0.3883,0.0220,0.0024,1,1,1,1,1,1,1
13.7500,sweep,2,+up,-0.00629,0.56020,0.03147,0.00095,0.00401,0.02689,-0.00324,-0.0073,0.1880,-0.0024,-0.0220,-0.0220,0.0073,-0.0073,-0.0205,1.1419,0.8957,0.2955,0.3883,0.0220,0.0024,1,1,1,1,1,1,1
13.7903,sweep,2,+up,-0.00591,0.58423,0.03185,0.00095,0.00401,0.02689,-0.00324,-0.0024,0.2173,-0.0024,0.0073,0.0073,0.0073,0.0073,-0.0068,0.9231,0.8137,0.3004,0.3736,0.0269,-0.0024,1,1,1,1,1,1,1
13.8302,sweep,2,+up,-0.00591,0.58423,0.03185,0.00095,0.00401,0.02689,-0.00324,-0.0024,0.2173,-0.0024,0.0073,0.0073,0.0073,0.0073,-0.0068,0.9231,0.8137,0.3004,0.3736,0.0269,-0.0024,1,1,1,1,1,1,1
13.8700,sweep,2,+up,-0.00591,0.60025,0.03147,0.00095,0.00401,0.02689,-0.00324,-0.0024,0.1880,-0.0024,-0.0220,-0.0220,-0.0073,0.0073,-0.0205,0.9641,0.8821,0.3053,0.3687,0.0317,-0.0024,1,1,1,1,1,1,1
13.9102,sweep,2,+up,-0.00591,0.60025,0.03147,0.00095,0.00401,0.02689,-0.00324,-0.0024,0.1880,-0.0024,-0.0220,-0.0220,-0.0073,0.0073,-0.0205,0.9641,0.8821,0.3053,0.3687,0.0317,-0.0024,1,1,1,1,1,1,1
13.9505,sweep,2,+up,-0.00591,0.60025,0.03147,0.00095,0.00401,0.02689,-0.00324,-0.0024,0.1880,-0.0024,-0.0220,-0.0220,-0.0073,0.0073,-0.0205,0.9641,0.8821,0.3053,0.3687,0.0317,-0.0024,1,1,1,1,1,1,1
13.9905,sweep,2,+up,-0.00591,0.62428,0.03147,0.00095,0.00401,0.02689,-0.00324,-0.0024,0.2076,-0.0024,-0.0220,0.0073,-0.0073,-0.0073,-0.0205,0.7726,0.8957,0.3053,0.3541,0.0366,-0.0073,1,1,1,1,1,1,1
14.0302,sweep,2,+up,-0.00591,0.62428,0.03147,0.00095,0.00401,0.02689,-0.00324,-0.0024,0.2076,-0.0024,-0.0220,0.0073,-0.0073,-0.0073,-0.0205,0.7726,0.8957,0.3053,0.3541,0.0366,-0.0073,1,1,1,1,1,1,1
14.0701,sweep,2,+up,-0.00591,0.64031,0.03185,0.00095,0.00401,0.02689,-0.00324,-0.0024,0.1783,-0.0024,-0.0220,-0.0220,-0.0220,-0.0220,-0.0068,0.9504,0.8957,0.2955,0.3639,0.0415,-0.0073,1,1,1,1,1,1,1
14.1103,sweep,2,+up,-0.00591,0.64031,0.03185,0.00095,0.00401,0.02689,-0.00324,-0.0024,0.1783,-0.0024,-0.0220,-0.0220,-0.0220,-0.0220,-0.0068,0.9504,0.8957,0.2955,0.3639,0.0415,-0.0073,1,1,1,1,1,1,1
14.1505,sweep,2,+up,-0.00591,0.64031,0.03185,0.00095,0.00401,0.02689,-0.00324,-0.0024,0.1783,-0.0024,-0.0220,-0.0220,-0.0220,-0.0220,-0.0068,0.9504,0.8957,0.2955,0.3639,0.0415,-0.0073,1,1,1,1,1,1,1
14.1902,sweep,2,+up,-0.00629,0.66434,0.03147,0.00095,0.00401,0.02689,-0.00324,-0.0073,0.1929,-0.0024,-0.0073,0.0073,-0.0220,-0.0073,-0.0068,0.6769,0.9094,0.2906,0.3492,0.0415,-0.0024,1,1,1,1,1,1,1
14.2305,sweep,2,+up,-0.00629,0.66434,0.03147,0.00095,0.00401,0.02689,-0.00324,-0.0073,0.1929,-0.0024,-0.0073,0.0073,-0.0220,-0.0073,-0.0068,0.6769,0.9094,0.2906,0.3492,0.0415,-0.0024,1,1,1,1,1,1,1
14.2703,sweep,2,+up,-0.00591,0.67922,0.03185,0.00095,0.00401,0.02689,-0.00324,-0.0024,0.1636,-0.0024,-0.0073,-0.0073,-0.0073,-0.0073,-0.0068,0.6906,0.8547,0.2906,0.3492,0.0464,-0.0024,1,1,1,1,1,1,1
14.3102,sweep,2,+up,-0.00591,0.67922,0.03185,0.00095,0.00401,0.02689,-0.00324,-0.0024,0.1636,-0.0024,-0.0073,-0.0073,-0.0073,-0.0073,-0.0068,0.6906,0.8547,0.2906,0.3492,0.0464,-0.0024,1,1,1,1,1,1,1
14.3503,sweep,2,+up,-0.00591,0.67922,0.03185,0.00095,0.00401,0.02689,-0.00324,-0.0024,0.1636,-0.0024,-0.0073,-0.0073,-0.0073,-0.0073,-0.0068,0.6906,0.8547,0.2906,0.3492,0.0464,-0.0024,1,1,1,1,1,1,1
14.3905,sweep,2,+up,-0.00591,0.69867,0.03185,0.00095,0.00401,0.02689,-0.00362,-0.0024,0.1441,-0.0024,-0.0073,-0.0073,-0.0220,-0.0220,-0.0068,0.6359,0.8410,0.2906,0.3297,0.0464,-0.0073,1,1,1,1,1,1,1
14.4302,sweep,2,+up,-0.00591,0.69867,0.03185,0.00095,0.00401,0.02689,-0.00362,-0.0024,0.1441,-0.0024,-0.0073,-0.0073,-0.0220,-0.0220,-0.0068,0.6359,0.8410,0.2906,0.3297,0.0464,-0.0073,1,1,1,1,1,1,1
14.4703,sweep,2,+up,-0.00591,0.70973,0.03185,0.00095,0.00401,0.02689,-0.00324,-0.0024,0.1197,-0.0024,0.0073,-0.0073,-0.0220,-0.0073,-0.0068,0.5128,0.8547,0.2857,0.3297,0.0464,-0.0073,1,1,1,1,1,1,1
14.5100,sweep,2,+up,-0.00591,0.70973,0.03185,0.00095,0.00401,0.02689,-0.00324,-0.0024,0.1197,-0.0024,0.0073,-0.0073,-0.0220,-0.0073,-0.0068,0.5128,0.8547,0.2857,0.3297,0.0464,-0.0073,1,1,1,1,1,1,1
14.5501,sweep,2,+up,-0.00591,0.70973,0.03185,0.00095,0.00401,0.02689,-0.00324,-0.0024,0.1197,-0.0024,0.0073,-0.0073,-0.0220,-0.0073,-0.0068,0.5128,0.8547,0.2857,0.3297,0.0464,-0.0073,1,1,1,1,1,1,1
14.5901,sweep,2,+up,-0.00591,0.72461,0.03147,0.00095,0.00401,0.02689,-0.00324,-0.0024,0.1001,-0.0024,0.0073,-0.0073,-0.0073,-0.0073,0.0068,0.6222,0.8547,0.2808,0.3150,0.0562,-0.0073,1,1,1,1,1,1,1
14.6302,sweep,2,+up,-0.00591,0.72461,0.03147,0.00095,0.00401,0.02689,-0.00324,-0.0024,0.1001,-0.0024,0.0073,-0.0073,-0.0073,-0.0073,0.0068,0.6222,0.8547,0.2808,0.3150,0.0562,-0.0073,1,1,1,1,1,1,1
14.6704,sweep,2,+up,-0.00591,0.73339,0.03185,0.00095,0.00401,0.02689,-0.00324,-0.0024,0.1050,-0.0024,0.0073,-0.0073,-0.0220,-0.0073,0.0068,0.3624,0.8274,0.2808,0.3101,0.0513,-0.0073,1,1,1,1,1,1,1
14.7106,sweep,2,+up,-0.00591,0.73339,0.03185,0.00095,0.00401,0.02689,-0.00324,-0.0024,0.1050,-0.0024,0.0073,-0.0073,-0.0220,-0.0073,0.0068,0.3624,0.8274,0.2808,0.3101,0.0513,-0.0073,1,1,1,1,1,1,1
14.7505,sweep,2,+up,-0.00591,0.73339,0.03185,0.00095,0.00401,0.02689,-0.00324,-0.0024,0.1050,-0.0024,0.0073,-0.0073,-0.0220,-0.0073,0.0068,0.3624,0.8274,0.2808,0.3101,0.0513,-0.0073,1,1,1,1,1,1,1
14.7903,sweep,2,+up,-0.00591,0.74445,0.03185,0.00095,0.00401,0.02689,-0.00324,-0.0073,0.0757,-0.0024,-0.0073,0.0073,-0.0073,0.0073,-0.0205,0.5128,0.8684,0.2857,0.3004,0.0611,-0.0073,1,1,1,1,1,1,1
14.8301,sweep,2,+up,-0.00591,0.74445,0.03185,0.00095,0.00401,0.02689,-0.00324,-0.0073,0.0757,-0.0024,-0.0073,0.0073,-0.0073,0.0073,-0.0205,0.5128,0.8684,0.2857,0.3004,0.0611,-0.0073,1,1,1,1,1,1,1
14.8701,sweep,2,+up,-0.00591,0.75093,0.03185,0.00095,0.00401,0.02689,-0.00362,0.0024,0.0708,-0.0024,-0.0220,-0.0073,-0.0073,-0.0220,-0.0342,0.5949,0.9641,0.2906,0.3004,0.0611,-0.0073,1,1,1,1,1,1,1
14.9100,sweep,2,+up,-0.00591,0.75093,0.03185,0.00095,0.00401,0.02689,-0.00362,0.0024,0.0708,-0.0024,-0.0220,-0.0073,-0.0073,-0.0220,-0.0342,0.5949,0.9641,0.2906,0.3004,0.0611,-0.0073,1,1,1,1,1,1,1
14.9502,sweep,2,+up,-0.00591,0.75093,0.03185,0.00095,0.00401,0.02689,-0.00362,0.0024,0.0708,-0.0024,-0.0220,-0.0073,-0.0073,-0.0220,-0.0342,0.5949,0.9641,0.2906,0.3004,0.0611,-0.0073,1,1,1,1,1,1,1
14.9903,sweep,2,+up,-0.00591,0.75971,0.03185,0.00095,0.00401,0.02689,-0.00324,0.0024,0.0513,-0.0024,-0.0073,-0.0220,-0.0073,-0.0073,-0.0205,0.4034,0.9094,0.2906,0.2955,0.0659,-0.0122,1,1,1,1,1,1,1
15.0301,sweep,2,+up,-0.00591,0.75971,0.03185,0.00095,0.00401,0.02689,-0.00324,0.0024,0.0513,-0.0024,-0.0073,-0.0220,-0.0073,-0.0073,-0.0205,0.4034,0.9094,0.2906,0.2955,0.0659,-0.0122,1,1,1,1,1,1,1
15.0702,sweep,2,+up,-0.00591,0.76429,0.03185,0.00095,0.00401,0.02689,-0.00324,-0.0024,0.0464,0.0024,-0.0073,-0.0220,-0.0220,-0.0073,-0.0205,0.7316,0.8684,0.2662,0.2808,0.0611,-0.0122,1,1,1,1,1,1,1
15.1104,sweep,2,+up,-0.00591,0.76429,0.03185,0.00095,0.00401,0.02689,-0.00324,-0.0024,0.0464,0.0024,-0.0073,-0.0220,-0.0220,-0.0073,-0.0205,0.7316,0.8684,0.2662,0.2808,0.0611,-0.0122,1,1,1,1,1,1,1
15.1503,sweep,2,+up,-0.00591,0.76429,0.03185,0.00095,0.00401,0.02689,-0.00324,-0.0024,0.0464,0.0024,-0.0073,-0.0220,-0.0220,-0.0073,-0.0205,0.7316,0.8684,0.2662,0.2808,0.0611,-0.0122,1,1,1,1,1,1,1
15.1902,sweep,2,+up,-0.00591,0.77001,0.03185,0.00172,0.00439,0.02689,-0.00362,-0.0024,0.0366,0.0024,-0.0073,0.0073,-0.0073,-0.0220,-0.0205,1.7846,0.8274,0.2173,0.2466,0.0611,-0.0122,1,1,1,1,1,1,1
15.2302,sweep,2,+up,-0.00591,0.77001,0.03185,0.00172,0.00439,0.02689,-0.00362,-0.0024,0.0366,0.0024,-0.0073,0.0073,-0.0073,-0.0220,-0.0205,1.7846,0.8274,0.2173,0.2466,0.0611,-0.0122,1,1,1,1,1,1,1
15.2701,sweep,2,+up,-0.00591,0.77382,0.03185,0.00210,0.00515,0.02689,-0.00362,-0.0024,0.0464,0.0024,-0.0073,0.0073,0.0073,-0.0073,-0.0342,1.9077,0.7863,0.1587,0.1636,0.0659,-0.0122,1,1,1,1,1,1,1
15.3102,sweep,2,+up,-0.00591,0.77382,0.03185,0.00210,0.00515,0.02689,-0.00362,-0.0024,0.0464,0.0024,-0.0073,0.0073,0.0073,-0.0073,-0.0342,1.9077,0.7863,0.1587,0.1636,0.0659,-0.0122,1,1,1,1,1,1,1
15.3502,sweep,2,+up,-0.00591,0.77382,0.03185,0.00210,0.00515,0.02689,-0.00362,-0.0024,0.0464,0.0024,-0.0073,0.0073,0.0073,-0.0073,-0.0342,1.9077,0.7863,0.1587,0.1636,0.0659,-0.0122,1,1,1,1,1,1,1
15.3901,sweep,2,+up,-0.00591,0.77840,0.03185,0.00248,0.00591,0.02689,-0.00362,-0.0073,0.0366,-0.0024,0.0073,-0.0073,-0.0073,-0.0073,-0.0205,2.3727,0.7453,0.0708,0.0659,0.0708,-0.0073,1,1,1,1,1,1,1
15.4303,sweep,2,+up,-0.00591,0.77840,0.03185,0.00248,0.00591,0.02689,-0.00362,-0.0073,0.0366,-0.0024,0.0073,-0.0073,-0.0073,-0.0073,-0.0205,2.3727,0.7453,0.0708,0.0659,0.0708,-0.0073,1,1,1,1,1,1,1
15.4703,sweep,2,+up,-0.00591,0.78145,0.03185,0.00401,0.00553,0.02689,-0.00324,-0.0024,0.0269,-0.0024,-0.0073,-0.0073,-0.0073,0.0073,-0.0068,2.7419,0.7590,-0.0024,0.0415,0.0708,-0.0073,1,1,1,1,1,1,1
15.5102,sweep,2,+up,-0.00591,0.78145,0.03185,0.00401,0.00553,0.02689,-0.00324,-0.0024,0.0269,-0.0024,-0.0073,-0.0073,-0.0073,0.0073,-0.0068,2.7419,0.7590,-0.0024,0.0415,0.0708,-0.0073,1,1,1,1,1,1,1
15.5501,sweep,2,+up,-0.00591,0.78145,0.03185,0.00401,0.00553,0.02689,-0.00324,-0.0024,0.0269,-0.0024,-0.0073,-0.0073,-0.0073,0.0073,-0.0068,2.7419,0.7590,-0.0024,0.0415,0.0708,-0.0073,1,1,1,1,1,1,1
15.5905,sweep,2,+up,-0.00591,0.78527,0.03185,0.00401,0.00553,0.02689,-0.00324,-0.0024,0.0269,-0.0024,-0.0073,-0.0073,-0.0073,0.0073,-0.0205,2.5641,0.7316,-0.0611,0.0122,0.0806,-0.0073,1,1,1,1,1,1,1
15.6302,sweep,2,+up,-0.00591,0.78527,0.03185,0.00401,0.00553,0.02689,-0.00324,-0.0024,0.0269,-0.0024,-0.0073,-0.0073,-0.0073,0.0073,-0.0205,2.5641,0.7316,-0.0611,0.0122,0.0806,-0.0073,1,1,1,1,1,1,1
15.6703,sweep,2,+up,-0.00591,0.78756,0.03185,0.00362,0.00553,0.02689,-0.00324,0.0024,0.0024,0.0024,-0.0220,-0.0073,-0.0073,-0.0073,-0.0068,2.9607,0.7453,-0.1197,-0.0122,0.0855,-0.0073,1,1,1,1,1,1,1
15.7102,sweep,2,+up,-0.00591,0.78756,0.03185,0.00362,0.00553,0.02689,-0.00324,0.0024,0.0024,0.0024,-0.0220,-0.0073,-0.0073,-0.0073,-0.0068,2.9607,0.7453,-0.1197,-0.0122,0.0855,-0.0073,1,1,1,1,1,1,1
15.7502,sweep,2,+up,-0.00591,0.78756,0.03185,0.00362,0.00553,0.02689,-0.00324,0.0024,0.0024,0.0024,-0.0220,-0.0073,-0.0073,-0.0073,-0.0068,2.9607,0.7453,-0.1197,-0.0122,0.0855,-0.0073,1,1,1,1,1,1,1
15.7902,sweep,2,+up,-0.00591,0.79023,0.03185,0.00286,0.00515,0.02728,-0.00324,-0.0024,0.0220,-0.0024,-0.0220,-0.0073,-0.0073,-0.0073,-0.0205,3.1248,0.6769,-0.1880,-0.0317,0.0855,-0.0073,1,1,1,1,1,1,1
16.2930,sweep,2,-down,-0.00591,0.79137,0.03185,0.00248,0.00515,0.02689,-0.00324,-0.0073,0.0122,-0.0024,-0.0220,-0.0073,-0.0073,-0.0073,-0.0342,2.8650,0.6632,-0.1832,-0.0366,0.0855,-0.0073,1,1,1,1,1,1,1
16.3329,sweep,2,-down,-0.00591,0.79137,0.03185,0.00248,0.00515,0.02689,-0.00324,-0.0073,0.0122,-0.0024,-0.0220,-0.0073,-0.0073,-0.0073,-0.0342,2.8650,0.6632,-0.1832,-0.0366,0.0855,-0.0073,1,1,1,1,1,1,1
16.3730,sweep,2,-down,-0.00591,0.79404,0.03185,-0.00019,0.00439,0.02689,-0.00362,-0.0024,-0.2076,-0.0073,-0.0659,0.0073,-0.0220,-0.0073,0.0068,1.2923,0.5675,-0.1197,-0.0904,0.0855,-0.0024,1,1,1,1,1,1,1
16.4131,sweep,2,-down,-0.00591,0.79404,0.03185,-0.00019,0.00439,0.02689,-0.00362,-0.0024,-0.2076,-0.0073,-0.0659,0.0073,-0.0220,-0.0073,0.0068,1.2923,0.5675,-0.1197,-0.0904,0.0855,-0.0024,1,1,1,1,1,1,1
16.4532,sweep,2,-down,-0.00591,0.79404,0.03185,-0.00019,0.00439,0.02689,-0.00362,-0.0024,-0.2076,-0.0073,-0.0659,0.0073,-0.0220,-0.0073,0.0068,1.2923,0.5675,-0.1197,-0.0904,0.0855,-0.0024,1,1,1,1,1,1,1
16.4926,sweep,2,-down,-0.00591,0.77077,0.03185,-0.00210,0.00362,0.02689,-0.00324,-0.0024,-0.1783,-0.0024,0.0073,-0.0220,0.0073,-0.0073,-0.0068,0.3214,0.6085,-0.0220,-0.0757,0.0904,-0.0073,1,1,1,1,1,1,1
16.5330,sweep,2,-down,-0.00591,0.77077,0.03185,-0.00210,0.00362,0.02689,-0.00324,-0.0024,-0.1783,-0.0024,0.0073,-0.0220,0.0073,-0.0073,-0.0068,0.3214,0.6085,-0.0220,-0.0757,0.0904,-0.0073,1,1,1,1,1,1,1
16.5729,sweep,2,-down,-0.00591,0.75628,0.03185,-0.00210,0.00134,0.02689,-0.00324,-0.0024,-0.2222,-0.0073,-0.0073,-0.0073,-0.0220,-0.0073,0.0068,-0.5538,0.6085,0.0220,0.0122,0.0904,-0.0024,1,1,1,1,1,1,1
16.6128,sweep,2,-down,-0.00591,0.75628,0.03185,-0.00210,0.00134,0.02689,-0.00324,-0.0024,-0.2222,-0.0073,-0.0073,-0.0073,-0.0220,-0.0073,0.0068,-0.5538,0.6085,0.0220,0.0122,0.0904,-0.0024,1,1,1,1,1,1,1
16.6532,sweep,2,-down,-0.00591,0.75628,0.03185,-0.00210,0.00134,0.02689,-0.00324,-0.0024,-0.2222,-0.0073,-0.0073,-0.0073,-0.0220,-0.0073,0.0068,-0.5538,0.6085,0.0220,0.0122,0.0904,-0.0024,1,1,1,1,1,1,1
16.6930,sweep,2,-down,-0.00591,0.73224,0.03185,-0.00210,0.00134,0.02728,-0.00362,-0.0024,-0.1880,-0.0024,-0.0073,-0.0073,-0.0073,-0.0073,-0.0068,-0.6085,0.6085,0.0757,0.0513,0.0855,-0.0024,1,1,1,1,1,1,1
16.7328,sweep,2,-down,-0.00591,0.73224,0.03185,-0.00210,0.00134,0.02728,-0.00362,-0.0024,-0.1880,-0.0024,-0.0073,-0.0073,-0.0073,-0.0073,-0.0068,-0.6085,0.6085,0.0757,0.0513,0.0855,-0.0024,1,1,1,1,1,1,1
16.7730,sweep,2,-down,-0.00591,0.71584,0.03185,-0.00172,0.00172,0.02728,-0.00324,0.0024,-0.2222,-0.0073,0.0073,-0.0073,0.0073,0.0073,-0.0068,-0.0889,0.5812,0.1294,0.0806,0.0855,-0.0073,1,1,1,1,1,1,1
16.8128,sweep,2,-down,-0.00591,0.71584,0.03185,-0.00172,0.00172,0.02728,-0.00324,0.0024,-0.2222,-0.0073,0.0073,-0.0073,0.0073,0.0073,-0.0068,-0.0889,0.5812,0.1294,0.0806,0.0855,-0.0073,1,1,1,1,1,1,1
16.8528,sweep,2,-down,-0.00591,0.71584,0.03185,-0.00172,0.00172,0.02728,-0.00324,0.0024,-0.2222,-0.0073,0.0073,-0.0073,0.0073,0.0073,-0.0068,-0.0889,0.5812,0.1294,0.0806,0.0855,-0.0073,1,1,1,1,1,1,1
16.8927,sweep,2,-down,-0.00591,0.69219,0.03185,-0.00172,0.00172,0.02728,-0.00362,-0.0024,-0.2027,-0.0024,-0.0073,-0.0073,-0.0366,-0.0220,-0.0068,-0.4308,0.5949,0.2027,0.1538,0.0806,-0.0073,1,1,1,1,1,1,1
16.9332,sweep,2,-down,-0.00591,0.69219,0.03185,-0.00172,0.00172,0.02728,-0.00362,-0.0024,-0.2027,-0.0024,-0.0073,-0.0073,-0.0366,-0.0220,-0.0068,-0.4308,0.5949,0.2027,0.1538,0.0806,-0.0073,1,1,1,1,1,1,1
16.9728,sweep,2,-down,-0.00591,0.67578,0.03185,-0.00134,0.00210,0.02728,-0.00324,-0.0073,-0.2222,-0.0024,0.0073,0.0073,0.0073,-0.0073,0.0068,-0.1162,0.6085,0.2564,0.2076,0.0806,-0.0122,1,1,1,1,1,1,1
17.0129,sweep,2,-down,-0.00591,0.67578,0.03185,-0.00134,0.00210,0.02728,-0.00324,-0.0073,-0.2222,-0.0024,0.0073,0.0073,0.0073,-0.0073,0.0068,-0.1162,0.6085,0.2564,0.2076,0.0806,-0.0122,1,1,1,1,1,1,1
17.0528,sweep,2,-down,-0.00591,0.67578,0.03185,-0.00134,0.00210,0.02728,-0.00324,-0.0073,-0.2222,-0.0024,0.0073,0.0073,0.0073,-0.0073,0.0068,-0.1162,0.6085,0.2564,0.2076,0.0806,-0.0122,1,1,1,1,1,1,1
17.0928,sweep,2,-down,-0.00591,0.65213,0.03185,-0.00095,0.00210,0.02728,-0.00324,-0.0024,-0.2027,-0.0024,-0.0073,0.0073,-0.0073,-0.0073,0.0068,-0.2803,0.5675,0.3053,0.2711,0.0806,-0.0024,1,1,1,1,1,1,1
17.1330,sweep,2,-down,-0.00591,0.65213,0.03185,-0.00095,0.00210,0.02728,-0.00324,-0.0024,-0.2027,-0.0024,-0.0073,0.0073,-0.0073,-0.0073,0.0068,-0.2803,0.5675,0.3053,0.2711,0.0806,-0.0024,1,1,1,1,1,1,1
17.1729,sweep,2,-down,-0.00629,0.63535,0.03185,-0.00057,0.00248,0.02728,-0.00324,-0.0024,-0.2076,-0.0024,-0.0073,0.0073,-0.0073,0.0073,0.0068,0.0068,0.5675,0.3297,0.3053,0.0757,0.0024,1,1,1,1,1,1,1
17.2129,sweep,2,-down,-0.00629,0.63535,0.03185,-0.00057,0.00248,0.02728,-0.00324,-0.0024,-0.2076,-0.0024,-0.0073,0.0073,-0.0073,0.0073,0.0068,0.0068,0.5675,0.3297,0.3053,0.0757,0.0024,1,1,1,1,1,1,1
17.2527,sweep,2,-down,-0.00629,0.63535,0.03185,-0.00057,0.00248,0.02728,-0.00324,-0.0024,-0.2076,-0.0024,-0.0073,0.0073,-0.0073,0.0073,0.0068,0.0068,0.5675,0.3297,0.3053,0.0757,0.0024,1,1,1,1,1,1,1
17.2927,sweep,2,-down,-0.00591,0.61170,0.03185,-0.00019,0.00286,0.02728,-0.00324,0.0024,-0.2125,-0.0024,0.0073,-0.0220,-0.0073,0.0073,0.0068,-0.0615,0.5949,0.3346,0.3492,0.0659,-0.0024,1,1,1,1,1,1,1
17.3325,sweep,2,-down,-0.00591,0.61170,0.03185,-0.00019,0.00286,0.02728,-0.00324,0.0024,-0.2125,-0.0024,0.0073,-0.0220,-0.0073,0.0073,0.0068,-0.0615,0.5949,0.3346,0.3492,0.0659,-0.0024,1,1,1,1,1,1,1
17.3729,sweep,2,-down,-0.00591,0.59529,0.03185,0.00019,0.00286,0.02728,-0.00324,0.0024,-0.1880,-0.0024,-0.0073,0.0073,0.0073,-0.0073,0.0068,0.0205,0.5949,0.3346,0.3736,0.0659,-0.0024,1,1,1,1,1,1,1
17.4129,sweep,2,-down,-0.00591,0.59529,0.03185,0.00019,0.00286,0.02728,-0.00324,0.0024,-0.1880,-0.0024,-0.0073,0.0073,0.0073,-0.0073,0.0068,0.0205,0.5949,0.3346,0.3736,0.0659,-0.0024,1,1,1,1,1,1,1
17.4528,sweep,2,-down,-0.00591,0.59529,0.03185,0.00019,0.00286,0.02728,-0.00324,0.0024,-0.1880,-0.0024,-0.0073,0.0073,0.0073,-0.0073,0.0068,0.0205,0.5949,0.3346,0.3736,0.0659,-0.0024,1,1,1,1,1,1,1
17.4929,sweep,2,-down,-0.00591,0.57126,0.03185,0.00057,0.00324,0.02728,-0.00324,-0.0024,-0.2222,-0.0024,-0.0073,-0.0073,-0.0073,0.0073,0.0205,0.1026,0.5675,0.3346,0.3932,0.0611,-0.0024,1,1,1,1,1,1,1
17.5325,sweep,2,-down,-0.00591,0.57126,0.03185,0.00057,0.00324,0.02728,-0.00324,-0.0024,-0.2222,-0.0024,-0.0073,-0.0073,-0.0073,0.0073,0.0205,0.1026,0.5675,0.3346,0.3932,0.0611,-0.0024,1,1,1,1,1,1,1
17.5730,sweep,2,-down,-0.00591,0.55486,0.03185,0.00057,0.00362,0.02728,-0.00324,-0.0024,-0.2027,-0.0024,0.0073,0.0073,-0.0073,-0.0220,0.0205,0.1026,0.5402,0.3346,0.3834,0.0611,-0.0024,1,1,1,1,1,1,1
17.6132,sweep,2,-down,-0.00591,0.55486,0.03185,0.00057,0.00362,0.02728,-0.00324,-0.0024,-0.2027,-0.0024,0.0073,0.0073,-0.0073,-0.0220,0.0205,0.1026,0.5402,0.3346,0.3834,0.0611,-0.0024,1,1,1,1,1,1,1
17.6528,sweep,2,-down,-0.00591,0.55486,0.03185,0.00057,0.00362,0.02728,-0.00324,-0.0024,-0.2027,-0.0024,0.0073,0.0073,-0.0073,-0.0220,0.0205,0.1026,0.5402,0.3346,0.3834,0.0611,-0.0024,1,1,1,1,1,1,1
17.6927,sweep,2,-down,-0.00591,0.53082,0.03185,0.00057,0.00362,0.02728,-0.00362,-0.0024,-0.2076,-0.0024,-0.0073,-0.0220,0.0073,-0.0073,0.0205,0.2120,0.5265,0.3297,0.3932,0.0562,-0.0073,1,1,1,1,1,1,1
17.7328,sweep,2,-down,-0.00591,0.53082,0.03185,0.00057,0.00362,0.02728,-0.00362,-0.0024,-0.2076,-0.0024,-0.0073,-0.0220,0.0073,-0.0073,0.0205,0.2120,0.5265,0.3297,0.3932,0.0562,-0.0073,1,1,1,1,1,1,1
17.7729,sweep,2,-down,-0.00591,0.51480,0.03185,0.00057,0.00362,0.02728,-0.00324,-0.0024,-0.2027,-0.0024,0.0073,0.0073,-0.0073,-0.0073,0.0068,0.2256,0.5265,0.3248,0.3883,0.0513,-0.0073,1,1,1,1,1,1,1
17.8127,sweep,2,-down,-0.00591,0.51480,0.03185,0.00057,0.00362,0.02728,-0.00324,-0.0024,-0.2027,-0.0024,0.0073,0.0073,-0.0073,-0.0073,0.0068,0.2256,0.5265,0.3248,0.3883,0.0513,-0.0073,1,1,1,1,1,1,1
17.8528,sweep,2,-down,-0.00591,0.51480,0.03185,0.00057,0.00362,0.02728,-0.00324,-0.0024,-0.2027,-0.0024,0.0073,0.0073,-0.0073,-0.0073,0.0068,0.2256,0.5265,0.3248,0.3883,0.0513,-0.0073,1,1,1,1,1,1,1
17.8928,sweep,2,-down,-0.00591,0.49077,0.03147,0.00057,0.00362,0.02728,-0.00324,-0.0024,-0.1783,-0.0024,0.0073,0.0073,0.0073,-0.0220,0.0205,0.2940,0.4991,0.3346,0.3980,0.0513,-0.0073,1,1,1,1,1,1,1
17.9328,sweep,2,-down,-0.00591,0.49077,0.03147,0.00057,0.00362,0.02728,-0.00324,-0.0024,-0.1783,-0.0024,0.0073,0.0073,0.0073,-0.0220,0.0205,0.2940,0.4991,0.3346,0.3980,0.0513,-0.0073,1,1,1,1,1,1,1
17.9728,sweep,2,-down,-0.00591,0.47475,0.03185,0.00057,0.00362,0.02728,-0.00324,-0.0073,-0.2125,0.0024,-0.0220,-0.0220,0.0073,-0.0073,0.0068,0.2940,0.4991,0.3346,0.3980,0.0464,-0.0122,1,1,1,1,1,1,1
18.0129,sweep,2,-down,-0.00591,0.47475,0.03185,0.00057,0.00362,0.02728,-0.00324,-0.0073,-0.2125,0.0024,-0.0220,-0.0220,0.0073,-0.0073,0.0068,0.2940,0.4991,0.3346,0.3980,0.0464,-0.0122,1,1,1,1,1,1,1
18.0530,sweep,2,-down,-0.00591,0.47475,0.03185,0.00057,0.00362,0.02728,-0.00324,-0.0073,-0.2125,0.0024,-0.0220,-0.0220,0.0073,-0.0073,0.0068,0.2940,0.4991,0.3346,0.3980,0.0464,-0.0122,1,1,1,1,1,1,1
18.0928,sweep,2,-down,-0.00591,0.45071,0.03147,0.00057,0.00362,0.02728,-0.00324,-0.0073,-0.1978,-0.0024,-0.0220,-0.0073,-0.0220,-0.0073,0.0205,0.2940,0.4855,0.3297,0.3932,0.0415,-0.0073,1,1,1,1,1,1,1
18.1327,sweep,2,-down,-0.00591,0.45071,0.03147,0.00057,0.00362,0.02728,-0.00324,-0.0073,-0.1978,-0.0024,-0.0220,-0.0073,-0.0220,-0.0073,0.0205,0.2940,0.4855,0.3297,0.3932,0.0415,-0.0073,1,1,1,1,1,1,1
18.1726,sweep,2,-down,-0.00591,0.43469,0.03147,0.00057,0.00362,0.02728,-0.00362,0.0024,-0.2173,-0.0073,-0.0073,-0.0220,0.0073,0.0073,0.0205,0.5402,0.4718,0.3346,0.4127,0.0415,-0.0122,1,1,1,1,1,1,1
18.2128,sweep,2,-down,-0.00591,0.43469,0.03147,0.00057,0.00362,0.02728,-0.00362,0.0024,-0.2173,-0.0073,-0.0073,-0.0220,0.0073,0.0073,0.0205,0.5402,0.4718,0.3346,0.4127,0.0415,-0.0122,1,1,1,1,1,1,1
18.2530,sweep,2,-down,-0.00591,0.43469,0.03147,0.00057,0.00362,0.02728,-0.00362,0.0024,-0.2173,-0.0073,-0.0073,-0.0220,0.0073,0.0073,0.0205,0.5402,0.4718,0.3346,0.4127,0.0415,-0.0122,1,1,1,1,1,1,1
18.2929,sweep,2,-down,-0.00591,0.41066,0.03147,0.00095,0.00362,0.02728,-0.00362,-0.0024,-0.1929,-0.0024,-0.0073,-0.0073,-0.0073,0.0073,0.0205,0.4444,0.4444,0.3443,0.3980,0.0366,-0.0122,1,1,1,1,1,1,1
18.3327,sweep,2,-down,-0.00591,0.41066,0.03147,0.00095,0.00362,0.02728,-0.00362,-0.0024,-0.1929,-0.0024,-0.0073,-0.0073,-0.0073,0.0073,0.0205,0.4444,0.4444,0.3443,0.3980,0.0366,-0.0122,1,1,1,1,1,1,1
18.3728,sweep,2,-down,-0.00591,0.39425,0.03147,0.00095,0.00362,0.02728,-0.00362,-0.0024,-0.2076,-0.0024,-0.0220,-0.0073,-0.0220,-0.0073,0.0205,0.6632,0.4718,0.3346,0.4127,0.0366,-0.0171,1,1,1,1,1,1,1
18.4128,sweep,2,-down,-0.00591,0.39425,0.03147,0.00095,0.00362,0.02728,-0.00362,-0.0024,-0.2076,-0.0024,-0.0220,-0.0073,-0.0220,-0.0073,0.0205,0.6632,0.4718,0.3346,0.4127,0.0366,-0.0171,1,1,1,1,1,1,1
18.4529,sweep,2,-down,-0.00591,0.39425,0.03147,0.00095,0.00362,0.02728,-0.00362,-0.0024,-0.2076,-0.0024,-0.0220,-0.0073,-0.0220,-0.0073,0.0205,0.6632,0.4718,0.3346,0.4127,0.0366,-0.0171,1,1,1,1,1,1,1
18.4930,sweep,2,-down,-0.00591,0.37060,0.03185,0.00095,0.00362,0.02728,-0.00362,-0.0024,-0.2027,-0.0024,0.0073,-0.0073,-0.0220,-0.0073,0.0205,0.5265,0.5128,0.3394,0.4176,0.0366,-0.0171,1,1,1,1,1,1,1
18.5331,sweep,2,-down,-0.00591,0.37060,0.03185,0.00095,0.00362,0.02728,-0.00362,-0.0024,-0.2027,-0.0024,0.0073,-0.0073,-0.0220,-0.0073,0.0205,0.5265,0.5128,0.3394,0.4176,0.0366,-0.0171,1,1,1,1,1,1,1
18.5728,sweep,2,-down,-0.00591,0.35420,0.03147,0.00095,0.00362,0.02728,-0.00362,-0.0024,-0.2076,-0.0024,0.0073,-0.0073,-0.0073,-0.0220,0.0068,0.8000,0.5265,0.3346,0.4176,0.0317,-0.0220,1,1,1,1,1,1,1
18.6130,sweep,2,-down,-0.00591,0.35420,0.03147,0.00095,0.00362,0.02728,-0.00362,-0.0024,-0.2076,-0.0024,0.0073,-0.0073,-0.0073,-0.0220,0.0068,0.8000,0.5265,0.3346,0.4176,0.0317,-0.0220,1,1,1,1,1,1,1
18.6530,sweep,2,-down,-0.00591,0.35420,0.03147,0.00095,0.00362,0.02728,-0.00362,-0.0024,-0.2076,-0.0024,0.0073,-0.0073,-0.0073,-0.0220,0.0068,0.8000,0.5265,0.3346,0.4176,0.0317,-0.0220,1,1,1,1,1,1,1
18.6927,sweep,2,-down,-0.00591,0.33017,0.03147,0.00095,0.00362,0.02728,-0.00324,-0.0024,-0.2173,-0.0024,-0.0220,-0.0073,-0.0073,-0.0220,0.0068,0.8000,0.5538,0.3394,0.4322,0.0269,-0.0220,1,1,1,1,1,1,1
18.7328,sweep,2,-down,-0.00591,0.33017,0.03147,0.00095,0.00362,0.02728,-0.00324,-0.0024,-0.2173,-0.0024,-0.0220,-0.0073,-0.0073,-0.0220,0.0068,0.8000,0.5538,0.3394,0.4322,0.0269,-0.0220,1,1,1,1,1,1,1
18.7729,sweep,2,-down,-0.00591,0.31415,0.03185,0.00095,0.00362,0.02728,-0.00362,-0.0073,-0.1929,-0.0024,-0.0073,0.0073,-0.0073,0.0073,0.0068,0.7590,0.5402,0.3346,0.4225,0.0220,-0.0171,1,1,1,1,1,1,1
18.8126,sweep,2,-down,-0.00591,0.31415,0.03185,0.00095,0.00362,0.02728,-0.00362,-0.0073,-0.1929,-0.0024,-0.0073,0.0073,-0.0073,0.0073,0.0068,0.7590,0.5402,0.3346,0.4225,0.0220,-0.0171,1,1,1,1,1,1,1
18.8528,sweep,2,-down,-0.00591,0.31415,0.03185,0.00095,0.00362,0.02728,-0.00362,-0.0073,-0.1929,-0.0024,-0.0073,0.0073,-0.0073,0.0073,0.0068,0.7590,0.5402,0.3346,0.4225,0.0220,-0.0171,1,1,1,1,1,1,1
18.8927,sweep,2,-down,-0.00591,0.29011,0.03185,0.00057,0.00362,0.02728,-0.00324,-0.0024,-0.2125,0.0024,-0.0220,0.0073,0.0073,-0.0073,-0.0205,0.8137,0.5949,0.3346,0.4420,0.0220,-0.0220,1,1,1,1,1,1,1
18.9327,sweep,2,-down,-0.00591,0.29011,0.03185,0.00057,0.00362,0.02728,-0.00324,-0.0024,-0.2125,0.0024,-0.0220,0.0073,0.0073,-0.0073,-0.0205,0.8137,0.5949,0.3346,0.4420,0.0220,-0.0220,1,1,1,1,1,1,1
18.9727,sweep,2,-down,-0.00591,0.27447,0.03185,0.00095,0.00401,0.02728,-0.00324,-0.0024,-0.1880,-0.0024,0.0073,-0.0073,-0.0220,-0.0073,-0.0068,0.8137,0.5812,0.3443,0.4371,0.0171,-0.0171,1,1,1,1,1,1,1
19.0127,sweep,2,-down,-0.00591,0.27447,0.03185,0.00095,0.00401,0.02728,-0.00324,-0.0024,-0.1880,-0.0024,0.0073,-0.0073,-0.0220,-0.0073,-0.0068,0.8137,0.5812,0.3443,0.4371,0.0171,-0.0171,1,1,1,1,1,1,1
19.0528,sweep,2,-down,-0.00591,0.27447,0.03185,0.00095,0.00401,0.02728,-0.00324,-0.0024,-0.1880,-0.0024,0.0073,-0.0073,-0.0220,-0.0073,-0.0068,0.8137,0.5812,0.3443,0.4371,0.0171,-0.0171,1,1,1,1,1,1,1
19.0928,sweep,2,-down,-0.00591,0.25082,0.03147,0.00095,0.00362,0.02728,-0.00362,0.0024,-0.1978,-0.0073,-0.0073,-0.0073,-0.0220,-0.0073,-0.0068,1.1009,0.5812,0.3443,0.4420,0.0122,-0.0122,1,1,1,1,1,1,1
19.1326,sweep,2,-down,-0.00591,0.25082,0.03147,0.00095,0.00362,0.02728,-0.00362,0.0024,-0.1978,-0.0073,-0.0073,-0.0073,-0.0220,-0.0073,-0.0068,1.1009,0.5812,0.3443,0.4420,0.0122,-0.0122,1,1,1,1,1,1,1
19.1730,sweep,2,-down,-0.00591,0.23747,0.03185,0.00095,0.00401,0.02728,-0.00362,-0.0024,-0.1685,-0.0024,0.0073,-0.0073,-0.0366,-0.0073,0.0068,1.1282,0.5538,0.3443,0.4469,0.0073,-0.0122,1,1,1,1,1,1,1
19.2128,sweep,2,-down,-0.00591,0.23747,0.03185,0.00095,0.00401,0.02728,-0.00362,-0.0024,-0.1685,-0.0024,0.0073,-0.0073,-0.0366,-0.0073,0.0068,1.1282,0.5538,0.3443,0.4469,0.0073,-0.0122,1,1,1,1,1,1,1
19.2526,sweep,2,-down,-0.00591,0.23747,0.03185,0.00095,0.00401,0.02728,-0.00362,-0.0024,-0.1685,-0.0024,0.0073,-0.0073,-0.0366,-0.0073,0.0068,1.1282,0.5538,0.3443,0.4469,0.0073,-0.0122,1,1,1,1,1,1,1
19.2927,sweep,2,-down,-0.00591,0.21992,0.03147,0.00095,0.00362,0.02728,-0.00362,-0.0024,-0.1490,-0.0024,-0.0366,-0.0073,-0.0220,0.0073,0.0068,1.1009,0.5402,0.3443,0.4615,0.0024,-0.0122,1,1,1,1,1,1,1
19.3328,sweep,2,-down,-0.00591,0.21992,0.03147,0.00095,0.00362,0.02728,-0.00362,-0.0024,-0.1490,-0.0024,-0.0366,-0.0073,-0.0220,0.0073,0.0068,1.1009,0.5402,0.3443,0.4615,0.0024,-0.0122,1,1,1,1,1,1,1
19.3727,sweep,2,-down,-0.00591,0.20962,0.03147,0.00095,0.00362,0.02728,-0.00324,-0.0024,-0.1148,-0.0024,-0.0073,-0.0220,-0.0073,-0.0073,-0.0068,0.7863,0.5538,0.3394,0.4567,0.0073,-0.0122,1,1,1,1,1,1,1
19.4128,sweep,2,-down,-0.00591,0.20962,0.03147,0.00095,0.00362,0.02728,-0.00324,-0.0024,-0.1148,-0.0024,-0.0073,-0.0220,-0.0073,-0.0073,-0.0068,0.7863,0.5538,0.3394,0.4567,0.0073,-0.0122,1,1,1,1,1,1,1
19.4527,sweep,2,-down,-0.00591,0.20962,0.03147,0.00095,0.00362,0.02728,-0.00324,-0.0024,-0.1148,-0.0024,-0.0073,-0.0220,-0.0073,-0.0073,-0.0068,0.7863,0.5538,0.3394,0.4567,0.0073,-0.0122,1,1,1,1,1,1,1
19.4928,sweep,2,-down,-0.00591,0.19589,0.03185,0.00095,0.00362,0.02728,-0.00324,0.0024,-0.1197,-0.0024,-0.0073,-0.0073,0.0073,-0.0073,0.0068,0.9778,0.6222,0.3394,0.4567,-0.0024,-0.0073,1,1,1,1,1,1,1
19.5327,sweep,2,-down,-0.00591,0.19589,0.03185,0.00095,0.00362,0.02728,-0.00324,0.0024,-0.1197,-0.0024,-0.0073,-0.0073,0.0073,-0.0073,0.0068,0.9778,0.6222,0.3394,0.4567,-0.0024,-0.0073,1,1,1,1,1,1,1
19.5730,sweep,2,-down,-0.00591,0.18826,0.03147,0.00095,0.00362,0.02728,-0.00362,0.0024,-0.0952,-0.0024,-0.0220,-0.0220,-0.0073,0.0073,-0.0068,1.0188,0.6222,0.3248,0.4567,-0.0024,-0.0122,1,1,1,1,1,1,1
19.6130,sweep,2,-down,-0.00591,0.18826,0.03147,0.00095,0.00362,0.02728,-0.00362,0.0024,-0.0952,-0.0024,-0.0220,-0.0220,-0.0073,0.0073,-0.0068,1.0188,0.6222,0.3248,0.4567,-0.0024,-0.0122,1,1,1,1,1,1,1
19.6528,sweep,2,-down,-0.00591,0.18826,0.03147,0.00095,0.00362,0.02728,-0.00362,0.0024,-0.0952,-0.0024,-0.0220,-0.0220,-0.0073,0.0073,-0.0068,1.0188,0.6222,0.3248,0.4567,-0.0024,-0.0122,1,1,1,1,1,1,1
19.6927,sweep,2,-down,-0.00591,0.17758,0.03147,0.00095,0.00362,0.02689,-0.00362,0.0024,-0.0708,-0.0073,-0.0220,0.0073,-0.0220,0.0073,0.0068,1.0872,0.5949,0.3101,0.4615,-0.0024,-0.0122,1,1,1,1,1,1,1
19.7327,sweep,2,-down,-0.00591,0.17758,0.03147,0.00095,0.00362,0.02689,-0.00362,0.0024,-0.0708,-0.0073,-0.0220,0.0073,-0.0220,0.0073,0.0068,1.0872,0.5949,0.3101,0.4615,-0.0024,-0.0122,1,1,1,1,1,1,1
19.7728,sweep,2,-down,-0.00591,0.17147,0.03147,0.00095,0.00401,0.02728,-0.00324,0.0024,-0.0855,-0.0024,-0.0073,0.0073,-0.0073,-0.0073,-0.0068,1.2376,0.5949,0.3150,0.4664,-0.0024,-0.0073,1,1,1,1,1,1,1
19.8127,sweep,2,-down,-0.00591,0.17147,0.03147,0.00095,0.00401,0.02728,-0.00324,0.0024,-0.0855,-0.0024,-0.0073,0.0073,-0.0073,-0.0073,-0.0068,1.2376,0.5949,0.3150,0.4664,-0.0024,-0.0073,1,1,1,1,1,1,1
19.8527,sweep,2,-down,-0.00591,0.17147,0.03147,0.00095,0.00401,0.02728,-0.00324,0.0024,-0.0855,-0.0024,-0.0073,0.0073,-0.0073,-0.0073,-0.0068,1.2376,0.5949,0.3150,0.4664,-0.0024,-0.0073,1,1,1,1,1,1,1
19.8928,sweep,2,-down,-0.00591,0.16423,0.03147,0.00095,0.00401,0.02728,-0.00324,0.0024,-0.0513,-0.0073,-0.0073,-0.0073,-0.0220,-0.0220,-0.0068,0.9504,0.5812,0.3150,0.4567,-0.0024,-0.0024,1,1,1,1,1,1,1
19.9329,sweep,2,-down,-0.00591,0.16423,0.03147,0.00095,0.00401,0.02728,-0.00324,0.0024,-0.0513,-0.0073,-0.0073,-0.0073,-0.0220,-0.0220,-0.0068,0.9504,0.5812,0.3150,0.4567,-0.0024,-0.0024,1,1,1,1,1,1,1
19.9732,sweep,2,-down,-0.00591,0.15927,0.03185,0.00095,0.00362,0.02728,-0.00362,0.0024,-0.0562,-0.0024,0.0073,-0.0220,0.0073,-0.0073,0.0068,1.0325,0.5812,0.3101,0.4615,-0.0024,-0.0073,1,1,1,1,1,1,1
20.0132,sweep,2,-down,-0.00591,0.15927,0.03185,0.00095,0.00362,0.02728,-0.00362,0.0024,-0.0562,-0.0024,0.0073,-0.0220,0.0073,-0.0073,0.0068,1.0325,0.5812,0.3101,0.4615,-0.0024,-0.0073,1,1,1,1,1,1,1
20.0530,sweep,2,-down,-0.00591,0.15927,0.03185,0.00095,0.00362,0.02728,-0.00362,0.0024,-0.0562,-0.0024,0.0073,-0.0220,0.0073,-0.0073,0.0068,1.0325,0.5812,0.3101,0.4615,-0.0024,-0.0073,1,1,1,1,1,1,1
20.0928,sweep,2,-down,-0.00591,0.15354,0.03147,0.00095,0.00401,0.02728,-0.00324,-0.0024,-0.0366,-0.0073,-0.0220,-0.0073,0.0073,0.0073,-0.0068,1.1009,0.6222,0.3150,0.4518,0.0024,-0.0122,1,1,1,1,1,1,1
20.1330,sweep,2,-down,-0.00591,0.15354,0.03147,0.00095,0.00401,0.02728,-0.00324,-0.0024,-0.0366,-0.0073,-0.0220,-0.0073,0.0073,0.0073,-0.0068,1.1009,0.6222,0.3150,0.4518,0.0024,-0.0122,1,1,1,1,1,1,1
20.1729,sweep,2,-down,-0.00591,0.15011,0.03185,0.00095,0.00401,0.02728,-0.00324,-0.0024,-0.0611,-0.0024,-0.0220,-0.0073,-0.0220,-0.0073,-0.0068,1.0325,0.6222,0.3101,0.4567,0.0024,-0.0122,1,1,1,1,1,1,1
20.2129,sweep,2,-down,-0.00591,0.15011,0.03185,0.00095,0.00401,0.02728,-0.00324,-0.0024,-0.0611,-0.0024,-0.0220,-0.0073,-0.0220,-0.0073,-0.0068,1.0325,0.6222,0.3101,0.4567,0.0024,-0.0122,1,1,1,1,1,1,1
20.2528,sweep,2,-down,-0.00591,0.15011,0.03185,0.00095,0.00401,0.02728,-0.00324,-0.0024,-0.0611,-0.0024,-0.0220,-0.0073,-0.0220,-0.0073,-0.0068,1.0325,0.6222,0.3101,0.4567,0.0024,-0.0122,1,1,1,1,1,1,1
20.2929,sweep,2,-down,-0.00629,0.14553,0.03147,0.00095,0.00401,0.02728,-0.00324,-0.0073,-0.0220,-0.0073,-0.0073,0.0073,0.0073,-0.0073,-0.0205,1.1556,0.6496,0.3053,0.4615,0.0024,-0.0122,1,1,1,1,1,1,1
20.3328,sweep,2,-down,-0.00629,0.14553,0.03147,0.00095,0.00401,0.02728,-0.00324,-0.0073,-0.0220,-0.0073,-0.0073,0.0073,0.0073,-0.0073,-0.0205,1.1556,0.6496,0.3053,0.4615,0.0024,-0.0122,1,1,1,1,1,1,1
20.3727,sweep,2,-down,-0.00591,0.14286,0.03185,0.00095,0.00362,0.02728,-0.00362,-0.0024,-0.0317,0.0024,-0.0073,0.0073,-0.0073,-0.0073,-0.0205,0.9778,0.6632,0.3004,0.4615,-0.0024,-0.0122,1,1,1,1,1,1,1
20.4129,sweep,2,-down,-0.00591,0.14286,0.03185,0.00095,0.00362,0.02728,-0.00362,-0.0024,-0.0317,0.0024,-0.0073,0.0073,-0.0073,-0.0073,-0.0205,0.9778,0.6632,0.3004,0.4615,-0.0024,-0.0122,1,1,1,1,1,1,1
20.4530,sweep,2,-down,-0.00591,0.14286,0.03185,0.00095,0.00362,0.02728,-0.00362,-0.0024,-0.0317,0.0024,-0.0073,0.0073,-0.0073,-0.0073,-0.0205,0.9778,0.6632,0.3004,0.4615,-0.0024,-0.0122,1,1,1,1,1,1,1
20.4928,sweep,2,-down,-0.00591,0.13943,0.03185,0.00095,0.00401,0.02728,-0.00324,-0.0073,-0.0415,-0.0024,-0.0073,-0.0073,0.0073,-0.0073,-0.0068,1.1556,0.6359,0.3053,0.4567,-0.0024,-0.0122,1,1,1,1,1,1,1
20.9953,approach,2,return,-0.00591,0.13867,0.03147,0.00095,0.00362,0.02728,-0.00324,0.0024,-0.0220,-0.0024,-0.0073,-0.0073,0.0073,-0.0073,0.0068,0.8274,0.6496,0.3004,0.4518,-0.0024,-0.0073,1,1,1,1,1,1,1
21.0352,approach,2,return,-0.00591,0.13867,0.03147,0.00095,0.00362,0.02728,-0.00324,0.0024,-0.0220,-0.0024,-0.0073,-0.0073,0.0073,-0.0073,0.0068,0.8274,0.6496,0.3004,0.4518,-0.0024,-0.0073,1,1,1,1,1,1,1
21.0754,approach,2,return,-0.00591,0.12379,0.03185,0.00095,0.00362,0.02689,-0.00362,-0.0024,-0.1538,-0.0073,-0.0073,-0.0220,-0.0220,-0.0073,-0.0205,0.4855,0.7179,0.2857,0.4420,-0.0073,-0.0073,1,1,1,1,1,1,1
21.1152,approach,2,return,-0.00591,0.12379,0.03185,0.00095,0.00362,0.02689,-0.00362,-0.0024,-0.1538,-0.0073,-0.0073,-0.0220,-0.0220,-0.0073,-0.0205,0.4855,0.7179,0.2857,0.4420,-0.0073,-0.0073,1,1,1,1,1,1,1
21.1554,approach,2,return,-0.00591,0.12379,0.03185,0.00095,0.00362,0.02689,-0.00362,-0.0024,-0.1538,-0.0073,-0.0073,-0.0220,-0.0220,-0.0073,-0.0205,0.4855,0.7179,0.2857,0.4420,-0.0073,-0.0073,1,1,1,1,1,1,1
21.1954,approach,2,return,-0.00629,0.10548,0.03185,0.00095,0.00362,0.02689,-0.00324,-0.0073,-0.1197,-0.0024,0.0073,-0.0073,-0.0220,-0.0073,-0.0068,1.4838,0.7043,0.2808,0.4469,-0.0122,-0.0122,1,1,1,1,1,1,1
21.2352,approach,2,return,-0.00629,0.10548,0.03185,0.00095,0.00362,0.02689,-0.00324,-0.0073,-0.1197,-0.0024,0.0073,-0.0073,-0.0220,-0.0073,-0.0068,1.4838,0.7043,0.2808,0.4469,-0.0122,-0.0122,1,1,1,1,1,1,1
21.2753,approach,2,return,-0.00591,0.09594,0.03147,0.00095,0.00362,0.02689,-0.00362,-0.0024,-0.1197,0.0024,-0.0220,-0.0073,-0.0220,-0.0220,-0.0068,0.8547,0.6769,0.2759,0.4518,-0.0024,-0.0122,1,1,1,1,1,1,1
21.3153,approach,2,return,-0.00591,0.09594,0.03147,0.00095,0.00362,0.02689,-0.00362,-0.0024,-0.1197,0.0024,-0.0220,-0.0073,-0.0220,-0.0220,-0.0068,0.8547,0.6769,0.2759,0.4518,-0.0024,-0.0122,1,1,1,1,1,1,1
21.3553,approach,2,return,-0.00591,0.09594,0.03147,0.00095,0.00362,0.02689,-0.00362,-0.0024,-0.1197,0.0024,-0.0220,-0.0073,-0.0220,-0.0220,-0.0068,0.8547,0.6769,0.2759,0.4518,-0.0024,-0.0122,1,1,1,1,1,1,1
21.3954,approach,2,return,-0.00591,0.08221,0.03185,0.00095,0.00362,0.02728,-0.00324,-0.0024,-0.1294,-0.0024,0.0073,-0.0073,0.0073,-0.0073,-0.0068,1.4017,0.6632,0.2808,0.4469,-0.0073,-0.0122,1,1,1,1,1,1,1
21.4355,approach,2,return,-0.00591,0.08221,0.03185,0.00095,0.00362,0.02728,-0.00324,-0.0024,-0.1294,-0.0024,0.0073,-0.0073,0.0073,-0.0073,-0.0068,1.4017,0.6632,0.2808,0.4469,-0.0073,-0.0122,1,1,1,1,1,1,1
21.4755,approach,2,return,-0.00591,0.07496,0.03147,0.00095,0.00362,0.02728,-0.00324,-0.0024,-0.0855,-0.0024,-0.0220,-0.0220,-0.0073,0.0073,-0.0068,1.1282,0.6632,0.2759,0.4469,-0.0024,-0.0122,1,1,1,1,1,1,1
21.5156,approach,2,return,-0.00591,0.07496,0.03147,0.00095,0.00362,0.02728,-0.00324,-0.0024,-0.0855,-0.0024,-0.0220,-0.0220,-0.0073,0.0073,-0.0068,1.1282,0.6632,0.2759,0.4469,-0.0024,-0.0122,1,1,1,1,1,1,1
21.5554,approach,2,return,-0.00591,0.07496,0.03147,0.00095,0.00362,0.02728,-0.00324,-0.0024,-0.0855,-0.0024,-0.0220,-0.0220,-0.0073,0.0073,-0.0068,1.1282,0.6632,0.2759,0.4469,-0.0024,-0.0122,1,1,1,1,1,1,1
21.5955,approach,2,return,-0.00591,0.06504,0.03185,0.00095,0.00362,0.02728,-0.00362,-0.0024,-0.1001,-0.0024,-0.0073,-0.0220,-0.0220,-0.0220,-0.0068,0.9915,0.6632,0.2808,0.4615,-0.0073,-0.0122,1,1,1,1,1,1,1
21.6353,approach,2,return,-0.00591,0.06504,0.03185,0.00095,0.00362,0.02728,-0.00362,-0.0024,-0.1001,-0.0024,-0.0073,-0.0220,-0.0220,-0.0220,-0.0068,0.9915,0.6632,0.2808,0.4615,-0.0073,-0.0122,1,1,1,1,1,1,1
21.6757,approach,2,return,-0.00591,0.05932,0.03185,0.00095,0.00362,0.02728,-0.00324,-0.0024,-0.0513,-0.0024,0.0073,-0.0073,-0.0073,0.0073,0.0068,0.7590,0.6496,0.2808,0.4615,-0.0073,-0.0073,1,1,1,1,1,1,1
21.7156,approach,2,return,-0.00591,0.05932,0.03185,0.00095,0.00362,0.02728,-0.00324,-0.0024,-0.0513,-0.0024,0.0073,-0.0073,-0.0073,0.0073,0.0068,0.7590,0.6496,0.2808,0.4615,-0.0073,-0.0073,1,1,1,1,1,1,1
21.7556,approach,2,return,-0.00591,0.05932,0.03185,0.00095,0.00362,0.02728,-0.00324,-0.0024,-0.0513,-0.0024,0.0073,-0.0073,-0.0073,0.0073,0.0068,0.7590,0.6496,0.2808,0.4615,-0.0073,-0.0073,1,1,1,1,1,1,1
21.7953,approach,2,return,-0.00629,0.05131,0.03185,0.00095,0.00362,0.02728,-0.00324,-0.0024,-0.0659,0.0024,-0.0073,-0.0220,0.0220,-0.0073,-0.0068,0.9368,0.6359,0.2759,0.4615,-0.0073,-0.0024,1,1,1,1,1,1,1
21.8353,approach,2,return,-0.00629,0.05131,0.03185,0.00095,0.00362,0.02728,-0.00324,-0.0024,-0.0659,0.0024,-0.0073,-0.0220,0.0220,-0.0073,-0.0068,0.9368,0.6359,0.2759,0.4615,-0.0073,-0.0024,1,1,1,1,1,1,1
21.8756,approach,2,return,-0.00591,0.04673,0.03147,0.00095,0.00362,0.02728,-0.00362,-0.0024,-0.0513,-0.0024,-0.0073,-0.0220,-0.0073,-0.0220,-0.0068,0.8000,0.6769,0.2613,0.4615,-0.0122,-0.0073,1,1,1,1,1,1,1
21.9155,approach,2,return,-0.00591,0.04673,0.03147,0.00095,0.00362,0.02728,-0.00362,-0.0024,-0.0513,-0.0024,-0.0073,-0.0220,-0.0073,-0.0220,-0.0068,0.8000,0.6769,0.2613,0.4615,-0.0122,-0.0073,1,1,1,1,1,1,1
21.9552,approach,2,return,-0.00591,0.04673,0.03147,0.00095,0.00362,0.02728,-0.00362,-0.0024,-0.0513,-0.0024,-0.0073,-0.0220,-0.0073,-0.0220,-0.0068,0.8000,0.6769,0.2613,0.4615,-0.0122,-0.0073,1,1,1,1,1,1,1
21.9953,approach,2,return,-0.00629,0.04063,0.03147,0.00095,0.00362,0.02728,-0.00362,-0.0024,-0.0611,-0.0073,0.0073,-0.0073,-0.0073,-0.0220,0.0068,1.0188,0.6496,0.2662,0.4615,-0.0122,-0.0073,1,1,1,1,1,1,1
22.0356,approach,2,return,-0.00629,0.04063,0.03147,0.00095,0.00362,0.02728,-0.00362,-0.0024,-0.0611,-0.0073,0.0073,-0.0073,-0.0073,-0.0220,0.0068,1.0188,0.6496,0.2662,0.4615,-0.0122,-0.0073,1,1,1,1,1,1,1
22.0758,approach,2,return,-0.00591,0.03758,0.03185,0.00095,0.00362,0.02728,-0.00324,-0.0024,-0.0415,-0.0024,-0.0073,-0.0073,-0.0073,-0.0073,-0.0068,0.5402,0.6496,0.2662,0.4615,-0.0122,-0.0024,1,1,1,1,1,1,1
22.1158,approach,2,return,-0.00591,0.03758,0.03185,0.00095,0.00362,0.02728,-0.00324,-0.0024,-0.0415,-0.0024,-0.0073,-0.0073,-0.0073,-0.0073,-0.0068,0.5402,0.6496,0.2662,0.4615,-0.0122,-0.0024,1,1,1,1,1,1,1
22.1554,approach,2,return,-0.00591,0.03758,0.03185,0.00095,0.00362,0.02728,-0.00324,-0.0024,-0.0415,-0.0024,-0.0073,-0.0073,-0.0073,-0.0073,-0.0068,0.5402,0.6496,0.2662,0.4615,-0.0122,-0.0024,1,1,1,1,1,1,1
22.1952,approach,2,return,-0.00591,0.03338,0.03185,0.00095,0.00362,0.02689,-0.00362,-0.0024,-0.0317,-0.0024,-0.0073,-0.0073,-0.0220,-0.0220,-0.0068,0.3077,0.6632,0.2613,0.4567,-0.0122,-0.0024,1,1,1,1,1,1,1
22.2359,approach,2,return,-0.00591,0.03338,0.03185,0.00095,0.00362,0.02689,-0.00362,-0.0024,-0.0317,-0.0024,-0.0073,-0.0073,-0.0220,-0.0220,-0.0068,0.3077,0.6632,0.2613,0.4567,-0.0122,-0.0024,1,1,1,1,1,1,1
22.2753,approach,2,return,-0.00591,0.03109,0.03185,0.00095,0.00401,0.02728,-0.00362,-0.0024,-0.0415,-0.0024,-0.0073,-0.0220,-0.0073,-0.0073,-0.0068,0.1709,0.6769,0.2564,0.4518,-0.0122,-0.0073,1,1,1,1,1,1,1
