peipl15/reBot_Arm/outputs/gravity_calib_20260622_153501.csv
t_s,phase,swept_joint,direction,q1,q2,q3,q4,q5,q6,q7,v1,v2,v3,v4,v5,v6,v7,tau1,tau2,tau3,tau4,tau5,tau6,tau7,st1,st2,st3,st4,st5,st6,st7
0.0024,approach,3,to_lo,0.04635,0.49687,0.02995,1.05955,-0.00744,0.20619,-0.00324,-0.0024,-0.0024,-0.0024,0.0073,0.0073,-0.0366,-0.0073,0.0342,1.0188,-0.0342,0.0171,-0.0171,0.0122,-0.0024,1,1,1,1,1,1,1
0.0424,approach,3,to_lo,0.04635,0.49687,0.02995,1.05955,-0.00744,0.20619,-0.00324,-0.0024,-0.0024,-0.0024,0.0073,0.0073,-0.0366,-0.0073,0.0342,1.0188,-0.0342,0.0171,-0.0171,0.0122,-0.0024,1,1,1,1,1,1,1
0.0824,approach,3,to_lo,0.04635,0.49687,0.03185,1.03590,-0.00744,0.20619,-0.00362,0.0024,-0.0024,0.0904,0.0806,-0.0073,-0.0073,-0.0073,-0.0205,1.1282,2.1675,2.1123,-0.0171,0.0073,-0.0122,1,1,1,1,1,1,1
0.1224,approach,3,to_lo,0.04635,0.49687,0.03185,1.03590,-0.00744,0.20619,-0.00362,0.0024,-0.0024,0.0904,0.0806,-0.0073,-0.0073,-0.0073,-0.0205,1.1282,2.1675,2.1123,-0.0171,0.0073,-0.0122,1,1,1,1,1,1,1
0.1626,approach,3,to_lo,0.04635,0.49687,0.03185,1.03590,-0.00744,0.20619,-0.00362,0.0024,-0.0024,0.0904,0.0806,-0.0073,-0.0073,-0.0073,-0.0205,1.1282,2.1675,2.1123,-0.0171,0.0073,-0.0122,1,1,1,1,1,1,1
0.2027,approach,3,to_lo,0.04635,0.49687,0.04253,1.04696,-0.00744,0.20619,-0.00362,-0.0024,-0.0024,0.1099,0.0659,0.0073,-0.0073,-0.0073,-0.0615,1.1556,6.0650,2.1661,-0.0220,0.0024,-0.0171,1,1,1,1,1,1,1
0.2425,approach,3,to_lo,0.04635,0.49687,0.04253,1.04696,-0.00744,0.20619,-0.00362,-0.0024,-0.0024,0.1099,0.0659,0.0073,-0.0073,-0.0073,-0.0615,1.1556,6.0650,2.1661,-0.0220,0.0024,-0.0171,1,1,1,1,1,1,1
0.2829,approach,3,to_lo,0.04635,0.49687,0.04864,1.05383,-0.00744,0.20619,-0.00324,-0.0024,-0.0024,0.0611,0.0073,0.0073,-0.0073,0.0073,-0.0479,1.2513,8.4855,1.9463,-0.0220,0.0024,-0.0220,1,1,1,1,1,1,1
0.3228,approach,3,to_lo,0.04635,0.49687,0.04864,1.05383,-0.00744,0.20619,-0.00324,-0.0024,-0.0024,0.0611,0.0073,0.0073,-0.0073,0.0073,-0.0479,1.2513,8.4855,1.9463,-0.0220,0.0024,-0.0220,1,1,1,1,1,1,1
0.3627,approach,3,to_lo,0.04635,0.49687,0.04864,1.05383,-0.00744,0.20619,-0.00324,-0.0024,-0.0024,0.0611,0.0073,0.0073,-0.0073,0.0073,-0.0479,1.2513,8.4855,1.9463,-0.0220,0.0024,-0.0220,1,1,1,1,1,1,1
0.4028,approach,3,to_lo,0.04635,0.49687,0.05703,1.05764,-0.00744,0.20619,-0.00362,-0.0024,-0.0024,0.0806,0.0073,-0.0073,-0.0073,-0.0073,-0.0615,1.3470,12.1231,1.8974,-0.0269,0.0024,-0.0269,1,1,1,1,1,1,1
0.4426,approach,3,to_lo,0.04635,0.49687,0.05703,1.05764,-0.00744,0.20619,-0.00362,-0.0024,-0.0024,0.0806,0.0073,-0.0073,-0.0073,-0.0073,-0.0615,1.3470,12.1231,1.8974,-0.0269,0.0024,-0.0269,1,1,1,1,1,1,1
0.4824,approach,3,to_lo,0.04635,0.49725,0.06428,1.05955,-0.00744,0.20619,-0.00362,-0.0024,-0.0024,0.0806,0.0220,-0.0073,-0.0073,-0.0073,-0.0752,1.4154,10.7009,1.7900,-0.0317,-0.0024,-0.0317,1,1,1,1,1,1,1
0.5224,approach,3,to_lo,0.04635,0.49725,0.06428,1.05955,-0.00744,0.20619,-0.00362,-0.0024,-0.0024,0.0806,0.0220,-0.0073,-0.0073,-0.0073,-0.0752,1.4154,10.7009,1.7900,-0.0317,-0.0024,-0.0317,1,1,1,1,1,1,1
0.5625,approach,3,to_lo,0.04635,0.49725,0.06428,1.05955,-0.00744,0.20619,-0.00362,-0.0024,-0.0024,0.0806,0.0220,-0.0073,-0.0073,-0.0073,-0.0752,1.4154,10.7009,1.7900,-0.0317,-0.0024,-0.0317,1,1,1,1,1,1,1
0.6044,approach,3,to_lo,0.04635,0.49725,0.07229,1.05955,-0.00744,0.20619,-0.00362,-0.0024,-0.0024,0.0562,-0.0073,0.0073,-0.0073,-0.0073,-0.1026,1.4427,11.1385,1.8144,-0.0366,-0.0024,-0.0366,1,1,1,1,1,1,1
0.6423,approach,3,to_lo,0.04635,0.49725,0.07229,1.05955,-0.00744,0.20619,-0.00362,-0.0024,-0.0024,0.0562,-0.0073,0.0073,-0.0073,-0.0073,-0.1026,1.4427,11.1385,1.8144,-0.0366,-0.0024,-0.0366,1,1,1,1,1,1,1
0.6823,approach,3,to_lo,0.04635,0.49725,0.07763,1.05993,-0.00744,0.20619,-0.00362,-0.0024,-0.0024,0.0806,0.0220,0.0073,-0.0073,-0.0220,-0.1162,1.5521,10.7282,1.7656,-0.0366,-0.0073,-0.0366,1,1,1,1,1,1,1
0.7225,approach,3,to_lo,0.04635,0.49725,0.07763,1.05993,-0.00744,0.20619,-0.00362,-0.0024,-0.0024,0.0806,0.0220,0.0073,-0.0073,-0.0220,-0.1162,1.5521,10.7282,1.7656,-0.0366,-0.0073,-0.0366,1,1,1,1,1,1,1
0.7624,approach,3,to_lo,0.04635,0.49725,0.07763,1.05993,-0.00744,0.20619,-0.00362,-0.0024,-0.0024,0.0806,0.0220,0.0073,-0.0073,-0.0220,-0.1162,1.5521,10.7282,1.7656,-0.0366,-0.0073,-0.0366,1,1,1,1,1,1,1
0.8025,approach,3,to_lo,0.04635,0.49725,0.08373,1.05993,-0.00744,0.20619,-0.00362,-0.0024,-0.0024,0.0366,-0.0073,-0.0073,-0.0073,-0.0073,-0.1299,1.5658,11.0154,1.7705,-0.0464,-0.0122,-0.0415,1,1,1,1,1,1,1
0.8424,approach,3,to_lo,0.04635,0.49725,0.08373,1.05993,-0.00744,0.20619,-0.00362,-0.0024,-0.0024,0.0366,-0.0073,-0.0073,-0.0073,-0.0073,-0.1299,1.5658,11.0154,1.7705,-0.0464,-0.0122,-0.0415,1,1,1,1,1,1,1
0.8825,approach,3,to_lo,0.04635,0.49725,0.08755,1.05993,-0.00744,0.20619,-0.00362,-0.0024,-0.0024,0.0220,0.0073,-0.0073,-0.0073,-0.0073,-0.1299,1.7299,11.0838,1.7607,-0.0562,-0.0073,-0.0464,1,1,1,1,1,1,1
0.9225,approach,3,to_lo,0.04635,0.49725,0.08755,1.05993,-0.00744,0.20619,-0.00362,-0.0024,-0.0024,0.0220,0.0073,-0.0073,-0.0073,-0.0073,-0.1299,1.7299,11.0838,1.7607,-0.0562,-0.0073,-0.0464,1,1,1,1,1,1,1
0.9624,approach,3,to_lo,0.04635,0.49725,0.08755,1.05993,-0.00744,0.20619,-0.00362,-0.0024,-0.0024,0.0220,0.0073,-0.0073,-0.0073,-0.0073,-0.1299,1.7299,11.0838,1.7607,-0.0562,-0.0073,-0.0464,1,1,1,1,1,1,1
1.0025,approach,3,to_lo,0.04635,0.49725,0.09251,1.05993,-0.00744,0.20619,-0.00362,0.0024,-0.0024,0.0513,-0.0073,-0.0073,0.0073,-0.0073,-0.1436,1.7709,10.6598,1.7460,-0.0562,-0.0122,-0.0464,1,1,1,1,1,1,1
1.0423,approach,3,to_lo,0.04635,0.49725,0.09251,1.05993,-0.00744,0.20619,-0.00362,0.0024,-0.0024,0.0513,-0.0073,-0.0073,0.0073,-0.0073,-0.1436,1.7709,10.6598,1.7460,-0.0562,-0.0122,-0.0464,1,1,1,1,1,1,1
1.0823,approach,3,to_lo,0.04635,0.49725,0.09518,1.05993,-0.00744,0.20619,-0.00362,-0.0024,-0.0024,0.0317,-0.0220,-0.0073,-0.0073,-0.0073,-0.1573,1.7983,10.7556,1.7216,-0.0611,-0.0171,-0.0513,1,1,1,1,1,1,1
1.1224,approach,3,to_lo,0.04635,0.49725,0.09518,1.05993,-0.00744,0.20619,-0.00362,-0.0024,-0.0024,0.0317,-0.0220,-0.0073,-0.0073,-0.0073,-0.1573,1.7983,10.7556,1.7216,-0.0611,-0.0171,-0.0513,1,1,1,1,1,1,1
1.1625,approach,3,to_lo,0.04635,0.49725,0.09518,1.05993,-0.00744,0.20619,-0.00362,-0.0024,-0.0024,0.0317,-0.0220,-0.0073,-0.0073,-0.0073,-0.1573,1.7983,10.7556,1.7216,-0.0611,-0.0171,-0.0513,1,1,1,1,1,1,1
1.2024,approach,3,to_lo,0.04635,0.49725,0.09861,1.05993,-0.00744,0.20619,-0.00362,-0.0024,-0.0024,0.0171,-0.0220,-0.0073,0.0073,-0.0073,-0.1709,1.8667,11.0974,1.7118,-0.0659,-0.0220,-0.0513,1,1,1,1,1,1,1
1.2427,approach,3,to_lo,0.04635,0.49725,0.09861,1.05993,-0.00744,0.20619,-0.00362,-0.0024,-0.0024,0.0171,-0.0220,-0.0073,0.0073,-0.0073,-0.1709,1.8667,11.0974,1.7118,-0.0659,-0.0220,-0.0513,1,1,1,1,1,1,1
1.2827,approach,3,to_lo,0.04635,0.49763,0.10090,1.05993,-0.00744,0.20619,-0.00362,-0.0024,-0.0024,0.0269,0.0073,-0.0220,-0.0073,-0.0073,-0.1983,1.4564,11.1932,1.7118,-0.0708,-0.0220,-0.0513,1,1,1,1,1,1,1
1.7853,sweep,3,+up,0.04635,0.49802,0.10205,1.05993,-0.00744,0.20619,-0.00362,-0.0024,0.0024,0.0269,-0.0073,-0.0073,-0.0220,-0.0073,-0.1846,1.2239,10.9470,1.7118,-0.0708,-0.0220,-0.0562,1,1,1,1,1,1,1
1.8255,sweep,3,+up,0.04635,0.49802,0.10205,1.05993,-0.00744,0.20619,-0.00362,-0.0024,0.0024,0.0269,-0.0073,-0.0073,-0.0220,-0.0073,-0.1846,1.2239,10.9470,1.7118,-0.0708,-0.0220,-0.0562,1,1,1,1,1,1,1
1.8654,sweep,3,+up,0.04635,0.49802,0.10205,1.05993,-0.00744,0.20619,-0.00362,-0.0024,0.0024,0.0269,-0.0073,-0.0073,-0.0220,-0.0073,-0.1846,1.2239,10.9470,1.7118,-0.0708,-0.0220,-0.0562,1,1,1,1,1,1,1
1.9057,sweep,3,+up,0.04635,0.49802,0.12493,1.05802,-0.00782,0.20619,-0.00362,-0.0024,-0.0073,0.2564,0.0366,-0.0073,-0.0220,-0.0073,-0.2940,0.7043,11.9316,1.8877,-0.0855,-0.0269,-0.0611,1,1,1,1,1,1,1
1.9456,sweep,3,+up,0.04635,0.49802,0.12493,1.05802,-0.00782,0.20619,-0.00362,-0.0024,-0.0073,0.2564,0.0366,-0.0073,-0.0220,-0.0073,-0.2940,0.7043,11.9316,1.8877,-0.0855,-0.0269,-0.0611,1,1,1,1,1,1,1
1.9853,sweep,3,+up,0.04635,0.49802,0.14172,1.05993,-0.00744,0.20619,-0.00362,-0.0073,-0.0024,0.1978,0.0073,0.0220,-0.0073,-0.0073,-0.2940,0.9641,11.0291,1.7363,-0.0904,-0.0269,-0.0611,1,1,1,1,1,1,1
2.0254,sweep,3,+up,0.04635,0.49802,0.14172,1.05993,-0.00744,0.20619,-0.00362,-0.0073,-0.0024,0.1978,0.0073,0.0220,-0.0073,-0.0073,-0.2940,0.9641,11.0291,1.7363,-0.0904,-0.0269,-0.0611,1,1,1,1,1,1,1
2.0654,sweep,3,+up,0.04635,0.49802,0.14172,1.05993,-0.00744,0.20619,-0.00362,-0.0073,-0.0024,0.1978,0.0073,0.0220,-0.0073,-0.0073,-0.2940,0.9641,11.0291,1.7363,-0.0904,-0.0269,-0.0611,1,1,1,1,1,1,1
2.1052,sweep,3,+up,0.04635,0.49802,0.16537,1.05993,-0.00744,0.20619,-0.00362,-0.0024,-0.0024,0.1929,-0.0073,-0.0073,-0.0073,0.0073,-0.2940,0.7453,11.3436,1.7509,-0.0855,-0.0317,-0.0611,1,1,1,1,1,1,1
2.1452,sweep,3,+up,0.04635,0.49802,0.16537,1.05993,-0.00744,0.20619,-0.00362,-0.0024,-0.0024,0.1929,-0.0073,-0.0073,-0.0073,0.0073,-0.2940,0.7453,11.3436,1.7509,-0.0855,-0.0317,-0.0611,1,1,1,1,1,1,1
2.1852,sweep,3,+up,0.04635,0.49802,0.18177,1.06031,-0.00744,0.20619,-0.00362,0.0024,-0.0024,0.1978,-0.0073,-0.0220,-0.0073,-0.0073,-0.3077,0.8137,11.0564,1.7021,-0.0904,-0.0317,-0.0611,1,1,1,1,1,1,1
2.2253,sweep,3,+up,0.04635,0.49802,0.18177,1.06031,-0.00744,0.20619,-0.00362,0.0024,-0.0024,0.1978,-0.0073,-0.0220,-0.0073,-0.0073,-0.3077,0.8137,11.0564,1.7021,-0.0904,-0.0317,-0.0611,1,1,1,1,1,1,1
2.2653,sweep,3,+up,0.04635,0.49802,0.18177,1.06031,-0.00744,0.20619,-0.00362,0.0024,-0.0024,0.1978,-0.0073,-0.0220,-0.0073,-0.0073,-0.3077,0.8137,11.0564,1.7021,-0.0904,-0.0317,-0.0611,1,1,1,1,1,1,1
2.3051,sweep,3,+up,0.04635,0.49802,0.20581,1.06031,-0.00744,0.20619,-0.00362,-0.0024,-0.0073,0.2125,0.0073,-0.0073,0.0073,-0.0073,-0.3624,0.8137,10.7966,1.6728,-0.0904,-0.0366,-0.0611,1,1,1,1,1,1,1
2.3455,sweep,3,+up,0.04635,0.49802,0.20581,1.06031,-0.00744,0.20619,-0.00362,-0.0024,-0.0073,0.2125,0.0073,-0.0073,0.0073,-0.0073,-0.3624,0.8137,10.7966,1.6728,-0.0904,-0.0366,-0.0611,1,1,1,1,1,1,1
2.3859,sweep,3,+up,0.04635,0.49802,0.22183,1.06031,-0.00744,0.20619,-0.00401,-0.0024,-0.0024,0.2027,-0.0073,-0.0073,-0.0366,-0.0220,-0.3624,0.8410,10.8513,1.6484,-0.1001,-0.0366,-0.0611,1,1,1,1,1,1,1
2.4252,sweep,3,+up,0.04635,0.49802,0.22183,1.06031,-0.00744,0.20619,-0.00401,-0.0024,-0.0024,0.2027,-0.0073,-0.0073,-0.0366,-0.0220,-0.3624,0.8410,10.8513,1.6484,-0.1001,-0.0366,-0.0611,1,1,1,1,1,1,1
2.4652,sweep,3,+up,0.04635,0.49802,0.22183,1.06031,-0.00744,0.20619,-0.00401,-0.0024,-0.0024,0.2027,-0.0073,-0.0073,-0.0366,-0.0220,-0.3624,0.8410,10.8513,1.6484,-0.1001,-0.0366,-0.0611,1,1,1,1,1,1,1
2.5055,sweep,3,+up,0.04635,0.49802,0.24586,1.06069,-0.00782,0.20619,-0.00362,0.0024,-0.0024,0.1832,-0.0073,-0.0073,-0.0073,-0.0073,-0.3897,0.8547,10.9607,1.5751,-0.0904,-0.0366,-0.0611,1,1,1,1,1,1,1
2.5454,sweep,3,+up,0.04635,0.49802,0.24586,1.06069,-0.00782,0.20619,-0.00362,0.0024,-0.0024,0.1832,-0.0073,-0.0073,-0.0073,-0.0073,-0.3897,0.8547,10.9607,1.5751,-0.0904,-0.0366,-0.0611,1,1,1,1,1,1,1
2.5855,sweep,3,+up,0.04635,0.49802,0.26188,1.06069,-0.00782,0.20619,-0.00362,-0.0024,-0.0024,0.1929,0.0073,-0.0073,0.0073,-0.0073,-0.4034,0.8410,10.9333,1.5604,-0.0904,-0.0415,-0.0611,1,1,1,1,1,1,1
2.6255,sweep,3,+up,0.04635,0.49802,0.26188,1.06069,-0.00782,0.20619,-0.00362,-0.0024,-0.0024,0.1929,0.0073,-0.0073,0.0073,-0.0073,-0.4034,0.8410,10.9333,1.5604,-0.0904,-0.0415,-0.0611,1,1,1,1,1,1,1
2.6652,sweep,3,+up,0.04635,0.49802,0.26188,1.06069,-0.00782,0.20619,-0.00362,-0.0024,-0.0024,0.1929,0.0073,-0.0073,0.0073,-0.0073,-0.4034,0.8410,10.9333,1.5604,-0.0904,-0.0415,-0.0611,1,1,1,1,1,1,1
2.7053,sweep,3,+up,0.04635,0.49802,0.28592,1.06069,-0.00744,0.20619,-0.00362,-0.0073,-0.0024,0.2076,-0.0073,-0.0073,-0.0220,-0.0073,-0.4034,0.8137,10.8513,1.5165,-0.0904,-0.0464,-0.0659,1,1,1,1,1,1,1
2.7454,sweep,3,+up,0.04635,0.49802,0.28592,1.06069,-0.00744,0.20619,-0.00362,-0.0073,-0.0024,0.2076,-0.0073,-0.0073,-0.0220,-0.0073,-0.4034,0.8137,10.8513,1.5165,-0.0904,-0.0464,-0.0659,1,1,1,1,1,1,1
2.7857,sweep,3,+up,0.04635,0.49802,0.30194,1.06069,-0.00744,0.20619,-0.00401,-0.0024,-0.0024,0.1832,-0.0220,-0.0073,-0.0220,-0.0073,-0.4171,0.8274,10.7829,1.4823,-0.0904,-0.0513,-0.0659,1,1,1,1,1,1,1
2.8255,sweep,3,+up,0.04635,0.49802,0.30194,1.06069,-0.00744,0.20619,-0.00401,-0.0024,-0.0024,0.1832,-0.0220,-0.0073,-0.0220,-0.0073,-0.4171,0.8274,10.7829,1.4823,-0.0904,-0.0513,-0.0659,1,1,1,1,1,1,1
2.8655,sweep,3,+up,0.04635,0.49802,0.30194,1.06069,-0.00744,0.20619,-0.00401,-0.0024,-0.0024,0.1832,-0.0220,-0.0073,-0.0220,-0.0073,-0.4171,0.8274,10.7829,1.4823,-0.0904,-0.0513,-0.0659,1,1,1,1,1,1,1
2.9053,sweep,3,+up,0.04635,0.49802,0.32597,1.06069,-0.00744,0.20619,-0.00401,-0.0024,-0.0024,0.1880,0.0073,0.0073,-0.0220,-0.0073,-0.3624,0.8684,10.6598,1.4237,-0.0855,-0.0464,-0.0708,1,1,1,1,1,1,1
2.9455,sweep,3,+up,0.04635,0.49802,0.32597,1.06069,-0.00744,0.20619,-0.00401,-0.0024,-0.0024,0.1880,0.0073,0.0073,-0.0220,-0.0073,-0.3624,0.8684,10.6598,1.4237,-0.0855,-0.0464,-0.0708,1,1,1,1,1,1,1
2.9855,sweep,3,+up,0.04635,0.49802,0.34199,1.06069,-0.00744,0.20619,-0.00401,-0.0024,-0.0073,0.1929,-0.0073,-0.0073,-0.0220,-0.0073,-0.4034,0.8957,10.8513,1.3846,-0.0904,-0.0513,-0.0708,1,1,1,1,1,1,1
3.0257,sweep,3,+up,0.04635,0.49802,0.34199,1.06069,-0.00744,0.20619,-0.00401,-0.0024,-0.0073,0.1929,-0.0073,-0.0073,-0.0220,-0.0073,-0.4034,0.8957,10.8513,1.3846,-0.0904,-0.0513,-0.0708,1,1,1,1,1,1,1
3.0652,sweep,3,+up,0.04635,0.49802,0.34199,1.06069,-0.00744,0.20619,-0.00401,-0.0024,-0.0073,0.1929,-0.0073,-0.0073,-0.0220,-0.0073,-0.4034,0.8957,10.8513,1.3846,-0.0904,-0.0513,-0.0708,1,1,1,1,1,1,1
3.1055,sweep,3,+up,0.04635,0.49802,0.36603,1.06069,-0.00744,0.20619,-0.00401,-0.0024,-0.0024,0.2027,-0.0220,-0.0073,-0.0073,-0.0073,-0.4034,0.8957,10.4000,1.3553,-0.0952,-0.0513,-0.0708,1,1,1,1,1,1,1
3.1456,sweep,3,+up,0.04635,0.49802,0.36603,1.06069,-0.00744,0.20619,-0.00401,-0.0024,-0.0024,0.2027,-0.0220,-0.0073,-0.0073,-0.0073,-0.4034,0.8957,10.4000,1.3553,-0.0952,-0.0513,-0.0708,1,1,1,1,1,1,1
3.1855,sweep,3,+up,0.04635,0.49802,0.38205,1.06069,-0.00744,0.20619,-0.00401,-0.0073,-0.0024,0.2027,0.0073,-0.0073,-0.0073,-0.0073,-0.4308,0.9231,10.6735,1.3260,-0.1001,-0.0562,-0.0708,1,1,1,1,1,1,1
3.2257,sweep,3,+up,0.04635,0.49802,0.38205,1.06069,-0.00744,0.20619,-0.00401,-0.0073,-0.0024,0.2027,0.0073,-0.0073,-0.0073,-0.0073,-0.4308,0.9231,10.6735,1.3260,-0.1001,-0.0562,-0.0708,1,1,1,1,1,1,1
3.2656,sweep,3,+up,0.04635,0.49802,0.38205,1.06069,-0.00744,0.20619,-0.00401,-0.0073,-0.0024,0.2027,0.0073,-0.0073,-0.0073,-0.0073,-0.4308,0.9231,10.6735,1.3260,-0.1001,-0.0562,-0.0708,1,1,1,1,1,1,1
3.3056,sweep,3,+up,0.04635,0.49763,0.40608,1.06069,-0.00782,0.20619,-0.00401,-0.0024,-0.0073,0.2027,0.0073,-0.0073,-0.0073,-0.0073,-0.4308,1.4154,10.5368,1.2479,-0.0952,-0.0562,-0.0708,1,1,1,1,1,1,1
3.3456,sweep,3,+up,0.04635,0.49763,0.40608,1.06069,-0.00782,0.20619,-0.00401,-0.0024,-0.0073,0.2027,0.0073,-0.0073,-0.0073,-0.0073,-0.4308,1.4154,10.5368,1.2479,-0.0952,-0.0562,-0.0708,1,1,1,1,1,1,1
3.3857,sweep,3,+up,0.04635,0.49763,0.42210,1.06069,-0.00782,0.20619,-0.00401,-0.0024,-0.0024,0.1929,-0.0073,-0.0220,0.0073,-0.0073,-0.4034,1.4154,10.7692,1.2234,-0.1001,-0.0513,-0.0708,1,1,1,1,1,1,1
3.4255,sweep,3,+up,0.04635,0.49763,0.42210,1.06069,-0.00782,0.20619,-0.00401,-0.0024,-0.0024,0.1929,-0.0073,-0.0220,0.0073,-0.0073,-0.4034,1.4154,10.7692,1.2234,-0.1001,-0.0513,-0.0708,1,1,1,1,1,1,1
3.4654,sweep,3,+up,0.04635,0.49763,0.42210,1.06069,-0.00782,0.20619,-0.00401,-0.0024,-0.0024,0.1929,-0.0073,-0.0220,0.0073,-0.0073,-0.4034,1.4154,10.7692,1.2234,-0.1001,-0.0513,-0.0708,1,1,1,1,1,1,1
3.5053,sweep,3,+up,0.04635,0.49763,0.44614,1.06069,-0.00782,0.20619,-0.00401,-0.0024,-0.0024,0.1978,-0.0220,-0.0220,0.0073,0.0073,-0.4034,1.5248,10.6325,1.1893,-0.1099,-0.0562,-0.0708,1,1,1,1,1,1,1
3.5453,sweep,3,+up,0.04635,0.49763,0.44614,1.06069,-0.00782,0.20619,-0.00401,-0.0024,-0.0024,0.1978,-0.0220,-0.0220,0.0073,0.0073,-0.4034,1.5248,10.6325,1.1893,-0.1099,-0.0562,-0.0708,1,1,1,1,1,1,1
3.5854,sweep,3,+up,0.04635,0.49763,0.46254,1.06069,-0.00744,0.20619,-0.00401,-0.0024,-0.0024,0.2076,-0.0073,-0.0073,-0.0073,-0.0073,-0.4171,1.6068,10.0444,1.1502,-0.1148,-0.0562,-0.0708,1,1,1,1,1,1,1
3.6255,sweep,3,+up,0.04635,0.49763,0.46254,1.06069,-0.00744,0.20619,-0.00401,-0.0024,-0.0024,0.2076,-0.0073,-0.0073,-0.0073,-0.0073,-0.4171,1.6068,10.0444,1.1502,-0.1148,-0.0562,-0.0708,1,1,1,1,1,1,1
3.6655,sweep,3,+up,0.04635,0.49763,0.46254,1.06069,-0.00744,0.20619,-0.00401,-0.0024,-0.0024,0.2076,-0.0073,-0.0073,-0.0073,-0.0073,-0.4171,1.6068,10.0444,1.1502,-0.1148,-0.0562,-0.0708,1,1,1,1,1,1,1
3.7056,sweep,3,+up,0.04635,0.49725,0.48619,1.06069,-0.00782,0.20619,-0.00401,0.0024,-0.0073,0.1929,-0.0220,-0.0220,-0.0220,-0.0073,-0.4171,1.7436,10.3043,1.0965,-0.1148,-0.0562,-0.0708,1,1,1,1,1,1,1
3.7456,sweep,3,+up,0.04635,0.49725,0.48619,1.06069,-0.00782,0.20619,-0.00401,0.0024,-0.0073,0.1929,-0.0220,-0.0220,-0.0220,-0.0073,-0.4171,1.7436,10.3043,1.0965,-0.1148,-0.0562,-0.0708,1,1,1,1,1,1,1
3.7855,sweep,3,+up,0.04635,0.49725,0.50221,1.06069,-0.00744,0.20619,-0.00401,-0.0024,-0.0024,0.2076,-0.0073,-0.0073,0.0073,-0.0073,-0.3761,1.7983,10.2769,1.0525,-0.1099,-0.0562,-0.0659,1,1,1,1,1,1,1
3.8255,sweep,3,+up,0.04635,0.49725,0.50221,1.06069,-0.00744,0.20619,-0.00401,-0.0024,-0.0024,0.2076,-0.0073,-0.0073,0.0073,-0.0073,-0.3761,1.7983,10.2769,1.0525,-0.1099,-0.0562,-0.0659,1,1,1,1,1,1,1
3.8656,sweep,3,+up,0.04635,0.49725,0.50221,1.06069,-0.00744,0.20619,-0.00401,-0.0024,-0.0024,0.2076,-0.0073,-0.0073,0.0073,-0.0073,-0.3761,1.7983,10.2769,1.0525,-0.1099,-0.0562,-0.0659,1,1,1,1,1,1,1
3.9056,sweep,3,+up,0.04635,0.49725,0.52625,1.06069,-0.00744,0.20619,-0.00401,0.0024,-0.0024,0.1929,-0.0073,-0.0073,-0.0073,-0.0073,-0.4171,1.9214,10.2496,1.0134,-0.1099,-0.0562,-0.0708,1,1,1,1,1,1,1
3.9457,sweep,3,+up,0.04635,0.49725,0.52625,1.06069,-0.00744,0.20619,-0.00401,0.0024,-0.0024,0.1929,-0.0073,-0.0073,-0.0073,-0.0073,-0.4171,1.9214,10.2496,1.0134,-0.1099,-0.0562,-0.0708,1,1,1,1,1,1,1
3.9854,sweep,3,+up,0.04635,0.49725,0.54265,1.06069,-0.00782,0.20619,-0.00401,0.0024,-0.0073,0.1929,0.0073,-0.0220,-0.0073,-0.0073,-0.4444,1.9624,10.1949,0.9744,-0.1099,-0.0562,-0.0659,1,1,1,1,1,1,1
4.0257,sweep,3,+up,0.04635,0.49725,0.54265,1.06069,-0.00782,0.20619,-0.00401,0.0024,-0.0073,0.1929,0.0073,-0.0220,-0.0073,-0.0073,-0.4444,1.9624,10.1949,0.9744,-0.1099,-0.0562,-0.0659,1,1,1,1,1,1,1
4.0658,sweep,3,+up,0.04635,0.49725,0.54265,1.06069,-0.00782,0.20619,-0.00401,0.0024,-0.0073,0.1929,0.0073,-0.0220,-0.0073,-0.0073,-0.4444,1.9624,10.1949,0.9744,-0.1099,-0.0562,-0.0659,1,1,1,1,1,1,1
4.1054,sweep,3,+up,0.04635,0.49725,0.56668,1.06069,-0.00744,0.20581,-0.00401,0.0024,-0.0024,0.2027,-0.0073,-0.0220,-0.0073,-0.0220,-0.4444,2.0855,10.0718,0.9158,-0.1001,-0.0562,-0.0659,1,1,1,1,1,1,1
4.1457,sweep,3,+up,0.04635,0.49725,0.56668,1.06069,-0.00744,0.20581,-0.00401,0.0024,-0.0024,0.2027,-0.0073,-0.0220,-0.0073,-0.0220,-0.4444,2.0855,10.0718,0.9158,-0.1001,-0.0562,-0.0659,1,1,1,1,1,1,1
4.1856,sweep,3,+up,0.04635,0.49725,0.58270,1.06069,-0.00782,0.20619,-0.00401,-0.0073,-0.0073,0.2076,-0.0220,-0.0220,-0.0073,-0.0073,-0.4444,2.1128,9.8803,0.8718,-0.1099,-0.0611,-0.0659,1,1,1,1,1,1,1
4.2257,sweep,3,+up,0.04635,0.49725,0.58270,1.06069,-0.00782,0.20619,-0.00401,-0.0073,-0.0073,0.2076,-0.0220,-0.0220,-0.0073,-0.0073,-0.4444,2.1128,9.8803,0.8718,-0.1099,-0.0611,-0.0659,1,1,1,1,1,1,1
4.2654,sweep,3,+up,0.04635,0.49725,0.58270,1.06069,-0.00782,0.20619,-0.00401,-0.0073,-0.0073,0.2076,-0.0220,-0.0220,-0.0073,-0.0073,-0.4444,2.1128,9.8803,0.8718,-0.1099,-0.0611,-0.0659,1,1,1,1,1,1,1
4.3054,sweep,3,+up,0.04635,0.49725,0.60712,1.06069,-0.00744,0.20619,-0.00401,-0.0024,-0.0024,0.1929,-0.0073,-0.0073,0.0073,-0.0073,-0.4581,2.2359,9.5248,0.8230,-0.1148,-0.0611,-0.0659,1,1,1,1,1,1,1
4.3455,sweep,3,+up,0.04635,0.49725,0.60712,1.06069,-0.00744,0.20619,-0.00401,-0.0024,-0.0024,0.1929,-0.0073,-0.0073,0.0073,-0.0073,-0.4581,2.2359,9.5248,0.8230,-0.1148,-0.0611,-0.0659,1,1,1,1,1,1,1
4.3856,sweep,3,+up,0.04635,0.49725,0.62276,1.06069,-0.00782,0.20619,-0.00401,-0.0024,0.0024,0.1880,0.0073,-0.0073,0.0073,-0.0220,-0.4718,2.3043,9.7436,0.7888,-0.1099,-0.0611,-0.0611,1,1,1,1,1,1,1
4.4258,sweep,3,+up,0.04635,0.49725,0.62276,1.06069,-0.00782,0.20619,-0.00401,-0.0024,0.0024,0.1880,0.0073,-0.0073,0.0073,-0.0220,-0.4718,2.3043,9.7436,0.7888,-0.1099,-0.0611,-0.0611,1,1,1,1,1,1,1
4.4661,sweep,3,+up,0.04635,0.49725,0.62276,1.06069,-0.00782,0.20619,-0.00401,-0.0024,0.0024,0.1880,0.0073,-0.0073,0.0073,-0.0220,-0.4718,2.3043,9.7436,0.7888,-0.1099,-0.0611,-0.0611,1,1,1,1,1,1,1
4.5055,sweep,3,+up,0.04635,0.49725,0.64679,1.06069,-0.00782,0.20619,-0.00401,-0.0024,-0.0024,0.1929,0.0073,-0.0220,0.0073,0.0073,-0.4718,2.4547,9.8667,0.7253,-0.1050,-0.0611,-0.0562,1,1,1,1,1,1,1
4.5453,sweep,3,+up,0.04635,0.49725,0.64679,1.06069,-0.00782,0.20619,-0.00401,-0.0024,-0.0024,0.1929,0.0073,-0.0220,0.0073,0.0073,-0.4718,2.4547,9.8667,0.7253,-0.1050,-0.0611,-0.0562,1,1,1,1,1,1,1
4.5852,sweep,3,+up,0.04635,0.49725,0.66320,1.06107,-0.00782,0.20619,-0.00401,-0.0024,-0.0024,0.1929,-0.0073,-0.0220,-0.0073,-0.0073,-0.5265,2.6051,9.1556,0.6569,-0.1099,-0.0659,-0.0562,1,1,1,1,1,1,1
4.6252,sweep,3,+up,0.04635,0.49725,0.66320,1.06107,-0.00782,0.20619,-0.00401,-0.0024,-0.0024,0.1929,-0.0073,-0.0220,-0.0073,-0.0073,-0.5265,2.6051,9.1556,0.6569,-0.1099,-0.0659,-0.0562,1,1,1,1,1,1,1
4.6652,sweep,3,+up,0.04635,0.49725,0.66320,1.06107,-0.00782,0.20619,-0.00401,-0.0024,-0.0024,0.1929,-0.0073,-0.0220,-0.0073,-0.0073,-0.5265,2.6051,9.1556,0.6569,-0.1099,-0.0659,-0.0562,1,1,1,1,1,1,1
4.7055,sweep,3,+up,0.04635,0.49725,0.68723,1.06107,-0.00782,0.20581,-0.00401,-0.0024,-0.0024,0.1978,-0.0220,0.0073,-0.0073,-0.0073,-0.4991,2.8923,8.9641,0.5788,-0.1099,-0.0659,-0.0562,1,1,1,1,1,1,1
4.7453,sweep,3,+up,0.04635,0.49725,0.68723,1.06107,-0.00782,0.20581,-0.00401,-0.0024,-0.0024,0.1978,-0.0220,0.0073,-0.0073,-0.0073,-0.4991,2.8923,8.9641,0.5788,-0.1099,-0.0659,-0.0562,1,1,1,1,1,1,1
4.7855,sweep,3,+up,0.04635,0.49725,0.70325,1.06069,-0.00744,0.20619,-0.00401,-0.0024,-0.0024,0.2076,-0.0073,-0.0073,-0.0073,0.0073,-0.5128,2.9470,9.1009,0.5690,-0.1050,-0.0708,-0.0562,1,1,1,1,1,1,1
4.8254,sweep,3,+up,0.04635,0.49725,0.70325,1.06069,-0.00744,0.20619,-0.00401,-0.0024,-0.0024,0.2076,-0.0073,-0.0073,-0.0073,0.0073,-0.5128,2.9470,9.1009,0.5690,-0.1050,-0.0708,-0.0562,1,1,1,1,1,1,1
4.8654,sweep,3,+up,0.04635,0.49725,0.70325,1.06069,-0.00744,0.20619,-0.00401,-0.0024,-0.0024,0.2076,-0.0073,-0.0073,-0.0073,0.0073,-0.5128,2.9470,9.1009,0.5690,-0.1050,-0.0708,-0.0562,1,1,1,1,1,1,1
4.9053,sweep,3,+up,0.04635,0.49725,0.72728,1.06107,-0.00744,0.20581,-0.00401,-0.0024,-0.0024,0.1978,0.0073,0.0073,-0.0073,0.0073,-0.5128,3.1111,8.7590,0.5006,-0.1050,-0.0708,-0.0513,1,1,1,1,1,1,1
4.9455,sweep,3,+up,0.04635,0.49725,0.72728,1.06107,-0.00744,0.20581,-0.00401,-0.0024,-0.0024,0.1978,0.0073,0.0073,-0.0073,0.0073,-0.5128,3.1111,8.7590,0.5006,-0.1050,-0.0708,-0.0513,1,1,1,1,1,1,1
4.9855,sweep,3,+up,0.04635,0.49725,0.74331,1.06107,-0.00744,0.20581,-0.00401,-0.0024,-0.0073,0.1929,-0.0073,0.0073,-0.0073,-0.0073,-0.5265,3.1932,9.0188,0.4518,-0.1050,-0.0659,-0.0513,1,1,1,1,1,1,1
5.0253,sweep,3,+up,0.04635,0.49725,0.74331,1.06107,-0.00744,0.20581,-0.00401,-0.0024,-0.0073,0.1929,-0.0073,0.0073,-0.0073,-0.0073,-0.5265,3.1932,9.0188,0.4518,-0.1050,-0.0659,-0.0513,1,1,1,1,1,1,1
5.0652,sweep,3,+up,0.04635,0.49725,0.74331,1.06107,-0.00744,0.20581,-0.00401,-0.0024,-0.0073,0.1929,-0.0073,0.0073,-0.0073,-0.0073,-0.5265,3.1932,9.0188,0.4518,-0.1050,-0.0659,-0.0513,1,1,1,1,1,1,1
5.1056,sweep,3,+up,0.04597,0.49725,0.76734,1.06069,-0.00744,0.20581,-0.00401,-0.0024,-0.0024,0.1880,-0.0220,0.0073,-0.0073,-0.0073,-0.5402,3.3162,8.8957,0.4127,-0.1099,-0.0659,-0.0513,1,1,1,1,1,1,1
5.1456,sweep,3,+up,0.04597,0.49725,0.76734,1.06069,-0.00744,0.20581,-0.00401,-0.0024,-0.0024,0.1880,-0.0220,0.0073,-0.0073,-0.0073,-0.5402,3.3162,8.8957,0.4127,-0.1099,-0.0659,-0.0513,1,1,1,1,1,1,1
5.1853,sweep,3,+up,0.04597,0.49725,0.78336,1.06107,-0.00782,0.20581,-0.00401,-0.0122,-0.0024,0.2076,0.0073,-0.0073,-0.0073,-0.0073,-0.5675,3.3983,8.7863,0.3736,-0.1099,-0.0659,-0.0513,1,1,1,1,1,1,1
5.2255,sweep,3,+up,0.04597,0.49725,0.78336,1.06107,-0.00782,0.20581,-0.00401,-0.0122,-0.0024,0.2076,0.0073,-0.0073,-0.0073,-0.0073,-0.5675,3.3983,8.7863,0.3736,-0.1099,-0.0659,-0.0513,1,1,1,1,1,1,1
5.2655,sweep,3,+up,0.04597,0.49725,0.78336,1.06107,-0.00782,0.20581,-0.00401,-0.0122,-0.0024,0.2076,0.0073,-0.0073,-0.0073,-0.0073,-0.5675,3.3983,8.7863,0.3736,-0.1099,-0.0659,-0.0513,1,1,1,1,1,1,1
5.3056,sweep,3,+up,0.04597,0.49725,0.80777,1.06107,-0.00782,0.20581,-0.00401,-0.0024,-0.0024,0.2027,-0.0073,-0.0220,0.0073,0.0073,-0.5402,3.5487,8.1983,0.3150,-0.1099,-0.0659,-0.0464,1,1,1,1,1,1,1
5.3456,sweep,3,+up,0.04597,0.49725,0.80777,1.06107,-0.00782,0.20581,-0.00401,-0.0024,-0.0024,0.2027,-0.0073,-0.0220,0.0073,0.0073,-0.5402,3.5487,8.1983,0.3150,-0.1099,-0.0659,-0.0464,1,1,1,1,1,1,1
5.3856,sweep,3,+up,0.04597,0.49725,0.82380,1.06107,-0.00744,0.20581,-0.00401,0.0024,-0.0024,0.1978,-0.0220,-0.0073,0.0073,0.0073,-0.5402,3.6034,8.2667,0.2808,-0.1148,-0.0708,-0.0464,1,1,1,1,1,1,1
5.4255,sweep,3,+up,0.04597,0.49725,0.82380,1.06107,-0.00744,0.20581,-0.00401,0.0024,-0.0024,0.1978,-0.0220,-0.0073,0.0073,0.0073,-0.5402,3.6034,8.2667,0.2808,-0.1148,-0.0708,-0.0464,1,1,1,1,1,1,1
5.4656,sweep,3,+up,0.04597,0.49725,0.82380,1.06107,-0.00744,0.20581,-0.00401,0.0024,-0.0024,0.1978,-0.0220,-0.0073,0.0073,0.0073,-0.5402,3.6034,8.2667,0.2808,-0.1148,-0.0708,-0.0464,1,1,1,1,1,1,1
5.5052,sweep,3,+up,0.04597,0.49725,0.84783,1.06107,-0.00744,0.20581,-0.00401,-0.0024,-0.0024,0.2027,-0.0073,0.0073,0.0073,-0.0073,-0.4718,3.7402,8.1846,0.2320,-0.1099,-0.0708,-0.0415,1,1,1,1,1,1,1
5.5452,sweep,3,+up,0.04597,0.49725,0.84783,1.06107,-0.00744,0.20581,-0.00401,-0.0024,-0.0024,0.2027,-0.0073,0.0073,0.0073,-0.0073,-0.4718,3.7402,8.1846,0.2320,-0.1099,-0.0708,-0.0415,1,1,1,1,1,1,1
5.5853,sweep,3,+up,0.04597,0.49725,0.86385,1.06069,-0.00744,0.20581,-0.00401,-0.0024,-0.0024,0.2027,-0.0220,-0.0073,-0.0073,-0.0220,-0.4581,3.8359,8.4034,0.2076,-0.1050,-0.0757,-0.0415,1,1,1,1,1,1,1
5.6254,sweep,3,+up,0.04597,0.49725,0.86385,1.06069,-0.00744,0.20581,-0.00401,-0.0024,-0.0024,0.2027,-0.0220,-0.0073,-0.0073,-0.0220,-0.4581,3.8359,8.4034,0.2076,-0.1050,-0.0757,-0.0415,1,1,1,1,1,1,1
5.6653,sweep,3,+up,0.04597,0.49725,0.86385,1.06069,-0.00744,0.20581,-0.00401,-0.0024,-0.0024,0.2027,-0.0220,-0.0073,-0.0073,-0.0220,-0.4581,3.8359,8.4034,0.2076,-0.1050,-0.0757,-0.0415,1,1,1,1,1,1,1
5.7053,sweep,3,+up,0.04597,0.49725,0.88788,1.06069,-0.00744,0.20581,-0.00401,-0.0024,-0.0024,0.2076,-0.0073,0.0073,-0.0073,-0.0073,-0.4308,4.0000,8.0479,0.1685,-0.1099,-0.0708,-0.0415,1,1,1,1,1,1,1
5.7456,sweep,3,+up,0.04597,0.49725,0.88788,1.06069,-0.00744,0.20581,-0.00401,-0.0024,-0.0024,0.2076,-0.0073,0.0073,-0.0073,-0.0073,-0.4308,4.0000,8.0479,0.1685,-0.1099,-0.0708,-0.0415,1,1,1,1,1,1,1
5.7858,sweep,3,+up,0.04597,0.49725,0.90391,1.06069,-0.00782,0.20581,-0.00401,-0.0024,-0.0024,0.2027,-0.0073,-0.0073,-0.0073,0.0073,-0.4171,4.0410,8.1709,0.1587,-0.1099,-0.0659,-0.0366,1,1,1,1,1,1,1
5.8257,sweep,3,+up,0.04597,0.49725,0.90391,1.06069,-0.00782,0.20581,-0.00401,-0.0024,-0.0024,0.2027,-0.0073,-0.0073,-0.0073,0.0073,-0.4171,4.0410,8.1709,0.1587,-0.1099,-0.0659,-0.0366,1,1,1,1,1,1,1
5.8654,sweep,3,+up,0.04597,0.49725,0.90391,1.06069,-0.00782,0.20581,-0.00401,-0.0024,-0.0024,0.2027,-0.0073,-0.0073,-0.0073,0.0073,-0.4171,4.0410,8.1709,0.1587,-0.1099,-0.0659,-0.0366,1,1,1,1,1,1,1
5.9056,sweep,3,+up,0.04597,0.49725,0.92794,1.06069,-0.00744,0.20581,-0.00401,-0.0024,-0.0024,0.1929,-0.0073,-0.0073,-0.0073,-0.0073,-0.3897,4.1504,7.9111,0.1294,-0.1099,-0.0611,-0.0415,1,1,1,1,1,1,1
5.9455,sweep,3,+up,0.04597,0.49725,0.92794,1.06069,-0.00744,0.20581,-0.00401,-0.0024,-0.0024,0.1929,-0.0073,-0.0073,-0.0073,-0.0073,-0.3897,4.1504,7.9111,0.1294,-0.1099,-0.0611,-0.0415,1,1,1,1,1,1,1
5.9854,sweep,3,+up,0.04597,0.49725,0.94396,1.06069,-0.00744,0.20581,-0.00362,-0.0073,-0.0024,0.1978,-0.0073,-0.0073,-0.0220,0.0073,-0.4034,4.2325,7.9521,0.1099,-0.1099,-0.0562,-0.0415,1,1,1,1,1,1,1
6.0253,sweep,3,+up,0.04597,0.49725,0.94396,1.06069,-0.00744,0.20581,-0.00362,-0.0073,-0.0024,0.1978,-0.0073,-0.0073,-0.0220,0.0073,-0.4034,4.2325,7.9521,0.1099,-0.1099,-0.0562,-0.0415,1,1,1,1,1,1,1
6.0654,sweep,3,+up,0.04597,0.49725,0.94396,1.06069,-0.00744,0.20581,-0.00362,-0.0073,-0.0024,0.1978,-0.0073,-0.0073,-0.0220,0.0073,-0.4034,4.2325,7.9521,0.1099,-0.1099,-0.0562,-0.0415,1,1,1,1,1,1,1
6.1054,sweep,3,+up,0.04597,0.49725,0.96799,1.06069,-0.00744,0.20581,-0.00401,0.0024,-0.0024,0.2027,0.0073,-0.0073,-0.0073,-0.0073,-0.4034,4.3556,7.8564,0.0806,-0.1197,-0.0513,-0.0415,1,1,1,1,1,1,1
6.1455,sweep,3,+up,0.04597,0.49725,0.96799,1.06069,-0.00744,0.20581,-0.00401,0.0024,-0.0024,0.2027,0.0073,-0.0073,-0.0073,-0.0073,-0.4034,4.3556,7.8564,0.0806,-0.1197,-0.0513,-0.0415,1,1,1,1,1,1,1
6.1854,sweep,3,+up,0.04597,0.49725,0.98440,1.06069,-0.00744,0.20581,-0.00401,0.0024,-0.0024,0.2027,-0.0073,-0.0073,-0.0073,-0.0073,-0.4444,4.4239,7.4051,0.0562,-0.1245,-0.0513,-0.0415,1,1,1,1,1,1,1
6.2254,sweep,3,+up,0.04597,0.49725,0.98440,1.06069,-0.00744,0.20581,-0.00401,0.0024,-0.0024,0.2027,-0.0073,-0.0073,-0.0073,-0.0073,-0.4444,4.4239,7.4051,0.0562,-0.1245,-0.0513,-0.0415,1,1,1,1,1,1,1
6.2657,sweep,3,+up,0.04597,0.49725,0.98440,1.06069,-0.00744,0.20581,-0.00401,0.0024,-0.0024,0.2027,-0.0073,-0.0073,-0.0073,-0.0073,-0.4444,4.4239,7.4051,0.0562,-0.1245,-0.0513,-0.0415,1,1,1,1,1,1,1
6.3058,sweep,3,+up,0.04597,0.49725,1.00843,1.06069,-0.00744,0.20581,-0.00401,-0.0024,0.0024,0.1880,-0.0073,-0.0073,-0.0220,0.0073,-0.4718,4.5197,7.2821,0.0415,-0.1294,-0.0464,-0.0366,1,1,1,1,1,1,1
6.3459,sweep,3,+up,0.04597,0.49725,1.00843,1.06069,-0.00744,0.20581,-0.00401,-0.0024,0.0024,0.1880,-0.0073,-0.0073,-0.0220,0.0073,-0.4718,4.5197,7.2821,0.0415,-0.1294,-0.0464,-0.0366,1,1,1,1,1,1,1
6.3856,sweep,3,+up,0.04597,0.49725,1.02483,1.06107,-0.00744,0.20581,-0.00401,-0.0024,-0.0024,0.1978,-0.0073,-0.0073,-0.0073,-0.0220,-0.4718,4.6291,7.1726,0.0220,-0.1294,-0.0464,-0.0366,1,1,1,1,1,1,1
6.4255,sweep,3,+up,0.04597,0.49725,1.02483,1.06107,-0.00744,0.20581,-0.00401,-0.0024,-0.0024,0.1978,-0.0073,-0.0073,-0.0073,-0.0220,-0.4718,4.6291,7.1726,0.0220,-0.1294,-0.0464,-0.0366,1,1,1,1,1,1,1
6.4655,sweep,3,+up,0.04597,0.49725,1.02483,1.06107,-0.00744,0.20581,-0.00401,-0.0024,-0.0024,0.1978,-0.0073,-0.0073,-0.0073,-0.0220,-0.4718,4.6291,7.1726,0.0220,-0.1294,-0.0464,-0.0366,1,1,1,1,1,1,1
6.5054,sweep,3,+up,0.04597,0.49725,1.04925,1.06489,-0.00744,0.20581,-0.00401,-0.0024,-0.0073,0.2076,-0.0220,0.0073,0.0220,-0.0073,-0.4718,4.7111,6.4342,-0.2418,-0.1441,-0.0415,-0.0366,1,1,1,1,1,1,1
6.5454,sweep,3,+up,0.04597,0.49725,1.04925,1.06489,-0.00744,0.20581,-0.00401,-0.0024,-0.0073,0.2076,-0.0220,0.0073,0.0220,-0.0073,-0.4718,4.7111,6.4342,-0.2418,-0.1441,-0.0415,-0.0366,1,1,1,1,1,1,1
6.5853,sweep,3,+up,0.04597,0.49725,1.06489,1.06413,-0.00744,0.20581,-0.00401,-0.0024,-0.0024,0.1832,-0.0220,0.0073,-0.0073,-0.0220,-0.5128,4.8615,6.7350,-0.3541,-0.1245,-0.0415,-0.0317,1,1,1,1,1,1,1
6.6253,sweep,3,+up,0.04597,0.49725,1.06489,1.06413,-0.00744,0.20581,-0.00401,-0.0024,-0.0024,0.1832,-0.0220,0.0073,-0.0073,-0.0220,-0.5128,4.8615,6.7350,-0.3541,-0.1245,-0.0415,-0.0317,1,1,1,1,1,1,1
6.6654,sweep,3,+up,0.04597,0.49725,1.06489,1.06413,-0.00744,0.20581,-0.00401,-0.0024,-0.0024,0.1832,-0.0220,0.0073,-0.0073,-0.0220,-0.5128,4.8615,6.7350,-0.3541,-0.1245,-0.0415,-0.0317,1,1,1,1,1,1,1
6.7054,sweep,3,+up,0.04597,0.49725,1.08892,1.06260,-0.00744,0.20581,-0.00401,0.0024,-0.0024,0.2027,0.0073,-0.0220,-0.0073,-0.0073,-0.5538,5.0120,6.9265,-0.3980,-0.1245,-0.0415,-0.0317,1,1,1,1,1,1,1
6.7454,sweep,3,+up,0.04597,0.49725,1.08892,1.06260,-0.00744,0.20581,-0.00401,0.0024,-0.0024,0.2027,0.0073,-0.0220,-0.0073,-0.0073,-0.5538,5.0120,6.9265,-0.3980,-0.1245,-0.0415,-0.0317,1,1,1,1,1,1,1
6.7854,sweep,3,+up,0.04597,0.49725,1.10533,1.06260,-0.00744,0.20581,-0.00401,-0.0024,-0.0073,0.2027,0.0073,0.0073,-0.0073,-0.0073,-0.5675,5.1077,6.1333,-0.5006,-0.1343,-0.0415,-0.0366,1,1,1,1,1,1,1
6.8255,sweep,3,+up,0.04597,0.49725,1.10533,1.06260,-0.00744,0.20581,-0.00401,-0.0024,-0.0073,0.2027,0.0073,0.0073,-0.0073,-0.0073,-0.5675,5.1077,6.1333,-0.5006,-0.1343,-0.0415,-0.0366,1,1,1,1,1,1,1
6.8656,sweep,3,+up,0.04597,0.49725,1.10533,1.06260,-0.00744,0.20581,-0.00401,-0.0024,-0.0073,0.2027,0.0073,0.0073,-0.0073,-0.0073,-0.5675,5.1077,6.1333,-0.5006,-0.1343,-0.0415,-0.0366,1,1,1,1,1,1,1
6.9056,sweep,3,+up,0.04597,0.49725,1.12936,1.06107,-0.00744,0.20581,-0.00401,-0.0073,-0.0024,0.1929,-0.0366,-0.0073,-0.0220,-0.0073,-0.5402,5.2444,6.1470,-0.5153,-0.1392,-0.0415,-0.0317,1,1,1,1,1,1,1
6.9454,sweep,3,+up,0.04597,0.49725,1.12936,1.06107,-0.00744,0.20581,-0.00401,-0.0073,-0.0024,0.1929,-0.0366,-0.0073,-0.0220,-0.0073,-0.5402,5.2444,6.1470,-0.5153,-0.1392,-0.0415,-0.0317,1,1,1,1,1,1,1
6.9856,sweep,3,+up,0.04597,0.49725,1.14538,1.06069,-0.00744,0.20581,-0.00401,-0.0024,-0.0024,0.1978,-0.0220,-0.0220,-0.0073,-0.0073,-0.5265,5.3949,6.1333,-0.5201,-0.1441,-0.0415,-0.0317,1,1,1,1,1,1,1
7.0254,sweep,3,+up,0.04597,0.49725,1.14538,1.06069,-0.00744,0.20581,-0.00401,-0.0024,-0.0024,0.1978,-0.0220,-0.0220,-0.0073,-0.0073,-0.5265,5.3949,6.1333,-0.5201,-0.1441,-0.0415,-0.0317,1,1,1,1,1,1,1
7.0654,sweep,3,+up,0.04597,0.49725,1.14538,1.06069,-0.00744,0.20581,-0.00401,-0.0024,-0.0024,0.1978,-0.0220,-0.0220,-0.0073,-0.0073,-0.5265,5.3949,6.1333,-0.5201,-0.1441,-0.0415,-0.0317,1,1,1,1,1,1,1
7.1055,sweep,3,+up,0.04597,0.49725,1.16980,1.06107,-0.00744,0.20581,-0.00401,0.0024,-0.0024,0.2027,-0.0073,-0.0073,-0.0073,-0.0073,-0.4855,5.5727,5.5453,-0.6081,-0.1441,-0.0366,-0.0366,1,1,1,1,1,1,1
7.1454,sweep,3,+up,0.04597,0.49725,1.16980,1.06107,-0.00744,0.20581,-0.00401,0.0024,-0.0024,0.2027,-0.0073,-0.0073,-0.0073,-0.0073,-0.4855,5.5727,5.5453,-0.6081,-0.1441,-0.0366,-0.0366,1,1,1,1,1,1,1
7.1854,sweep,3,+up,0.04597,0.49725,1.18620,1.06146,-0.00782,0.20581,-0.00362,-0.0073,-0.0024,0.1880,0.0073,-0.0073,-0.0220,0.0073,-0.4718,5.7231,5.1761,-0.6716,-0.1392,-0.0366,-0.0317,1,1,1,1,1,1,1
7.2254,sweep,3,+up,0.04597,0.49725,1.18620,1.06146,-0.00782,0.20581,-0.00362,-0.0073,-0.0024,0.1880,0.0073,-0.0073,-0.0220,0.0073,-0.4718,5.7231,5.1761,-0.6716,-0.1392,-0.0366,-0.0317,1,1,1,1,1,1,1
7.2657,sweep,3,+up,0.04597,0.49725,1.18620,1.06146,-0.00782,0.20581,-0.00362,-0.0073,-0.0024,0.1880,0.0073,-0.0073,-0.0220,0.0073,-0.4718,5.7231,5.1761,-0.6716,-0.1392,-0.0366,-0.0317,1,1,1,1,1,1,1
7.3055,sweep,3,+up,0.04597,0.49725,1.21023,1.06107,-0.00782,0.20581,-0.00401,-0.0024,-0.0024,0.1929,-0.0220,-0.0073,-0.0073,-0.0220,-0.4581,5.9009,5.0940,-0.7448,-0.1490,-0.0317,-0.0269,1,1,1,1,1,1,1
7.3456,sweep,3,+up,0.04597,0.49725,1.21023,1.06107,-0.00782,0.20581,-0.00401,-0.0024,-0.0024,0.1929,-0.0220,-0.0073,-0.0073,-0.0220,-0.4581,5.9009,5.0940,-0.7448,-0.1490,-0.0317,-0.0269,1,1,1,1,1,1,1
7.3855,sweep,3,+up,0.04597,0.49725,1.22625,1.06107,-0.00744,0.20581,-0.00401,0.0024,-0.0024,0.2076,0.0073,0.0073,-0.0073,-0.0073,-0.4718,6.0103,4.9573,-0.7692,-0.1441,-0.0317,-0.0269,1,1,1,1,1,1,1
7.4255,sweep,3,+up,0.04597,0.49725,1.22625,1.06107,-0.00744,0.20581,-0.00401,0.0024,-0.0024,0.2076,0.0073,0.0073,-0.0073,-0.0073,-0.4718,6.0103,4.9573,-0.7692,-0.1441,-0.0317,-0.0269,1,1,1,1,1,1,1
7.4658,sweep,3,+up,0.04597,0.49725,1.22625,1.06107,-0.00744,0.20581,-0.00401,0.0024,-0.0024,0.2076,0.0073,0.0073,-0.0073,-0.0073,-0.4718,6.0103,4.9573,-0.7692,-0.1441,-0.0317,-0.0269,1,1,1,1,1,1,1
7.5054,sweep,3,+up,0.04597,0.49725,1.25067,1.06107,-0.00744,0.20581,-0.00401,-0.0024,-0.0024,0.1978,-0.0073,-0.0220,-0.0073,0.0073,-0.4581,6.1880,4.6427,-0.8278,-0.1441,-0.0317,-0.0269,1,1,1,1,1,1,1
7.5453,sweep,3,+up,0.04597,0.49725,1.25067,1.06107,-0.00744,0.20581,-0.00401,-0.0024,-0.0024,0.1978,-0.0073,-0.0220,-0.0073,0.0073,-0.4581,6.1880,4.6427,-0.8278,-0.1441,-0.0317,-0.0269,1,1,1,1,1,1,1
7.5855,sweep,3,+up,0.04597,0.49725,1.26631,1.06107,-0.00782,0.20581,-0.00401,-0.0073,-0.0024,0.1929,-0.0073,-0.0073,0.0220,-0.0073,-0.4718,6.3111,4.6154,-0.8620,-0.1392,-0.0269,-0.0317,1,1,1,1,1,1,1
7.6255,sweep,3,+up,0.04597,0.49725,1.26631,1.06107,-0.00782,0.20581,-0.00401,-0.0073,-0.0024,0.1929,-0.0073,-0.0073,0.0220,-0.0073,-0.4718,6.3111,4.6154,-0.8620,-0.1392,-0.0269,-0.0317,1,1,1,1,1,1,1
7.6653,sweep,3,+up,0.04597,0.49725,1.26631,1.06107,-0.00782,0.20581,-0.00401,-0.0073,-0.0024,0.1929,-0.0073,-0.0073,0.0220,-0.0073,-0.4718,6.3111,4.6154,-0.8620,-0.1392,-0.0269,-0.0317,1,1,1,1,1,1,1
7.7054,sweep,3,+up,0.04597,0.49725,1.29072,1.06069,-0.00744,0.20581,-0.00401,-0.0024,-0.0073,0.1929,-0.0220,-0.0073,0.0073,0.0073,-0.4444,6.4889,4.4376,-0.9255,-0.1392,-0.0220,-0.0317,1,1,1,1,1,1,1
7.7457,sweep,3,+up,0.04597,0.49725,1.29072,1.06069,-0.00744,0.20581,-0.00401,-0.0024,-0.0073,0.1929,-0.0220,-0.0073,0.0073,0.0073,-0.4444,6.4889,4.4376,-0.9255,-0.1392,-0.0220,-0.0317,1,1,1,1,1,1,1
7.7855,sweep,3,+up,0.04597,0.49725,1.30674,1.06069,-0.00744,0.20581,-0.00362,-0.0024,-0.0024,0.2076,-0.0073,-0.0073,-0.0073,0.0073,-0.4034,6.5709,4.2598,-0.9548,-0.1392,-0.0220,-0.0317,1,1,1,1,1,1,1
7.8252,sweep,3,+up,0.04597,0.49725,1.30674,1.06069,-0.00744,0.20581,-0.00362,-0.0024,-0.0024,0.2076,-0.0073,-0.0073,-0.0073,0.0073,-0.4034,6.5709,4.2598,-0.9548,-0.1392,-0.0220,-0.0317,1,1,1,1,1,1,1
7.8653,sweep,3,+up,0.04597,0.49725,1.30674,1.06069,-0.00744,0.20581,-0.00362,-0.0024,-0.0024,0.2076,-0.0073,-0.0073,-0.0073,0.0073,-0.4034,6.5709,4.2598,-0.9548,-0.1392,-0.0220,-0.0317,1,1,1,1,1,1,1
7.9052,sweep,3,+up,0.04597,0.49725,1.33116,1.06069,-0.00744,0.20581,-0.00401,0.0024,-0.0024,0.2076,-0.0073,-0.0073,0.0073,-0.0073,-0.4034,6.6940,3.7128,-1.0085,-0.1294,-0.0220,-0.0317,1,1,1,1,1,1,1
7.9452,sweep,3,+up,0.04597,0.49725,1.33116,1.06069,-0.00744,0.20581,-0.00401,0.0024,-0.0024,0.2076,-0.0073,-0.0073,0.0073,-0.0073,-0.4034,6.6940,3.7128,-1.0085,-0.1294,-0.0220,-0.0317,1,1,1,1,1,1,1
7.9853,sweep,3,+up,0.04597,0.49725,1.34718,1.06069,-0.00744,0.20581,-0.00362,-0.0024,0.0024,0.1880,-0.0073,-0.0073,0.0073,0.0073,-0.4308,6.8034,3.6308,-1.0525,-0.1343,-0.0220,-0.0366,1,1,1,1,1,1,1
8.0255,sweep,3,+up,0.04597,0.49725,1.34718,1.06069,-0.00744,0.20581,-0.00362,-0.0024,0.0024,0.1880,-0.0073,-0.0073,0.0073,0.0073,-0.4308,6.8034,3.6308,-1.0525,-0.1343,-0.0220,-0.0366,1,1,1,1,1,1,1
8.0653,sweep,3,+up,0.04597,0.49725,1.34718,1.06069,-0.00744,0.20581,-0.00362,-0.0024,0.0024,0.1880,-0.0073,-0.0073,0.0073,0.0073,-0.4308,6.8034,3.6308,-1.0525,-0.1343,-0.0220,-0.0366,1,1,1,1,1,1,1
8.1059,sweep,3,+up,0.04597,0.49725,1.37121,1.06069,-0.00744,0.20581,-0.00401,0.0024,-0.0024,0.2027,-0.0073,-0.0073,0.0073,-0.0073,-0.4444,6.9402,3.5350,-1.1013,-0.1392,-0.0220,-0.0317,1,1,1,1,1,1,1
8.1454,sweep,3,+up,0.04597,0.49725,1.37121,1.06069,-0.00744,0.20581,-0.00401,0.0024,-0.0024,0.2027,-0.0073,-0.0073,0.0073,-0.0073,-0.4444,6.9402,3.5350,-1.1013,-0.1392,-0.0220,-0.0317,1,1,1,1,1,1,1
8.1855,sweep,3,+up,0.04597,0.49725,1.38762,1.06069,-0.00744,0.20581,-0.00401,-0.0024,-0.0024,0.2076,-0.0220,0.0073,-0.0220,-0.0073,-0.4308,7.0085,3.4120,-1.1306,-0.1392,-0.0220,-0.0317,1,1,1,1,1,1,1
8.2254,sweep,3,+up,0.04597,0.49725,1.38762,1.06069,-0.00744,0.20581,-0.00401,-0.0024,-0.0024,0.2076,-0.0220,0.0073,-0.0220,-0.0073,-0.4308,7.0085,3.4120,-1.1306,-0.1392,-0.0220,-0.0317,1,1,1,1,1,1,1
8.2654,sweep,3,+up,0.04597,0.49725,1.38762,1.06069,-0.00744,0.20581,-0.00401,-0.0024,-0.0024,0.2076,-0.0220,0.0073,-0.0220,-0.0073,-0.4308,7.0085,3.4120,-1.1306,-0.1392,-0.0220,-0.0317,1,1,1,1,1,1,1
8.3054,sweep,3,+up,0.04597,0.49725,1.41203,1.06069,-0.00744,0.20581,-0.00401,0.0024,-0.0024,0.2076,-0.0073,-0.0220,-0.0220,-0.0073,-0.4308,7.2410,2.7692,-1.1893,-0.1343,-0.0171,-0.0269,1,1,1,1,1,1,1
8.3455,sweep,3,+up,0.04597,0.49725,1.41203,1.06069,-0.00744,0.20581,-0.00401,0.0024,-0.0024,0.2076,-0.0073,-0.0220,-0.0220,-0.0073,-0.4308,7.2410,2.7692,-1.1893,-0.1343,-0.0171,-0.0269,1,1,1,1,1,1,1
8.3854,sweep,3,+up,0.04597,0.49725,1.42805,1.06069,-0.00744,0.20581,-0.00362,-0.0024,-0.0024,0.1929,-0.0073,-0.0073,-0.0220,-0.0073,-0.4171,7.3231,2.8513,-1.2234,-0.1392,-0.0122,-0.0269,1,1,1,1,1,1,1
8.4255,sweep,3,+up,0.04597,0.49725,1.42805,1.06069,-0.00744,0.20581,-0.00362,-0.0024,-0.0024,0.1929,-0.0073,-0.0073,-0.0220,-0.0073,-0.4171,7.3231,2.8513,-1.2234,-0.1392,-0.0122,-0.0269,1,1,1,1,1,1,1
8.4655,sweep,3,+up,0.04597,0.49725,1.42805,1.06069,-0.00744,0.20581,-0.00362,-0.0024,-0.0024,0.1929,-0.0073,-0.0073,-0.0220,-0.0073,-0.4171,7.3231,2.8513,-1.2234,-0.1392,-0.0122,-0.0269,1,1,1,1,1,1,1
8.5054,sweep,3,+up,0.04597,0.49725,1.45209,1.06069,-0.00744,0.20581,-0.00362,-0.0122,-0.0024,0.1978,0.0073,-0.0073,0.0073,-0.0073,-0.4034,7.5009,2.6598,-1.2723,-0.1490,-0.0122,-0.0269,1,1,1,1,1,1,1
8.5456,sweep,3,+up,0.04597,0.49725,1.45209,1.06069,-0.00744,0.20581,-0.00362,-0.0122,-0.0024,0.1978,0.0073,-0.0073,0.0073,-0.0073,-0.4034,7.5009,2.6598,-1.2723,-0.1490,-0.0122,-0.0269,1,1,1,1,1,1,1
8.5853,sweep,3,+up,0.04597,0.49725,1.46849,1.06069,-0.00744,0.20581,-0.00362,-0.0024,-0.0024,0.2027,-0.0073,-0.0073,0.0073,-0.0073,-0.4444,7.6513,2.4000,-1.3065,-0.1441,-0.0073,-0.0269,1,1,1,1,1,1,1
8.6253,sweep,3,+up,0.04597,0.49725,1.46849,1.06069,-0.00744,0.20581,-0.00362,-0.0024,-0.0024,0.2027,-0.0073,-0.0073,0.0073,-0.0073,-0.4444,7.6513,2.4000,-1.3065,-0.1441,-0.0073,-0.0269,1,1,1,1,1,1,1
8.6653,sweep,3,+up,0.04597,0.49725,1.46849,1.06069,-0.00744,0.20581,-0.00362,-0.0024,-0.0024,0.2027,-0.0073,-0.0073,0.0073,-0.0073,-0.4444,7.6513,2.4000,-1.3065,-0.1441,-0.0073,-0.0269,1,1,1,1,1,1,1
8.7053,sweep,3,+up,0.04597,0.49725,1.49252,1.06069,-0.00782,0.20581,-0.00401,-0.0024,-0.0024,0.1978,-0.0220,-0.0073,-0.0073,-0.0073,-0.4308,7.7880,2.2085,-1.3553,-0.1441,-0.0073,-0.0269,1,1,1,1,1,1,1
8.7453,sweep,3,+up,0.04597,0.49725,1.49252,1.06069,-0.00782,0.20581,-0.00401,-0.0024,-0.0024,0.1978,-0.0220,-0.0073,-0.0073,-0.0073,-0.4308,7.7880,2.2085,-1.3553,-0.1441,-0.0073,-0.0269,1,1,1,1,1,1,1
8.7853,sweep,3,+up,0.04597,0.49725,1.50854,1.06031,-0.00744,0.20581,-0.00362,-0.0024,-0.0024,0.1978,-0.0073,-0.0073,-0.0220,-0.0073,-0.4171,7.8974,2.1128,-1.3700,-0.1490,-0.0073,-0.0269,1,1,1,1,1,1,1
8.8255,sweep,3,+up,0.04597,0.49725,1.50854,1.06031,-0.00744,0.20581,-0.00362,-0.0024,-0.0024,0.1978,-0.0073,-0.0073,-0.0220,-0.0073,-0.4171,7.8974,2.1128,-1.3700,-0.1490,-0.0073,-0.0269,1,1,1,1,1,1,1
8.8652,sweep,3,+up,0.04597,0.49725,1.50854,1.06031,-0.00744,0.20581,-0.00362,-0.0024,-0.0024,0.1978,-0.0073,-0.0073,-0.0220,-0.0073,-0.4171,7.8974,2.1128,-1.3700,-0.1490,-0.0073,-0.0269,1,1,1,1,1,1,1
8.9053,sweep,3,+up,0.04597,0.49725,1.53258,1.06069,-0.00744,0.20581,-0.00401,-0.0024,-0.0024,0.1880,-0.0073,-0.0220,0.0073,-0.0073,-0.3761,8.0889,1.7983,-1.4090,-0.1441,0.0024,-0.0269,1,1,1,1,1,1,1
8.9455,sweep,3,+up,0.04597,0.49725,1.53258,1.06069,-0.00744,0.20581,-0.00401,-0.0024,-0.0024,0.1880,-0.0073,-0.0220,0.0073,-0.0073,-0.3761,8.0889,1.7983,-1.4090,-0.1441,0.0024,-0.0269,1,1,1,1,1,1,1
8.9856,sweep,3,+up,0.04597,0.49725,1.54898,1.06031,-0.00744,0.20581,-0.00362,-0.0073,-0.0024,0.2076,-0.0220,-0.0073,0.0073,-0.0073,-0.4171,8.1709,1.5795,-1.4335,-0.1490,0.0024,-0.0269,1,1,1,1,1,1,1
9.0252,sweep,3,+up,0.04597,0.49725,1.54898,1.06031,-0.00744,0.20581,-0.00362,-0.0073,-0.0024,0.2076,-0.0220,-0.0073,0.0073,-0.0073,-0.4171,8.1709,1.5795,-1.4335,-0.1490,0.0024,-0.0269,1,1,1,1,1,1,1
9.0655,sweep,3,+up,0.04597,0.49725,1.54898,1.06031,-0.00744,0.20581,-0.00362,-0.0073,-0.0024,0.2076,-0.0220,-0.0073,0.0073,-0.0073,-0.4171,8.1709,1.5795,-1.4335,-0.1490,0.0024,-0.0269,1,1,1,1,1,1,1
9.1054,sweep,3,+up,0.04597,0.49725,1.57301,1.06069,-0.00744,0.20581,-0.00362,-0.0024,-0.0073,0.2027,-0.0220,-0.0073,-0.0073,-0.0073,-0.3897,8.3487,1.2513,-1.4872,-0.1538,0.0024,-0.0269,1,1,1,1,1,1,1
9.1454,sweep,3,+up,0.04597,0.49725,1.57301,1.06069,-0.00744,0.20581,-0.00362,-0.0024,-0.0073,0.2027,-0.0220,-0.0073,-0.0073,-0.0073,-0.3897,8.3487,1.2513,-1.4872,-0.1538,0.0024,-0.0269,1,1,1,1,1,1,1
9.1854,sweep,3,+up,0.04597,0.49725,1.58904,1.06069,-0.00744,0.20581,-0.00401,-0.0024,-0.0024,0.1978,0.0073,-0.0220,-0.0073,-0.0220,-0.3761,8.4718,1.0462,-1.5116,-0.1490,0.0024,-0.0220,1,1,1,1,1,1,1
9.2253,sweep,3,+up,0.04597,0.49725,1.58904,1.06069,-0.00744,0.20581,-0.00401,-0.0024,-0.0024,0.1978,0.0073,-0.0220,-0.0073,-0.0220,-0.3761,8.4718,1.0462,-1.5116,-0.1490,0.0024,-0.0220,1,1,1,1,1,1,1
9.2655,sweep,3,+up,0.04597,0.49725,1.58904,1.06069,-0.00744,0.20581,-0.00401,-0.0024,-0.0024,0.1978,0.0073,-0.0220,-0.0073,-0.0220,-0.3761,8.4718,1.0462,-1.5116,-0.1490,0.0024,-0.0220,1,1,1,1,1,1,1
9.3055,sweep,3,+up,0.04635,0.49725,1.61345,1.06069,-0.00744,0.20581,-0.00362,0.0024,-0.0024,0.2027,-0.0073,-0.0220,-0.0220,-0.0073,-0.3897,8.6359,0.9231,-1.5556,-0.1441,-0.0024,-0.0269,1,1,1,1,1,1,1
9.3454,sweep,3,+up,0.04635,0.49725,1.61345,1.06069,-0.00744,0.20581,-0.00362,0.0024,-0.0024,0.2027,-0.0073,-0.0220,-0.0220,-0.0073,-0.3897,8.6359,0.9231,-1.5556,-0.1441,-0.0024,-0.0269,1,1,1,1,1,1,1
9.3854,sweep,3,+up,0.04635,0.49725,1.62947,1.06069,-0.00744,0.20581,-0.00401,-0.0073,-0.0024,0.2125,-0.0220,-0.0073,-0.0073,-0.0073,-0.4171,8.8137,0.6222,-1.5800,-0.1392,-0.0024,-0.0269,1,1,1,1,1,1,1
9.4252,sweep,3,+up,0.04635,0.49725,1.62947,1.06069,-0.00744,0.20581,-0.00401,-0.0073,-0.0024,0.2125,-0.0220,-0.0073,-0.0073,-0.0073,-0.4171,8.8137,0.6222,-1.5800,-0.1392,-0.0024,-0.0269,1,1,1,1,1,1,1
9.4655,sweep,3,+up,0.04635,0.49725,1.62947,1.06069,-0.00744,0.20581,-0.00401,-0.0073,-0.0024,0.2125,-0.0220,-0.0073,-0.0073,-0.0073,-0.4171,8.8137,0.6222,-1.5800,-0.1392,-0.0024,-0.0269,1,1,1,1,1,1,1
9.5052,sweep,3,+up,0.04597,0.49725,1.65389,1.06069,-0.00744,0.20581,-0.00401,-0.0024,-0.0073,0.2125,0.0073,-0.0073,-0.0220,-0.0073,-0.3897,8.9504,0.3487,-1.6190,-0.1490,-0.0024,-0.0269,1,1,1,1,1,1,1
9.5455,sweep,3,+up,0.04597,0.49725,1.65389,1.06069,-0.00744,0.20581,-0.00401,-0.0024,-0.0073,0.2125,0.0073,-0.0073,-0.0220,-0.0073,-0.3897,8.9504,0.3487,-1.6190,-0.1490,-0.0024,-0.0269,1,1,1,1,1,1,1
9.5856,sweep,3,+up,0.04597,0.49725,1.66991,1.06069,-0.00744,0.20581,-0.00401,-0.0024,-0.0024,0.1978,-0.0220,-0.0073,-0.0220,0.0073,-0.4171,9.0462,0.3624,-1.6386,-0.1587,0.0024,-0.0317,1,1,1,1,1,1,1
9.6252,sweep,3,+up,0.04597,0.49725,1.66991,1.06069,-0.00744,0.20581,-0.00401,-0.0024,-0.0024,0.1978,-0.0220,-0.0073,-0.0220,0.0073,-0.4171,9.0462,0.3624,-1.6386,-0.1587,0.0024,-0.0317,1,1,1,1,1,1,1
9.6653,sweep,3,+up,0.04597,0.49725,1.66991,1.06069,-0.00744,0.20581,-0.00401,-0.0024,-0.0024,0.1978,-0.0220,-0.0073,-0.0220,0.0073,-0.4171,9.0462,0.3624,-1.6386,-0.1587,0.0024,-0.0317,1,1,1,1,1,1,1
9.7054,sweep,3,+up,0.04635,0.49725,1.69394,1.06031,-0.00744,0.20581,-0.00362,-0.0024,-0.0024,0.2027,-0.0073,-0.0220,-0.0073,-0.0073,-0.3897,9.1966,0.2530,-1.6484,-0.1734,0.0024,-0.0317,1,1,1,1,1,1,1
9.7453,sweep,3,+up,0.04635,0.49725,1.69394,1.06031,-0.00744,0.20581,-0.00362,-0.0024,-0.0024,0.2027,-0.0073,-0.0220,-0.0073,-0.0073,-0.3897,9.1966,0.2530,-1.6484,-0.1734,0.0024,-0.0317,1,1,1,1,1,1,1
9.7855,sweep,3,+up,0.04635,0.49725,1.70996,1.05993,-0.00744,0.20581,-0.00362,-0.0073,-0.0024,0.1880,-0.0073,-0.0073,-0.0073,-0.0073,-0.4308,9.3197,0.1573,-1.6435,-0.1587,0.0024,-0.0269,1,1,1,1,1,1,1
9.8253,sweep,3,+up,0.04635,0.49725,1.70996,1.05993,-0.00744,0.20581,-0.00362,-0.0073,-0.0024,0.1880,-0.0073,-0.0073,-0.0073,-0.0073,-0.4308,9.3197,0.1573,-1.6435,-0.1587,0.0024,-0.0269,1,1,1,1,1,1,1
9.8653,sweep,3,+up,0.04635,0.49725,1.70996,1.05993,-0.00744,0.20581,-0.00362,-0.0073,-0.0024,0.1880,-0.0073,-0.0073,-0.0073,-0.0073,-0.4308,9.3197,0.1573,-1.6435,-0.1587,0.0024,-0.0269,1,1,1,1,1,1,1
9.9053,sweep,3,+up,0.04635,0.49725,1.73552,1.05993,-0.00744,0.20581,-0.00401,-0.0024,-0.0073,0.2125,0.0073,-0.0073,-0.0073,-0.0073,-0.4444,9.4974,-0.5538,-1.6386,-0.1490,-0.0024,-0.0317,1,1,1,1,1,1,1
9.9454,sweep,3,+up,0.04635,0.49725,1.73552,1.05993,-0.00744,0.20581,-0.00401,-0.0024,-0.0073,0.2125,0.0073,-0.0073,-0.0073,-0.0073,-0.4444,9.4974,-0.5538,-1.6386,-0.1490,-0.0024,-0.0317,1,1,1,1,1,1,1
9.9853,sweep,3,+up,0.04635,0.49687,1.75193,1.06184,-0.00744,0.20581,-0.00362,-0.0024,-0.0024,0.2222,0.0073,0.0073,0.0073,-0.0073,-0.5128,10.0718,-1.1692,-1.8095,-0.1685,0.0024,-0.0269,1,1,1,1,1,1,1
10.0253,sweep,3,+up,0.04635,0.49687,1.75193,1.06184,-0.00744,0.20581,-0.00362,-0.0024,-0.0024,0.2222,0.0073,0.0073,0.0073,-0.0073,-0.5128,10.0718,-1.1692,-1.8095,-0.1685,0.0024,-0.0269,1,1,1,1,1,1,1
10.0653,sweep,3,+up,0.04635,0.49687,1.75193,1.06184,-0.00744,0.20581,-0.00362,-0.0024,-0.0024,0.2222,0.0073,0.0073,0.0073,-0.0073,-0.5128,10.0718,-1.1692,-1.8095,-0.1685,0.0024,-0.0269,1,1,1,1,1,1,1
10.1054,sweep,3,+up,0.04635,0.49649,1.77596,1.06222,-0.00782,0.20581,-0.00362,-0.0024,-0.0024,0.1978,-0.0220,-0.0073,-0.0073,-0.0073,-0.4855,10.4410,-1.4017,-1.9805,-0.1587,0.0024,-0.0269,1,1,1,1,1,1,1
10.1454,sweep,3,+up,0.04635,0.49649,1.77596,1.06222,-0.00782,0.20581,-0.00362,-0.0024,-0.0024,0.1978,-0.0220,-0.0073,-0.0073,-0.0073,-0.4855,10.4410,-1.4017,-1.9805,-0.1587,0.0024,-0.0269,1,1,1,1,1,1,1
10.1854,sweep,3,+up,0.04635,0.49649,1.79198,1.06069,-0.00782,0.20581,-0.00362,-0.0024,-0.0024,0.2027,-0.0366,-0.0073,-0.0073,0.0073,-0.4718,10.6188,-1.1829,-1.9414,-0.1441,0.0073,-0.0220,1,1,1,1,1,1,1
10.2253,sweep,3,+up,0.04635,0.49649,1.79198,1.06069,-0.00782,0.20581,-0.00362,-0.0024,-0.0024,0.2027,-0.0366,-0.0073,-0.0073,0.0073,-0.4718,10.6188,-1.1829,-1.9414,-0.1441,0.0073,-0.0220,1,1,1,1,1,1,1
10.2655,sweep,3,+up,0.04635,0.49649,1.79198,1.06069,-0.00782,0.20581,-0.00362,-0.0024,-0.0024,0.2027,-0.0366,-0.0073,-0.0073,0.0073,-0.4718,10.6188,-1.1829,-1.9414,-0.1441,0.0073,-0.0220,1,1,1,1,1,1,1
10.3053,sweep,3,+up,0.04597,0.49649,1.81601,1.05955,-0.00782,0.20619,-0.00401,-0.0024,0.0024,0.1929,-0.0220,-0.0073,-0.0073,-0.0073,-0.4991,10.8650,-1.0325,-1.8779,-0.1587,0.0073,-0.0269,1,1,1,1,1,1,1
10.3454,sweep,3,+up,0.04597,0.49649,1.81601,1.05955,-0.00782,0.20619,-0.00401,-0.0024,0.0024,0.1929,-0.0220,-0.0073,-0.0073,-0.0073,-0.4991,10.8650,-1.0325,-1.8779,-0.1587,0.0073,-0.0269,1,1,1,1,1,1,1
10.3852,sweep,3,+up,0.04635,0.49649,1.83165,1.05917,-0.00744,0.20581,-0.00362,0.0024,-0.0024,0.1978,-0.0073,0.0073,-0.0073,-0.0073,-0.5675,11.0427,-1.0325,-1.8339,-0.1441,0.0024,-0.0269,1,1,1,1,1,1,1
10.4254,sweep,3,+up,0.04635,0.49649,1.83165,1.05917,-0.00744,0.20581,-0.00362,0.0024,-0.0024,0.1978,-0.0073,0.0073,-0.0073,-0.0073,-0.5675,11.0427,-1.0325,-1.8339,-0.1441,0.0024,-0.0269,1,1,1,1,1,1,1
10.4653,sweep,3,+up,0.04635,0.49649,1.83165,1.05917,-0.00744,0.20581,-0.00362,0.0024,-0.0024,0.1978,-0.0073,0.0073,-0.0073,-0.0073,-0.5675,11.0427,-1.0325,-1.8339,-0.1441,0.0024,-0.0269,1,1,1,1,1,1,1
10.5054,sweep,3,+up,0.04635,0.49649,1.85645,1.05993,-0.00782,0.20581,-0.00401,-0.0024,0.0024,0.1929,0.0073,-0.0073,-0.0073,-0.0073,-0.6222,11.3162,-1.7573,-1.8926,-0.1441,0.0122,-0.0317,1,1,1,1,1,1,1
10.5456,sweep,3,+up,0.04635,0.49649,1.85645,1.05993,-0.00782,0.20581,-0.00401,-0.0024,0.0024,0.1929,0.0073,-0.0073,-0.0073,-0.0073,-0.6222,11.3162,-1.7573,-1.8926,-0.1441,0.0122,-0.0317,1,1,1,1,1,1,1
10.5855,sweep,3,+up,0.04635,0.49649,1.87133,1.06031,-0.00782,0.20581,-0.00401,-0.0024,-0.0024,0.1783,-0.0073,-0.0220,0.0073,-0.0073,-0.6222,11.5350,-1.8530,-1.9316,-0.1392,0.0122,-0.0317,1,1,1,1,1,1,1
10.6254,sweep,3,+up,0.04635,0.49649,1.87133,1.06031,-0.00782,0.20581,-0.00401,-0.0024,-0.0024,0.1783,-0.0073,-0.0220,0.0073,-0.0073,-0.6222,11.5350,-1.8530,-1.9316,-0.1392,0.0122,-0.0317,1,1,1,1,1,1,1
10.6654,sweep,3,+up,0.04635,0.49649,1.87133,1.06031,-0.00782,0.20581,-0.00401,-0.0024,-0.0024,0.1783,-0.0073,-0.0220,0.0073,-0.0073,-0.6222,11.5350,-1.8530,-1.9316,-0.1392,0.0122,-0.0317,1,1,1,1,1,1,1
10.7054,sweep,3,+up,0.04635,0.49649,1.89078,1.06069,-0.00782,0.20581,-0.00401,0.0024,-0.0024,0.1441,-0.0073,-0.0073,-0.0073,-0.0073,-0.5538,11.7265,-2.0444,-2.0049,-0.1245,0.0073,-0.0269,1,1,1,1,1,1,1
10.7452,sweep,3,+up,0.04635,0.49649,1.89078,1.06069,-0.00782,0.20581,-0.00401,0.0024,-0.0024,0.1441,-0.0073,-0.0073,-0.0073,-0.0073,-0.5538,11.7265,-2.0444,-2.0049,-0.1245,0.0073,-0.0269,1,1,1,1,1,1,1
10.7854,sweep,3,+up,0.04635,0.49649,1.90223,1.06069,-0.00782,0.20581,-0.00362,-0.0024,-0.0024,0.1490,-0.0073,-0.0073,-0.0073,-0.0073,-0.5538,11.9179,-2.3179,-2.0488,-0.1197,0.0073,-0.0269,1,1,1,1,1,1,1
10.8253,sweep,3,+up,0.04635,0.49649,1.90223,1.06069,-0.00782,0.20581,-0.00362,-0.0024,-0.0024,0.1490,-0.0073,-0.0073,-0.0073,-0.0073,-0.5538,11.9179,-2.3179,-2.0488,-0.1197,0.0073,-0.0269,1,1,1,1,1,1,1
10.8653,sweep,3,+up,0.04635,0.49649,1.90223,1.06069,-0.00782,0.20581,-0.00362,-0.0024,-0.0024,0.1490,-0.0073,-0.0073,-0.0073,-0.0073,-0.5538,11.9179,-2.3179,-2.0488,-0.1197,0.0073,-0.0269,1,1,1,1,1,1,1
10.9054,sweep,3,+up,0.04635,0.49649,1.91672,1.06031,-0.00782,0.20581,-0.00362,0.0024,-0.0073,0.1197,-0.0073,-0.0073,-0.0073,-0.0073,-0.5538,12.1915,-2.1812,-2.0586,-0.1197,0.0073,-0.0269,1,1,1,1,1,1,1
10.9454,sweep,3,+up,0.04635,0.49649,1.91672,1.06031,-0.00782,0.20581,-0.00362,0.0024,-0.0073,0.1197,-0.0073,-0.0073,-0.0073,-0.0073,-0.5538,12.1915,-2.1812,-2.0586,-0.1197,0.0073,-0.0269,1,1,1,1,1,1,1
10.9854,sweep,3,+up,0.04635,0.49649,1.92512,1.05993,-0.00782,0.20581,-0.00401,0.0024,-0.0024,0.0757,-0.0073,-0.0073,0.0073,-0.0220,-0.5402,12.4103,-1.9897,-2.0635,-0.1294,0.0073,-0.0317,1,1,1,1,1,1,1
11.0255,sweep,3,+up,0.04635,0.49649,1.92512,1.05993,-0.00782,0.20581,-0.00401,0.0024,-0.0024,0.0757,-0.0073,-0.0073,0.0073,-0.0220,-0.5402,12.4103,-1.9897,-2.0635,-0.1294,0.0073,-0.0317,1,1,1,1,1,1,1
11.0654,sweep,3,+up,0.04635,0.49649,1.92512,1.05993,-0.00782,0.20581,-0.00401,0.0024,-0.0024,0.0757,-0.0073,-0.0073,0.0073,-0.0220,-0.5402,12.4103,-1.9897,-2.0635,-0.1294,0.0073,-0.0317,1,1,1,1,1,1,1
11.1053,sweep,3,+up,0.04635,0.49649,1.93694,1.06031,-0.00782,0.20581,-0.00401,0.0024,-0.0024,0.0952,0.0073,-0.0073,-0.0073,-0.0073,-0.5675,12.6564,-2.5504,-2.0928,-0.1197,0.0122,-0.0317,1,1,1,1,1,1,1
11.1453,sweep,3,+up,0.04635,0.49649,1.93694,1.06031,-0.00782,0.20581,-0.00401,0.0024,-0.0024,0.0952,0.0073,-0.0073,-0.0073,-0.0073,-0.5675,12.6564,-2.5504,-2.0928,-0.1197,0.0122,-0.0317,1,1,1,1,1,1,1
11.1851,sweep,3,+up,0.04635,0.49649,1.94343,1.06031,-0.00744,0.20581,-0.00401,-0.0024,-0.0024,0.1001,-0.0220,-0.0073,0.0073,-0.0073,-0.5675,12.9162,-2.5778,-2.1270,-0.1148,0.0122,-0.0269,1,1,1,1,1,1,1
11.2256,sweep,3,+up,0.04635,0.49649,1.94343,1.06031,-0.00744,0.20581,-0.00401,-0.0024,-0.0024,0.1001,-0.0220,-0.0073,0.0073,-0.0073,-0.5675,12.9162,-2.5778,-2.1270,-0.1148,0.0122,-0.0269,1,1,1,1,1,1,1
11.2657,sweep,3,+up,0.04635,0.49649,1.94343,1.06031,-0.00744,0.20581,-0.00401,-0.0024,-0.0024,0.1001,-0.0220,-0.0073,0.0073,-0.0073,-0.5675,12.9162,-2.5778,-2.1270,-0.1148,0.0122,-0.0269,1,1,1,1,1,1,1
11.3055,sweep,3,+up,0.04635,0.49649,1.95182,1.06031,-0.00782,0.20581,-0.00362,-0.0073,-0.0024,0.0659,-0.0220,0.0073,-0.0220,-0.0073,-0.5949,13.0393,-2.4547,-2.1661,-0.1148,0.0171,-0.0317,1,1,1,1,1,1,1
11.3454,sweep,3,+up,0.04635,0.49649,1.95182,1.06031,-0.00782,0.20581,-0.00362,-0.0073,-0.0024,0.0659,-0.0220,0.0073,-0.0220,-0.0073,-0.5949,13.0393,-2.4547,-2.1661,-0.1148,0.0171,-0.0317,1,1,1,1,1,1,1
11.3856,sweep,3,+up,0.04635,0.49649,1.95907,1.06031,-0.00782,0.20581,-0.00401,-0.0073,0.0024,0.0562,-0.0073,-0.0220,-0.0220,-0.0073,-0.5812,13.2855,-2.4957,-2.1661,-0.1148,0.0220,-0.0269,1,1,1,1,1,1,1
11.4254,sweep,3,+up,0.04635,0.49649,1.95907,1.06031,-0.00782,0.20581,-0.00401,-0.0073,0.0024,0.0562,-0.0073,-0.0220,-0.0220,-0.0073,-0.5812,13.2855,-2.4957,-2.1661,-0.1148,0.0220,-0.0269,1,1,1,1,1,1,1
11.4655,sweep,3,+up,0.04635,0.49649,1.95907,1.06031,-0.00782,0.20581,-0.00401,-0.0073,0.0024,0.0562,-0.0073,-0.0220,-0.0220,-0.0073,-0.5812,13.2855,-2.4957,-2.1661,-0.1148,0.0220,-0.0269,1,1,1,1,1,1,1
11.5055,sweep,3,+up,0.04635,0.49649,1.96326,1.05993,-0.00782,0.20581,-0.00401,-0.0024,-0.0024,0.0513,-0.0073,-0.0073,-0.0073,-0.0220,-0.5949,13.4496,-2.4684,-2.1612,-0.1148,0.0269,-0.0269,1,1,1,1,1,1,1
11.5453,sweep,3,+up,0.04635,0.49649,1.96326,1.05993,-0.00782,0.20581,-0.00401,-0.0024,-0.0024,0.0513,-0.0073,-0.0073,-0.0073,-0.0220,-0.5949,13.4496,-2.4684,-2.1612,-0.1148,0.0269,-0.0269,1,1,1,1,1,1,1
11.5853,sweep,3,+up,0.04635,0.49649,1.96899,1.06031,-0.00782,0.20581,-0.00401,-0.0024,-0.0024,0.0464,-0.0220,0.0073,-0.0073,-0.0073,-0.5949,13.4496,-2.8239,-2.1905,-0.1050,0.0269,-0.0317,1,1,1,1,1,1,1
11.6252,sweep,3,+up,0.04635,0.49649,1.96899,1.06031,-0.00782,0.20581,-0.00401,-0.0024,-0.0024,0.0464,-0.0220,0.0073,-0.0073,-0.0073,-0.5949,13.7231,-2.8239,-2.1905,-0.1050,0.0269,-0.0317,1,1,1,1,1,1,1
11.6653,sweep,3,+up,0.04635,0.49649,1.96899,1.06031,-0.00782,0.20581,-0.00401,-0.0024,-0.0024,0.0464,-0.0220,0.0073,-0.0073,-0.0073,-0.5949,13.7231,-2.8239,-2.1905,-0.1050,0.0269,-0.0317,1,1,1,1,1,1,1
11.7054,sweep,3,+up,0.04635,0.49649,1.97204,1.06031,-0.00782,0.20581,-0.00401,0.0024,0.0024,0.0415,-0.0073,-0.0220,-0.0073,0.0073,-0.5949,13.8735,-2.8513,-2.2100,-0.1001,0.0220,-0.0269,1,1,1,1,1,1,1
11.7453,sweep,3,+up,0.04635,0.49649,1.97204,1.06031,-0.00782,0.20581,-0.00401,0.0024,0.0024,0.0415,-0.0073,-0.0220,-0.0073,0.0073,-0.5949,13.8735,-2.8513,-2.2100,-0.1001,0.0220,-0.0269,1,1,1,1,1,1,1
11.7854,sweep,3,+up,0.04635,0.49649,1.97204,1.06031,-0.00782,0.20581,-0.00362,0.0024,0.0024,0.0415,-0.0073,-0.0220,-0.0220,-0.0073,-0.5949,13.8735,-2.8513,-2.2100,-0.1001,0.0269,-0.0269,1,1,1,1,1,1,1
11.8256,sweep,3,+up,0.04635,0.49649,1.97623,1.05993,-0.00744,0.20581,-0.00362,-0.0024,-0.0024,0.0317,-0.0366,0.0073,-0.0220,-0.0073,-0.5949,14.1607,-2.7145,-2.2149,-0.0952,0.0269,-0.0269,1,1,1,1,1,1,1
11.8652,sweep,3,+up,0.04635,0.49649,1.97623,1.05993,-0.00744,0.20581,-0.00362,-0.0024,-0.0024,0.0317,-0.0366,0.0073,-0.0220,-0.0073,-0.5949,14.1607,-2.7145,-2.2149,-0.0952,0.0269,-0.0269,1,1,1,1,1,1,1
11.9053,sweep,3,+up,0.04635,0.49649,1.97890,1.05993,-0.00744,0.20581,-0.00401,-0.0073,-0.0024,0.0122,-0.0073,-0.0073,-0.0220,0.0073,-0.5949,14.3521,-2.8786,-2.2247,-0.0904,0.0269,-0.0269,1,1,1,1,1,1,1
11.9453,sweep,3,+up,0.04635,0.49649,1.97890,1.05993,-0.00744,0.20581,-0.00401,-0.0073,-0.0024,0.0122,-0.0073,-0.0073,-0.0220,0.0073,-0.5949,14.3521,-2.8786,-2.2247,-0.0904,0.0269,-0.0269,1,1,1,1,1,1,1
11.9852,sweep,3,+up,0.04635,0.49649,1.97890,1.05993,-0.00744,0.20581,-0.00401,-0.0073,-0.0024,0.0122,-0.0073,-0.0073,-0.0220,0.0073,-0.5949,14.3521,-2.8786,-2.2247,-0.0904,0.0269,-0.0269,1,1,1,1,1,1,1
12.0253,sweep,3,+up,0.04635,0.49649,1.98196,1.05993,-0.00744,0.20581,-0.00362,0.0024,-0.0024,0.0366,-0.0073,-0.0073,0.0073,-0.0073,-0.6085,14.5709,-2.8103,-2.2051,-0.0855,0.0269,-0.0269,1,1,1,1,1,1,1
12.5280,sweep,3,-down,0.04635,0.49649,1.98272,1.05993,-0.00744,0.20581,-0.00401,-0.0024,-0.0024,0.0122,-0.0073,-0.0073,0.0073,-0.0073,-0.6222,14.6393,-2.5641,-2.2051,-0.0855,0.0269,-0.0269,1,1,1,1,1,1,1
12.5678,sweep,3,-down,0.04635,0.49649,1.98272,1.05993,-0.00744,0.20581,-0.00401,-0.0024,-0.0024,0.0122,-0.0073,-0.0073,0.0073,-0.0073,-0.6222,14.6393,-2.5641,-2.2051,-0.0855,0.0269,-0.0269,1,1,1,1,1,1,1
12.6079,sweep,3,-down,0.04635,0.49687,1.98653,1.05993,-0.00744,0.20581,-0.00362,-0.0024,-0.0073,-0.1880,0.0220,0.0073,-0.0073,-0.0073,-0.5949,15.4598,-5.3128,-2.2051,-0.1001,0.0269,-0.0269,1,1,1,1,1,1,1
12.6478,sweep,3,-down,0.04635,0.49687,1.98653,1.05993,-0.00744,0.20581,-0.00362,-0.0024,-0.0073,-0.1880,0.0220,0.0073,-0.0073,-0.0073,-0.5949,15.4598,-5.3128,-2.2051,-0.1001,0.0269,-0.0269,1,1,1,1,1,1,1
12.6880,sweep,3,-down,0.04635,0.49687,1.96326,1.06069,-0.00744,0.20581,-0.00362,-0.0073,-0.0024,-0.2173,-0.0073,-0.0073,-0.0073,0.0073,-0.6496,15.7060,-5.8325,-2.3223,-0.1050,0.0269,-0.0269,1,1,1,1,1,1,1
12.7283,sweep,3,-down,0.04635,0.49687,1.96326,1.06069,-0.00744,0.20581,-0.00362,-0.0073,-0.0024,-0.2173,-0.0073,-0.0073,-0.0073,0.0073,-0.6496,15.7060,-5.8325,-2.3223,-0.1050,0.0269,-0.0269,1,1,1,1,1,1,1
12.7684,sweep,3,-down,0.04635,0.49687,1.96326,1.06069,-0.00744,0.20581,-0.00362,-0.0073,-0.0024,-0.2173,-0.0073,-0.0073,-0.0073,0.0073,-0.6496,15.7060,-5.8325,-2.3223,-0.1050,0.0269,-0.0269,1,1,1,1,1,1,1
12.8086,sweep,3,-down,0.04597,0.49687,1.94572,1.05879,-0.00782,0.20581,-0.00362,-0.0073,0.0073,-0.2125,-0.0513,-0.0073,-0.0073,-0.0220,-0.5128,15.7197,-4.5470,-2.1758,-0.0952,0.0317,-0.0269,1,1,1,1,1,1,1
12.8482,sweep,3,-down,0.04597,0.49687,1.94572,1.05879,-0.00782,0.20581,-0.00362,-0.0073,0.0073,-0.2125,-0.0513,-0.0073,-0.0073,-0.0220,-0.5128,15.7197,-4.5470,-2.1758,-0.0952,0.0317,-0.0269,1,1,1,1,1,1,1
12.8879,sweep,3,-down,0.04597,0.49687,1.94572,1.05726,-0.00744,0.20581,-0.00362,-0.0073,0.0073,-0.2125,-0.0073,-0.0073,-0.0220,0.0220,-0.5128,15.7197,-4.5470,-1.9463,-0.0952,0.0317,-0.0269,1,1,1,1,1,1,1
12.9280,sweep,3,-down,0.04597,0.49840,1.92130,1.05726,-0.00744,0.20581,-0.00362,-0.0024,-0.0024,-0.2125,-0.0073,-0.0073,-0.0220,0.0220,-0.4991,13.9556,-3.5624,-1.9463,-0.0952,0.0317,-0.0269,1,1,1,1,1,1,1
12.9681,sweep,3,-down,0.04597,0.49840,1.92130,1.05726,-0.00744,0.20581,-0.00362,-0.0024,-0.0024,-0.2125,-0.0073,-0.0073,-0.0220,0.0220,-0.4991,13.9556,-3.5624,-1.9463,-0.0952,0.0317,-0.0269,1,1,1,1,1,1,1
13.0082,sweep,3,-down,0.04635,0.49840,1.90528,1.05802,-0.00744,0.20581,-0.00401,-0.0024,-0.0024,-0.2076,0.0220,-0.0220,-0.0073,-0.0073,-0.6222,13.9009,-3.8085,-1.9414,-0.1001,0.0317,-0.0269,1,1,1,1,1,1,1
13.0482,sweep,3,-down,0.04635,0.49840,1.90528,1.05802,-0.00744,0.20581,-0.00401,-0.0024,-0.0024,-0.2076,0.0220,-0.0220,-0.0073,-0.0073,-0.6222,13.9009,-3.8085,-1.9414,-0.1001,0.0317,-0.0269,1,1,1,1,1,1,1
13.0882,sweep,3,-down,0.04635,0.49840,1.90528,1.05802,-0.00744,0.20581,-0.00362,-0.0024,-0.0024,-0.2076,0.0220,-0.0073,-0.0073,-0.0073,-0.6222,13.9009,-3.8085,-1.9414,-0.1001,0.0366,-0.0220,1,1,1,1,1,1,1
13.1282,sweep,3,-down,0.04635,0.49840,1.88125,1.05917,-0.00744,0.20581,-0.00362,-0.0024,-0.0073,-0.2027,-0.0073,-0.0073,-0.0073,-0.0073,-0.6769,13.7368,-3.7402,-1.9609,-0.1001,0.0366,-0.0220,1,1,1,1,1,1,1
13.1680,sweep,3,-down,0.04635,0.49840,1.88125,1.05917,-0.00744,0.20581,-0.00362,-0.0024,-0.0073,-0.2027,-0.0073,-0.0073,-0.0073,-0.0073,-0.6769,13.7368,-3.7402,-1.9609,-0.1001,0.0366,-0.0220,1,1,1,1,1,1,1
13.2079,sweep,3,-down,0.04597,0.49840,1.86522,1.05955,-0.00782,0.20581,-0.00362,-0.0024,-0.0024,-0.2027,-0.0073,-0.0073,-0.0073,-0.0220,-0.5402,13.6957,-3.6991,-1.9853,-0.0855,0.0317,-0.0269,1,1,1,1,1,1,1
13.2478,sweep,3,-down,0.04597,0.49840,1.86522,1.05955,-0.00782,0.20581,-0.00362,-0.0024,-0.0024,-0.2027,-0.0073,-0.0073,-0.0073,-0.0220,-0.5402,13.6957,-3.6991,-1.9853,-0.0855,0.0317,-0.0269,1,1,1,1,1,1,1
13.2878,sweep,3,-down,0.04597,0.49840,1.86522,1.05955,-0.00782,0.20581,-0.00362,-0.0024,-0.0024,-0.2027,-0.0073,-0.0073,-0.0073,-0.0220,-0.5402,13.6957,-3.6991,-1.9853,-0.0855,0.0317,-0.0269,1,1,1,1,1,1,1
13.3282,sweep,3,-down,0.04597,0.49840,1.84119,1.05955,-0.00782,0.20581,-0.00401,-0.0073,-0.0024,-0.2027,-0.0073,-0.0220,-0.0073,-0.0073,-0.4855,13.5863,-3.5350,-1.9951,-0.0952,0.0317,-0.0220,1,1,1,1,1,1,1
13.3680,sweep,3,-down,0.04597,0.49840,1.84119,1.05955,-0.00782,0.20581,-0.00401,-0.0073,-0.0024,-0.2027,-0.0073,-0.0220,-0.0073,-0.0073,-0.4855,13.5863,-3.5350,-1.9951,-0.0952,0.0317,-0.0220,1,1,1,1,1,1,1
13.4084,sweep,3,-down,0.04597,0.49840,1.82479,1.05955,-0.00744,0.20581,-0.00362,-0.0024,-0.0024,-0.2076,-0.0073,-0.0073,0.0073,-0.0073,-0.5128,13.4906,-3.1795,-1.9609,-0.1001,0.0317,-0.0220,1,1,1,1,1,1,1
13.4487,sweep,3,-down,0.04597,0.49840,1.82479,1.05955,-0.00744,0.20581,-0.00362,-0.0024,-0.0024,-0.2076,-0.0073,-0.0073,0.0073,-0.0073,-0.5128,13.4906,-3.1795,-1.9609,-0.1001,0.0317,-0.0220,1,1,1,1,1,1,1
13.4880,sweep,3,-down,0.04597,0.49840,1.82479,1.05955,-0.00744,0.20581,-0.00362,-0.0024,-0.0024,-0.2076,-0.0073,-0.0073,0.0073,-0.0073,-0.5128,13.4906,-3.1795,-1.9609,-0.1001,0.0317,-0.0220,1,1,1,1,1,1,1
13.5278,sweep,3,-down,0.04597,0.49840,1.80037,1.05879,-0.00744,0.20581,-0.00362,-0.0024,-0.0024,-0.2125,-0.0073,-0.0366,-0.0073,-0.0073,-0.4991,13.4222,-2.6051,-1.9121,-0.1099,0.0317,-0.0220,1,1,1,1,1,1,1
13.5679,sweep,3,-down,0.04597,0.49840,1.80037,1.05879,-0.00744,0.20581,-0.00362,-0.0024,-0.0024,-0.2125,-0.0073,-0.0366,-0.0073,-0.0073,-0.4991,13.4222,-2.6051,-1.9121,-0.1099,0.0317,-0.0220,1,1,1,1,1,1,1
13.6081,sweep,3,-down,0.04597,0.49840,1.78435,1.05917,-0.00744,0.20619,-0.00401,-0.0073,0.0024,-0.1929,-0.0073,0.0073,-0.0073,-0.0220,-0.4991,13.3265,-2.5641,-1.8926,-0.1050,0.0317,-0.0269,1,1,1,1,1,1,1
13.6480,sweep,3,-down,0.04597,0.49840,1.78435,1.05917,-0.00744,0.20619,-0.00401,-0.0073,0.0024,-0.1929,-0.0073,0.0073,-0.0073,-0.0220,-0.4991,13.3265,-2.5641,-1.8926,-0.1050,0.0317,-0.0269,1,1,1,1,1,1,1
13.6880,sweep,3,-down,0.04597,0.49840,1.78435,1.05917,-0.00744,0.20619,-0.00401,-0.0073,0.0024,-0.1929,-0.0073,0.0073,-0.0073,-0.0220,-0.4991,13.3265,-2.5641,-1.8926,-0.1050,0.0317,-0.0269,1,1,1,1,1,1,1
13.7278,sweep,3,-down,0.04597,0.49840,1.76032,1.05955,-0.00744,0.20619,-0.00362,-0.0024,-0.0024,-0.2027,-0.0220,-0.0073,-0.0220,0.0073,-0.4718,13.2444,-2.6462,-1.8926,-0.1050,0.0317,-0.0269,1,1,1,1,1,1,1
13.7679,sweep,3,-down,0.04597,0.49840,1.76032,1.05955,-0.00744,0.20619,-0.00362,-0.0024,-0.0024,-0.2027,-0.0220,-0.0073,-0.0220,0.0073,-0.4718,13.2444,-2.6462,-1.8926,-0.1050,0.0317,-0.0269,1,1,1,1,1,1,1
13.8080,sweep,3,-down,0.04597,0.49840,1.74430,1.05917,-0.00744,0.20619,-0.00401,0.0024,-0.0024,-0.2076,-0.0220,-0.0073,0.0073,-0.0073,-0.4581,13.1487,-2.4957,-1.8681,-0.1050,0.0317,-0.0269,1,1,1,1,1,1,1
13.8482,sweep,3,-down,0.04597,0.49840,1.74430,1.05917,-0.00744,0.20619,-0.00401,0.0024,-0.0024,-0.2076,-0.0220,-0.0073,0.0073,-0.0073,-0.4581,13.1487,-2.4957,-1.8681,-0.1050,0.0317,-0.0269,1,1,1,1,1,1,1
13.8878,sweep,3,-down,0.04597,0.49840,1.74430,1.05917,-0.00744,0.20619,-0.00401,0.0024,-0.0024,-0.2076,-0.0220,-0.0073,0.0073,-0.0073,-0.4581,13.1487,-2.4957,-1.8681,-0.1050,0.0317,-0.0269,1,1,1,1,1,1,1
13.9278,sweep,3,-down,0.04597,0.49840,1.71988,1.05917,-0.00744,0.20619,-0.00362,-0.0024,-0.0024,-0.2076,-0.0073,-0.0220,-0.0073,-0.0073,-0.4581,13.0120,-1.8803,-1.8144,-0.1099,0.0317,-0.0269,1,1,1,1,1,1,1
13.9679,sweep,3,-down,0.04597,0.49840,1.71988,1.05917,-0.00744,0.20619,-0.00362,-0.0024,-0.0024,-0.2076,-0.0073,-0.0220,-0.0073,-0.0073,-0.4581,13.0120,-1.8803,-1.8144,-0.1099,0.0317,-0.0269,1,1,1,1,1,1,1
14.0079,sweep,3,-down,0.04597,0.49840,1.70386,1.05917,-0.00744,0.20619,-0.00401,-0.0024,-0.0024,-0.2076,-0.0073,-0.0073,0.0073,-0.0220,-0.4444,12.8342,-1.7573,-1.7900,-0.1099,0.0269,-0.0220,1,1,1,1,1,1,1
14.0483,sweep,3,-down,0.04597,0.49840,1.70386,1.05917,-0.00744,0.20619,-0.00401,-0.0024,-0.0024,-0.2076,-0.0073,-0.0073,0.0073,-0.0220,-0.4444,12.8342,-1.7573,-1.7900,-0.1099,0.0269,-0.0220,1,1,1,1,1,1,1
14.0878,sweep,3,-down,0.04597,0.49840,1.70386,1.05917,-0.00744,0.20619,-0.00401,-0.0024,-0.0024,-0.2076,-0.0073,-0.0073,0.0073,-0.0220,-0.4444,12.8342,-1.7573,-1.7900,-0.1099,0.0269,-0.0220,1,1,1,1,1,1,1
14.1278,sweep,3,-down,0.04597,0.49840,1.67983,1.05955,-0.00744,0.20581,-0.00362,-0.0024,-0.0024,-0.1929,-0.0073,-0.0220,-0.0073,-0.0073,-0.4718,12.6291,-1.8256,-1.7753,-0.1099,0.0269,-0.0220,1,1,1,1,1,1,1
14.1679,sweep,3,-down,0.04597,0.49840,1.67983,1.05955,-0.00744,0.20581,-0.00362,-0.0024,-0.0024,-0.1929,-0.0073,-0.0220,-0.0073,-0.0073,-0.4718,12.6291,-1.8256,-1.7753,-0.1099,0.0269,-0.0220,1,1,1,1,1,1,1
14.2079,sweep,3,-down,0.04597,0.49840,1.66342,1.05917,-0.00744,0.20619,-0.00362,-0.0024,-0.0024,-0.2076,-0.0073,-0.0220,-0.0073,-0.0073,-0.4444,12.5333,-1.5658,-1.7607,-0.1148,0.0269,-0.0220,1,1,1,1,1,1,1
14.2478,sweep,3,-down,0.04597,0.49840,1.66342,1.05917,-0.00744,0.20619,-0.00362,-0.0024,-0.0024,-0.2076,-0.0073,-0.0220,-0.0073,-0.0073,-0.4444,12.5333,-1.5658,-1.7607,-0.1148,0.0269,-0.0220,1,1,1,1,1,1,1
14.2879,sweep,3,-down,0.04597,0.49840,1.66342,1.05917,-0.00744,0.20619,-0.00362,-0.0024,-0.0024,-0.2076,-0.0073,-0.0220,-0.0073,-0.0073,-0.4444,12.5333,-1.5658,-1.7607,-0.1148,0.0269,-0.0220,1,1,1,1,1,1,1
14.3279,sweep,3,-down,0.04597,0.49878,1.63939,1.05879,-0.00744,0.20581,-0.00362,-0.0024,0.0024,-0.1978,-0.0073,0.0073,-0.0073,-0.0220,-0.4444,12.3145,-1.1829,-1.7167,-0.1197,0.0220,-0.0171,1,1,1,1,1,1,1
14.3682,sweep,3,-down,0.04597,0.49878,1.63939,1.05879,-0.00744,0.20581,-0.00362,-0.0024,0.0024,-0.1978,-0.0073,0.0073,-0.0073,-0.0220,-0.4444,12.3145,-1.1829,-1.7167,-0.1197,0.0220,-0.0171,1,1,1,1,1,1,1
14.4082,sweep,3,-down,0.04597,0.49878,1.62299,1.05917,-0.00744,0.20619,-0.00362,-0.0073,-0.0024,-0.2027,-0.0073,-0.0073,0.0073,0.0073,-0.4171,12.0547,-0.9094,-1.6728,-0.1245,0.0269,-0.0171,1,1,1,1,1,1,1
14.4479,sweep,3,-down,0.04597,0.49878,1.62299,1.05917,-0.00744,0.20619,-0.00362,-0.0073,-0.0024,-0.2027,-0.0073,-0.0073,0.0073,0.0073,-0.4171,12.0547,-0.9094,-1.6728,-0.1245,0.0269,-0.0171,1,1,1,1,1,1,1
14.4882,sweep,3,-down,0.04597,0.49878,1.62299,1.05917,-0.00744,0.20619,-0.00362,-0.0073,-0.0024,-0.2027,-0.0073,-0.0073,0.0073,0.0073,-0.4171,12.0547,-0.9094,-1.6728,-0.1245,0.0269,-0.0171,1,1,1,1,1,1,1
14.5281,sweep,3,-down,0.04597,0.49878,1.59896,1.05917,-0.00744,0.20581,-0.00362,-0.0024,-0.0024,-0.1978,-0.0220,-0.0073,-0.0073,-0.0073,-0.4171,11.8769,-0.9504,-1.6532,-0.1245,0.0220,-0.0220,1,1,1,1,1,1,1
14.5683,sweep,3,-down,0.04597,0.49878,1.59896,1.05917,-0.00744,0.20581,-0.00362,-0.0024,-0.0024,-0.1978,-0.0220,-0.0073,-0.0073,-0.0073,-0.4171,11.8769,-0.9504,-1.6532,-0.1245,0.0220,-0.0220,1,1,1,1,1,1,1
14.6081,sweep,3,-down,0.04597,0.49878,1.58293,1.05917,-0.00782,0.20581,-0.00362,-0.0073,-0.0024,-0.2125,-0.0073,-0.0073,-0.0220,-0.0073,-0.4308,11.6991,-0.6359,-1.6386,-0.1294,0.0220,-0.0220,1,1,1,1,1,1,1
14.6477,sweep,3,-down,0.04597,0.49878,1.58293,1.05917,-0.00782,0.20581,-0.00362,-0.0073,-0.0024,-0.2125,-0.0073,-0.0073,-0.0220,-0.0073,-0.4308,11.6991,-0.6359,-1.6386,-0.1294,0.0220,-0.0220,1,1,1,1,1,1,1
14.6878,sweep,3,-down,0.04597,0.49878,1.58293,1.05917,-0.00782,0.20581,-0.00362,-0.0073,-0.0024,-0.2125,-0.0073,-0.0073,-0.0220,-0.0073,-0.4308,11.6991,-0.6359,-1.6386,-0.1294,0.0220,-0.0220,1,1,1,1,1,1,1
14.7281,sweep,3,-down,0.04597,0.49878,1.55890,1.05917,-0.00744,0.20581,-0.00362,-0.0073,0.0024,-0.2076,-0.0073,0.0073,-0.0073,-0.0073,-0.4034,11.5077,-0.6085,-1.6190,-0.1343,0.0171,-0.0220,1,1,1,1,1,1,1
14.7679,sweep,3,-down,0.04597,0.49878,1.55890,1.05917,-0.00744,0.20581,-0.00362,-0.0073,0.0024,-0.2076,-0.0073,0.0073,-0.0073,-0.0073,-0.4034,11.5077,-0.6085,-1.6190,-0.1343,0.0171,-0.0220,1,1,1,1,1,1,1
14.8080,sweep,3,-down,0.04597,0.49878,1.54288,1.05917,-0.00782,0.20619,-0.00362,-0.0024,-0.0024,-0.1978,0.0073,0.0073,-0.0073,-0.0073,-0.4034,11.3846,-0.5402,-1.6044,-0.1294,0.0171,-0.0220,1,1,1,1,1,1,1
14.8478,sweep,3,-down,0.04597,0.49878,1.54288,1.05917,-0.00782,0.20619,-0.00362,-0.0024,-0.0024,-0.1978,0.0073,0.0073,-0.0073,-0.0073,-0.4034,11.3846,-0.5402,-1.6044,-0.1294,0.0171,-0.0220,1,1,1,1,1,1,1
14.8879,sweep,3,-down,0.04597,0.49878,1.54288,1.05917,-0.00782,0.20619,-0.00362,-0.0024,-0.0024,-0.1978,0.0073,0.0073,-0.0073,-0.0073,-0.4034,11.3846,-0.5402,-1.6044,-0.1294,0.0171,-0.0220,1,1,1,1,1,1,1
14.9279,sweep,3,-down,0.04597,0.49878,1.51846,1.05955,-0.00782,0.20619,-0.00401,-0.0073,-0.0024,-0.2125,0.0073,-0.0073,-0.0073,-0.0220,-0.3897,11.1658,-0.3761,-1.5946,-0.1343,0.0171,-0.0171,1,1,1,1,1,1,1
14.9678,sweep,3,-down,0.04597,0.49878,1.51846,1.05955,-0.00782,0.20619,-0.00401,-0.0073,-0.0024,-0.2125,0.0073,-0.0073,-0.0073,-0.0220,-0.3897,11.1658,-0.3761,-1.5946,-0.1343,0.0171,-0.0171,1,1,1,1,1,1,1
15.0078,sweep,3,-down,0.04597,0.49878,1.50244,1.05993,-0.00782,0.20581,-0.00362,-0.0024,-0.0024,-0.2076,-0.0073,0.0073,-0.0073,-0.0073,-0.4171,11.0427,-0.1983,-1.6044,-0.1245,0.0122,-0.0171,1,1,1,1,1,1,1
15.0480,sweep,3,-down,0.04597,0.49878,1.50244,1.05993,-0.00782,0.20581,-0.00362,-0.0024,-0.0024,-0.2076,-0.0073,0.0073,-0.0073,-0.0073,-0.4171,11.0427,-0.1983,-1.6044,-0.1245,0.0122,-0.0171,1,1,1,1,1,1,1
15.0880,sweep,3,-down,0.04597,0.49878,1.50244,1.05993,-0.00782,0.20581,-0.00362,-0.0024,-0.0024,-0.2076,-0.0073,0.0073,-0.0073,-0.0073,-0.4171,11.0427,-0.1983,-1.6044,-0.1245,0.0122,-0.0171,1,1,1,1,1,1,1
15.1278,sweep,3,-down,0.04597,0.49916,1.47688,1.05764,-0.00782,0.20619,-0.00362,-0.0024,0.0024,-0.2027,-0.0220,-0.0220,0.0073,-0.0073,-0.3761,10.4547,0.7863,-1.4335,-0.1148,0.0073,-0.0171,1,1,1,1,1,1,1
15.1678,sweep,3,-down,0.04597,0.49916,1.47688,1.05764,-0.00782,0.20619,-0.00362,-0.0024,0.0024,-0.2027,-0.0220,-0.0220,0.0073,-0.0073,-0.3761,10.4547,0.7863,-1.4335,-0.1148,0.0073,-0.0171,1,1,1,1,1,1,1
15.2082,sweep,3,-down,0.04597,0.49916,1.46048,1.05726,-0.00782,0.20581,-0.00401,-0.0024,-0.0024,-0.2027,-0.0073,0.0073,-0.0073,-0.0073,-0.3761,9.9761,0.9915,-1.3065,-0.1197,0.0122,-0.0220,1,1,1,1,1,1,1
15.2482,sweep,3,-down,0.04597,0.49916,1.46048,1.05726,-0.00782,0.20581,-0.00401,-0.0024,-0.0024,-0.2027,-0.0073,0.0073,-0.0073,-0.0073,-0.3761,9.9761,0.9915,-1.3065,-0.1197,0.0122,-0.0220,1,1,1,1,1,1,1
15.2879,sweep,3,-down,0.04597,0.49916,1.46048,1.05726,-0.00782,0.20581,-0.00401,-0.0024,-0.0024,-0.2027,-0.0073,0.0073,-0.0073,-0.0073,-0.3761,9.9761,0.9915,-1.3065,-0.1197,0.0122,-0.0220,1,1,1,1,1,1,1
15.3279,sweep,3,-down,0.04597,0.49916,1.43683,1.05840,-0.00782,0.20581,-0.00362,-0.0024,-0.0024,-0.2076,-0.0073,-0.0073,-0.0220,-0.0073,-0.4171,9.7026,0.8274,-1.3309,-0.1148,0.0122,-0.0220,1,1,1,1,1,1,1
15.3682,sweep,3,-down,0.04597,0.49916,1.43683,1.05840,-0.00782,0.20581,-0.00362,-0.0024,-0.0024,-0.2076,-0.0073,-0.0073,-0.0220,-0.0073,-0.4171,9.7026,0.8274,-1.3309,-0.1148,0.0122,-0.0220,1,1,1,1,1,1,1
15.4082,sweep,3,-down,0.04597,0.49916,1.42042,1.05840,-0.00782,0.20581,-0.00362,-0.0073,-0.0024,-0.2076,-0.0220,-0.0073,-0.0073,0.0073,-0.3761,9.4974,1.3197,-1.2674,-0.0952,0.0073,-0.0220,1,1,1,1,1,1,1
15.4483,sweep,3,-down,0.04597,0.49916,1.42042,1.05840,-0.00782,0.20581,-0.00362,-0.0073,-0.0024,-0.2076,-0.0220,-0.0073,-0.0073,0.0073,-0.3761,9.4974,1.3197,-1.2674,-0.0952,0.0073,-0.0220,1,1,1,1,1,1,1
15.4880,sweep,3,-down,0.04597,0.49916,1.42042,1.05840,-0.00782,0.20581,-0.00362,-0.0073,-0.0024,-0.2076,-0.0220,-0.0073,-0.0073,0.0073,-0.3761,9.4974,1.3197,-1.2674,-0.0952,0.0073,-0.0220,1,1,1,1,1,1,1
15.5280,sweep,3,-down,0.04597,0.49916,1.39677,1.05917,-0.00782,0.20619,-0.00362,-0.0024,-0.0024,-0.1978,-0.0073,-0.0073,-0.0073,0.0220,-0.3350,9.1829,0.8821,-1.2723,-0.0904,0.0073,-0.0220,1,1,1,1,1,1,1
15.5681,sweep,3,-down,0.04597,0.49916,1.39677,1.05917,-0.00782,0.20619,-0.00362,-0.0024,-0.0024,-0.1978,-0.0073,-0.0073,-0.0073,0.0220,-0.3350,9.1829,0.8821,-1.2723,-0.0904,0.0073,-0.0220,1,1,1,1,1,1,1
15.6081,sweep,3,-down,0.04597,0.49916,1.38037,1.05917,-0.00782,0.20581,-0.00401,-0.0024,-0.0024,-0.2125,-0.0220,0.0073,-0.0073,-0.0073,-0.3214,9.0051,1.2513,-1.2674,-0.0952,0.0073,-0.0220,1,1,1,1,1,1,1
15.6482,sweep,3,-down,0.04597,0.49916,1.38037,1.05917,-0.00782,0.20581,-0.00401,-0.0024,-0.0024,-0.2125,-0.0220,0.0073,-0.0073,-0.0073,-0.3214,9.0051,1.2513,-1.2674,-0.0952,0.0073,-0.0220,1,1,1,1,1,1,1
15.6880,sweep,3,-down,0.04597,0.49916,1.38037,1.05917,-0.00782,0.20581,-0.00401,-0.0024,-0.0024,-0.2125,-0.0220,0.0073,-0.0073,-0.0073,-0.3214,9.0051,1.2513,-1.2674,-0.0952,0.0073,-0.0220,1,1,1,1,1,1,1
15.7279,sweep,3,-down,0.04597,0.49916,1.35596,1.05840,-0.00782,0.20619,-0.00401,-0.0024,-0.0024,-0.2125,-0.0366,-0.0073,0.0073,-0.0073,-0.3350,8.7453,1.8667,-1.1697,-0.0952,0.0073,-0.0220,1,1,1,1,1,1,1
15.7680,sweep,3,-down,0.04597,0.49916,1.35596,1.05840,-0.00782,0.20619,-0.00401,-0.0024,-0.0024,-0.2125,-0.0366,-0.0073,0.0073,-0.0073,-0.3350,8.7453,1.8667,-1.1697,-0.0952,0.0073,-0.0220,1,1,1,1,1,1,1
15.8078,sweep,3,-down,0.04597,0.49916,1.33993,1.05840,-0.00782,0.20619,-0.00362,-0.0024,-0.0024,-0.2027,-0.0073,-0.0220,0.0220,-0.0073,-0.3214,8.5675,1.7983,-1.1258,-0.0855,0.0073,-0.0220,1,1,1,1,1,1,1
15.8479,sweep,3,-down,0.04597,0.49916,1.33993,1.05840,-0.00782,0.20619,-0.00362,-0.0024,-0.0024,-0.2027,-0.0073,-0.0220,0.0220,-0.0073,-0.3214,8.5675,1.7983,-1.1258,-0.0855,0.0073,-0.0220,1,1,1,1,1,1,1
15.8879,sweep,3,-down,0.04597,0.49916,1.33993,1.05840,-0.00782,0.20619,-0.00362,-0.0024,-0.0024,-0.2027,-0.0073,-0.0220,0.0220,-0.0073,-0.3214,8.5675,1.7983,-1.1258,-0.0855,0.0073,-0.0220,1,1,1,1,1,1,1
15.9278,sweep,3,-down,0.04597,0.49916,1.31590,1.05840,-0.00782,0.20581,-0.00362,-0.0024,0.0024,-0.2027,-0.0073,0.0073,-0.0220,-0.0073,-0.3077,8.3214,2.0171,-1.0672,-0.0806,-0.0024,-0.0220,1,1,1,1,1,1,1
15.9679,sweep,3,-down,0.04597,0.49916,1.31590,1.05840,-0.00782,0.20581,-0.00362,-0.0024,0.0024,-0.2027,-0.0073,0.0073,-0.0220,-0.0073,-0.3077,8.3214,2.0171,-1.0672,-0.0806,-0.0024,-0.0220,1,1,1,1,1,1,1
16.0078,sweep,3,-down,0.04597,0.49916,1.29950,1.05840,-0.00782,0.20581,-0.00362,0.0024,0.0024,-0.1978,-0.0073,-0.0073,-0.0073,-0.0073,-0.3077,8.1162,2.3179,-1.0085,-0.0806,-0.0024,-0.0269,1,1,1,1,1,1,1
16.0478,sweep,3,-down,0.04597,0.49916,1.29950,1.05840,-0.00782,0.20581,-0.00362,0.0024,0.0024,-0.1978,-0.0073,-0.0073,-0.0073,-0.0073,-0.3077,8.1162,2.3179,-1.0085,-0.0806,-0.0024,-0.0269,1,1,1,1,1,1,1
16.0879,sweep,3,-down,0.04597,0.49916,1.29950,1.05840,-0.00782,0.20581,-0.00362,0.0024,0.0024,-0.1978,-0.0073,-0.0073,-0.0073,-0.0073,-0.3077,8.1162,2.3179,-1.0085,-0.0806,-0.0024,-0.0269,1,1,1,1,1,1,1
16.1279,sweep,3,-down,0.04597,0.49916,1.27546,1.05840,-0.00782,0.20581,-0.00401,-0.0024,-0.0024,-0.2076,-0.0073,-0.0220,0.0073,-0.0073,-0.3077,7.7880,2.6462,-0.9206,-0.0708,0.0024,-0.0220,1,1,1,1,1,1,1
16.1686,sweep,3,-down,0.04597,0.49916,1.27546,1.05840,-0.00782,0.20581,-0.00401,-0.0024,-0.0024,-0.2076,-0.0073,-0.0220,0.0073,-0.0073,-0.3077,7.7880,2.6462,-0.9206,-0.0708,0.0024,-0.0220,1,1,1,1,1,1,1
16.2079,sweep,3,-down,0.04597,0.49916,1.25944,1.05840,-0.00782,0.20581,-0.00362,0.0024,-0.0024,-0.2076,-0.0073,-0.0073,-0.0220,0.0073,-0.2940,7.6239,2.5368,-0.8669,-0.0659,0.0024,-0.0220,1,1,1,1,1,1,1
16.2483,sweep,3,-down,0.04597,0.49916,1.25944,1.05840,-0.00782,0.20581,-0.00362,0.0024,-0.0024,-0.2076,-0.0073,-0.0073,-0.0220,0.0073,-0.2940,7.6239,2.5368,-0.8669,-0.0659,0.0024,-0.0220,1,1,1,1,1,1,1
16.2879,sweep,3,-down,0.04597,0.49916,1.25944,1.05840,-0.00782,0.20581,-0.00362,0.0024,-0.0024,-0.2076,-0.0073,-0.0073,-0.0220,0.0073,-0.2940,7.6239,2.5368,-0.8669,-0.0659,0.0024,-0.0220,1,1,1,1,1,1,1
16.3280,sweep,3,-down,0.04597,0.49916,1.23541,1.05879,-0.00782,0.20619,-0.00362,-0.0073,-0.0024,-0.1929,-0.0073,-0.0073,-0.0220,-0.0073,-0.3214,7.3641,2.7145,-0.8230,-0.0708,-0.0024,-0.0220,1,1,1,1,1,1,1
16.3680,sweep,3,-down,0.04597,0.49916,1.23541,1.05879,-0.00782,0.20619,-0.00362,-0.0073,-0.0024,-0.1929,-0.0073,-0.0073,-0.0220,-0.0073,-0.3214,7.3641,2.7145,-0.8230,-0.0708,-0.0024,-0.0220,1,1,1,1,1,1,1
16.4080,sweep,3,-down,0.04597,0.49916,1.21901,1.05840,-0.00782,0.20581,-0.00362,-0.0024,-0.0024,-0.1929,-0.0220,-0.0073,0.0073,-0.0073,-0.3214,7.1590,3.0564,-0.7643,-0.0611,-0.0024,-0.0220,1,1,1,1,1,1,1
16.4482,sweep,3,-down,0.04597,0.49916,1.21901,1.05840,-0.00782,0.20581,-0.00362,-0.0024,-0.0024,-0.1929,-0.0220,-0.0073,0.0073,-0.0073,-0.3214,7.1590,3.0564,-0.7643,-0.0611,-0.0024,-0.0220,1,1,1,1,1,1,1
16.4879,sweep,3,-down,0.04597,0.49916,1.21901,1.05840,-0.00782,0.20581,-0.00362,-0.0024,-0.0024,-0.1929,-0.0220,-0.0073,0.0073,-0.0073,-0.3214,7.1590,3.0564,-0.7643,-0.0611,-0.0024,-0.0220,1,1,1,1,1,1,1
16.5281,sweep,3,-down,0.04597,0.49916,1.19497,1.05840,-0.00782,0.20581,-0.00362,-0.0024,-0.0024,-0.2027,-0.0073,-0.0073,-0.0220,-0.0073,-0.2940,6.8581,3.1658,-0.6960,-0.0513,0.0024,-0.0171,1,1,1,1,1,1,1
16.5678,sweep,3,-down,0.04597,0.49916,1.19497,1.05840,-0.00782,0.20581,-0.00362,-0.0024,-0.0024,-0.2027,-0.0073,-0.0073,-0.0220,-0.0073,-0.2940,6.8581,3.1658,-0.6960,-0.0513,0.0024,-0.0171,1,1,1,1,1,1,1
16.6081,sweep,3,-down,0.04597,0.49916,1.17933,1.05840,-0.00782,0.20581,-0.00362,-0.0024,-0.0073,-0.2027,-0.0073,-0.0220,-0.0220,-0.0073,-0.3077,6.6393,2.8239,-0.6618,-0.0562,-0.0024,-0.0171,1,1,1,1,1,1,1
16.6479,sweep,3,-down,0.04597,0.49916,1.17933,1.05840,-0.00782,0.20581,-0.00362,-0.0024,-0.0073,-0.2027,-0.0073,-0.0220,-0.0220,-0.0073,-0.3077,6.6393,2.8239,-0.6618,-0.0562,-0.0024,-0.0171,1,1,1,1,1,1,1
16.6881,sweep,3,-down,0.04597,0.49916,1.17933,1.05840,-0.00782,0.20581,-0.00362,-0.0024,-0.0073,-0.2027,-0.0073,-0.0220,-0.0220,-0.0073,-0.3077,6.6393,2.8239,-0.6618,-0.0562,-0.0024,-0.0171,1,1,1,1,1,1,1
16.7279,sweep,3,-down,0.04597,0.49916,1.15492,1.05879,-0.00782,0.20581,-0.00401,-0.0073,-0.0024,-0.1978,-0.0073,0.0073,-0.0073,-0.0220,-0.2940,6.2974,3.3573,-0.6374,-0.0513,-0.0024,-0.0171,1,1,1,1,1,1,1
16.7679,sweep,3,-down,0.04597,0.49916,1.15492,1.05879,-0.00782,0.20581,-0.00401,-0.0073,-0.0024,-0.1978,-0.0073,0.0073,-0.0073,-0.0220,-0.2940,6.2974,3.3573,-0.6374,-0.0513,-0.0024,-0.0171,1,1,1,1,1,1,1
16.8079,sweep,3,-down,0.04597,0.49916,1.13851,1.05879,-0.00782,0.20581,-0.00401,-0.0024,-0.0024,-0.2076,-0.0073,-0.0220,-0.0073,-0.0220,-0.2940,6.1333,3.7538,-0.6032,-0.0464,-0.0024,-0.0171,1,1,1,1,1,1,1
16.8480,sweep,3,-down,0.04597,0.49916,1.13851,1.05879,-0.00782,0.20581,-0.00401,-0.0024,-0.0024,-0.2076,-0.0073,-0.0220,-0.0073,-0.0220,-0.2940,6.1333,3.7538,-0.6032,-0.0464,-0.0024,-0.0171,1,1,1,1,1,1,1
16.8878,sweep,3,-down,0.04597,0.49916,1.13851,1.05879,-0.00782,0.20581,-0.00401,-0.0024,-0.0024,-0.2076,-0.0073,-0.0220,-0.0073,-0.0220,-0.2940,6.1333,3.7538,-0.6032,-0.0464,-0.0024,-0.0171,1,1,1,1,1,1,1
16.9281,sweep,3,-down,0.04597,0.49916,1.11486,1.05879,-0.00782,0.20619,-0.00362,0.0024,-0.0024,-0.2076,-0.0220,-0.0073,0.0073,-0.0220,-0.2667,5.8735,3.4530,-0.5592,-0.0464,0.0073,-0.0171,1,1,1,1,1,1,1
16.9680,sweep,3,-down,0.04597,0.49916,1.11486,1.05879,-0.00782,0.20619,-0.00362,0.0024,-0.0024,-0.2076,-0.0220,-0.0073,0.0073,-0.0220,-0.2667,5.8735,3.4530,-0.5592,-0.0464,0.0073,-0.0171,1,1,1,1,1,1,1
17.0079,sweep,3,-down,0.04597,0.49916,1.09884,1.05879,-0.00782,0.20581,-0.00362,-0.0073,-0.0024,-0.2125,0.0073,-0.0073,-0.0073,-0.0073,-0.2667,5.7368,3.5350,-0.5153,-0.0366,0.0024,-0.0171,1,1,1,1,1,1,1
17.0482,sweep,3,-down,0.04597,0.49916,1.09884,1.05879,-0.00782,0.20581,-0.00362,-0.0073,-0.0024,-0.2125,0.0073,-0.0073,-0.0073,-0.0073,-0.2667,5.7368,3.5350,-0.5153,-0.0366,0.0024,-0.0171,1,1,1,1,1,1,1
17.0878,sweep,3,-down,0.04597,0.49916,1.09884,1.05879,-0.00782,0.20581,-0.00362,-0.0073,-0.0024,-0.2125,0.0073,-0.0073,-0.0073,-0.0073,-0.2667,5.7368,3.5350,-0.5153,-0.0366,0.0024,-0.0171,1,1,1,1,1,1,1
17.1278,sweep,3,-down,0.04597,0.49916,1.07443,1.05879,-0.00782,0.20581,-0.00362,-0.0024,-0.0024,-0.2125,-0.0073,-0.0220,-0.0073,-0.0073,-0.2530,5.5043,4.1368,-0.4762,-0.0366,-0.0024,-0.0220,1,1,1,1,1,1,1
17.1677,sweep,3,-down,0.04597,0.49916,1.07443,1.05879,-0.00782,0.20581,-0.00362,-0.0024,-0.0024,-0.2125,-0.0073,-0.0220,-0.0073,-0.0073,-0.2530,5.5043,4.1368,-0.4762,-0.0366,-0.0024,-0.0220,1,1,1,1,1,1,1
17.2078,sweep,3,-down,0.04597,0.49916,1.05840,1.05879,-0.00782,0.20619,-0.00401,-0.0024,-0.0024,-0.1978,-0.0073,-0.0073,0.0073,-0.0220,-0.2667,5.3128,4.3829,-0.4371,-0.0317,-0.0024,-0.0171,1,1,1,1,1,1,1
17.2478,sweep,3,-down,0.04597,0.49916,1.05840,1.05879,-0.00782,0.20619,-0.00401,-0.0024,-0.0024,-0.1978,-0.0073,-0.0073,0.0073,-0.0220,-0.2667,5.3128,4.3829,-0.4371,-0.0317,-0.0024,-0.0171,1,1,1,1,1,1,1
17.2878,sweep,3,-down,0.04597,0.49916,1.05840,1.05879,-0.00782,0.20619,-0.00401,-0.0024,-0.0024,-0.1978,-0.0073,-0.0073,0.0073,-0.0220,-0.2667,5.3128,4.3829,-0.4371,-0.0317,-0.0024,-0.0171,1,1,1,1,1,1,1
17.3278,sweep,3,-down,0.04597,0.49916,1.03475,1.05879,-0.00782,0.20581,-0.00362,-0.0024,-0.0024,-0.1880,-0.0073,0.0073,-0.0073,0.0073,-0.2393,5.0256,3.7675,-0.3883,-0.0317,0.0024,-0.0220,1,1,1,1,1,1,1
17.3680,sweep,3,-down,0.04597,0.49916,1.03475,1.05879,-0.00782,0.20581,-0.00362,-0.0024,-0.0024,-0.1880,-0.0073,0.0073,-0.0073,0.0073,-0.2393,5.0256,3.7675,-0.3883,-0.0317,0.0024,-0.0220,1,1,1,1,1,1,1
17.4079,sweep,3,-down,0.04597,0.49916,1.01835,1.05879,-0.00782,0.20619,-0.00401,-0.0024,-0.0024,-0.1978,0.0073,-0.0073,-0.0073,-0.0073,-0.2530,4.8342,3.9453,-0.3639,-0.0366,-0.0024,-0.0220,1,1,1,1,1,1,1
17.4485,sweep,3,-down,0.04597,0.49916,1.01835,1.05879,-0.00782,0.20619,-0.00401,-0.0024,-0.0024,-0.1978,0.0073,-0.0073,-0.0073,-0.0073,-0.2530,4.8342,3.9453,-0.3639,-0.0366,-0.0024,-0.0220,1,1,1,1,1,1,1
17.4879,sweep,3,-down,0.04597,0.49916,1.01835,1.05879,-0.00782,0.20619,-0.00401,-0.0024,-0.0024,-0.1978,0.0073,-0.0073,-0.0073,-0.0073,-0.2530,4.8342,3.9453,-0.3639,-0.0366,-0.0024,-0.0220,1,1,1,1,1,1,1
17.5282,sweep,3,-down,0.04597,0.49916,0.99393,1.05879,-0.00782,0.20619,-0.00362,0.0024,-0.0024,-0.2125,-0.0073,-0.0073,0.0073,-0.0073,-0.2393,4.5744,4.5333,-0.3101,-0.0366,0.0024,-0.0171,1,1,1,1,1,1,1
17.5684,sweep,3,-down,0.04597,0.49916,0.99393,1.05879,-0.00782,0.20619,-0.00362,0.0024,-0.0024,-0.2125,-0.0073,-0.0073,0.0073,-0.0073,-0.2393,4.5744,4.5333,-0.3101,-0.0366,0.0024,-0.0171,1,1,1,1,1,1,1
17.6081,sweep,3,-down,0.04597,0.49916,0.97791,1.05879,-0.00782,0.20581,-0.00362,0.0024,-0.0024,-0.1978,-0.0073,-0.0073,-0.0073,-0.0073,-0.2530,4.3966,4.6564,-0.2808,-0.0366,0.0024,-0.0171,1,1,1,1,1,1,1
17.6480,sweep,3,-down,0.04597,0.49916,0.97791,1.05879,-0.00782,0.20581,-0.00362,0.0024,-0.0024,-0.1978,-0.0073,-0.0073,-0.0073,-0.0073,-0.2530,4.3966,4.6564,-0.2808,-0.0366,0.0024,-0.0171,1,1,1,1,1,1,1
17.6879,sweep,3,-down,0.04597,0.49916,0.97791,1.05879,-0.00782,0.20581,-0.00362,0.0024,-0.0024,-0.1978,-0.0073,-0.0073,-0.0073,-0.0073,-0.2530,4.3966,4.6564,-0.2808,-0.0366,0.0024,-0.0171,1,1,1,1,1,1,1
17.7279,sweep,3,-down,0.04597,0.49916,0.95426,1.05840,-0.00782,0.20581,-0.00401,-0.0073,-0.0024,-0.1978,0.0073,-0.0073,0.0073,-0.0073,-0.2530,4.1368,4.5060,-0.2125,-0.0366,0.0024,-0.0220,1,1,1,1,1,1,1
17.7680,sweep,3,-down,0.04597,0.49916,0.95426,1.05840,-0.00782,0.20581,-0.00401,-0.0073,-0.0024,-0.1978,0.0073,-0.0073,0.0073,-0.0073,-0.2530,4.1368,4.5060,-0.2125,-0.0366,0.0024,-0.0220,1,1,1,1,1,1,1
17.8080,sweep,3,-down,0.04597,0.49916,0.93786,1.05840,-0.00782,0.20581,-0.00362,-0.0024,-0.0024,-0.1929,0.0073,-0.0073,-0.0366,-0.0073,-0.2667,3.9726,4.6838,-0.1783,-0.0366,0.0024,-0.0269,1,1,1,1,1,1,1
17.8480,sweep,3,-down,0.04597,0.49916,0.93786,1.05840,-0.00782,0.20581,-0.00362,-0.0024,-0.0024,-0.1929,0.0073,-0.0073,-0.0366,-0.0073,-0.2667,3.9726,4.6838,-0.1783,-0.0366,0.0024,-0.0269,1,1,1,1,1,1,1
17.8880,sweep,3,-down,0.04597,0.49916,0.93786,1.05840,-0.00782,0.20581,-0.00362,-0.0024,-0.0024,-0.1929,0.0073,-0.0073,-0.0366,-0.0073,-0.2667,3.9726,4.6838,-0.1783,-0.0366,0.0024,-0.0269,1,1,1,1,1,1,1
17.9280,sweep,3,-down,0.04597,0.49916,0.91344,1.05840,-0.00782,0.20581,-0.00401,-0.0024,-0.0024,-0.2125,-0.0073,-0.0073,-0.0366,-0.0073,-0.2667,3.7265,5.1487,-0.1294,-0.0317,0.0024,-0.0269,1,1,1,1,1,1,1
17.9681,sweep,3,-down,0.04597,0.49916,0.91344,1.05840,-0.00782,0.20581,-0.00401,-0.0024,-0.0024,-0.2125,-0.0073,-0.0073,-0.0366,-0.0073,-0.2667,3.7265,5.1487,-0.1294,-0.0317,0.0024,-0.0269,1,1,1,1,1,1,1
18.0080,sweep,3,-down,0.04597,0.49916,0.89742,1.05840,-0.00782,0.20581,-0.00362,0.0024,-0.0024,-0.2076,-0.0073,-0.0073,-0.0073,0.0073,-0.2803,3.6034,5.1077,-0.0952,-0.0317,0.0024,-0.0269,1,1,1,1,1,1,1
18.0480,sweep,3,-down,0.04597,0.49916,0.89742,1.05840,-0.00782,0.20581,-0.00362,0.0024,-0.0024,-0.2076,-0.0073,-0.0073,-0.0073,0.0073,-0.2803,3.6034,5.1077,-0.0952,-0.0317,0.0024,-0.0269,1,1,1,1,1,1,1
18.0881,sweep,3,-down,0.04597,0.49916,0.89742,1.05840,-0.00782,0.20581,-0.00362,0.0024,-0.0024,-0.2076,-0.0073,-0.0073,-0.0073,0.0073,-0.2803,3.6034,5.1077,-0.0952,-0.0317,0.0024,-0.0269,1,1,1,1,1,1,1
18.1279,sweep,3,-down,0.04597,0.49916,0.87339,1.05840,-0.00782,0.20619,-0.00401,0.0024,-0.0024,-0.2076,-0.0073,-0.0073,-0.0073,-0.0220,-0.2667,3.4120,5.1077,-0.0464,-0.0269,-0.0024,-0.0269,1,1,1,1,1,1,1
18.1681,sweep,3,-down,0.04597,0.49916,0.87339,1.05840,-0.00782,0.20619,-0.00401,0.0024,-0.0024,-0.2076,-0.0073,-0.0073,-0.0073,-0.0220,-0.2667,3.4120,5.1077,-0.0464,-0.0269,-0.0024,-0.0269,1,1,1,1,1,1,1
18.2083,sweep,3,-down,0.04597,0.49916,0.85737,1.05840,-0.00782,0.20619,-0.00362,-0.0073,-0.0024,-0.1978,-0.0220,-0.0073,-0.0073,0.0073,-0.2667,3.2615,5.2718,-0.0317,-0.0317,0.0024,-0.0269,1,1,1,1,1,1,1
18.2479,sweep,3,-down,0.04597,0.49916,0.85737,1.05840,-0.00782,0.20619,-0.00362,-0.0073,-0.0024,-0.1978,-0.0220,-0.0073,-0.0073,0.0073,-0.2667,3.2615,5.2718,-0.0317,-0.0317,0.0024,-0.0269,1,1,1,1,1,1,1
18.2881,sweep,3,-down,0.04597,0.49916,0.85737,1.05840,-0.00782,0.20619,-0.00362,-0.0073,-0.0024,-0.1978,-0.0220,-0.0073,-0.0073,0.0073,-0.2667,3.2615,5.2718,-0.0317,-0.0317,0.0024,-0.0269,1,1,1,1,1,1,1
18.3277,sweep,3,-down,0.04597,0.49916,0.83333,1.05802,-0.00782,0.20581,-0.00401,-0.0073,-0.0024,-0.2027,-0.0073,-0.0220,-0.0073,-0.0073,-0.2667,3.0838,5.3812,0.0122,-0.0317,-0.0024,-0.0269,1,1,1,1,1,1,1
18.3678,sweep,3,-down,0.04597,0.49916,0.83333,1.05802,-0.00782,0.20581,-0.00401,-0.0073,-0.0024,-0.2027,-0.0073,-0.0220,-0.0073,-0.0073,-0.2667,3.0838,5.3812,0.0122,-0.0317,-0.0024,-0.0269,1,1,1,1,1,1,1
18.4080,sweep,3,-down,0.04597,0.49916,0.81731,1.05459,-0.00782,0.20619,-0.00401,-0.0024,-0.0024,-0.2271,-0.0366,-0.0073,-0.0073,-0.0073,-0.2803,2.9197,5.7094,0.2222,-0.0317,0.0024,-0.0269,1,1,1,1,1,1,1
18.4478,sweep,3,-down,0.04597,0.49916,0.81731,1.05459,-0.00782,0.20619,-0.00401,-0.0024,-0.0024,-0.2271,-0.0366,-0.0073,-0.0073,-0.0073,-0.2803,2.9197,5.7094,0.2222,-0.0317,0.0024,-0.0269,1,1,1,1,1,1,1
18.4880,sweep,3,-down,0.04597,0.49916,0.81731,1.05459,-0.00782,0.20619,-0.00401,-0.0024,-0.0024,-0.2271,-0.0366,-0.0073,-0.0073,-0.0073,-0.2803,2.9197,5.7094,0.2222,-0.0317,0.0024,-0.0269,1,1,1,1,1,1,1
18.5281,sweep,3,-down,0.04597,0.49916,0.79290,1.05497,-0.00782,0.20581,-0.00362,0.0024,0.0024,-0.2027,0.0073,-0.0220,-0.0073,-0.0073,-0.2803,2.6462,5.9966,0.4274,-0.0317,-0.0024,-0.0317,1,1,1,1,1,1,1
18.5679,sweep,3,-down,0.04597,0.49916,0.79290,1.05497,-0.00782,0.20581,-0.00362,0.0024,0.0024,-0.2027,0.0073,-0.0220,-0.0073,-0.0073,-0.2803,2.6462,5.9966,0.4274,-0.0317,-0.0024,-0.0317,1,1,1,1,1,1,1
18.6079,sweep,3,-down,0.04597,0.49916,0.77687,1.05650,-0.00744,0.20581,-0.00362,0.0024,-0.0073,-0.2027,-0.0220,-0.0220,-0.0073,0.0073,-0.3077,2.5094,6.0239,0.4615,-0.0366,0.0024,-0.0317,1,1,1,1,1,1,1
18.6481,sweep,3,-down,0.04597,0.49916,0.77687,1.05650,-0.00744,0.20581,-0.00362,0.0024,-0.0073,-0.2027,-0.0220,-0.0220,-0.0073,0.0073,-0.3077,2.5094,6.0239,0.4615,-0.0366,0.0024,-0.0317,1,1,1,1,1,1,1
18.6878,sweep,3,-down,0.04597,0.49916,0.77687,1.05650,-0.00744,0.20581,-0.00362,0.0024,-0.0073,-0.2027,-0.0220,-0.0220,-0.0073,0.0073,-0.3077,2.5094,6.0239,0.4615,-0.0366,0.0024,-0.0317,1,1,1,1,1,1,1
18.7281,sweep,3,-down,0.04597,0.49878,0.76085,1.05726,-0.00782,0.20581,-0.00362,0.0024,-0.0024,-0.1978,0.0220,-0.0220,-0.0073,-0.0073,-0.2940,2.2769,6.2154,0.5446,-0.0366,-0.0024,-0.0317,1,1,1,1,1,1,1
18.7679,sweep,3,-down,0.04597,0.49878,0.76085,1.05726,-0.00782,0.20581,-0.00362,0.0024,-0.0024,-0.1978,0.0220,-0.0220,-0.0073,-0.0073,-0.2940,2.2769,6.2154,0.5446,-0.0366,-0.0024,-0.0317,1,1,1,1,1,1,1
18.8081,sweep,3,-down,0.04597,0.49878,0.73720,1.05840,-0.00782,0.20581,-0.00362,-0.0024,0.0024,-0.1929,-0.0073,-0.0220,-0.0220,-0.0073,-0.3077,2.1949,5.7094,0.5006,-0.0366,-0.0024,-0.0317,1,1,1,1,1,1,1
18.8481,sweep,3,-down,0.04597,0.49878,0.73720,1.05840,-0.00782,0.20581,-0.00362,-0.0024,0.0024,-0.1929,-0.0073,-0.0220,-0.0220,-0.0073,-0.3077,2.1949,5.7094,0.5006,-0.0366,-0.0024,-0.0317,1,1,1,1,1,1,1
18.8880,sweep,3,-down,0.04597,0.49878,0.73720,1.05840,-0.00782,0.20581,-0.00362,-0.0024,0.0024,-0.1929,-0.0073,-0.0220,-0.0220,-0.0073,-0.3077,2.1949,5.7094,0.5006,-0.0366,-0.0024,-0.0317,1,1,1,1,1,1,1
18.9281,sweep,3,-down,0.04597,0.49878,0.71241,1.05840,-0.00744,0.20581,-0.00401,-0.0024,-0.0024,-0.2173,-0.0220,-0.0073,-0.0073,-0.0073,-0.2940,1.9761,6.5299,0.5592,-0.0415,-0.0024,-0.0317,1,1,1,1,1,1,1
18.9681,sweep,3,-down,0.04597,0.49878,0.71241,1.05840,-0.00744,0.20581,-0.00401,-0.0024,-0.0024,-0.2173,-0.0220,-0.0073,-0.0073,-0.0073,-0.2940,1.9761,6.5299,0.5592,-0.0415,-0.0024,-0.0317,1,1,1,1,1,1,1
19.0080,sweep,3,-down,0.04597,0.49878,0.69676,1.05840,-0.00744,0.20581,-0.00401,-0.0024,-0.0073,-0.2027,-0.0220,-0.0073,-0.0073,-0.0073,-0.2940,1.8803,6.4342,0.5934,-0.0366,-0.0024,-0.0366,1,1,1,1,1,1,1
19.0480,sweep,3,-down,0.04597,0.49878,0.69676,1.05840,-0.00744,0.20581,-0.00401,-0.0024,-0.0073,-0.2027,-0.0220,-0.0073,-0.0073,-0.0073,-0.2940,1.8803,6.4342,0.5934,-0.0366,-0.0024,-0.0366,1,1,1,1,1,1,1
19.0880,sweep,3,-down,0.04597,0.49878,0.69676,1.05840,-0.00744,0.20581,-0.00401,-0.0024,-0.0073,-0.2027,-0.0220,-0.0073,-0.0073,-0.0073,-0.2940,1.8803,6.4342,0.5934,-0.0366,-0.0024,-0.0366,1,1,1,1,1,1,1
19.1281,sweep,3,-down,0.04597,0.49878,0.67273,1.05840,-0.00782,0.20581,-0.00401,-0.0073,-0.0024,-0.2027,-0.0220,-0.0220,-0.0073,-0.0073,-0.2940,1.7299,6.3111,0.6667,-0.0415,0.0024,-0.0366,1,1,1,1,1,1,1
19.1678,sweep,3,-down,0.04597,0.49878,0.67273,1.05840,-0.00782,0.20581,-0.00401,-0.0073,-0.0024,-0.2027,-0.0220,-0.0220,-0.0073,-0.0073,-0.2940,1.7299,6.3111,0.6667,-0.0415,0.0024,-0.0366,1,1,1,1,1,1,1
19.2078,sweep,3,-down,0.04597,0.49878,0.65709,1.05840,-0.00744,0.20581,-0.00401,-0.0024,0.0024,-0.1978,-0.0220,-0.0073,-0.0073,-0.0073,-0.3077,1.6342,5.9829,0.7106,-0.0415,-0.0024,-0.0366,1,1,1,1,1,1,1
19.2478,sweep,3,-down,0.04597,0.49878,0.65709,1.05840,-0.00744,0.20581,-0.00401,-0.0024,0.0024,-0.1978,-0.0220,-0.0073,-0.0073,-0.0073,-0.3077,1.6342,5.9829,0.7106,-0.0415,-0.0024,-0.0366,1,1,1,1,1,1,1
19.2882,sweep,3,-down,0.04597,0.49878,0.65709,1.05840,-0.00744,0.20581,-0.00401,-0.0024,0.0024,-0.1978,-0.0220,-0.0073,-0.0073,-0.0073,-0.3077,1.6342,5.9829,0.7106,-0.0415,-0.0024,-0.0366,1,1,1,1,1,1,1
19.3281,sweep,3,-down,0.04597,0.49878,0.63230,1.05879,-0.00744,0.20581,-0.00401,-0.0024,-0.0122,-0.2076,-0.0073,-0.0073,-0.0220,0.0220,-0.2803,1.5658,6.6667,0.7350,-0.0464,0.0024,-0.0415,1,1,1,1,1,1,1
19.3680,sweep,3,-down,0.04597,0.49878,0.63230,1.05879,-0.00744,0.20581,-0.00401,-0.0024,-0.0122,-0.2076,-0.0073,-0.0073,-0.0220,0.0220,-0.2803,1.5658,6.6667,0.7350,-0.0464,0.0024,-0.0415,1,1,1,1,1,1,1
19.4083,sweep,3,-down,0.04597,0.49878,0.61627,1.05879,-0.00744,0.20581,-0.00401,-0.0024,-0.0024,-0.2125,-0.0073,-0.0073,-0.0220,-0.0220,-0.3077,1.4701,6.9538,0.7643,-0.0513,0.0024,-0.0415,1,1,1,1,1,1,1
19.4482,sweep,3,-down,0.04597,0.49878,0.61627,1.05879,-0.00744,0.20581,-0.00401,-0.0024,-0.0024,-0.2125,-0.0073,-0.0073,-0.0220,-0.0220,-0.3077,1.4701,6.9538,0.7643,-0.0513,0.0024,-0.0415,1,1,1,1,1,1,1
19.4886,sweep,3,-down,0.04597,0.49878,0.61627,1.05879,-0.00744,0.20581,-0.00401,-0.0024,-0.0024,-0.2125,-0.0073,-0.0073,-0.0220,-0.0220,-0.3077,1.4701,6.9538,0.7643,-0.0513,0.0024,-0.0415,1,1,1,1,1,1,1
19.5280,sweep,3,-down,0.04597,0.49878,0.60864,1.05879,-0.00782,0.20581,-0.00401,-0.0073,-0.0024,-0.1978,-0.0073,0.0073,-0.0220,-0.0073,-0.2940,1.3333,6.8308,0.8327,-0.0513,0.0024,-0.0366,1,1,1,1,1,1,1
19.5682,sweep,3,-down,0.04597,0.49878,0.60864,1.05879,-0.00782,0.20581,-0.00401,-0.0073,-0.0024,-0.1978,-0.0073,0.0073,-0.0220,-0.0073,-0.2940,1.3333,6.8308,0.8327,-0.0513,0.0024,-0.0366,1,1,1,1,1,1,1
19.6082,sweep,3,-down,0.04597,0.49878,0.57660,1.05879,-0.00782,0.20581,-0.00362,-0.0024,-0.0024,-0.2125,0.0073,-0.0073,0.0073,-0.0073,-0.2803,1.2786,6.4479,0.8767,-0.0513,0.0024,-0.0415,1,1,1,1,1,1,1
19.6481,sweep,3,-down,0.04597,0.49878,0.57660,1.05879,-0.00782,0.20581,-0.00362,-0.0024,-0.0024,-0.2125,0.0073,-0.0073,0.0073,-0.0073,-0.2803,1.2786,6.4479,0.8767,-0.0513,0.0024,-0.0415,1,1,1,1,1,1,1
19.6879,sweep,3,-down,0.04597,0.49878,0.57660,1.05879,-0.00782,0.20581,-0.00362,-0.0024,-0.0024,-0.2125,0.0073,-0.0073,0.0073,-0.0073,-0.2803,1.2786,6.4479,0.8767,-0.0513,0.0024,-0.0415,1,1,1,1,1,1,1
19.7278,sweep,3,-down,0.04597,0.49878,0.55219,1.05840,-0.00744,0.20581,-0.00401,-0.0073,-0.0024,-0.2027,-0.0073,-0.0073,-0.0073,-0.0073,-0.2940,1.1556,7.0906,0.9402,-0.0464,0.0024,-0.0415,1,1,1,1,1,1,1
19.7679,sweep,3,-down,0.04597,0.49878,0.55219,1.05840,-0.00744,0.20581,-0.00401,-0.0073,-0.0024,-0.2027,-0.0073,-0.0073,-0.0073,-0.0073,-0.2940,1.1556,7.0906,0.9402,-0.0464,0.0024,-0.0415,1,1,1,1,1,1,1
19.8080,sweep,3,-down,0.04597,0.49878,0.53578,1.05840,-0.00744,0.20581,-0.00401,-0.0073,-0.0024,-0.2076,0.0073,0.0073,-0.0073,0.0073,-0.3077,1.0735,7.2684,1.0037,-0.0464,0.0024,-0.0415,1,1,1,1,1,1,1
19.8479,sweep,3,-down,0.04597,0.49878,0.53578,1.05840,-0.00744,0.20581,-0.00401,-0.0073,-0.0024,-0.2076,0.0073,0.0073,-0.0073,0.0073,-0.3077,1.0735,7.2684,1.0037,-0.0464,0.0024,-0.0415,1,1,1,1,1,1,1
19.8881,sweep,3,-down,0.04597,0.49878,0.53578,1.05840,-0.00744,0.20581,-0.00401,-0.0073,-0.0024,-0.2076,0.0073,0.0073,-0.0073,0.0073,-0.3077,1.0735,7.2684,1.0037,-0.0464,0.0024,-0.0415,1,1,1,1,1,1,1
19.9281,sweep,3,-down,0.04597,0.49840,0.51213,1.05840,-0.00744,0.20581,-0.00401,0.0024,-0.0024,-0.1832,-0.0220,-0.0220,-0.0220,-0.0073,-0.3077,0.9641,6.7350,1.0769,-0.0464,0.0024,-0.0415,1,1,1,1,1,1,1
19.9681,sweep,3,-down,0.04597,0.49840,0.51213,1.05840,-0.00744,0.20581,-0.00401,0.0024,-0.0024,-0.1832,-0.0220,-0.0220,-0.0220,-0.0073,-0.3077,0.9641,6.7350,1.0769,-0.0464,0.0024,-0.0415,1,1,1,1,1,1,1
20.0079,sweep,3,-down,0.04597,0.49840,0.49611,1.05840,-0.00744,0.20619,-0.00401,-0.0024,-0.0073,-0.2125,-0.0073,-0.0073,-0.0073,-0.0073,-0.2940,0.9504,7.1180,1.1160,-0.0513,0.0024,-0.0415,1,1,1,1,1,1,1
20.0480,sweep,3,-down,0.04597,0.49840,0.49611,1.05840,-0.00744,0.20619,-0.00401,-0.0024,-0.0073,-0.2125,-0.0073,-0.0073,-0.0073,-0.0073,-0.2940,0.9504,7.1180,1.1160,-0.0513,0.0024,-0.0415,1,1,1,1,1,1,1
20.0879,sweep,3,-down,0.04597,0.49840,0.49611,1.05840,-0.00744,0.20619,-0.00401,-0.0024,-0.0073,-0.2125,-0.0073,-0.0073,-0.0073,-0.0073,-0.2940,0.9504,7.1180,1.1160,-0.0513,0.0024,-0.0415,1,1,1,1,1,1,1
20.1281,sweep,3,-down,0.04597,0.49840,0.47169,1.05879,-0.00782,0.20581,-0.00401,0.0024,0.0024,-0.2125,-0.0073,-0.0220,-0.0220,-0.0073,-0.2940,0.9094,7.4051,1.1697,-0.0513,-0.0024,-0.0366,1,1,1,1,1,1,1
20.1679,sweep,3,-down,0.04597,0.49840,0.47169,1.05879,-0.00782,0.20581,-0.00401,0.0024,0.0024,-0.2125,-0.0073,-0.0220,-0.0220,-0.0073,-0.2940,0.9094,7.4051,1.1697,-0.0513,-0.0024,-0.0366,1,1,1,1,1,1,1
20.2081,sweep,3,-down,0.04597,0.49840,0.45605,1.05879,-0.00782,0.20619,-0.00362,-0.0024,0.0024,-0.1880,0.0073,-0.0073,0.0073,-0.0073,-0.2803,0.9504,7.2821,1.2039,-0.0513,-0.0024,-0.0415,1,1,1,1,1,1,1
20.2478,sweep,3,-down,0.04597,0.49840,0.45605,1.05879,-0.00782,0.20619,-0.00362,-0.0024,0.0024,-0.1880,0.0073,-0.0073,0.0073,-0.0073,-0.2803,0.9504,7.2821,1.2039,-0.0513,-0.0024,-0.0415,1,1,1,1,1,1,1
20.2881,sweep,3,-down,0.04597,0.49840,0.45605,1.05879,-0.00782,0.20619,-0.00362,-0.0024,0.0024,-0.1880,0.0073,-0.0073,0.0073,-0.0073,-0.2803,0.9504,7.2821,1.2039,-0.0513,-0.0024,-0.0415,1,1,1,1,1,1,1
20.3285,sweep,3,-down,0.04597,0.49840,0.43240,1.05840,-0.00744,0.20619,-0.00401,-0.0024,-0.0073,-0.1929,0.0073,-0.0073,-0.0073,-0.0220,-0.2530,0.8821,6.8034,1.2674,-0.0562,0.0024,-0.0366,1,1,1,1,1,1,1
20.3680,sweep,3,-down,0.04597,0.49840,0.43240,1.05840,-0.00744,0.20619,-0.00401,-0.0024,-0.0073,-0.1929,0.0073,-0.0073,-0.0073,-0.0220,-0.2530,0.8821,6.8034,1.2674,-0.0562,0.0024,-0.0366,1,1,1,1,1,1,1
20.4079,sweep,3,-down,0.04597,0.49840,0.41600,1.05879,-0.00744,0.20581,-0.00401,-0.0024,-0.0024,-0.2076,-0.0073,0.0073,-0.0073,0.0073,-0.2256,0.8547,7.2684,1.2674,-0.0562,-0.0024,-0.0366,1,1,1,1,1,1,1
20.4479,sweep,3,-down,0.04597,0.49840,0.41600,1.05879,-0.00744,0.20581,-0.00401,-0.0024,-0.0024,-0.2076,-0.0073,0.0073,-0.0073,0.0073,-0.2256,0.8547,7.2684,1.2674,-0.0562,-0.0024,-0.0366,1,1,1,1,1,1,1
20.4881,sweep,3,-down,0.04597,0.49840,0.41600,1.05879,-0.00744,0.20581,-0.00401,-0.0024,-0.0024,-0.2076,-0.0073,0.0073,-0.0073,0.0073,-0.2256,0.8547,7.2684,1.2674,-0.0562,-0.0024,-0.0366,1,1,1,1,1,1,1
20.5279,sweep,3,-down,0.04597,0.49840,0.39158,1.05879,-0.00782,0.20581,-0.00401,-0.0024,-0.0073,-0.2173,0.0073,-0.0073,-0.0073,-0.0220,-0.2256,0.7726,7.8154,1.3211,-0.0562,-0.0024,-0.0366,1,1,1,1,1,1,1
20.5678,sweep,3,-down,0.04597,0.49840,0.39158,1.05879,-0.00782,0.20581,-0.00401,-0.0024,-0.0073,-0.2173,0.0073,-0.0073,-0.0073,-0.0220,-0.2256,0.7726,7.8154,1.3211,-0.0562,-0.0024,-0.0366,1,1,1,1,1,1,1
20.6082,sweep,3,-down,0.04597,0.49840,0.37594,1.05879,-0.00782,0.20581,-0.00362,-0.0024,-0.0024,-0.2027,-0.0073,-0.0073,0.0073,-0.0073,-0.1983,0.7726,7.4598,1.3504,-0.0562,0.0024,-0.0366,1,1,1,1,1,1,1
20.6481,sweep,3,-down,0.04597,0.49840,0.37594,1.05879,-0.00782,0.20581,-0.00362,-0.0024,-0.0024,-0.2027,-0.0073,-0.0073,0.0073,-0.0073,-0.1983,0.7726,7.4598,1.3504,-0.0562,0.0024,-0.0366,1,1,1,1,1,1,1
20.6880,sweep,3,-down,0.04597,0.49840,0.37594,1.05879,-0.00782,0.20581,-0.00362,-0.0024,-0.0024,-0.2027,-0.0073,-0.0073,0.0073,-0.0073,-0.1983,0.7726,7.4598,1.3504,-0.0562,0.0024,-0.0366,1,1,1,1,1,1,1
