peipl15/reBot_Arm/outputs/gravity_calib_20260622_002124.csv
t_s,phase,swept_joint,direction,q1,q2,q3,q4,q5,q6,q7,v1,v2,v3,v4,v5,v6,v7,tau1,tau2,tau3,tau4,tau5,tau6,tau7,st1,st2,st3,st4,st5,st6,st7
0.0026,approach,2,to_lo,0.07305,-0.01812,1.71683,0.10014,-0.04482,-0.00706,-0.00324,-0.0073,0.0024,-0.0024,0.0073,-0.0366,-0.0220,-0.0073,0.0752,0.0068,-1.7983,-0.4908,-0.0024,-0.0073,-0.0024,1,1,1,1,1,1,1
0.0425,approach,2,to_lo,0.07305,-0.01812,1.71683,0.10014,-0.04482,-0.00706,-0.00324,-0.0073,0.0024,-0.0024,0.0073,-0.0366,-0.0220,-0.0073,0.0752,0.0068,-1.7983,-0.4908,-0.0024,-0.0073,-0.0024,1,1,1,1,1,1,1
0.0829,approach,2,to_lo,0.07305,-0.01545,1.71836,0.10700,-0.04482,-0.00706,-0.00324,-0.0024,0.1197,-0.0024,-0.0220,-0.0073,-0.0073,-0.0073,0.1436,4.5333,-3.8359,-1.1941,0.0122,-0.0122,-0.0024,1,1,1,1,1,1,1
0.1223,approach,2,to_lo,0.07305,-0.01545,1.71836,0.10700,-0.04482,-0.00706,-0.00324,-0.0024,0.1197,-0.0024,-0.0220,-0.0073,-0.0073,-0.0073,0.1436,4.5333,-3.8359,-1.1941,0.0122,-0.0122,-0.0024,1,1,1,1,1,1,1
0.1623,approach,2,to_lo,0.07305,-0.00324,1.71836,0.10166,-0.04482,-0.00706,-0.00324,-0.0024,0.1245,-0.0024,-0.1392,-0.0073,-0.0073,-0.0073,0.1436,6.5983,-4.3282,-1.2527,0.0122,-0.0171,-0.0024,1,1,1,1,1,1,1
0.2022,approach,2,to_lo,0.07305,-0.00324,1.71836,0.10166,-0.04482,-0.00706,-0.00324,-0.0024,0.1245,-0.0024,-0.1392,-0.0073,-0.0073,-0.0073,0.1436,6.5983,-4.3282,-1.2527,0.0122,-0.0171,-0.0024,1,1,1,1,1,1,1
0.2425,approach,2,to_lo,0.07305,-0.00324,1.71836,0.10166,-0.04482,-0.00706,-0.00324,-0.0024,0.1245,-0.0024,-0.1392,-0.0073,-0.0073,-0.0073,0.1436,6.5983,-4.3282,-1.2527,0.0122,-0.0171,-0.0024,1,1,1,1,1,1,1
0.2825,approach,2,to_lo,0.07305,0.01087,1.71836,0.09632,-0.04482,-0.00706,-0.00324,-0.0024,0.1148,-0.0073,-0.0220,-0.0220,-0.0073,0.0073,0.1709,13.2171,-5.0667,-1.1551,0.0122,-0.0171,-0.0024,1,1,1,1,1,1,1
0.3226,approach,2,to_lo,0.07305,0.01087,1.71836,0.09632,-0.04482,-0.00706,-0.00324,-0.0024,0.1148,-0.0073,-0.0220,-0.0220,-0.0073,0.0073,0.1709,13.2171,-5.0667,-1.1551,0.0122,-0.0171,-0.0024,1,1,1,1,1,1,1
0.3625,approach,2,to_lo,0.07305,0.01850,1.71797,0.09480,-0.04482,-0.00706,-0.00324,-0.0073,0.1050,-0.0073,-0.0220,-0.0073,0.0073,0.0073,0.1573,17.5795,-5.2855,-1.1893,0.0073,-0.0171,-0.0073,1,1,1,1,1,1,1
0.4023,approach,2,to_lo,0.07305,0.01850,1.71797,0.09480,-0.04482,-0.00706,-0.00324,-0.0073,0.1050,-0.0073,-0.0220,-0.0073,0.0073,0.0073,0.1573,17.5795,-5.2855,-1.1893,0.0073,-0.0171,-0.0073,1,1,1,1,1,1,1
0.4429,approach,2,to_lo,0.07305,0.01850,1.71797,0.09480,-0.04482,-0.00706,-0.00324,-0.0073,0.1050,-0.0073,-0.0220,-0.0073,0.0073,0.0073,0.1573,17.5795,-5.2855,-1.1893,0.0073,-0.0171,-0.0073,1,1,1,1,1,1,1
0.4825,approach,2,to_lo,0.07305,0.03224,1.71759,0.09213,-0.04482,-0.00706,-0.00324,-0.0073,0.0855,-0.0073,-0.0659,-0.0073,0.0073,-0.0073,0.1573,19.7128,-5.5453,-1.1209,0.0024,-0.0220,-0.0073,1,1,1,1,1,1,1
0.5227,approach,2,to_lo,0.07305,0.03224,1.71759,0.09213,-0.04482,-0.00706,-0.00324,-0.0073,0.0855,-0.0073,-0.0659,-0.0073,0.0073,-0.0073,0.1573,19.7128,-5.5453,-1.1209,0.0024,-0.0220,-0.0073,1,1,1,1,1,1,1
0.5630,approach,2,to_lo,0.07305,0.04177,1.71721,0.09174,-0.04482,-0.00706,-0.00362,-0.0024,0.0806,-0.0024,-0.0073,-0.0220,-0.0073,-0.0073,0.1573,18.9880,-5.1487,-1.0916,0.0024,-0.0220,-0.0122,1,1,1,1,1,1,1
0.6028,approach,2,to_lo,0.07305,0.04177,1.71721,0.09174,-0.04482,-0.00706,-0.00362,-0.0024,0.0806,-0.0024,-0.0073,-0.0220,-0.0073,-0.0073,0.1573,18.9880,-5.1487,-1.0916,0.0024,-0.0220,-0.0122,1,1,1,1,1,1,1
0.6425,approach,2,to_lo,0.07305,0.04177,1.71721,0.09174,-0.04482,-0.00706,-0.00362,-0.0024,0.0806,-0.0024,-0.0073,-0.0220,-0.0073,-0.0073,0.1573,18.9880,-5.1487,-1.0916,0.0024,-0.0220,-0.0122,1,1,1,1,1,1,1
0.6826,approach,2,to_lo,0.07305,0.05360,1.71645,0.09060,-0.04482,-0.00706,-0.00324,-0.0024,0.1197,-0.0073,-0.0366,-0.0220,-0.0073,-0.0073,0.1299,18.9880,-4.7932,-0.9890,-0.0073,-0.0220,-0.0122,1,1,1,1,1,1,1
0.7223,approach,2,to_lo,0.07305,0.05360,1.71645,0.09060,-0.04482,-0.00706,-0.00324,-0.0024,0.1197,-0.0073,-0.0366,-0.0220,-0.0073,-0.0073,0.1299,18.9880,-4.7932,-0.9890,-0.0073,-0.0220,-0.0122,1,1,1,1,1,1,1
0.7625,approach,2,to_lo,0.07305,0.06085,1.71645,0.09098,-0.04482,-0.00744,-0.00362,-0.0024,0.0708,-0.0073,-0.0073,-0.0073,-0.0220,-0.0073,0.1299,18.5231,-5.0256,-0.9890,-0.0073,-0.0269,-0.0122,1,1,1,1,1,1,1
0.8024,approach,2,to_lo,0.07305,0.06085,1.71645,0.09098,-0.04482,-0.00744,-0.00362,-0.0024,0.0708,-0.0073,-0.0073,-0.0073,-0.0220,-0.0073,0.1299,18.5231,-5.0256,-0.9890,-0.0073,-0.0269,-0.0122,1,1,1,1,1,1,1
0.8425,approach,2,to_lo,0.07305,0.06085,1.71645,0.09098,-0.04482,-0.00744,-0.00362,-0.0024,0.0708,-0.0073,-0.0073,-0.0073,-0.0220,-0.0073,0.1299,18.5231,-5.0256,-0.9890,-0.0073,-0.0269,-0.0122,1,1,1,1,1,1,1
0.8822,approach,2,to_lo,0.07305,0.06847,1.71607,0.09098,-0.04482,-0.00744,-0.00324,0.0024,0.0757,-0.0073,-0.0073,-0.0073,-0.0220,-0.0073,0.1299,19.7949,-4.6427,-0.9597,-0.0122,-0.0269,-0.0122,1,1,1,1,1,1,1
0.9222,approach,2,to_lo,0.07305,0.06847,1.71607,0.09098,-0.04482,-0.00744,-0.00324,0.0024,0.0757,-0.0073,-0.0073,-0.0073,-0.0220,-0.0073,0.1299,19.7949,-4.6427,-0.9597,-0.0122,-0.0269,-0.0122,1,1,1,1,1,1,1
0.9627,approach,2,to_lo,0.07305,0.07458,1.71607,0.09136,-0.04482,-0.00744,-0.00324,-0.0024,0.0513,0.0024,-0.0220,-0.0073,-0.0220,-0.0073,0.1162,18.6598,-4.8068,-0.9695,-0.0171,-0.0269,-0.0122,1,1,1,1,1,1,1
1.0027,approach,2,to_lo,0.07305,0.07458,1.71607,0.09136,-0.04482,-0.00744,-0.00324,-0.0024,0.0513,0.0024,-0.0220,-0.0073,-0.0220,-0.0073,0.1162,18.6598,-4.8068,-0.9695,-0.0171,-0.0269,-0.0122,1,1,1,1,1,1,1
1.0425,approach,2,to_lo,0.07305,0.07458,1.71607,0.09136,-0.04482,-0.00744,-0.00324,-0.0024,0.0513,0.0024,-0.0220,-0.0073,-0.0220,-0.0073,0.1162,18.6598,-4.8068,-0.9695,-0.0171,-0.0269,-0.0122,1,1,1,1,1,1,1
1.0828,approach,2,to_lo,0.07305,0.08144,1.71569,0.09098,-0.04482,-0.00706,-0.00324,-0.0073,0.0464,-0.0122,-0.0073,0.0073,-0.0073,-0.0073,0.1026,18.8376,-4.6291,-0.9353,-0.0171,-0.0269,-0.0122,1,1,1,1,1,1,1
1.1228,approach,2,to_lo,0.07305,0.08144,1.71569,0.09098,-0.04482,-0.00706,-0.00324,-0.0073,0.0464,-0.0122,-0.0073,0.0073,-0.0073,-0.0073,0.1026,18.8376,-4.6291,-0.9353,-0.0171,-0.0269,-0.0122,1,1,1,1,1,1,1
1.1621,approach,2,to_lo,0.07305,0.08450,1.71530,0.09136,-0.04482,-0.00706,-0.00324,-0.0024,0.0317,-0.0024,0.0073,-0.0220,0.0073,-0.0073,0.0889,19.7538,-4.3282,-0.9353,-0.0171,-0.0317,-0.0122,1,1,1,1,1,1,1
1.2023,approach,2,to_lo,0.07305,0.08450,1.71530,0.09136,-0.04482,-0.00706,-0.00324,-0.0024,0.0317,-0.0024,0.0073,-0.0220,0.0073,-0.0073,0.0889,19.7538,-4.3282,-0.9353,-0.0171,-0.0317,-0.0122,1,1,1,1,1,1,1
1.2429,approach,2,to_lo,0.07305,0.08450,1.71530,0.09136,-0.04482,-0.00706,-0.00324,-0.0024,0.0317,-0.0024,0.0073,-0.0220,0.0073,-0.0073,0.0889,19.7538,-4.3282,-0.9353,-0.0171,-0.0317,-0.0122,1,1,1,1,1,1,1
1.2824,approach,2,to_lo,0.07305,0.09136,1.71530,0.09098,-0.04482,-0.00706,-0.00324,-0.0024,0.0611,-0.0073,-0.0073,-0.0073,0.0073,0.0073,0.0615,17.8120,-4.2872,-0.9109,-0.0220,-0.0269,-0.0122,1,1,1,1,1,1,1
1.3226,approach,2,to_lo,0.07305,0.09136,1.71530,0.09098,-0.04482,-0.00706,-0.00324,-0.0024,0.0611,-0.0073,-0.0073,-0.0073,0.0073,0.0073,0.0615,17.8120,-4.2872,-0.9109,-0.0220,-0.0269,-0.0122,1,1,1,1,1,1,1
1.3626,approach,2,to_lo,0.07305,0.09365,1.71492,0.09098,-0.04482,-0.00706,-0.00324,-0.0024,0.0171,-0.0024,-0.0073,-0.0073,-0.0073,-0.0073,0.0752,18.3590,-4.0957,-0.8718,-0.0171,-0.0269,-0.0122,1,1,1,1,1,1,1
1.4026,approach,2,to_lo,0.07305,0.09365,1.71492,0.09098,-0.04482,-0.00706,-0.00324,-0.0024,0.0171,-0.0024,-0.0073,-0.0073,-0.0073,-0.0073,0.0752,18.3590,-4.0957,-0.8718,-0.0171,-0.0269,-0.0122,1,1,1,1,1,1,1
1.4427,approach,2,to_lo,0.07305,0.09365,1.71492,0.09098,-0.04482,-0.00706,-0.00324,-0.0024,0.0171,-0.0024,-0.0073,-0.0073,-0.0073,-0.0073,0.0752,18.3590,-4.0957,-0.8718,-0.0171,-0.0269,-0.0122,1,1,1,1,1,1,1
1.4823,approach,2,to_lo,0.07305,0.09709,1.71492,0.09136,-0.04482,-0.00706,-0.00324,-0.0024,0.0415,-0.0073,-0.0073,-0.0073,0.0073,-0.0073,0.0752,18.9880,-4.1504,-0.8864,-0.0220,-0.0220,-0.0073,1,1,1,1,1,1,1
1.5227,approach,2,to_lo,0.07305,0.09709,1.71492,0.09136,-0.04482,-0.00706,-0.00324,-0.0024,0.0415,-0.0073,-0.0073,-0.0073,0.0073,-0.0073,0.0752,18.9880,-4.1504,-0.8864,-0.0220,-0.0220,-0.0073,1,1,1,1,1,1,1
1.5630,approach,2,to_lo,0.07305,0.09976,1.71492,0.09136,-0.04482,-0.00706,-0.00324,0.0024,0.0366,-0.0073,-0.0220,-0.0073,0.0073,-0.0073,0.0615,19.0427,-4.1368,-0.8864,-0.0220,-0.0220,-0.0073,1,1,1,1,1,1,1
1.6029,approach,2,to_lo,0.07305,0.09976,1.71492,0.09136,-0.04482,-0.00706,-0.00324,0.0024,0.0366,-0.0073,-0.0220,-0.0073,0.0073,-0.0073,0.0615,19.0427,-4.1368,-0.8864,-0.0220,-0.0220,-0.0073,1,1,1,1,1,1,1
1.6429,approach,2,to_lo,0.07305,0.09976,1.71492,0.09136,-0.04482,-0.00706,-0.00324,0.0024,0.0366,-0.0073,-0.0220,-0.0073,0.0073,-0.0073,0.0615,19.0427,-4.1368,-0.8864,-0.0220,-0.0220,-0.0073,1,1,1,1,1,1,1
1.6826,approach,2,to_lo,0.07305,0.10281,1.71492,0.09136,-0.04482,-0.00706,-0.00324,-0.0024,0.0122,-0.0024,0.0073,-0.0073,-0.0073,-0.0220,0.0479,18.8239,-4.1094,-0.8571,-0.0220,-0.0220,-0.0024,1,1,1,1,1,1,1
2.1855,sweep,2,+up,0.07305,0.10357,1.71492,0.09136,-0.04482,-0.00706,-0.00324,-0.0024,0.0220,-0.0024,-0.0220,0.0073,-0.0073,-0.0073,0.0479,19.0017,-4.1915,-0.8523,-0.0269,-0.0220,-0.0073,1,1,1,1,1,1,1
2.2254,sweep,2,+up,0.07305,0.10357,1.71492,0.09136,-0.04482,-0.00706,-0.00324,-0.0024,0.0220,-0.0024,-0.0220,0.0073,-0.0073,-0.0073,0.0479,19.0017,-4.1915,-0.8523,-0.0269,-0.0220,-0.0073,1,1,1,1,1,1,1
2.2653,sweep,2,+up,0.07305,0.11654,1.71492,0.09174,-0.04482,-0.00706,-0.00324,-0.0024,0.1245,-0.0073,0.0513,-0.0073,-0.0073,-0.0220,-0.0205,21.0393,-4.2051,-0.8376,-0.0366,-0.0122,-0.0024,1,1,1,1,1,1,1
2.3052,sweep,2,+up,0.07305,0.11654,1.71492,0.09174,-0.04482,-0.00706,-0.00324,-0.0024,0.1245,-0.0073,0.0513,-0.0073,-0.0073,-0.0220,-0.0205,21.0393,-4.2051,-0.8376,-0.0366,-0.0122,-0.0024,1,1,1,1,1,1,1
2.3451,sweep,2,+up,0.07305,0.11654,1.71492,0.09174,-0.04482,-0.00706,-0.00324,-0.0024,0.1245,-0.0073,0.0513,-0.0073,-0.0073,-0.0220,-0.0205,21.0393,-4.2051,-0.8376,-0.0366,-0.0122,-0.0024,1,1,1,1,1,1,1
2.3856,sweep,2,+up,0.07305,0.14248,1.71492,0.09136,-0.04482,-0.00706,-0.00362,-0.0024,0.2515,-0.0024,-0.1099,-0.0220,0.0073,-0.0073,-0.0342,18.8786,-4.3282,-0.9548,-0.0366,-0.0122,-0.0024,1,1,1,1,1,1,1
2.4256,sweep,2,+up,0.07305,0.14248,1.71492,0.09136,-0.04482,-0.00706,-0.00362,-0.0024,0.2515,-0.0024,-0.1099,-0.0220,0.0073,-0.0073,-0.0342,18.8786,-4.3282,-0.9548,-0.0366,-0.0122,-0.0024,1,1,1,1,1,1,1
2.4656,sweep,2,+up,0.07305,0.16041,1.71416,0.08793,-0.04482,-0.00706,-0.00324,0.0024,0.1978,-0.0073,-0.0513,-0.0073,-0.0073,0.0073,-0.0068,16.1573,-3.0291,-0.6422,-0.0415,-0.0171,-0.0024,1,1,1,1,1,1,1
2.5054,sweep,2,+up,0.07305,0.16041,1.71416,0.08793,-0.04482,-0.00706,-0.00324,0.0024,0.1978,-0.0073,-0.0513,-0.0073,-0.0073,0.0073,-0.0068,16.1573,-3.0291,-0.6422,-0.0415,-0.0171,-0.0024,1,1,1,1,1,1,1
2.5459,sweep,2,+up,0.07305,0.16041,1.71416,0.08793,-0.04482,-0.00706,-0.00324,0.0024,0.1978,-0.0073,-0.0513,-0.0073,-0.0073,0.0073,-0.0068,16.1573,-3.0291,-0.6422,-0.0415,-0.0171,-0.0024,1,1,1,1,1,1,1
2.5858,sweep,2,+up,0.07305,0.18292,1.71378,0.09060,-0.04482,-0.00706,-0.00362,-0.0073,0.1538,-0.0024,-0.0220,-0.0073,-0.0073,-0.0220,-0.0342,18.4000,-2.7829,-0.6813,-0.0464,-0.0220,-0.0024,1,1,1,1,1,1,1
2.6255,sweep,2,+up,0.07305,0.18292,1.71378,0.09060,-0.04482,-0.00706,-0.00362,-0.0073,0.1538,-0.0024,-0.0220,-0.0073,-0.0073,-0.0220,-0.0342,18.4000,-2.7829,-0.6813,-0.0464,-0.0220,-0.0024,1,1,1,1,1,1,1
2.6656,sweep,2,+up,0.07305,0.19856,1.71416,0.09174,-0.04482,-0.00706,-0.00324,-0.0024,0.1636,-0.0024,-0.0366,-0.0073,-0.0220,-0.0220,-0.0342,18.6462,-2.8376,-0.7839,-0.0415,-0.0171,-0.0073,1,1,1,1,1,1,1
2.7056,sweep,2,+up,0.07305,0.19856,1.71416,0.09174,-0.04482,-0.00706,-0.00324,-0.0024,0.1636,-0.0024,-0.0366,-0.0073,-0.0220,-0.0220,-0.0342,18.6462,-2.8376,-0.7839,-0.0415,-0.0171,-0.0073,1,1,1,1,1,1,1
2.7456,sweep,2,+up,0.07305,0.19856,1.71416,0.09174,-0.04482,-0.00706,-0.00324,-0.0024,0.1636,-0.0024,-0.0366,-0.0073,-0.0220,-0.0220,-0.0342,18.6462,-2.8376,-0.7839,-0.0415,-0.0171,-0.0073,1,1,1,1,1,1,1
2.7853,sweep,2,+up,0.07305,0.22450,1.71416,0.08984,-0.04482,-0.00706,-0.00324,-0.0024,0.2222,0.0024,-0.0073,-0.0073,0.0073,0.0073,0.0068,16.0342,-2.6325,-0.5934,-0.0415,-0.0220,-0.0024,1,1,1,1,1,1,1
2.8253,sweep,2,+up,0.07305,0.22450,1.71416,0.08984,-0.04482,-0.00706,-0.00324,-0.0024,0.2222,0.0024,-0.0073,-0.0073,0.0073,0.0073,0.0068,16.0342,-2.6325,-0.5934,-0.0415,-0.0220,-0.0024,1,1,1,1,1,1,1
2.8654,sweep,2,+up,0.07305,0.24052,1.71416,0.09022,-0.04482,-0.00706,-0.00324,-0.0024,0.1783,-0.0024,0.0073,-0.0073,-0.0220,-0.0073,-0.0068,16.1026,-2.4684,-0.5592,-0.0464,-0.0269,-0.0024,1,1,1,1,1,1,1
2.9052,sweep,2,+up,0.07305,0.24052,1.71416,0.09022,-0.04482,-0.00706,-0.00324,-0.0024,0.1783,-0.0024,0.0073,-0.0073,-0.0220,-0.0073,-0.0068,16.1026,-2.4684,-0.5592,-0.0464,-0.0269,-0.0024,1,1,1,1,1,1,1
2.9453,sweep,2,+up,0.07305,0.24052,1.71416,0.09022,-0.04482,-0.00706,-0.00324,-0.0024,0.1783,-0.0024,0.0073,-0.0073,-0.0220,-0.0073,-0.0068,16.1026,-2.4684,-0.5592,-0.0464,-0.0269,-0.0024,1,1,1,1,1,1,1
2.9853,sweep,2,+up,0.07305,0.26417,1.71416,0.09098,-0.04482,-0.00706,-0.00324,-0.0073,0.1929,-0.0024,-0.0220,0.0073,-0.0220,-0.0220,-0.0342,16.5128,-2.3316,-0.5885,-0.0513,-0.0366,-0.0024,1,1,1,1,1,1,1
3.0251,sweep,2,+up,0.07305,0.26417,1.71416,0.09098,-0.04482,-0.00706,-0.00324,-0.0073,0.1929,-0.0024,-0.0220,0.0073,-0.0220,-0.0220,-0.0342,16.5128,-2.3316,-0.5885,-0.0513,-0.0366,-0.0024,1,1,1,1,1,1,1
3.0656,sweep,2,+up,0.07305,0.28057,1.71416,0.09060,-0.04482,-0.00706,-0.00362,-0.0024,0.1880,-0.0024,-0.0513,-0.0220,-0.0073,-0.0073,-0.0205,16.0205,-2.1949,-0.5201,-0.0513,-0.0366,-0.0024,1,1,1,1,1,1,1
3.1051,sweep,2,+up,0.07305,0.28057,1.71416,0.09060,-0.04482,-0.00706,-0.00362,-0.0024,0.1880,-0.0024,-0.0513,-0.0220,-0.0073,-0.0073,-0.0205,16.0205,-2.1949,-0.5201,-0.0513,-0.0366,-0.0024,1,1,1,1,1,1,1
3.1452,sweep,2,+up,0.07305,0.28057,1.71416,0.09060,-0.04482,-0.00706,-0.00362,-0.0024,0.1880,-0.0024,-0.0513,-0.0220,-0.0073,-0.0073,-0.0205,16.0205,-2.1949,-0.5201,-0.0513,-0.0366,-0.0024,1,1,1,1,1,1,1
3.1858,sweep,2,+up,0.07305,0.30537,1.71378,0.09060,-0.04482,-0.00706,-0.00324,0.0024,0.2076,-0.0073,-0.0073,-0.0073,-0.0073,0.0073,-0.0479,15.1180,-2.0308,-0.4518,-0.0562,-0.0464,-0.0024,1,1,1,1,1,1,1
3.2257,sweep,2,+up,0.07305,0.30537,1.71378,0.09060,-0.04482,-0.00706,-0.00324,0.0024,0.2076,-0.0073,-0.0073,-0.0073,-0.0073,0.0073,-0.0479,15.1180,-2.0308,-0.4518,-0.0562,-0.0464,-0.0024,1,1,1,1,1,1,1
3.2654,sweep,2,+up,0.07305,0.32139,1.71378,0.09022,-0.04482,-0.00706,-0.00362,-0.0024,0.2125,-0.0024,-0.0073,-0.0366,-0.0073,-0.0073,-0.0479,14.9949,-1.9350,-0.4274,-0.0562,-0.0464,-0.0024,1,1,1,1,1,1,1
3.3052,sweep,2,+up,0.07305,0.32139,1.71378,0.09022,-0.04482,-0.00706,-0.00362,-0.0024,0.2125,-0.0024,-0.0073,-0.0366,-0.0073,-0.0073,-0.0479,14.9949,-1.9350,-0.4274,-0.0562,-0.0464,-0.0024,1,1,1,1,1,1,1
3.3452,sweep,2,+up,0.07305,0.32139,1.71378,0.09022,-0.04482,-0.00706,-0.00362,-0.0024,0.2125,-0.0024,-0.0073,-0.0366,-0.0073,-0.0073,-0.0479,14.9949,-1.9350,-0.4274,-0.0562,-0.0464,-0.0024,1,1,1,1,1,1,1
3.3853,sweep,2,+up,0.07305,0.34543,1.71378,0.09060,-0.04482,-0.00744,-0.00324,-0.0024,0.1587,-0.0024,-0.0073,-0.0073,-0.0366,-0.0073,-0.0205,14.9265,-1.6889,-0.3834,-0.0562,-0.0513,-0.0073,1,1,1,1,1,1,1
3.4260,sweep,2,+up,0.07305,0.34543,1.71378,0.09060,-0.04482,-0.00744,-0.00324,-0.0024,0.1587,-0.0024,-0.0073,-0.0073,-0.0366,-0.0073,-0.0205,14.9265,-1.6889,-0.3834,-0.0562,-0.0513,-0.0073,1,1,1,1,1,1,1
3.4654,sweep,2,+up,0.07305,0.36183,1.71378,0.09060,-0.04482,-0.00706,-0.00324,-0.0024,0.1978,-0.0024,-0.0220,-0.0220,-0.0073,-0.0073,-0.0479,14.7077,-1.5521,-0.3639,-0.0659,-0.0464,-0.0073,1,1,1,1,1,1,1
3.5052,sweep,2,+up,0.07305,0.36183,1.71378,0.09060,-0.04482,-0.00706,-0.00324,-0.0024,0.1978,-0.0024,-0.0220,-0.0220,-0.0073,-0.0073,-0.0479,14.7077,-1.5521,-0.3639,-0.0659,-0.0464,-0.0073,1,1,1,1,1,1,1
3.5461,sweep,2,+up,0.07305,0.36183,1.71378,0.09060,-0.04482,-0.00706,-0.00324,-0.0024,0.1978,-0.0024,-0.0220,-0.0220,-0.0073,-0.0073,-0.0479,14.7077,-1.5521,-0.3639,-0.0659,-0.0464,-0.0073,1,1,1,1,1,1,1
3.5853,sweep,2,+up,0.07305,0.38624,1.71378,0.09060,-0.04482,-0.00706,-0.00324,-0.0024,0.2076,-0.0024,0.0073,-0.0073,-0.0073,-0.0220,-0.0342,13.9556,-1.3333,-0.2955,-0.0659,-0.0464,-0.0073,1,1,1,1,1,1,1
3.6258,sweep,2,+up,0.07305,0.38624,1.71378,0.09060,-0.04482,-0.00706,-0.00324,-0.0024,0.2076,-0.0024,0.0073,-0.0073,-0.0073,-0.0220,-0.0342,13.9556,-1.3333,-0.2955,-0.0659,-0.0464,-0.0073,1,1,1,1,1,1,1
3.6653,sweep,2,+up,0.07305,0.40265,1.71378,0.09022,-0.04482,-0.00706,-0.00324,-0.0024,0.2125,-0.0024,0.0073,0.0073,0.0073,-0.0073,-0.0205,13.5316,-1.1419,-0.2564,-0.0659,-0.0513,-0.0073,1,1,1,1,1,1,1
3.7050,sweep,2,+up,0.07305,0.40265,1.71378,0.09022,-0.04482,-0.00706,-0.00324,-0.0024,0.2125,-0.0024,0.0073,0.0073,0.0073,-0.0073,-0.0205,13.5316,-1.1419,-0.2564,-0.0659,-0.0513,-0.0073,1,1,1,1,1,1,1
3.7454,sweep,2,+up,0.07305,0.40265,1.71378,0.09022,-0.04482,-0.00706,-0.00324,-0.0024,0.2125,-0.0024,0.0073,0.0073,0.0073,-0.0073,-0.0205,13.5316,-1.1419,-0.2564,-0.0659,-0.0513,-0.0073,1,1,1,1,1,1,1
3.7853,sweep,2,+up,0.07305,0.42668,1.71378,0.09060,-0.04482,-0.00706,-0.00324,0.0073,0.1929,-0.0024,0.0073,0.0220,-0.0073,-0.0073,-0.0068,13.6410,-0.8957,-0.2076,-0.0659,-0.0513,-0.0073,1,1,1,1,1,1,1
3.8254,sweep,2,+up,0.07305,0.42668,1.71378,0.09060,-0.04482,-0.00706,-0.00324,0.0073,0.1929,-0.0024,0.0073,0.0220,-0.0073,-0.0073,-0.0068,13.6410,-0.8957,-0.2076,-0.0659,-0.0513,-0.0073,1,1,1,1,1,1,1
3.8654,sweep,2,+up,0.07305,0.44270,1.71378,0.09060,-0.04482,-0.00706,-0.00324,-0.0024,0.1734,-0.0024,-0.0073,-0.0073,-0.0220,-0.0220,-0.0068,13.4632,-0.7863,-0.1783,-0.0757,-0.0562,-0.0073,1,1,1,1,1,1,1
3.9054,sweep,2,+up,0.07305,0.44270,1.71378,0.09060,-0.04482,-0.00706,-0.00324,-0.0024,0.1734,-0.0024,-0.0073,-0.0073,-0.0220,-0.0220,-0.0068,13.4632,-0.7863,-0.1783,-0.0757,-0.0562,-0.0073,1,1,1,1,1,1,1
3.9451,sweep,2,+up,0.07305,0.44270,1.71378,0.09060,-0.04482,-0.00706,-0.00324,-0.0024,0.1734,-0.0024,-0.0073,-0.0073,-0.0220,-0.0220,-0.0068,13.4632,-0.7863,-0.1783,-0.0757,-0.0562,-0.0073,1,1,1,1,1,1,1
3.9851,sweep,2,+up,0.07305,0.46712,1.71378,0.09022,-0.04482,-0.00706,-0.00324,-0.0024,0.2222,-0.0024,-0.0073,0.0073,0.0220,0.0073,-0.0068,13.0120,-0.6085,-0.1245,-0.0904,-0.0562,-0.0024,1,1,1,1,1,1,1
4.0253,sweep,2,+up,0.07305,0.46712,1.71378,0.09022,-0.04482,-0.00706,-0.00324,-0.0024,0.2222,-0.0024,-0.0073,0.0073,0.0220,0.0073,-0.0068,13.0120,-0.6085,-0.1245,-0.0904,-0.0562,-0.0024,1,1,1,1,1,1,1
4.0653,sweep,2,+up,0.07305,0.48314,1.71378,0.09022,-0.04482,-0.00706,-0.00324,-0.0073,0.2027,-0.0024,-0.0073,-0.0073,0.0073,-0.0073,-0.0205,12.5197,-0.4581,-0.0952,-0.0952,-0.0611,-0.0073,1,1,1,1,1,1,1
4.1051,sweep,2,+up,0.07305,0.48314,1.71378,0.09022,-0.04482,-0.00706,-0.00324,-0.0073,0.2027,-0.0024,-0.0073,-0.0073,0.0073,-0.0073,-0.0205,12.5197,-0.4581,-0.0952,-0.0952,-0.0611,-0.0073,1,1,1,1,1,1,1
4.1452,sweep,2,+up,0.07305,0.48314,1.71378,0.09022,-0.04482,-0.00706,-0.00324,-0.0073,0.2027,-0.0024,-0.0073,-0.0073,0.0073,-0.0073,-0.0205,12.5197,-0.4581,-0.0952,-0.0952,-0.0611,-0.0073,1,1,1,1,1,1,1
4.1853,sweep,2,+up,0.07305,0.50717,1.71378,0.09022,-0.04482,-0.00706,-0.00324,-0.0073,0.2027,-0.0024,-0.0073,-0.0073,-0.0220,-0.0073,-0.0205,12.7385,-0.3214,-0.0611,-0.1001,-0.0611,-0.0024,1,1,1,1,1,1,1
4.2253,sweep,2,+up,0.07305,0.50717,1.71378,0.09022,-0.04482,-0.00706,-0.00324,-0.0073,0.2027,-0.0024,-0.0073,-0.0073,-0.0220,-0.0073,-0.0205,12.7385,-0.3214,-0.0611,-0.1001,-0.0611,-0.0024,1,1,1,1,1,1,1
4.2655,sweep,2,+up,0.07305,0.52396,1.71225,0.08907,-0.04482,-0.00706,-0.00324,-0.0073,0.2125,-0.0269,-0.0513,-0.0220,-0.0073,-0.0073,-0.0342,11.9590,0.7316,0.0024,-0.1148,-0.0611,-0.0024,1,1,1,1,1,1,1
4.3053,sweep,2,+up,0.07305,0.52396,1.71225,0.08907,-0.04482,-0.00706,-0.00324,-0.0073,0.2125,-0.0269,-0.0513,-0.0220,-0.0073,-0.0073,-0.0342,11.9590,0.7316,0.0024,-0.1148,-0.0611,-0.0024,1,1,1,1,1,1,1
4.3454,sweep,2,+up,0.07305,0.52396,1.71225,0.08907,-0.04482,-0.00706,-0.00324,-0.0073,0.2125,-0.0269,-0.0513,-0.0220,-0.0073,-0.0073,-0.0342,11.9590,0.7316,0.0024,-0.1148,-0.0611,-0.0024,1,1,1,1,1,1,1
4.3853,sweep,2,+up,0.07305,0.55219,1.71111,0.08030,-0.04482,-0.00706,-0.00324,-0.0073,0.2466,-0.0024,0.0513,-0.0073,-0.0220,0.0073,-0.0205,6.4342,3.0291,0.9939,-0.1148,-0.0708,0.0024,1,1,1,1,1,1,1
4.4253,sweep,2,+up,0.07305,0.55219,1.71111,0.08030,-0.04482,-0.00706,-0.00324,-0.0073,0.2466,-0.0024,0.0513,-0.0073,-0.0220,0.0073,-0.0205,6.4342,3.0291,0.9939,-0.1148,-0.0708,0.0024,1,1,1,1,1,1,1
4.4653,sweep,2,+up,0.07305,0.56630,1.71111,0.08679,-0.04444,-0.00706,-0.00324,0.0024,0.1587,0.0171,0.2125,-0.0073,-0.0073,-0.0073,-0.0205,8.7590,3.1521,0.8132,-0.1294,-0.0708,-0.0024,1,1,1,1,1,1,1
4.5052,sweep,2,+up,0.07305,0.56630,1.71111,0.08679,-0.04444,-0.00706,-0.00324,0.0024,0.1587,0.0171,0.2125,-0.0073,-0.0073,-0.0073,-0.0205,8.7590,3.1521,0.8132,-0.1294,-0.0708,-0.0024,1,1,1,1,1,1,1
4.5451,sweep,2,+up,0.07305,0.56630,1.71111,0.08679,-0.04444,-0.00706,-0.00324,0.0024,0.1587,0.0171,0.2125,-0.0073,-0.0073,-0.0073,-0.0205,8.7590,3.1521,0.8132,-0.1294,-0.0708,-0.0024,1,1,1,1,1,1,1
4.5857,sweep,2,+up,0.07305,0.58766,1.71302,0.09365,-0.04444,-0.00706,-0.00324,-0.0024,0.2027,0.0122,0.0073,0.0073,-0.0073,-0.0220,-0.0479,12.0000,1.2376,0.2759,-0.1587,-0.0806,0.0024,1,1,1,1,1,1,1
4.6253,sweep,2,+up,0.07305,0.58766,1.71302,0.09365,-0.04444,-0.00706,-0.00324,-0.0024,0.2027,0.0122,0.0073,0.0073,-0.0073,-0.0220,-0.0479,12.0000,1.2376,0.2759,-0.1587,-0.0806,0.0024,1,1,1,1,1,1,1
4.6654,sweep,2,+up,0.07267,0.60521,1.71263,0.08984,-0.04482,-0.00706,-0.00324,-0.0073,0.2076,-0.0122,-0.0220,-0.0073,-0.0073,-0.0073,-0.0205,10.0308,1.9350,0.5446,-0.1685,-0.0904,0.0024,1,1,1,1,1,1,1
4.7053,sweep,2,+up,0.07267,0.60521,1.71263,0.08984,-0.04482,-0.00706,-0.00324,-0.0073,0.2076,-0.0122,-0.0220,-0.0073,-0.0073,-0.0073,-0.0205,10.0308,1.9350,0.5446,-0.1685,-0.0904,0.0024,1,1,1,1,1,1,1
4.7456,sweep,2,+up,0.07267,0.60521,1.71263,0.08984,-0.04482,-0.00706,-0.00324,-0.0073,0.2076,-0.0122,-0.0220,-0.0073,-0.0073,-0.0073,-0.0205,10.0308,1.9350,0.5446,-0.1685,-0.0904,0.0024,1,1,1,1,1,1,1
4.7853,sweep,2,+up,0.07267,0.63077,1.71225,0.08907,-0.04444,-0.00706,-0.00324,-0.0024,0.2076,-0.0024,-0.0220,-0.0220,0.0073,-0.0073,-0.0068,8.1983,2.8786,0.6960,-0.1929,-0.1001,-0.0024,1,1,1,1,1,1,1
4.8252,sweep,2,+up,0.07267,0.63077,1.71225,0.08907,-0.04444,-0.00706,-0.00324,-0.0024,0.2076,-0.0024,-0.0220,-0.0220,0.0073,-0.0073,-0.0068,8.1983,2.8786,0.6960,-0.1929,-0.1001,-0.0024,1,1,1,1,1,1,1
4.8653,sweep,2,+up,0.07267,0.64565,1.71263,0.09022,-0.04444,-0.00706,-0.00324,-0.0024,0.1929,-0.0024,-0.0220,-0.0220,-0.0220,0.0073,-0.0068,9.0598,3.0974,0.6618,-0.2222,-0.1001,-0.0024,1,1,1,1,1,1,1
4.9053,sweep,2,+up,0.07267,0.64565,1.71263,0.09022,-0.04444,-0.00706,-0.00324,-0.0024,0.1929,-0.0024,-0.0220,-0.0220,-0.0220,0.0073,-0.0068,9.0598,3.0974,0.6618,-0.2222,-0.1001,-0.0024,1,1,1,1,1,1,1
4.9452,sweep,2,+up,0.07267,0.64565,1.71263,0.09022,-0.04444,-0.00706,-0.00324,-0.0024,0.1929,-0.0024,-0.0220,-0.0220,-0.0220,0.0073,-0.0068,9.0598,3.0974,0.6618,-0.2222,-0.1001,-0.0024,1,1,1,1,1,1,1
4.9853,sweep,2,+up,0.07267,0.66663,1.71263,0.09022,-0.04444,-0.00706,-0.00324,0.0024,0.1538,-0.0024,0.0073,0.0073,-0.0073,-0.0073,0.0068,8.0479,3.3709,0.7106,-0.2418,-0.1099,-0.0073,1,1,1,1,1,1,1
5.0255,sweep,2,+up,0.07267,0.66663,1.71263,0.09022,-0.04444,-0.00706,-0.00324,0.0024,0.1538,-0.0024,0.0073,0.0073,-0.0073,-0.0073,0.0068,8.0479,3.3709,0.7106,-0.2418,-0.1099,-0.0073,1,1,1,1,1,1,1
5.0658,sweep,2,+up,0.07267,0.67884,1.71263,0.09022,-0.04444,-0.00706,-0.00324,-0.0024,0.1343,-0.0024,0.0220,-0.0073,-0.0073,0.0073,0.0205,7.9658,3.5487,0.7790,-0.2613,-0.1197,-0.0073,1,1,1,1,1,1,1
5.1053,sweep,2,+up,0.07267,0.67884,1.71263,0.09022,-0.04444,-0.00706,-0.00324,-0.0024,0.1343,-0.0024,0.0220,-0.0073,-0.0073,0.0073,0.0205,7.9658,3.5487,0.7790,-0.2613,-0.1197,-0.0073,1,1,1,1,1,1,1
5.1453,sweep,2,+up,0.07267,0.67884,1.71263,0.09022,-0.04444,-0.00706,-0.00324,-0.0024,0.1343,-0.0024,0.0220,-0.0073,-0.0073,0.0073,0.0205,7.9658,3.5487,0.7790,-0.2613,-0.1197,-0.0073,1,1,1,1,1,1,1
5.1853,sweep,2,+up,0.07267,0.69371,1.71263,0.09060,-0.04406,-0.00706,-0.00324,-0.0024,0.1392,0.0024,-0.0220,-0.0073,-0.0073,-0.0073,-0.0068,8.4444,3.8496,0.7741,-0.3004,-0.1245,-0.0073,1,1,1,1,1,1,1
5.2252,sweep,2,+up,0.07267,0.69371,1.71263,0.09060,-0.04406,-0.00706,-0.00324,-0.0024,0.1392,0.0024,-0.0220,-0.0073,-0.0073,-0.0073,-0.0068,8.4444,3.8496,0.7741,-0.3004,-0.1245,-0.0073,1,1,1,1,1,1,1
5.2650,sweep,2,+up,0.07267,0.70325,1.71302,0.09060,-0.04444,-0.00706,-0.00324,-0.0024,0.1148,-0.0024,-0.0073,-0.0073,-0.0073,-0.0220,-0.0068,8.0068,4.0684,0.8181,-0.3150,-0.1294,-0.0073,1,1,1,1,1,1,1
5.3054,sweep,2,+up,0.07267,0.70325,1.71302,0.09060,-0.04444,-0.00706,-0.00324,-0.0024,0.1148,-0.0024,-0.0073,-0.0073,-0.0073,-0.0220,-0.0068,8.0068,4.0684,0.8181,-0.3150,-0.1294,-0.0073,1,1,1,1,1,1,1
5.3453,sweep,2,+up,0.07267,0.70325,1.71302,0.09060,-0.04444,-0.00706,-0.00324,-0.0024,0.1148,-0.0024,-0.0073,-0.0073,-0.0073,-0.0220,-0.0068,8.0068,4.0684,0.8181,-0.3150,-0.1294,-0.0073,1,1,1,1,1,1,1
5.3854,sweep,2,+up,0.07267,0.71546,1.71302,0.09098,-0.04444,-0.00706,-0.00362,0.0024,0.0806,-0.0024,0.0073,-0.0073,-0.0073,-0.0073,0.0068,7.7060,4.2598,0.8523,-0.3394,-0.1392,-0.0024,1,1,1,1,1,1,1
5.4257,sweep,2,+up,0.07267,0.71546,1.71302,0.09098,-0.04444,-0.00706,-0.00362,0.0024,0.0806,-0.0024,0.0073,-0.0073,-0.0073,-0.0073,0.0068,7.7060,4.2598,0.8523,-0.3394,-0.1392,-0.0024,1,1,1,1,1,1,1
5.4653,sweep,2,+up,0.07267,0.72194,1.71340,0.09098,-0.04444,-0.00706,-0.00324,-0.0024,0.0806,-0.0024,-0.0073,-0.0073,-0.0073,-0.0073,0.0068,7.9385,4.3419,0.8718,-0.3590,-0.1441,-0.0024,1,1,1,1,1,1,1
5.5056,sweep,2,+up,0.07267,0.72194,1.71340,0.09098,-0.04444,-0.00706,-0.00324,-0.0024,0.0806,-0.0024,-0.0073,-0.0073,-0.0073,-0.0073,0.0068,7.9385,4.3419,0.8718,-0.3590,-0.1441,-0.0024,1,1,1,1,1,1,1
5.5454,sweep,2,+up,0.07267,0.72194,1.71340,0.09098,-0.04444,-0.00706,-0.00324,-0.0024,0.0806,-0.0024,-0.0073,-0.0073,-0.0073,-0.0073,0.0068,7.9385,4.3419,0.8718,-0.3590,-0.1441,-0.0024,1,1,1,1,1,1,1
5.5856,sweep,2,+up,0.07267,0.73148,1.71340,0.09098,-0.04444,-0.00706,-0.00324,0.0024,0.0708,-0.0024,-0.0220,-0.0073,-0.0073,-0.0073,0.0068,7.4051,4.2188,0.9060,-0.3736,-0.1441,-0.0024,1,1,1,1,1,1,1
5.6260,sweep,2,+up,0.07267,0.73148,1.71340,0.09098,-0.04444,-0.00706,-0.00324,0.0024,0.0708,-0.0024,-0.0220,-0.0073,-0.0073,-0.0073,0.0068,7.4051,4.2188,0.9060,-0.3736,-0.1441,-0.0024,1,1,1,1,1,1,1
5.6655,sweep,2,+up,0.07267,0.73644,1.71378,0.09098,-0.04444,-0.00706,-0.00324,-0.0073,0.0757,-0.0024,-0.0220,-0.0073,-0.0073,-0.0073,-0.0068,7.7470,4.2051,0.9109,-0.3932,-0.1490,-0.0073,1,1,1,1,1,1,1
5.7053,sweep,2,+up,0.07267,0.73644,1.71378,0.09098,-0.04444,-0.00706,-0.00324,-0.0073,0.0757,-0.0024,-0.0220,-0.0073,-0.0073,-0.0073,-0.0068,7.7470,4.2051,0.9109,-0.3932,-0.1490,-0.0073,1,1,1,1,1,1,1
5.7453,sweep,2,+up,0.07267,0.73644,1.71378,0.09098,-0.04444,-0.00706,-0.00324,-0.0073,0.0757,-0.0024,-0.0220,-0.0073,-0.0073,-0.0073,-0.0068,7.7470,4.2051,0.9109,-0.3932,-0.1490,-0.0073,1,1,1,1,1,1,1
5.7854,sweep,2,+up,0.07267,0.74292,1.71378,0.09136,-0.04444,-0.00706,-0.00324,0.0024,0.0366,-0.0073,-0.0073,-0.0073,-0.0073,-0.0073,-0.0068,7.8701,4.1368,0.9158,-0.4225,-0.1538,-0.0024,1,1,1,1,1,1,1
5.8257,sweep,2,+up,0.07267,0.74292,1.71378,0.09136,-0.04444,-0.00706,-0.00324,0.0024,0.0366,-0.0073,-0.0073,-0.0073,-0.0073,-0.0073,-0.0068,7.8701,4.1368,0.9158,-0.4225,-0.1538,-0.0024,1,1,1,1,1,1,1
5.8658,sweep,2,+up,0.07267,0.74788,1.71378,0.09098,-0.04444,-0.00706,-0.00324,-0.0024,0.0611,-0.0073,-0.0513,0.0073,0.0073,-0.0073,-0.0068,6.7487,4.2872,0.9402,-0.4371,-0.1636,-0.0024,1,1,1,1,1,1,1
5.9053,sweep,2,+up,0.07267,0.74788,1.71378,0.09098,-0.04444,-0.00706,-0.00324,-0.0024,0.0611,-0.0073,-0.0513,0.0073,0.0073,-0.0073,-0.0068,6.7487,4.2872,0.9402,-0.4371,-0.1636,-0.0024,1,1,1,1,1,1,1
5.9451,sweep,2,+up,0.07267,0.74788,1.71378,0.09098,-0.04444,-0.00706,-0.00324,-0.0024,0.0611,-0.0073,-0.0513,0.0073,0.0073,-0.0073,-0.0068,6.7487,4.2872,0.9402,-0.4371,-0.1636,-0.0024,1,1,1,1,1,1,1
5.9853,sweep,2,+up,0.07267,0.75208,1.71378,0.09136,-0.04444,-0.00706,-0.00324,-0.0024,0.0220,0.0024,-0.0073,0.0073,-0.0073,-0.0220,0.0068,7.8154,4.4376,0.9451,-0.4664,-0.1734,-0.0073,1,1,1,1,1,1,1
6.0255,sweep,2,+up,0.07267,0.75208,1.71378,0.09136,-0.04444,-0.00706,-0.00324,-0.0024,0.0220,0.0024,-0.0073,0.0073,-0.0073,-0.0220,0.0068,7.8154,4.4376,0.9451,-0.4664,-0.1734,-0.0073,1,1,1,1,1,1,1
6.0654,sweep,2,+up,0.07267,0.75513,1.71378,0.09136,-0.04482,-0.00706,-0.00324,-0.0024,0.0415,-0.0024,-0.0073,-0.0073,0.0073,-0.0073,0.0068,8.0479,4.5333,0.9548,-0.4860,-0.1734,-0.0073,1,1,1,1,1,1,1
6.1051,sweep,2,+up,0.07267,0.75513,1.71378,0.09136,-0.04482,-0.00706,-0.00324,-0.0024,0.0415,-0.0024,-0.0073,-0.0073,0.0073,-0.0073,0.0068,8.0479,4.5333,0.9548,-0.4860,-0.1734,-0.0073,1,1,1,1,1,1,1
6.1453,sweep,2,+up,0.07267,0.75513,1.71378,0.09136,-0.04482,-0.00706,-0.00324,-0.0024,0.0415,-0.0024,-0.0073,-0.0073,0.0073,-0.0073,0.0068,8.0479,4.5333,0.9548,-0.4860,-0.1734,-0.0073,1,1,1,1,1,1,1
6.1854,sweep,2,+up,0.07267,0.75933,1.71378,0.09136,-0.04482,-0.00706,-0.00324,-0.0024,0.0171,-0.0073,-0.0220,-0.0220,-0.0073,0.0073,-0.0068,7.4598,4.6291,0.9646,-0.4957,-0.1832,-0.0073,1,1,1,1,1,1,1
6.2251,sweep,2,+up,0.07267,0.75933,1.71378,0.09136,-0.04482,-0.00706,-0.00324,-0.0024,0.0171,-0.0073,-0.0220,-0.0220,-0.0073,0.0073,-0.0068,7.4598,4.6291,0.9646,-0.4957,-0.1832,-0.0073,1,1,1,1,1,1,1
6.2652,sweep,2,+up,0.07267,0.76200,1.71378,0.09136,-0.04482,-0.00706,-0.00324,-0.0024,0.0269,-0.0024,-0.0366,-0.0073,-0.0073,-0.0220,0.0068,7.3504,4.7248,0.9841,-0.5006,-0.1783,-0.0073,1,1,1,1,1,1,1
6.7681,sweep,2,-down,0.07267,0.76314,1.71416,0.09136,-0.04482,-0.00706,-0.00324,-0.0024,0.0171,-0.0073,-0.0073,-0.0073,-0.0220,0.0073,0.0068,7.1316,4.7521,0.9792,-0.5055,-0.1832,-0.0024,1,1,1,1,1,1,1
6.8080,sweep,2,-down,0.07267,0.76314,1.71416,0.09136,-0.04482,-0.00706,-0.00324,-0.0024,0.0171,-0.0073,-0.0073,-0.0073,-0.0220,0.0073,0.0068,7.1316,4.7521,0.9792,-0.5055,-0.1832,-0.0024,1,1,1,1,1,1,1
6.8481,sweep,2,-down,0.07267,0.76314,1.71416,0.09136,-0.04482,-0.00706,-0.00324,-0.0024,0.0171,-0.0073,-0.0073,-0.0073,-0.0220,0.0073,0.0068,7.1316,4.7521,0.9792,-0.5055,-0.1832,-0.0024,1,1,1,1,1,1,1
6.8879,sweep,2,-down,0.07267,0.76123,1.71416,0.08869,-0.04559,-0.00706,-0.00324,-0.0073,-0.2076,-0.0073,-0.0952,-0.0220,-0.0073,-0.0073,0.0068,2.5231,5.2444,1.2332,-0.5006,-0.1929,-0.0073,1,1,1,1,1,1,1
6.9279,sweep,2,-down,0.07267,0.76123,1.71416,0.08869,-0.04559,-0.00706,-0.00324,-0.0073,-0.2076,-0.0073,-0.0952,-0.0220,-0.0073,-0.0073,0.0068,2.5231,5.2444,1.2332,-0.5006,-0.1929,-0.0073,1,1,1,1,1,1,1
6.9678,sweep,2,-down,0.07267,0.74521,1.71416,0.09098,-0.04635,-0.00744,-0.00324,-0.0024,-0.2125,0.0024,0.0806,-0.0220,-0.0073,-0.0073,-0.0068,2.6051,5.3675,1.1258,-0.4078,-0.1783,-0.0073,1,1,1,1,1,1,1
7.0081,sweep,2,-down,0.07267,0.74521,1.71416,0.09098,-0.04635,-0.00744,-0.00324,-0.0024,-0.2125,0.0024,0.0806,-0.0220,-0.0073,-0.0073,-0.0068,2.6051,5.3675,1.1258,-0.4078,-0.1783,-0.0073,1,1,1,1,1,1,1
7.0483,sweep,2,-down,0.07267,0.74521,1.71416,0.09098,-0.04635,-0.00744,-0.00324,-0.0024,-0.2125,0.0024,0.0806,-0.0220,-0.0073,-0.0073,-0.0068,2.6051,5.3675,1.1258,-0.4078,-0.1783,-0.0073,1,1,1,1,1,1,1
7.0881,sweep,2,-down,0.07267,0.71927,1.71530,0.09365,-0.04673,-0.00744,-0.00324,-0.0024,-0.1978,0.0024,-0.0073,-0.0220,0.0073,-0.0220,-0.0068,4.9846,3.8632,0.8864,-0.3053,-0.1587,-0.0073,1,1,1,1,1,1,1
7.1281,sweep,2,-down,0.07267,0.71927,1.71530,0.09365,-0.04673,-0.00744,-0.00324,-0.0024,-0.1978,0.0024,-0.0073,-0.0220,0.0073,-0.0220,-0.0068,4.9846,3.8632,0.8864,-0.3053,-0.1587,-0.0073,1,1,1,1,1,1,1
7.1680,sweep,2,-down,0.07267,0.70287,1.71569,0.09442,-0.04673,-0.00782,-0.00324,-0.0024,-0.1978,0.0024,-0.0220,-0.0220,-0.0220,-0.0073,0.0205,5.5727,3.1658,0.7985,-0.2515,-0.1441,-0.0073,1,1,1,1,1,1,1
7.2078,sweep,2,-down,0.07267,0.70287,1.71569,0.09442,-0.04673,-0.00782,-0.00324,-0.0024,-0.1978,0.0024,-0.0220,-0.0220,-0.0220,-0.0073,0.0205,5.5727,3.1658,0.7985,-0.2515,-0.1441,-0.0073,1,1,1,1,1,1,1
7.2477,sweep,2,-down,0.07267,0.70287,1.71569,0.09442,-0.04673,-0.00782,-0.00324,-0.0024,-0.1978,0.0024,-0.0220,-0.0220,-0.0220,-0.0073,0.0205,5.5727,3.1658,0.7985,-0.2515,-0.1441,-0.0073,1,1,1,1,1,1,1
7.2881,sweep,2,-down,0.07267,0.67998,1.71569,0.09213,-0.04673,-0.00744,-0.00324,-0.0024,-0.1880,-0.0024,-0.0220,0.0073,0.0073,-0.0073,0.0068,4.2325,3.0974,0.8327,-0.1734,-0.1294,-0.0073,1,1,1,1,1,1,1
7.3277,sweep,2,-down,0.07267,0.67998,1.71569,0.09213,-0.04673,-0.00744,-0.00324,-0.0024,-0.1880,-0.0024,-0.0220,0.0073,0.0073,-0.0073,0.0068,4.2325,3.0974,0.8327,-0.1734,-0.1294,-0.0073,1,1,1,1,1,1,1
7.3682,sweep,2,-down,0.07267,0.66358,1.71569,0.09251,-0.04635,-0.00744,-0.00324,-0.0024,-0.2271,0.0024,-0.0073,-0.0073,-0.0073,-0.0073,0.0068,4.9436,2.9880,0.7985,-0.1538,-0.1197,-0.0024,1,1,1,1,1,1,1
7.4080,sweep,2,-down,0.07267,0.66358,1.71569,0.09251,-0.04635,-0.00744,-0.00324,-0.0024,-0.2271,0.0024,-0.0073,-0.0073,-0.0073,-0.0073,0.0068,4.9436,2.9880,0.7985,-0.1538,-0.1197,-0.0024,1,1,1,1,1,1,1
7.4479,sweep,2,-down,0.07267,0.66358,1.71569,0.09251,-0.04635,-0.00744,-0.00324,-0.0024,-0.2271,0.0024,-0.0073,-0.0073,-0.0073,-0.0073,0.0068,4.9436,2.9880,0.7985,-0.1538,-0.1197,-0.0024,1,1,1,1,1,1,1
7.4877,sweep,2,-down,0.07267,0.63916,1.71569,0.09251,-0.04635,-0.00744,-0.00324,-0.0024,-0.1929,-0.0024,-0.0220,-0.0220,0.0073,-0.0073,0.0068,5.2171,2.8103,0.7399,-0.1245,-0.1099,-0.0073,1,1,1,1,1,1,1
7.5281,sweep,2,-down,0.07267,0.63916,1.71569,0.09251,-0.04635,-0.00744,-0.00324,-0.0024,-0.1929,-0.0024,-0.0220,-0.0220,0.0073,-0.0073,0.0068,5.2171,2.8103,0.7399,-0.1245,-0.1099,-0.0073,1,1,1,1,1,1,1
7.5683,sweep,2,-down,0.07267,0.62276,1.71569,0.09213,-0.04635,-0.00744,-0.00324,-0.0024,-0.2125,-0.0024,0.0073,-0.0366,-0.0073,-0.0073,0.0205,5.6137,2.6735,0.7155,-0.0952,-0.1099,-0.0073,1,1,1,1,1,1,1
7.6083,sweep,2,-down,0.07267,0.62276,1.71569,0.09213,-0.04635,-0.00744,-0.00324,-0.0024,-0.2125,-0.0024,0.0073,-0.0366,-0.0073,-0.0073,0.0205,5.6137,2.6735,0.7155,-0.0952,-0.1099,-0.0073,1,1,1,1,1,1,1
7.6479,sweep,2,-down,0.07267,0.62276,1.71569,0.09213,-0.04635,-0.00744,-0.00324,-0.0024,-0.2125,-0.0024,0.0073,-0.0366,-0.0073,-0.0073,0.0205,5.6137,2.6735,0.7155,-0.0952,-0.1099,-0.0073,1,1,1,1,1,1,1
7.6885,sweep,2,-down,0.07267,0.59873,1.71569,0.09289,-0.04597,-0.00744,-0.00362,-0.0024,-0.2125,0.0024,-0.0220,-0.0073,0.0073,-0.0220,0.0068,5.8735,2.4547,0.6325,-0.0708,-0.1001,-0.0122,1,1,1,1,1,1,1
7.7281,sweep,2,-down,0.07267,0.59873,1.71569,0.09289,-0.04597,-0.00744,-0.00362,-0.0024,-0.2125,0.0024,-0.0220,-0.0073,0.0073,-0.0220,0.0068,5.8735,2.4547,0.6325,-0.0708,-0.1001,-0.0122,1,1,1,1,1,1,1
7.7681,sweep,2,-down,0.07305,0.58270,1.71569,0.09251,-0.04559,-0.00744,-0.00324,-0.0024,-0.1929,-0.0024,-0.0073,-0.0073,-0.0220,-0.0220,0.0068,5.9966,2.3043,0.6081,-0.0562,-0.0952,-0.0122,1,1,1,1,1,1,1
7.8080,sweep,2,-down,0.07305,0.58270,1.71569,0.09251,-0.04559,-0.00744,-0.00324,-0.0024,-0.1929,-0.0024,-0.0073,-0.0073,-0.0220,-0.0220,0.0068,5.9966,2.3043,0.6081,-0.0562,-0.0952,-0.0122,1,1,1,1,1,1,1
7.8482,sweep,2,-down,0.07305,0.58270,1.71569,0.09251,-0.04559,-0.00744,-0.00324,-0.0024,-0.1929,-0.0024,-0.0073,-0.0073,-0.0220,-0.0220,0.0068,5.9966,2.3043,0.6081,-0.0562,-0.0952,-0.0122,1,1,1,1,1,1,1
7.8879,sweep,2,-down,0.07305,0.55791,1.71569,0.09251,-0.04559,-0.00744,-0.00324,0.0024,-0.2222,0.0024,0.0366,-0.0073,-0.0073,-0.0073,0.0205,6.7214,2.1402,0.5690,-0.0464,-0.0904,-0.0122,1,1,1,1,1,1,1
7.9281,sweep,2,-down,0.07305,0.55791,1.71569,0.09251,-0.04559,-0.00744,-0.00324,0.0024,-0.2222,0.0024,0.0366,-0.0073,-0.0073,-0.0073,0.0205,6.7214,2.1402,0.5690,-0.0464,-0.0904,-0.0122,1,1,1,1,1,1,1
7.9684,sweep,2,-down,0.07267,0.54189,1.71569,0.09289,-0.04597,-0.00744,-0.00324,-0.0024,-0.1978,-0.0024,0.0073,-0.0366,-0.0073,-0.0073,0.0068,6.7624,1.9897,0.5153,-0.0366,-0.0855,-0.0122,1,1,1,1,1,1,1
8.0080,sweep,2,-down,0.07267,0.54189,1.71569,0.09289,-0.04597,-0.00744,-0.00324,-0.0024,-0.1978,-0.0024,0.0073,-0.0366,-0.0073,-0.0073,0.0068,6.7624,1.9897,0.5153,-0.0366,-0.0855,-0.0122,1,1,1,1,1,1,1
8.0477,sweep,2,-down,0.07267,0.54189,1.71569,0.09289,-0.04597,-0.00744,-0.00324,-0.0024,-0.1978,-0.0024,0.0073,-0.0366,-0.0073,-0.0073,0.0068,6.7624,1.9897,0.5153,-0.0366,-0.0855,-0.0122,1,1,1,1,1,1,1
8.0883,sweep,2,-down,0.07305,0.51823,1.71569,0.09251,-0.04559,-0.00744,-0.00324,0.0024,-0.2125,-0.0024,-0.0073,-0.0220,-0.0073,-0.0073,0.0205,6.3658,1.7709,0.4518,-0.0220,-0.0806,-0.0122,1,1,1,1,1,1,1
8.1277,sweep,2,-down,0.07305,0.51823,1.71569,0.09251,-0.04559,-0.00744,-0.00324,0.0024,-0.2125,-0.0024,-0.0073,-0.0220,-0.0073,-0.0073,0.0205,6.3658,1.7709,0.4518,-0.0220,-0.0806,-0.0122,1,1,1,1,1,1,1
8.1683,sweep,2,-down,0.07305,0.50259,1.71569,0.09213,-0.04559,-0.00744,-0.00362,-0.0024,-0.2027,-0.0024,-0.0220,0.0073,-0.0073,-0.0073,-0.0068,6.3248,1.7436,0.4518,-0.0122,-0.0806,-0.0171,1,1,1,1,1,1,1
8.2078,sweep,2,-down,0.07305,0.50259,1.71569,0.09213,-0.04559,-0.00744,-0.00362,-0.0024,-0.2027,-0.0024,-0.0220,0.0073,-0.0073,-0.0073,-0.0068,6.3248,1.7436,0.4518,-0.0122,-0.0806,-0.0171,1,1,1,1,1,1,1
8.2477,sweep,2,-down,0.07305,0.50259,1.71569,0.09213,-0.04559,-0.00744,-0.00362,-0.0024,-0.2027,-0.0024,-0.0220,0.0073,-0.0073,-0.0073,-0.0068,6.3248,1.7436,0.4518,-0.0122,-0.0806,-0.0171,1,1,1,1,1,1,1
8.2877,sweep,2,-down,0.07305,0.47780,1.71530,0.09251,-0.04559,-0.00744,-0.00362,-0.0024,-0.1880,-0.0073,0.0073,0.0073,-0.0073,-0.0073,-0.0205,7.2410,1.4974,0.3736,-0.0024,-0.0757,-0.0122,1,1,1,1,1,1,1
8.3279,sweep,2,-down,0.07305,0.47780,1.71530,0.09251,-0.04559,-0.00744,-0.00362,-0.0024,-0.1880,-0.0073,0.0073,0.0073,-0.0073,-0.0073,-0.0205,7.2410,1.4974,0.3736,-0.0024,-0.0757,-0.0122,1,1,1,1,1,1,1
8.3679,sweep,2,-down,0.07305,0.47780,1.71569,0.09289,-0.04559,-0.00744,-0.00324,-0.0024,-0.1880,-0.0024,0.0073,-0.0073,-0.0220,-0.0073,-0.0205,7.2410,1.3607,0.3248,0.0073,-0.0757,-0.0171,1,1,1,1,1,1,1
8.4079,sweep,2,-down,0.07305,0.45376,1.71569,0.09289,-0.04559,-0.00744,-0.00324,-0.0024,-0.2222,-0.0024,0.0073,-0.0073,-0.0220,-0.0073,0.0068,7.3231,1.3607,0.3248,0.0073,-0.0757,-0.0171,1,1,1,1,1,1,1
8.4479,sweep,2,-down,0.07305,0.45376,1.71569,0.09289,-0.04559,-0.00744,-0.00324,-0.0024,-0.2222,-0.0024,0.0073,-0.0073,-0.0220,-0.0073,0.0068,7.3231,1.3607,0.3248,0.0073,-0.0757,-0.0171,1,1,1,1,1,1,1
8.4882,sweep,2,-down,0.07305,0.43774,1.71569,0.09251,-0.04559,-0.00744,-0.00324,-0.0024,-0.2027,-0.0073,-0.0073,-0.0220,0.0073,-0.0073,0.0068,7.3094,1.2239,0.2906,0.0073,-0.0757,-0.0171,1,1,1,1,1,1,1
8.5286,sweep,2,-down,0.07305,0.43774,1.71569,0.09251,-0.04559,-0.00744,-0.00324,-0.0024,-0.2027,-0.0073,-0.0073,-0.0220,0.0073,-0.0073,0.0068,7.3094,1.2239,0.2906,0.0073,-0.0757,-0.0171,1,1,1,1,1,1,1
8.5679,sweep,2,-down,0.07305,0.43774,1.71569,0.09289,-0.04521,-0.00744,-0.00324,-0.0024,-0.2027,-0.0073,0.0073,-0.0073,-0.0073,-0.0220,0.0068,7.3094,1.2239,0.2271,0.0122,-0.0659,-0.0171,1,1,1,1,1,1,1
8.6084,sweep,2,-down,0.07305,0.41333,1.71569,0.09289,-0.04521,-0.00744,-0.00324,-0.0024,-0.2076,-0.0024,0.0073,-0.0073,-0.0073,-0.0220,-0.0068,8.1709,1.0188,0.2271,0.0122,-0.0659,-0.0171,1,1,1,1,1,1,1
8.6475,sweep,2,-down,0.07305,0.41333,1.71569,0.09289,-0.04521,-0.00744,-0.00324,-0.0024,-0.2076,-0.0024,0.0073,-0.0073,-0.0073,-0.0220,-0.0068,8.1709,1.0188,0.2271,0.0122,-0.0659,-0.0171,1,1,1,1,1,1,1
8.6878,sweep,2,-down,0.07305,0.39731,1.71569,0.09251,-0.04559,-0.00744,-0.00324,0.0024,-0.2027,-0.0024,-0.0366,-0.0073,0.0073,-0.0073,0.0068,8.0068,0.9368,0.2027,0.0171,-0.0611,-0.0171,1,1,1,1,1,1,1
8.7278,sweep,2,-down,0.07305,0.39731,1.71569,0.09251,-0.04559,-0.00744,-0.00324,0.0024,-0.2027,-0.0024,-0.0366,-0.0073,0.0073,-0.0073,0.0068,8.0068,0.9368,0.2027,0.0171,-0.0611,-0.0171,1,1,1,1,1,1,1
8.7689,sweep,2,-down,0.07305,0.37366,1.71569,0.09289,-0.04521,-0.00744,-0.00362,-0.0024,-0.1978,-0.0024,0.0073,-0.0073,-0.0220,-0.0073,-0.0068,7.7060,0.7043,0.1294,0.0269,-0.0611,-0.0122,1,1,1,1,1,1,1
8.8079,sweep,2,-down,0.07305,0.37366,1.71569,0.09289,-0.04521,-0.00744,-0.00362,-0.0024,-0.1978,-0.0024,0.0073,-0.0073,-0.0220,-0.0073,-0.0068,7.7060,0.7043,0.1294,0.0269,-0.0611,-0.0122,1,1,1,1,1,1,1
8.8483,sweep,2,-down,0.07305,0.37366,1.71569,0.09289,-0.04521,-0.00744,-0.00362,-0.0024,-0.1978,-0.0024,0.0073,-0.0073,-0.0220,-0.0073,-0.0068,7.7060,0.7043,0.1294,0.0269,-0.0611,-0.0122,1,1,1,1,1,1,1
8.8881,sweep,2,-down,0.07305,0.35763,1.71569,0.09251,-0.04521,-0.00744,-0.00324,-0.0024,-0.2027,-0.0024,-0.0220,-0.0220,0.0073,-0.0073,-0.0205,7.4872,0.6496,0.1148,0.0220,-0.0611,-0.0122,1,1,1,1,1,1,1
8.9282,sweep,2,-down,0.07305,0.35763,1.71569,0.09251,-0.04521,-0.00744,-0.00324,-0.0024,-0.2027,-0.0024,-0.0220,-0.0220,0.0073,-0.0073,-0.0205,7.4872,0.6496,0.1148,0.0220,-0.0611,-0.0122,1,1,1,1,1,1,1
8.9685,sweep,2,-down,0.07305,0.35763,1.71569,0.09251,-0.04521,-0.00744,-0.00324,-0.0024,-0.2027,-0.0024,-0.0220,-0.0220,0.0073,-0.0220,-0.0205,7.4872,0.6496,0.1148,0.0220,-0.0611,-0.0122,1,1,1,1,1,1,1
9.0080,sweep,2,-down,0.07305,0.33284,1.71569,0.09289,-0.04521,-0.00744,-0.00324,-0.0024,-0.2027,-0.0024,0.0073,-0.0073,-0.0073,-0.0220,0.0068,8.4855,0.5265,0.0757,0.0269,-0.0562,-0.0122,1,1,1,1,1,1,1
9.0477,sweep,2,-down,0.07305,0.33284,1.71569,0.09289,-0.04521,-0.00744,-0.00324,-0.0024,-0.2027,-0.0024,0.0073,-0.0073,-0.0073,-0.0220,0.0068,8.4855,0.5265,0.0757,0.0269,-0.0562,-0.0122,1,1,1,1,1,1,1
9.0881,sweep,2,-down,0.07267,0.31682,1.71569,0.09327,-0.04521,-0.00744,-0.00362,-0.0073,-0.2173,-0.0024,-0.0073,-0.0073,-0.0073,-0.0073,0.0068,8.4444,0.4171,0.0366,0.0317,-0.0562,-0.0073,1,1,1,1,1,1,1
9.1281,sweep,2,-down,0.07267,0.31682,1.71569,0.09327,-0.04521,-0.00744,-0.00362,-0.0073,-0.2173,-0.0024,-0.0073,-0.0073,-0.0073,-0.0073,0.0068,8.4444,0.4171,0.0366,0.0317,-0.0562,-0.0073,1,1,1,1,1,1,1
9.1678,sweep,2,-down,0.07267,0.31682,1.71569,0.09327,-0.04521,-0.00744,-0.00362,-0.0073,-0.2173,-0.0024,-0.0073,-0.0073,-0.0073,-0.0073,0.0068,8.4444,0.4171,0.0366,0.0317,-0.0562,-0.0073,1,1,1,1,1,1,1
9.2079,sweep,2,-down,0.07305,0.29316,1.71569,0.09442,-0.04521,-0.00744,-0.00362,0.0024,-0.2027,0.0024,0.0366,-0.0073,-0.0073,-0.0220,-0.0068,7.8427,0.2667,-0.0317,0.0317,-0.0513,-0.0073,1,1,1,1,1,1,1
9.2479,sweep,2,-down,0.07305,0.29316,1.71569,0.09442,-0.04521,-0.00744,-0.00362,0.0024,-0.2027,0.0024,0.0366,-0.0073,-0.0073,-0.0220,-0.0068,7.8427,0.2667,-0.0317,0.0317,-0.0513,-0.0073,1,1,1,1,1,1,1
9.2879,sweep,2,-down,0.07305,0.27676,1.71569,0.09518,-0.04521,-0.00744,-0.00324,-0.0073,-0.2125,-0.0024,-0.0073,-0.0073,-0.0073,0.0073,-0.0342,8.5265,0.1436,-0.1245,0.0317,-0.0513,-0.0122,1,1,1,1,1,1,1
9.3277,sweep,2,-down,0.07305,0.27676,1.71569,0.09518,-0.04521,-0.00744,-0.00324,-0.0073,-0.2125,-0.0024,-0.0073,-0.0073,-0.0073,0.0073,-0.0342,8.5265,0.1436,-0.1245,0.0317,-0.0513,-0.0122,1,1,1,1,1,1,1
9.3678,sweep,2,-down,0.07305,0.27676,1.71569,0.09518,-0.04521,-0.00744,-0.00324,-0.0073,-0.2125,-0.0024,-0.0073,-0.0073,-0.0073,0.0073,-0.0342,8.5265,0.1436,-0.1245,0.0317,-0.0513,-0.0122,1,1,1,1,1,1,1
9.4077,sweep,2,-down,0.07305,0.25311,1.71569,0.09442,-0.04521,-0.00744,-0.00324,-0.0024,-0.1734,-0.0024,-0.0220,-0.0073,-0.0073,0.0073,0.0068,9.0598,0.0479,-0.2271,0.0415,-0.0513,-0.0073,1,1,1,1,1,1,1
9.4477,sweep,2,-down,0.07305,0.25311,1.71569,0.09442,-0.04521,-0.00744,-0.00324,-0.0024,-0.1734,-0.0024,-0.0220,-0.0073,-0.0073,0.0073,0.0068,9.0598,0.0479,-0.2271,0.0415,-0.0513,-0.0073,1,1,1,1,1,1,1
9.4878,sweep,2,-down,0.07305,0.23938,1.71607,0.09403,-0.04521,-0.00744,-0.00324,0.0024,-0.1783,0.0024,0.0073,-0.0073,-0.0073,-0.0073,0.0342,8.8684,-0.1026,-0.2711,0.0366,-0.0513,-0.0073,1,1,1,1,1,1,1
9.5284,sweep,2,-down,0.07305,0.23938,1.71607,0.09403,-0.04521,-0.00744,-0.00324,0.0024,-0.1783,0.0024,0.0073,-0.0073,-0.0073,-0.0073,0.0342,8.8684,-0.1026,-0.2711,0.0366,-0.0513,-0.0073,1,1,1,1,1,1,1
9.5678,sweep,2,-down,0.07305,0.23938,1.71607,0.09403,-0.04521,-0.00744,-0.00324,0.0024,-0.1783,0.0024,0.0073,-0.0073,-0.0073,-0.0073,0.0342,8.8684,-0.1026,-0.2711,0.0366,-0.0513,-0.0073,1,1,1,1,1,1,1
9.6078,sweep,2,-down,0.07305,0.21916,1.71797,0.09861,-0.04521,-0.00744,-0.00324,-0.0024,-0.1929,0.0073,0.0220,-0.0220,-0.0073,0.0073,0.0068,11.6991,-2.6325,-0.8132,0.0464,-0.0513,-0.0073,1,1,1,1,1,1,1
9.6475,sweep,2,-down,0.07305,0.21916,1.71797,0.09861,-0.04521,-0.00744,-0.00324,-0.0024,-0.1929,0.0073,0.0220,-0.0220,-0.0073,0.0073,0.0068,11.6991,-2.6325,-0.8132,0.0464,-0.0513,-0.0073,1,1,1,1,1,1,1
9.6879,sweep,2,-down,0.07305,0.20771,1.71874,0.09899,-0.04521,-0.00744,-0.00324,-0.0024,-0.1197,-0.0024,0.0073,0.0073,-0.0220,-0.0073,0.0068,13.3949,-3.9863,-1.0818,0.0464,-0.0464,-0.0073,1,1,1,1,1,1,1
9.7280,sweep,2,-down,0.07305,0.20771,1.71874,0.09899,-0.04521,-0.00744,-0.00324,-0.0024,-0.1197,-0.0024,0.0073,0.0073,-0.0220,-0.0073,0.0068,13.3949,-3.9863,-1.0818,0.0464,-0.0464,-0.0073,1,1,1,1,1,1,1
9.7677,sweep,2,-down,0.07305,0.20771,1.71874,0.09899,-0.04521,-0.00744,-0.00324,-0.0024,-0.1197,-0.0024,0.0073,0.0073,-0.0220,-0.0073,0.0068,13.3949,-3.9863,-1.0818,0.0464,-0.0464,-0.0073,1,1,1,1,1,1,1
9.8078,sweep,2,-down,0.07267,0.19703,1.71683,0.09022,-0.04521,-0.00744,-0.00362,-0.0024,-0.0806,-0.0122,-0.0366,0.0073,0.0073,-0.0073,0.0615,9.9350,-2.2769,-0.5641,0.0464,-0.0415,-0.0073,1,1,1,1,1,1,1
9.8477,sweep,2,-down,0.07267,0.19703,1.71683,0.09022,-0.04521,-0.00744,-0.00362,-0.0024,-0.0806,-0.0122,-0.0366,0.0073,0.0073,-0.0073,0.0615,9.9350,-2.2769,-0.5641,0.0464,-0.0415,-0.0073,1,1,1,1,1,1,1
9.8877,sweep,2,-down,0.07267,0.18902,1.71645,0.08946,-0.04482,-0.00744,-0.00362,-0.0024,-0.1197,-0.0024,0.0073,0.0073,-0.0073,-0.0073,0.0205,10.1128,-2.1402,-0.4176,0.0366,-0.0464,-0.0073,1,1,1,1,1,1,1
9.9281,sweep,2,-down,0.07267,0.18902,1.71645,0.08946,-0.04482,-0.00744,-0.00362,-0.0024,-0.1197,-0.0024,0.0073,0.0073,-0.0073,-0.0073,0.0205,10.1128,-2.1402,-0.4176,0.0366,-0.0464,-0.0073,1,1,1,1,1,1,1
9.9680,sweep,2,-down,0.07267,0.18902,1.71645,0.08946,-0.04482,-0.00744,-0.00362,-0.0024,-0.1197,-0.0024,0.0073,0.0073,-0.0073,-0.0073,0.0205,10.1128,-2.1402,-0.4176,0.0366,-0.0464,-0.0073,1,1,1,1,1,1,1
10.0076,sweep,2,-down,0.07305,0.17681,1.71683,0.09480,-0.04482,-0.00744,-0.00324,0.0024,-0.0611,-0.0024,0.0659,-0.0073,-0.0073,-0.0220,-0.0615,12.6838,-3.0974,-0.8718,0.0415,-0.0464,-0.0073,1,1,1,1,1,1,1
10.0481,sweep,2,-down,0.07305,0.17681,1.71683,0.09480,-0.04482,-0.00744,-0.00324,0.0024,-0.0611,-0.0024,0.0659,-0.0073,-0.0073,-0.0220,-0.0615,12.6838,-3.0974,-0.8718,0.0415,-0.0464,-0.0073,1,1,1,1,1,1,1
10.0877,sweep,2,-down,0.07305,0.17147,1.71683,0.09327,-0.04482,-0.00744,-0.00324,-0.0024,-0.0269,-0.0073,-0.0220,-0.0073,-0.0073,-0.0073,-0.0205,11.9590,-3.3709,-0.8474,0.0415,-0.0415,-0.0122,1,1,1,1,1,1,1
10.1282,sweep,2,-down,0.07305,0.17147,1.71683,0.09327,-0.04482,-0.00744,-0.00324,-0.0024,-0.0269,-0.0073,-0.0220,-0.0073,-0.0073,-0.0073,-0.0205,11.9590,-3.3709,-0.8474,0.0415,-0.0415,-0.0122,1,1,1,1,1,1,1
10.1681,sweep,2,-down,0.07305,0.17147,1.71683,0.09327,-0.04482,-0.00744,-0.00324,-0.0024,-0.0269,-0.0073,-0.0220,-0.0073,-0.0073,-0.0073,-0.0205,11.9590,-3.3709,-0.8474,0.0415,-0.0415,-0.0122,1,1,1,1,1,1,1
10.2078,sweep,2,-down,0.07267,0.16423,1.71645,0.09060,-0.04482,-0.00744,-0.00324,-0.0024,-0.0513,-0.0024,-0.0073,-0.0073,-0.0073,-0.0073,0.0205,10.7829,-3.0427,-0.6129,0.0415,-0.0366,-0.0122,1,1,1,1,1,1,1
10.2479,sweep,2,-down,0.07267,0.16423,1.71645,0.09060,-0.04482,-0.00744,-0.00324,-0.0024,-0.0513,-0.0024,-0.0073,-0.0073,-0.0073,-0.0073,0.0205,10.7829,-3.0427,-0.6129,0.0415,-0.0366,-0.0122,1,1,1,1,1,1,1
10.2880,sweep,2,-down,0.07267,0.15850,1.71645,0.09136,-0.04482,-0.00744,-0.00362,0.0024,-0.1050,-0.0024,0.0073,0.0073,-0.0073,-0.0073,0.0342,12.3829,-3.2752,-0.6764,0.0366,-0.0366,-0.0171,1,1,1,1,1,1,1
10.3278,sweep,2,-down,0.07267,0.15850,1.71645,0.09136,-0.04482,-0.00744,-0.00362,0.0024,-0.1050,-0.0024,0.0073,0.0073,-0.0073,-0.0073,0.0342,12.3829,-3.2752,-0.6764,0.0366,-0.0366,-0.0171,1,1,1,1,1,1,1
10.3679,sweep,2,-down,0.07267,0.15850,1.71645,0.09136,-0.04482,-0.00744,-0.00362,0.0024,-0.1050,-0.0024,0.0073,0.0073,-0.0073,-0.0073,0.0342,12.3829,-3.2752,-0.6764,0.0366,-0.0366,-0.0171,1,1,1,1,1,1,1
10.4079,sweep,2,-down,0.07305,0.15316,1.71645,0.09213,-0.04482,-0.00744,-0.00324,-0.0024,-0.0513,-0.0024,-0.0073,-0.0073,0.0073,-0.0073,0.0205,11.6718,-3.3983,-0.7741,0.0366,-0.0366,-0.0122,1,1,1,1,1,1,1
10.4479,sweep,2,-down,0.07305,0.15316,1.71645,0.09213,-0.04482,-0.00744,-0.00324,-0.0024,-0.0513,-0.0024,-0.0073,-0.0073,0.0073,-0.0073,0.0205,11.6718,-3.3983,-0.7741,0.0366,-0.0366,-0.0122,1,1,1,1,1,1,1
10.4882,sweep,2,-down,0.07305,0.15087,1.71607,0.09136,-0.04482,-0.00744,-0.00324,-0.0024,-0.0220,-0.0073,-0.0220,-0.0073,-0.0073,0.0073,0.0205,10.2632,-3.3983,-0.6960,0.0317,-0.0317,-0.0122,1,1,1,1,1,1,1
10.5281,sweep,2,-down,0.07305,0.15087,1.71607,0.09136,-0.04482,-0.00744,-0.00324,-0.0024,-0.0220,-0.0073,-0.0220,-0.0073,-0.0073,0.0073,0.0205,10.2632,-3.3983,-0.6960,0.0317,-0.0317,-0.0122,1,1,1,1,1,1,1
10.5683,sweep,2,-down,0.07305,0.15087,1.71607,0.09136,-0.04482,-0.00744,-0.00324,-0.0024,-0.0220,-0.0073,-0.0220,-0.0073,-0.0073,0.0073,0.0205,10.2632,-3.3983,-0.6960,0.0317,-0.0317,-0.0122,1,1,1,1,1,1,1
10.6078,sweep,2,-down,0.07305,0.14515,1.71607,0.09213,-0.04521,-0.00744,-0.00324,0.0024,-0.0269,-0.0073,0.0366,-0.0073,0.0073,-0.0073,0.0205,11.6308,-3.5897,-0.7595,0.0269,-0.0366,-0.0122,1,1,1,1,1,1,1
10.6480,sweep,2,-down,0.07305,0.14515,1.71607,0.09213,-0.04521,-0.00744,-0.00324,0.0024,-0.0269,-0.0073,0.0366,-0.0073,0.0073,-0.0073,0.0205,11.6308,-3.5897,-0.7595,0.0269,-0.0366,-0.0122,1,1,1,1,1,1,1
10.6882,sweep,2,-down,0.07305,0.14248,1.71607,0.09213,-0.04482,-0.00744,-0.00324,0.0024,-0.0415,-0.0024,0.0073,-0.0220,-0.0220,-0.0073,-0.0068,11.8906,-3.7402,-0.7985,0.0269,-0.0317,-0.0122,1,1,1,1,1,1,1
10.7278,sweep,2,-down,0.07305,0.14248,1.71607,0.09213,-0.04482,-0.00744,-0.00324,0.0024,-0.0415,-0.0024,0.0073,-0.0220,-0.0220,-0.0073,-0.0068,11.8906,-3.7402,-0.7985,0.0269,-0.0317,-0.0122,1,1,1,1,1,1,1
10.7682,sweep,2,-down,0.07305,0.14248,1.71607,0.09213,-0.04482,-0.00744,-0.00324,0.0024,-0.0415,-0.0024,0.0073,-0.0220,-0.0220,-0.0073,-0.0068,11.8906,-3.7402,-0.7985,0.0269,-0.0317,-0.0122,1,1,1,1,1,1,1
10.8080,sweep,2,-down,0.07305,0.13943,1.71569,0.09136,-0.04482,-0.00744,-0.00324,0.0024,-0.0317,0.0024,-0.0073,-0.0220,0.0073,0.0073,0.0205,11.1795,-3.7812,-0.7302,0.0317,-0.0269,-0.0073,1,1,1,1,1,1,1
11.3105,sweep,2,+up,0.07305,0.13828,1.71569,0.09174,-0.04482,-0.00744,-0.00324,0.0024,-0.0415,-0.0024,-0.0073,-0.0073,-0.0073,-0.0073,0.0205,11.5487,-3.8496,-0.7448,0.0317,-0.0269,-0.0122,1,1,1,1,1,1,1
11.3505,sweep,2,+up,0.07305,0.13828,1.71569,0.09174,-0.04482,-0.00744,-0.00324,0.0024,-0.0415,-0.0024,-0.0073,-0.0073,-0.0073,-0.0073,0.0205,11.5487,-3.8496,-0.7448,0.0317,-0.0269,-0.0122,1,1,1,1,1,1,1
11.3907,sweep,2,+up,0.07305,0.13027,1.71492,0.09174,-0.04482,-0.00744,-0.00362,0.0024,0.0904,-0.0024,-0.0073,-0.0073,0.0073,-0.0073,0.0205,19.0291,-3.6991,-0.7790,0.0317,-0.0220,-0.0122,1,1,1,1,1,1,1
11.4310,sweep,2,+up,0.07305,0.13027,1.71492,0.09174,-0.04482,-0.00744,-0.00362,0.0024,0.0904,-0.0024,-0.0073,-0.0073,0.0073,-0.0073,0.0205,19.0291,-3.6991,-0.7790,0.0317,-0.0220,-0.0122,1,1,1,1,1,1,1
11.4705,sweep,2,+up,0.07305,0.13027,1.71492,0.09174,-0.04482,-0.00744,-0.00362,0.0024,0.0904,-0.0024,-0.0073,-0.0073,0.0073,-0.0073,0.0205,19.0291,-3.6991,-0.7790,0.0317,-0.0220,-0.0122,1,1,1,1,1,1,1
11.5106,sweep,2,+up,0.07305,0.15278,1.71530,0.09403,-0.04482,-0.00744,-0.00324,0.0024,0.2369,-0.0024,-0.0952,-0.0073,-0.0073,-0.0073,0.0068,20.6564,-4.0274,-1.0867,0.0366,-0.0171,-0.0122,1,1,1,1,1,1,1
11.5505,sweep,2,+up,0.07305,0.15278,1.71530,0.09403,-0.04482,-0.00744,-0.00324,0.0024,0.2369,-0.0024,-0.0952,-0.0073,-0.0073,-0.0073,0.0068,20.6564,-4.0274,-1.0867,0.0366,-0.0171,-0.0122,1,1,1,1,1,1,1
11.5910,sweep,2,+up,0.07267,0.17224,1.71492,0.08984,-0.04482,-0.00706,-0.00324,-0.0024,0.2418,-0.0171,-0.0513,-0.0073,-0.0073,-0.0073,0.0205,16.5128,-3.3436,-0.7497,0.0317,-0.0220,-0.0122,1,1,1,1,1,1,1
11.6315,sweep,2,+up,0.07267,0.17224,1.71492,0.08984,-0.04482,-0.00706,-0.00324,-0.0024,0.2418,-0.0171,-0.0513,-0.0073,-0.0073,-0.0073,0.0205,16.5128,-3.3436,-0.7497,0.0317,-0.0220,-0.0122,1,1,1,1,1,1,1
11.6708,sweep,2,+up,0.07267,0.17224,1.71492,0.08984,-0.04482,-0.00706,-0.00324,-0.0024,0.2418,-0.0171,-0.0513,-0.0073,-0.0073,-0.0073,0.0205,16.5128,-3.3436,-0.7497,0.0317,-0.0220,-0.0122,1,1,1,1,1,1,1
11.7106,sweep,2,+up,0.07305,0.19627,1.71416,0.08946,-0.04482,-0.00744,-0.00324,-0.0073,0.1734,-0.0073,0.0366,0.0073,-0.0073,-0.0073,-0.0205,16.2940,-2.3453,-0.5690,0.0269,-0.0171,-0.0122,1,1,1,1,1,1,1
11.7506,sweep,2,+up,0.07305,0.19627,1.71416,0.08946,-0.04482,-0.00744,-0.00324,-0.0073,0.1734,-0.0073,0.0366,0.0073,-0.0073,-0.0073,-0.0205,16.2940,-2.3453,-0.5690,0.0269,-0.0171,-0.0122,1,1,1,1,1,1,1
11.7910,sweep,2,+up,0.07305,0.21153,1.71416,0.09174,-0.04482,-0.00744,-0.00324,-0.0024,0.1929,-0.0073,0.0073,-0.0073,-0.0073,-0.0073,-0.0342,16.9778,-2.4137,-0.7253,0.0269,-0.0171,-0.0122,1,1,1,1,1,1,1
11.8311,sweep,2,+up,0.07305,0.21153,1.71416,0.09174,-0.04482,-0.00744,-0.00324,-0.0024,0.1929,-0.0073,0.0073,-0.0073,-0.0073,-0.0073,-0.0342,16.9778,-2.4137,-0.7253,0.0269,-0.0171,-0.0122,1,1,1,1,1,1,1
11.8712,sweep,2,+up,0.07305,0.21153,1.71416,0.09174,-0.04482,-0.00744,-0.00324,-0.0024,0.1929,-0.0073,0.0073,-0.0073,-0.0073,-0.0073,-0.0342,16.9778,-2.4137,-0.7253,0.0269,-0.0171,-0.0122,1,1,1,1,1,1,1
11.9106,sweep,2,+up,0.07267,0.23556,1.71416,0.08984,-0.04482,-0.00744,-0.00362,-0.0024,0.2320,-0.0024,-0.0366,0.0073,-0.0073,-0.0220,-0.0068,16.6769,-2.2906,-0.5397,0.0269,-0.0220,-0.0171,1,1,1,1,1,1,1
11.9505,sweep,2,+up,0.07267,0.23556,1.71416,0.08984,-0.04482,-0.00744,-0.00362,-0.0024,0.2320,-0.0024,-0.0366,0.0073,-0.0073,-0.0220,-0.0068,16.6769,-2.2906,-0.5397,0.0269,-0.0220,-0.0171,1,1,1,1,1,1,1
11.9906,sweep,2,+up,0.07267,0.25158,1.71416,0.09022,-0.04482,-0.00744,-0.00362,-0.0024,0.2076,-0.0024,-0.0220,0.0073,-0.0220,0.0073,0.0205,16.8547,-2.2359,-0.5495,0.0269,-0.0220,-0.0122,1,1,1,1,1,1,1
12.0307,sweep,2,+up,0.07267,0.25158,1.71416,0.09022,-0.04482,-0.00744,-0.00362,-0.0024,0.2076,-0.0024,-0.0220,0.0073,-0.0220,0.0073,0.0205,16.8547,-2.2359,-0.5495,0.0269,-0.0220,-0.0122,1,1,1,1,1,1,1
12.0708,sweep,2,+up,0.07267,0.25158,1.71416,0.09022,-0.04482,-0.00744,-0.00362,-0.0024,0.2076,-0.0024,-0.0220,0.0073,-0.0220,0.0073,0.0205,16.8547,-2.2359,-0.5495,0.0269,-0.0220,-0.0122,1,1,1,1,1,1,1
12.1106,sweep,2,+up,0.07305,0.27714,1.71416,0.09098,-0.04482,-0.00706,-0.00324,-0.0024,0.2173,-0.0024,0.0073,-0.0220,0.0220,-0.0073,-0.0068,15.2957,-2.0991,-0.5690,0.0269,-0.0220,-0.0073,1,1,1,1,1,1,1
12.1508,sweep,2,+up,0.07305,0.27714,1.71416,0.09098,-0.04482,-0.00706,-0.00324,-0.0024,0.2173,-0.0024,0.0073,-0.0220,0.0220,-0.0073,-0.0068,15.2957,-2.0991,-0.5690,0.0269,-0.0220,-0.0073,1,1,1,1,1,1,1
12.1908,sweep,2,+up,0.07305,0.29355,1.71416,0.08984,-0.04482,-0.00706,-0.00324,-0.0024,0.1832,-0.0024,0.0220,-0.0220,-0.0073,-0.0073,-0.0068,14.7350,-1.7709,-0.4274,0.0220,-0.0220,-0.0073,1,1,1,1,1,1,1
12.2305,sweep,2,+up,0.07305,0.29355,1.71416,0.08984,-0.04482,-0.00706,-0.00324,-0.0024,0.1832,-0.0024,0.0220,-0.0220,-0.0073,-0.0073,-0.0068,14.7350,-1.7709,-0.4274,0.0220,-0.0220,-0.0073,1,1,1,1,1,1,1
12.2707,sweep,2,+up,0.07305,0.29355,1.71416,0.08984,-0.04482,-0.00706,-0.00324,-0.0024,0.1832,-0.0024,0.0220,-0.0220,-0.0073,-0.0073,-0.0068,14.7350,-1.7709,-0.4274,0.0220,-0.0220,-0.0073,1,1,1,1,1,1,1
12.3105,sweep,2,+up,0.07305,0.31720,1.71416,0.09022,-0.04482,-0.00706,-0.00324,-0.0024,0.2125,-0.0073,-0.0073,0.0073,0.0073,-0.0073,0.0068,15.1316,-1.5385,-0.4078,0.0171,-0.0220,-0.0122,1,1,1,1,1,1,1
12.3506,sweep,2,+up,0.07305,0.31720,1.71416,0.09022,-0.04482,-0.00706,-0.00324,-0.0024,0.2125,-0.0073,-0.0073,0.0073,0.0073,-0.0073,0.0068,15.1316,-1.5385,-0.4078,0.0171,-0.0220,-0.0122,1,1,1,1,1,1,1
12.3906,sweep,2,+up,0.07305,0.33284,1.71416,0.09022,-0.04482,-0.00744,-0.00324,-0.0024,0.2076,-0.0073,-0.0220,-0.0073,-0.0073,-0.0073,0.0205,15.4051,-1.4291,-0.3541,0.0171,-0.0220,-0.0122,1,1,1,1,1,1,1
12.4305,sweep,2,+up,0.07305,0.33284,1.71416,0.09022,-0.04482,-0.00744,-0.00324,-0.0024,0.2076,-0.0073,-0.0220,-0.0073,-0.0073,-0.0073,0.0205,15.4051,-1.4291,-0.3541,0.0171,-0.0220,-0.0122,1,1,1,1,1,1,1
12.4713,sweep,2,+up,0.07305,0.33284,1.71416,0.09022,-0.04482,-0.00744,-0.00324,-0.0024,0.2076,-0.0073,-0.0220,-0.0073,-0.0073,-0.0073,0.0205,15.4051,-1.4291,-0.3541,0.0171,-0.0220,-0.0122,1,1,1,1,1,1,1
12.5108,sweep,2,+up,0.07267,0.35763,1.71416,0.09060,-0.04482,-0.00706,-0.00362,-0.0024,0.1978,-0.0024,0.0073,-0.0220,0.0073,-0.0220,0.0205,14.4889,-1.2786,-0.3394,0.0122,-0.0269,-0.0073,1,1,1,1,1,1,1
12.5518,sweep,2,+up,0.07267,0.35763,1.71416,0.09060,-0.04482,-0.00706,-0.00362,-0.0024,0.1978,-0.0024,0.0073,-0.0220,0.0073,-0.0220,0.0205,14.4889,-1.2786,-0.3394,0.0122,-0.0269,-0.0073,1,1,1,1,1,1,1
12.5913,sweep,2,+up,0.07267,0.37404,1.71416,0.09060,-0.04482,-0.00744,-0.00324,-0.0024,0.1929,0.0024,0.0073,-0.0073,-0.0220,-0.0073,0.0205,14.1470,-1.1829,-0.2808,0.0073,-0.0269,-0.0122,1,1,1,1,1,1,1
12.6307,sweep,2,+up,0.07267,0.37404,1.71416,0.09060,-0.04482,-0.00744,-0.00324,-0.0024,0.1929,0.0024,0.0073,-0.0073,-0.0220,-0.0073,0.0205,14.1470,-1.1829,-0.2808,0.0073,-0.0269,-0.0122,1,1,1,1,1,1,1
12.6709,sweep,2,+up,0.07267,0.37404,1.71416,0.09060,-0.04482,-0.00744,-0.00324,-0.0024,0.1929,0.0024,0.0073,-0.0073,-0.0220,-0.0073,0.0205,14.1470,-1.1829,-0.2808,0.0073,-0.0269,-0.0122,1,1,1,1,1,1,1
12.7112,sweep,2,+up,0.07267,0.39807,1.71416,0.09060,-0.04482,-0.00706,-0.00362,0.0024,0.2125,0.0024,-0.0073,-0.0073,-0.0220,-0.0073,0.0068,14.1607,-0.9504,-0.2222,0.0024,-0.0269,-0.0122,1,1,1,1,1,1,1
12.7508,sweep,2,+up,0.07267,0.39807,1.71416,0.09060,-0.04482,-0.00706,-0.00362,0.0024,0.2125,0.0024,-0.0073,-0.0073,-0.0220,-0.0073,0.0068,14.1607,-0.9504,-0.2222,0.0024,-0.0269,-0.0122,1,1,1,1,1,1,1
12.7909,sweep,2,+up,0.07305,0.41447,1.71416,0.09060,-0.04482,-0.00706,-0.00324,-0.0024,0.2320,-0.0024,0.0073,-0.0073,-0.0073,-0.0073,0.0068,13.6410,-0.8274,-0.1978,-0.0073,-0.0269,-0.0122,1,1,1,1,1,1,1
12.8309,sweep,2,+up,0.07305,0.41447,1.71416,0.09060,-0.04482,-0.00706,-0.00324,-0.0024,0.2320,-0.0024,0.0073,-0.0073,-0.0073,-0.0073,0.0068,13.6410,-0.8274,-0.1978,-0.0073,-0.0269,-0.0122,1,1,1,1,1,1,1
12.8708,sweep,2,+up,0.07305,0.41447,1.71416,0.09060,-0.04482,-0.00706,-0.00324,-0.0024,0.2320,-0.0024,0.0073,-0.0073,-0.0073,-0.0073,0.0068,13.6410,-0.8274,-0.1978,-0.0073,-0.0269,-0.0122,1,1,1,1,1,1,1
12.9109,sweep,2,+up,0.07267,0.43889,1.71378,0.09060,-0.04482,-0.00706,-0.00324,-0.0024,0.1880,-0.0024,-0.0073,-0.0220,0.0073,-0.0073,0.0205,13.1214,-0.6632,-0.1343,-0.0073,-0.0269,-0.0122,1,1,1,1,1,1,1
12.9507,sweep,2,+up,0.07267,0.43889,1.71378,0.09060,-0.04482,-0.00706,-0.00324,-0.0024,0.1880,-0.0024,-0.0073,-0.0220,0.0073,-0.0073,0.0205,13.1214,-0.6632,-0.1343,-0.0073,-0.0269,-0.0122,1,1,1,1,1,1,1
12.9907,sweep,2,+up,0.07305,0.45491,1.71378,0.09022,-0.04482,-0.00706,-0.00324,-0.0024,0.2027,-0.0024,-0.0220,-0.0220,-0.0220,-0.0073,0.0205,12.8068,-0.5538,-0.1050,-0.0171,-0.0317,-0.0122,1,1,1,1,1,1,1
13.0308,sweep,2,+up,0.07305,0.45491,1.71378,0.09022,-0.04482,-0.00706,-0.00324,-0.0024,0.2027,-0.0024,-0.0220,-0.0220,-0.0220,-0.0073,0.0205,12.8068,-0.5538,-0.1050,-0.0171,-0.0317,-0.0122,1,1,1,1,1,1,1
13.0707,sweep,2,+up,0.07305,0.45491,1.71378,0.09022,-0.04482,-0.00706,-0.00324,-0.0024,0.2027,-0.0024,-0.0220,-0.0220,-0.0220,-0.0073,0.0205,12.8068,-0.5538,-0.1050,-0.0171,-0.0317,-0.0122,1,1,1,1,1,1,1
13.1105,sweep,2,+up,0.07267,0.47894,1.71378,0.09022,-0.04482,-0.00706,-0.00324,-0.0024,0.2222,-0.0024,-0.0073,-0.0073,0.0073,-0.0073,0.0205,12.9026,-0.3761,-0.0708,-0.0220,-0.0366,-0.0122,1,1,1,1,1,1,1
13.1509,sweep,2,+up,0.07267,0.47894,1.71378,0.09022,-0.04482,-0.00706,-0.00324,-0.0024,0.2222,-0.0024,-0.0073,-0.0073,0.0073,-0.0073,0.0205,12.9026,-0.3761,-0.0708,-0.0220,-0.0366,-0.0122,1,1,1,1,1,1,1
13.1906,sweep,2,+up,0.07305,0.49496,1.71378,0.08984,-0.04482,-0.00706,-0.00324,-0.0024,0.1832,-0.0024,-0.0220,-0.0220,-0.0073,-0.0073,0.0205,12.9162,-0.3214,-0.0366,-0.0220,-0.0366,-0.0171,1,1,1,1,1,1,1
13.2306,sweep,2,+up,0.07305,0.49496,1.71378,0.08984,-0.04482,-0.00706,-0.00324,-0.0024,0.1832,-0.0024,-0.0220,-0.0220,-0.0073,-0.0073,0.0205,12.9162,-0.3214,-0.0366,-0.0220,-0.0366,-0.0171,1,1,1,1,1,1,1
13.2708,sweep,2,+up,0.07305,0.49496,1.71378,0.08984,-0.04482,-0.00706,-0.00324,-0.0024,0.1832,-0.0024,-0.0220,-0.0220,-0.0073,-0.0073,0.0205,12.9162,-0.3214,-0.0366,-0.0220,-0.0366,-0.0171,1,1,1,1,1,1,1
13.3108,sweep,2,+up,0.07267,0.51976,1.71263,0.08793,-0.04444,-0.00706,-0.00324,-0.0024,0.2222,-0.0220,-0.1245,-0.0073,-0.0073,-0.0220,0.0068,11.7402,0.5538,0.0562,-0.0366,-0.0415,-0.0122,1,1,1,1,1,1,1
13.3506,sweep,2,+up,0.07267,0.51976,1.71263,0.08793,-0.04444,-0.00706,-0.00324,-0.0024,0.2222,-0.0220,-0.1245,-0.0073,-0.0073,-0.0220,0.0068,11.7402,0.5538,0.0562,-0.0366,-0.0415,-0.0122,1,1,1,1,1,1,1
13.3909,sweep,2,+up,0.07267,0.53845,1.71149,0.07916,-0.04444,-0.00706,-0.00324,-0.0024,0.2418,-0.0073,0.0073,-0.0220,-0.0220,-0.0073,0.0068,8.5949,2.3863,0.9841,-0.0464,-0.0415,-0.0122,1,1,1,1,1,1,1
13.4307,sweep,2,+up,0.07267,0.53845,1.71149,0.07916,-0.04444,-0.00706,-0.00324,-0.0024,0.2418,-0.0073,0.0073,-0.0220,-0.0220,-0.0073,0.0068,8.5949,2.3863,0.9841,-0.0464,-0.0415,-0.0122,1,1,1,1,1,1,1
13.4706,sweep,2,+up,0.07267,0.53845,1.71149,0.07916,-0.04444,-0.00706,-0.00324,-0.0024,0.2418,-0.0073,0.0073,-0.0220,-0.0220,-0.0073,0.0068,8.5949,2.3863,0.9841,-0.0464,-0.0415,-0.0122,1,1,1,1,1,1,1
13.5107,sweep,2,+up,0.07305,0.56172,1.71187,0.08335,-0.04444,-0.00668,-0.00324,-0.0024,0.1685,0.0171,0.0952,-0.0073,-0.0073,-0.0073,0.0068,9.3470,2.6598,1.0134,-0.0562,-0.0513,-0.0122,1,1,1,1,1,1,1
13.5512,sweep,2,+up,0.07305,0.56172,1.71187,0.08335,-0.04444,-0.00668,-0.00324,-0.0024,0.1685,0.0171,0.0952,-0.0073,-0.0073,-0.0073,0.0068,9.3470,2.6598,1.0134,-0.0562,-0.0513,-0.0122,1,1,1,1,1,1,1
13.5921,sweep,2,+up,0.07305,0.57546,1.71302,0.09327,-0.04406,-0.00668,-0.00362,-0.0024,0.1636,0.0024,0.0073,0.0073,0.0073,-0.0220,0.0205,12.4650,1.2650,0.3492,-0.0855,-0.0562,-0.0122,1,1,1,1,1,1,1
13.6311,sweep,2,+up,0.07305,0.57546,1.71302,0.09327,-0.04406,-0.00668,-0.00362,-0.0024,0.1636,0.0024,0.0073,0.0073,0.0073,-0.0220,0.0205,12.4650,1.2650,0.3492,-0.0855,-0.0562,-0.0122,1,1,1,1,1,1,1
13.6710,sweep,2,+up,0.07305,0.57546,1.71302,0.09327,-0.04406,-0.00668,-0.00362,-0.0024,0.1636,0.0024,0.0073,0.0073,0.0073,-0.0220,0.0205,12.4650,1.2650,0.3492,-0.0855,-0.0562,-0.0122,1,1,1,1,1,1,1
13.7109,sweep,2,+up,0.07267,0.60178,1.71263,0.08869,-0.04406,-0.00706,-0.00362,-0.0024,0.2125,-0.0122,-0.0513,-0.0073,-0.0220,-0.0220,0.0479,9.2103,2.0034,0.6520,-0.1099,-0.0611,-0.0122,1,1,1,1,1,1,1
13.7508,sweep,2,+up,0.07267,0.60178,1.71263,0.08869,-0.04406,-0.00706,-0.00362,-0.0024,0.2125,-0.0122,-0.0513,-0.0073,-0.0220,-0.0220,0.0479,9.2103,2.0034,0.6520,-0.1099,-0.0611,-0.0122,1,1,1,1,1,1,1
13.7908,sweep,2,+up,0.07267,0.61894,1.71225,0.08831,-0.04406,-0.00668,-0.00324,-0.0122,0.1734,-0.0024,-0.0073,0.0220,0.0073,0.0073,0.0342,8.1299,2.8650,0.7692,-0.1392,-0.0659,-0.0171,1,1,1,1,1,1,1
13.8312,sweep,2,+up,0.07267,0.61894,1.71225,0.08831,-0.04406,-0.00668,-0.00324,-0.0122,0.1734,-0.0024,-0.0073,0.0220,0.0073,0.0073,0.0342,8.1299,2.8650,0.7692,-0.1392,-0.0659,-0.0171,1,1,1,1,1,1,1
13.8709,sweep,2,+up,0.07267,0.61894,1.71225,0.08831,-0.04406,-0.00668,-0.00324,-0.0122,0.1734,-0.0024,-0.0073,0.0220,0.0073,0.0073,0.0342,8.1299,2.8650,0.7692,-0.1392,-0.0659,-0.0171,1,1,1,1,1,1,1
13.9114,sweep,2,+up,0.07267,0.64145,1.71263,0.09136,-0.04406,-0.00668,-0.00362,-0.0024,0.1832,0.0024,-0.0220,-0.0073,0.0073,-0.0073,0.0205,9.7436,2.7282,0.6178,-0.1880,-0.0659,-0.0171,1,1,1,1,1,1,1
13.9518,sweep,2,+up,0.07267,0.64145,1.71263,0.09136,-0.04406,-0.00668,-0.00362,-0.0024,0.1832,0.0024,-0.0220,-0.0073,0.0073,-0.0073,0.0205,9.7436,2.7282,0.6178,-0.1880,-0.0659,-0.0171,1,1,1,1,1,1,1
13.9907,sweep,2,+up,0.07305,0.65671,1.71263,0.09060,-0.04406,-0.00706,-0.00362,-0.0073,0.1929,-0.0024,-0.0513,-0.0220,-0.0220,-0.0073,0.0205,8.5128,3.0017,0.6911,-0.2125,-0.0757,-0.0171,1,1,1,1,1,1,1
14.0310,sweep,2,+up,0.07305,0.65671,1.71263,0.09060,-0.04406,-0.00706,-0.00362,-0.0073,0.1929,-0.0024,-0.0513,-0.0220,-0.0220,-0.0073,0.0205,8.5128,3.0017,0.6911,-0.2125,-0.0757,-0.0171,1,1,1,1,1,1,1
14.0715,sweep,2,+up,0.07305,0.65671,1.71263,0.09060,-0.04406,-0.00706,-0.00362,-0.0073,0.1929,-0.0024,-0.0513,-0.0220,-0.0220,-0.0073,0.0205,8.5128,3.0017,0.6911,-0.2125,-0.0757,-0.0171,1,1,1,1,1,1,1
14.1110,sweep,2,+up,0.07267,0.67617,1.71263,0.08984,-0.04406,-0.00706,-0.00324,0.0024,0.1538,-0.0024,-0.0073,-0.0073,-0.0220,-0.0073,0.0205,7.9658,3.4667,0.8034,-0.2564,-0.0904,-0.0220,1,1,1,1,1,1,1
14.1510,sweep,2,+up,0.07267,0.67617,1.71263,0.08984,-0.04406,-0.00706,-0.00324,0.0024,0.1538,-0.0024,-0.0073,-0.0073,-0.0220,-0.0073,0.0205,7.9658,3.4667,0.8034,-0.2564,-0.0904,-0.0220,1,1,1,1,1,1,1
14.1908,sweep,2,+up,0.07267,0.68112,1.71302,0.09098,-0.04406,-0.00668,-0.00362,-0.0024,0.1294,-0.0024,-0.0073,-0.0073,-0.0073,-0.0073,0.0205,8.2120,3.5897,0.7790,-0.2808,-0.0952,-0.0220,1,1,1,1,1,1,1
14.2305,sweep,2,+up,0.07267,0.68112,1.71302,0.09098,-0.04406,-0.00668,-0.00362,-0.0024,0.1294,-0.0024,-0.0073,-0.0073,-0.0073,-0.0073,0.0205,8.2120,3.5897,0.7790,-0.2808,-0.0952,-0.0220,1,1,1,1,1,1,1
14.2711,sweep,2,+up,0.07267,0.68112,1.71302,0.09098,-0.04406,-0.00668,-0.00362,-0.0024,0.1294,-0.0024,-0.0073,-0.0073,-0.0073,-0.0073,0.0205,8.2120,3.5897,0.7790,-0.2808,-0.0952,-0.0220,1,1,1,1,1,1,1
14.3105,sweep,2,+up,0.07267,0.70096,1.71340,0.09098,-0.04406,-0.00706,-0.00362,-0.0073,0.1050,-0.0024,-0.0366,-0.0220,-0.0220,-0.0073,0.0068,8.5128,3.5761,0.8034,-0.3248,-0.1001,-0.0220,1,1,1,1,1,1,1
14.3513,sweep,2,+up,0.07267,0.70096,1.71340,0.09098,-0.04406,-0.00706,-0.00362,-0.0073,0.1050,-0.0024,-0.0366,-0.0220,-0.0220,-0.0073,0.0068,8.5128,3.5761,0.8034,-0.3248,-0.1001,-0.0220,1,1,1,1,1,1,1
14.3907,sweep,2,+up,0.07267,0.70973,1.71340,0.09060,-0.04406,-0.00706,-0.00324,0.0024,0.0904,-0.0024,-0.0073,-0.0220,-0.0073,0.0073,0.0205,8.0205,3.8632,0.8474,-0.3443,-0.1099,-0.0220,1,1,1,1,1,1,1
14.4314,sweep,2,+up,0.07267,0.70973,1.71340,0.09060,-0.04406,-0.00706,-0.00324,0.0024,0.0904,-0.0024,-0.0073,-0.0220,-0.0073,0.0073,0.0205,8.0205,3.8632,0.8474,-0.3443,-0.1099,-0.0220,1,1,1,1,1,1,1
14.4713,sweep,2,+up,0.07267,0.70973,1.71340,0.09060,-0.04406,-0.00706,-0.00324,0.0024,0.0904,-0.0024,-0.0073,-0.0220,-0.0073,0.0073,0.0205,8.0205,3.8632,0.8474,-0.3443,-0.1099,-0.0220,1,1,1,1,1,1,1
14.5119,sweep,2,+up,0.07267,0.72004,1.71340,0.09098,-0.04406,-0.00668,-0.00362,-0.0073,0.0806,0.0024,-0.0073,-0.0220,-0.0220,-0.0073,0.0068,8.3350,3.9453,0.8523,-0.3883,-0.1245,-0.0220,1,1,1,1,1,1,1
14.5507,sweep,2,+up,0.07267,0.72004,1.71340,0.09098,-0.04406,-0.00668,-0.00362,-0.0073,0.0806,0.0024,-0.0073,-0.0220,-0.0220,-0.0073,0.0068,8.3350,3.9453,0.8523,-0.3883,-0.1245,-0.0220,1,1,1,1,1,1,1
14.5908,sweep,2,+up,0.07267,0.72690,1.71378,0.09098,-0.04406,-0.00668,-0.00324,-0.0073,0.0806,-0.0024,-0.0220,-0.0073,0.0220,0.0073,0.0068,8.0068,3.8085,0.8767,-0.4078,-0.1343,-0.0220,1,1,1,1,1,1,1
14.6307,sweep,2,+up,0.07267,0.72690,1.71378,0.09098,-0.04406,-0.00668,-0.00324,-0.0073,0.0806,-0.0024,-0.0220,-0.0073,0.0220,0.0073,0.0068,8.0068,3.8085,0.8767,-0.4078,-0.1343,-0.0220,1,1,1,1,1,1,1
14.6710,sweep,2,+up,0.07267,0.72690,1.71378,0.09098,-0.04406,-0.00668,-0.00324,-0.0073,0.0806,-0.0024,-0.0220,-0.0073,0.0220,0.0073,0.0068,8.0068,3.8085,0.8767,-0.4078,-0.1343,-0.0220,1,1,1,1,1,1,1
14.7112,sweep,2,+up,0.07267,0.73529,1.71378,0.09098,-0.04406,-0.00668,-0.00324,-0.0024,0.0317,-0.0073,-0.0220,-0.0073,-0.0073,-0.0073,-0.0068,7.7060,4.0137,0.9109,-0.4469,-0.1441,-0.0220,1,1,1,1,1,1,1
14.7507,sweep,2,+up,0.07267,0.73529,1.71378,0.09098,-0.04406,-0.00668,-0.00324,-0.0024,0.0317,-0.0073,-0.0220,-0.0073,-0.0073,-0.0073,-0.0068,7.7060,4.0137,0.9109,-0.4469,-0.1441,-0.0220,1,1,1,1,1,1,1
14.7909,sweep,2,+up,0.07267,0.73949,1.71378,0.09136,-0.04444,-0.00706,-0.00362,-0.0073,0.0464,-0.0073,0.0220,0.0073,-0.0220,-0.0073,0.0205,8.4308,4.1231,0.8913,-0.4664,-0.1538,-0.0220,1,1,1,1,1,1,1
14.8317,sweep,2,+up,0.07267,0.73949,1.71378,0.09136,-0.04444,-0.00706,-0.00362,-0.0073,0.0464,-0.0073,0.0220,0.0073,-0.0220,-0.0073,0.0205,8.4308,4.1231,0.8913,-0.4664,-0.1538,-0.0220,1,1,1,1,1,1,1
14.8708,sweep,2,+up,0.07267,0.73949,1.71378,0.09136,-0.04444,-0.00706,-0.00362,-0.0073,0.0464,-0.0073,0.0220,0.0073,-0.0220,-0.0073,0.0205,8.4308,4.1231,0.8913,-0.4664,-0.1538,-0.0220,1,1,1,1,1,1,1
14.9111,sweep,2,+up,0.07267,0.74636,1.71378,0.09098,-0.04406,-0.00706,-0.00362,0.0024,0.0317,-0.0024,-0.0073,-0.0073,-0.0073,-0.0220,0.0205,7.5556,4.1231,0.9109,-0.5006,-0.1636,-0.0220,1,1,1,1,1,1,1
14.9508,sweep,2,+up,0.07267,0.74636,1.71378,0.09098,-0.04406,-0.00706,-0.00362,0.0024,0.0317,-0.0024,-0.0073,-0.0073,-0.0073,-0.0220,0.0205,7.5556,4.1231,0.9109,-0.5006,-0.1636,-0.0220,1,1,1,1,1,1,1
14.9906,sweep,2,+up,0.07267,0.75017,1.71378,0.09098,-0.04444,-0.00706,-0.00324,-0.0024,0.0220,0.0024,-0.0073,0.0073,-0.0366,0.0073,0.0205,7.6376,4.2735,0.9402,-0.5201,-0.1636,-0.0171,1,1,1,1,1,1,1
15.0308,sweep,2,+up,0.07267,0.75017,1.71378,0.09098,-0.04444,-0.00706,-0.00324,-0.0024,0.0220,0.0024,-0.0073,0.0073,-0.0366,0.0073,0.0205,7.6376,4.2735,0.9402,-0.5201,-0.1636,-0.0171,1,1,1,1,1,1,1
15.0709,sweep,2,+up,0.07267,0.75017,1.71378,0.09098,-0.04444,-0.00706,-0.00324,-0.0024,0.0220,0.0024,-0.0073,0.0073,-0.0366,0.0073,0.0205,7.6376,4.2735,0.9402,-0.5201,-0.1636,-0.0171,1,1,1,1,1,1,1
15.1110,sweep,2,+up,0.07267,0.75437,1.71378,0.09136,-0.04444,-0.00706,-0.00324,-0.0024,0.0415,-0.0024,0.0073,0.0073,0.0073,-0.0073,0.0205,8.4171,4.2872,0.9304,-0.5446,-0.1685,-0.0220,1,1,1,1,1,1,1
15.1508,sweep,2,+up,0.07267,0.75437,1.71378,0.09136,-0.04444,-0.00706,-0.00324,-0.0024,0.0415,-0.0024,0.0073,0.0073,0.0073,-0.0073,0.0205,8.4171,4.2872,0.9304,-0.5446,-0.1685,-0.0220,1,1,1,1,1,1,1
15.1908,sweep,2,+up,0.07267,0.75742,1.71378,0.09136,-0.04444,-0.00706,-0.00362,-0.0024,0.0415,0.0024,-0.0073,-0.0073,0.0073,-0.0220,0.0342,8.0479,4.3829,0.9499,-0.5543,-0.1783,-0.0220,1,1,1,1,1,1,1
15.2306,sweep,2,+up,0.07267,0.75742,1.71378,0.09136,-0.04444,-0.00706,-0.00362,-0.0024,0.0415,0.0024,-0.0073,-0.0073,0.0073,-0.0220,0.0342,8.0479,4.3829,0.9499,-0.5543,-0.1783,-0.0220,1,1,1,1,1,1,1
15.2706,sweep,2,+up,0.07267,0.75742,1.71378,0.09136,-0.04444,-0.00706,-0.00362,-0.0024,0.0415,0.0024,-0.0073,-0.0073,0.0073,-0.0220,0.0342,8.0479,4.3829,0.9499,-0.5543,-0.1783,-0.0220,1,1,1,1,1,1,1
15.3109,sweep,2,+up,0.07267,0.76123,1.71378,0.09136,-0.04444,-0.00706,-0.00324,-0.0024,0.0122,-0.0024,-0.0073,-0.0073,-0.0073,0.0073,0.0205,7.6376,4.5470,0.9646,-0.5836,-0.1880,-0.0171,1,1,1,1,1,1,1
15.3509,sweep,2,+up,0.07267,0.76123,1.71378,0.09136,-0.04444,-0.00706,-0.00324,-0.0024,0.0122,-0.0024,-0.0073,-0.0073,-0.0073,0.0073,0.0205,7.6376,4.5470,0.9646,-0.5836,-0.1880,-0.0171,1,1,1,1,1,1,1
15.3904,sweep,2,+up,0.07267,0.76314,1.71416,0.09136,-0.04482,-0.00706,-0.00324,-0.0073,0.0073,-0.0024,-0.0073,-0.0073,0.0073,-0.0073,0.0068,7.9248,4.6291,0.9695,-0.5885,-0.1880,-0.0171,1,1,1,1,1,1,1
15.8931,sweep,2,-down,0.07267,0.76429,1.71416,0.09136,-0.04482,-0.00706,-0.00362,-0.0024,0.0220,-0.0024,0.0073,-0.0073,0.0073,-0.0220,0.0342,8.0479,4.6838,0.9646,-0.5983,-0.1929,-0.0122,1,1,1,1,1,1,1
15.9333,sweep,2,-down,0.07267,0.76429,1.71416,0.09136,-0.04482,-0.00706,-0.00362,-0.0024,0.0220,-0.0024,0.0073,-0.0073,0.0073,-0.0220,0.0342,8.0479,4.6838,0.9646,-0.5983,-0.1929,-0.0122,1,1,1,1,1,1,1
15.9731,sweep,2,-down,0.07267,0.76429,1.71416,0.09136,-0.04482,-0.00706,-0.00362,-0.0024,0.0220,-0.0024,0.0073,-0.0073,0.0073,-0.0220,0.0342,8.0479,4.6838,0.9646,-0.5983,-0.1929,-0.0122,1,1,1,1,1,1,1
16.0133,sweep,2,-down,0.07267,0.76200,1.71416,0.08907,-0.04559,-0.00744,-0.00324,-0.0024,-0.2173,-0.0024,-0.0659,-0.0073,-0.0220,-0.0073,0.0205,3.0017,5.1214,1.1746,-0.5690,-0.2027,-0.0122,1,1,1,1,1,1,1
16.0533,sweep,2,-down,0.07267,0.76200,1.71416,0.08907,-0.04559,-0.00744,-0.00324,-0.0024,-0.2173,-0.0024,-0.0659,-0.0073,-0.0220,-0.0073,0.0205,3.0017,5.1214,1.1746,-0.5690,-0.2027,-0.0122,1,1,1,1,1,1,1
16.0934,sweep,2,-down,0.07267,0.74598,1.71416,0.09098,-0.04673,-0.00744,-0.00324,0.0024,-0.2027,-0.0024,0.0659,-0.0366,-0.0073,-0.0073,0.0068,3.1111,5.2171,1.0916,-0.4615,-0.1832,-0.0122,1,1,1,1,1,1,1
16.1334,sweep,2,-down,0.07267,0.74598,1.71416,0.09098,-0.04673,-0.00744,-0.00324,0.0024,-0.2027,-0.0024,0.0659,-0.0366,-0.0073,-0.0073,0.0068,3.1111,5.2171,1.0916,-0.4615,-0.1832,-0.0122,1,1,1,1,1,1,1
16.1734,sweep,2,-down,0.07267,0.74598,1.71416,0.09098,-0.04673,-0.00744,-0.00324,0.0024,-0.2027,-0.0024,0.0659,-0.0366,-0.0073,-0.0073,0.0068,3.1111,5.2171,1.0916,-0.4615,-0.1832,-0.0122,1,1,1,1,1,1,1
16.2134,sweep,2,-down,0.07267,0.72042,1.71530,0.09480,-0.04749,-0.00782,-0.00324,-0.0024,-0.1783,-0.0073,-0.0366,-0.0073,0.0073,-0.0073,0.0068,4.9299,3.5761,0.7253,-0.2906,-0.1587,-0.0122,1,1,1,1,1,1,1
16.2527,sweep,2,-down,0.07267,0.72042,1.71530,0.09480,-0.04749,-0.00782,-0.00324,-0.0024,-0.1783,-0.0073,-0.0366,-0.0073,0.0073,-0.0073,0.0068,4.9299,3.5761,0.7253,-0.2906,-0.1587,-0.0122,1,1,1,1,1,1,1
16.2931,sweep,2,-down,0.07267,0.70516,1.71530,0.09174,-0.04749,-0.00782,-0.00324,-0.0024,-0.1929,-0.0024,-0.0806,-0.0073,-0.0073,-0.0220,0.0068,4.2872,3.5350,0.8962,-0.2222,-0.1538,-0.0171,1,1,1,1,1,1,1
16.3332,sweep,2,-down,0.07267,0.70516,1.71530,0.09174,-0.04749,-0.00782,-0.00324,-0.0024,-0.1929,-0.0024,-0.0806,-0.0073,-0.0073,-0.0220,0.0068,4.2872,3.5350,0.8962,-0.2222,-0.1538,-0.0171,1,1,1,1,1,1,1
16.3728,sweep,2,-down,0.07267,0.70516,1.71530,0.09174,-0.04749,-0.00782,-0.00324,-0.0024,-0.1929,-0.0024,-0.0806,-0.0073,-0.0073,-0.0220,0.0068,4.2872,3.5350,0.8962,-0.2222,-0.1538,-0.0171,1,1,1,1,1,1,1
16.4133,sweep,2,-down,0.07267,0.68036,1.71530,0.09251,-0.04711,-0.00744,-0.00324,0.0024,-0.1929,-0.0024,0.0366,-0.0073,-0.0073,0.0073,0.0068,4.9709,3.3983,0.8278,-0.1441,-0.1392,-0.0122,1,1,1,1,1,1,1
16.4528,sweep,2,-down,0.07267,0.68036,1.71530,0.09251,-0.04711,-0.00744,-0.00324,0.0024,-0.1929,-0.0024,0.0366,-0.0073,-0.0073,0.0073,0.0068,4.9709,3.3983,0.8278,-0.1441,-0.1392,-0.0122,1,1,1,1,1,1,1
16.4931,sweep,2,-down,0.07267,0.66396,1.71530,0.09327,-0.04635,-0.00782,-0.00324,-0.0024,-0.2222,0.0024,-0.0220,0.0073,0.0073,0.0073,0.0205,5.3402,3.2479,0.7399,-0.1343,-0.1294,-0.0171,1,1,1,1,1,1,1
16.5330,sweep,2,-down,0.07267,0.66396,1.71530,0.09327,-0.04635,-0.00782,-0.00324,-0.0024,-0.2222,0.0024,-0.0220,0.0073,0.0073,0.0073,0.0205,5.3402,3.2479,0.7399,-0.1343,-0.1294,-0.0171,1,1,1,1,1,1,1
16.5733,sweep,2,-down,0.07267,0.66396,1.71530,0.09327,-0.04635,-0.00782,-0.00324,-0.0024,-0.2222,0.0024,-0.0220,0.0073,0.0073,0.0073,0.0205,5.3402,3.2479,0.7399,-0.1343,-0.1294,-0.0171,1,1,1,1,1,1,1
16.6134,sweep,2,-down,0.07267,0.64031,1.71530,0.09174,-0.04635,-0.00744,-0.00324,-0.0073,-0.1978,-0.0024,-0.0220,0.0073,0.0073,0.0073,0.0205,4.8615,3.1795,0.7985,-0.0855,-0.1197,-0.0122,1,1,1,1,1,1,1
16.6530,sweep,2,-down,0.07267,0.64031,1.71530,0.09174,-0.04635,-0.00744,-0.00324,-0.0073,-0.1978,-0.0024,-0.0220,0.0073,0.0073,0.0073,0.0205,4.8615,3.1795,0.7985,-0.0855,-0.1197,-0.0122,1,1,1,1,1,1,1
16.6929,sweep,2,-down,0.07305,0.62352,1.71530,0.09251,-0.04635,-0.00744,-0.00324,-0.0024,-0.2222,-0.0024,0.0220,-0.0220,-0.0073,-0.0220,0.0068,5.9966,3.0154,0.7399,-0.0659,-0.1099,-0.0122,1,1,1,1,1,1,1
16.7336,sweep,2,-down,0.07305,0.62352,1.71530,0.09251,-0.04635,-0.00744,-0.00324,-0.0024,-0.2222,-0.0024,0.0220,-0.0220,-0.0073,-0.0220,0.0068,5.9966,3.0154,0.7399,-0.0659,-0.1099,-0.0122,1,1,1,1,1,1,1
16.7736,sweep,2,-down,0.07305,0.62352,1.71530,0.09251,-0.04635,-0.00744,-0.00324,-0.0024,-0.2222,-0.0024,0.0220,-0.0220,-0.0073,-0.0220,0.0068,5.9966,3.0154,0.7399,-0.0659,-0.1099,-0.0122,1,1,1,1,1,1,1
16.8137,sweep,2,-down,0.07267,0.59949,1.71569,0.09289,-0.04597,-0.00744,-0.00324,-0.0024,-0.2027,-0.0024,-0.0073,0.0073,0.0073,-0.0073,0.0205,6.0513,2.6735,0.6276,-0.0562,-0.0952,-0.0073,1,1,1,1,1,1,1
16.8530,sweep,2,-down,0.07267,0.59949,1.71569,0.09289,-0.04597,-0.00744,-0.00324,-0.0024,-0.2027,-0.0024,-0.0073,0.0073,0.0073,-0.0073,0.0205,6.0513,2.6735,0.6276,-0.0562,-0.0952,-0.0073,1,1,1,1,1,1,1
16.8930,sweep,2,-down,0.07305,0.58385,1.71569,0.09251,-0.04597,-0.00744,-0.00362,-0.0024,-0.2027,-0.0024,-0.0073,-0.0073,-0.0073,-0.0073,0.0342,5.8872,2.5778,0.6178,-0.0415,-0.0952,-0.0073,1,1,1,1,1,1,1
16.9330,sweep,2,-down,0.07305,0.58385,1.71569,0.09251,-0.04597,-0.00744,-0.00362,-0.0024,-0.2027,-0.0024,-0.0073,-0.0073,-0.0073,-0.0073,0.0342,5.8872,2.5778,0.6178,-0.0415,-0.0952,-0.0073,1,1,1,1,1,1,1
16.9732,sweep,2,-down,0.07305,0.58385,1.71569,0.09251,-0.04597,-0.00744,-0.00362,-0.0024,-0.2027,-0.0024,-0.0073,-0.0073,-0.0073,-0.0073,0.0342,5.8872,2.5778,0.6178,-0.0415,-0.0952,-0.0073,1,1,1,1,1,1,1
17.0130,sweep,2,-down,0.07267,0.55905,1.71569,0.09213,-0.04597,-0.00744,-0.00324,-0.0024,-0.2222,-0.0024,-0.0220,-0.0073,-0.0073,-0.0073,0.0068,6.5846,2.4000,0.5983,-0.0366,-0.0855,-0.0073,1,1,1,1,1,1,1
17.0529,sweep,2,-down,0.07267,0.55905,1.71569,0.09213,-0.04597,-0.00744,-0.00324,-0.0024,-0.2222,-0.0024,-0.0220,-0.0073,-0.0073,-0.0073,0.0068,6.5846,2.4000,0.5983,-0.0366,-0.0855,-0.0073,1,1,1,1,1,1,1
17.0932,sweep,2,-down,0.07267,0.54303,1.71569,0.09289,-0.04597,-0.00744,-0.00324,-0.0073,-0.1783,-0.0024,-0.0220,-0.0073,-0.0073,-0.0073,0.0205,6.8581,2.1675,0.5055,-0.0317,-0.0855,-0.0073,1,1,1,1,1,1,1
17.1329,sweep,2,-down,0.07267,0.54303,1.71569,0.09289,-0.04597,-0.00744,-0.00324,-0.0073,-0.1783,-0.0024,-0.0220,-0.0073,-0.0073,-0.0073,0.0205,6.8581,2.1675,0.5055,-0.0317,-0.0855,-0.0073,1,1,1,1,1,1,1
17.1731,sweep,2,-down,0.07267,0.54303,1.71569,0.09289,-0.04597,-0.00744,-0.00324,-0.0073,-0.1783,-0.0024,-0.0220,-0.0073,-0.0073,-0.0073,0.0205,6.8581,2.1675,0.5055,-0.0317,-0.0855,-0.0073,1,1,1,1,1,1,1
17.2129,sweep,2,-down,0.07267,0.51938,1.71569,0.09251,-0.04597,-0.00744,-0.00324,-0.0024,-0.2222,-0.0024,-0.0073,-0.0220,-0.0073,-0.0073,0.0342,6.5299,1.9350,0.4664,-0.0171,-0.0806,-0.0073,1,1,1,1,1,1,1
17.2530,sweep,2,-down,0.07267,0.51938,1.71569,0.09251,-0.04597,-0.00744,-0.00324,-0.0024,-0.2222,-0.0024,-0.0073,-0.0220,-0.0073,-0.0073,0.0342,6.5299,1.9350,0.4664,-0.0171,-0.0806,-0.0073,1,1,1,1,1,1,1
17.2931,sweep,2,-down,0.07267,0.50298,1.71569,0.09251,-0.04559,-0.00744,-0.00324,-0.0073,-0.1978,0.0024,-0.0220,-0.0073,-0.0073,-0.0073,0.0205,6.8855,1.8803,0.4420,-0.0024,-0.0806,-0.0073,1,1,1,1,1,1,1
17.3330,sweep,2,-down,0.07267,0.50298,1.71569,0.09251,-0.04559,-0.00744,-0.00324,-0.0073,-0.1978,0.0024,-0.0220,-0.0073,-0.0073,-0.0073,0.0205,6.8855,1.8803,0.4420,-0.0024,-0.0806,-0.0073,1,1,1,1,1,1,1
17.3730,sweep,2,-down,0.07267,0.50298,1.71569,0.09251,-0.04559,-0.00744,-0.00324,-0.0073,-0.1978,0.0024,-0.0220,-0.0073,-0.0073,-0.0073,0.0205,6.8855,1.8803,0.4420,-0.0024,-0.0806,-0.0073,1,1,1,1,1,1,1
17.4132,sweep,2,-down,0.07305,0.47818,1.71569,0.09251,-0.04559,-0.00744,-0.00324,-0.0024,-0.2027,-0.0024,-0.0073,-0.0073,-0.0073,0.0073,0.0068,7.8701,1.5248,0.3785,0.0024,-0.0708,-0.0122,1,1,1,1,1,1,1
17.4531,sweep,2,-down,0.07305,0.47818,1.71569,0.09251,-0.04559,-0.00744,-0.00324,-0.0024,-0.2027,-0.0024,-0.0073,-0.0073,-0.0073,0.0073,0.0068,7.8701,1.5248,0.3785,0.0024,-0.0708,-0.0122,1,1,1,1,1,1,1
17.4930,sweep,2,-down,0.07305,0.46216,1.71569,0.09251,-0.04559,-0.00744,-0.00324,-0.0024,-0.1880,-0.0024,-0.0366,-0.0073,-0.0220,-0.0073,0.0068,7.7880,1.2786,0.3492,0.0122,-0.0659,-0.0122,1,1,1,1,1,1,1
17.5330,sweep,2,-down,0.07305,0.46216,1.71569,0.09251,-0.04559,-0.00744,-0.00324,-0.0024,-0.1880,-0.0024,-0.0366,-0.0073,-0.0220,-0.0073,0.0068,7.7880,1.2786,0.3492,0.0122,-0.0659,-0.0122,1,1,1,1,1,1,1
17.5734,sweep,2,-down,0.07305,0.46216,1.71569,0.09251,-0.04559,-0.00744,-0.00324,-0.0024,-0.1880,-0.0024,-0.0366,-0.0073,-0.0220,-0.0073,0.0068,7.7880,1.2786,0.3492,0.0122,-0.0659,-0.0122,1,1,1,1,1,1,1
17.6134,sweep,2,-down,0.07267,0.43812,1.71569,0.09289,-0.04559,-0.00744,-0.00324,-0.0024,-0.1929,-0.0024,0.0073,-0.0366,0.0073,-0.0073,-0.0068,7.9385,1.0598,0.2808,0.0220,-0.0659,-0.0024,1,1,1,1,1,1,1
17.6530,sweep,2,-down,0.07267,0.43812,1.71569,0.09289,-0.04559,-0.00744,-0.00324,-0.0024,-0.1929,-0.0024,0.0073,-0.0366,0.0073,-0.0073,-0.0068,7.9385,1.0598,0.2808,0.0220,-0.0659,-0.0024,1,1,1,1,1,1,1
17.6931,sweep,2,-down,0.07267,0.42210,1.71569,0.09251,-0.04559,-0.00744,-0.00324,-0.0024,-0.2271,-0.0024,0.0073,-0.0073,-0.0073,0.0073,0.0068,8.2803,0.9231,0.2466,0.0220,-0.0611,-0.0073,1,1,1,1,1,1,1
17.7329,sweep,2,-down,0.07267,0.42210,1.71569,0.09251,-0.04559,-0.00744,-0.00324,-0.0024,-0.2271,-0.0024,0.0073,-0.0073,-0.0073,0.0073,0.0068,8.2803,0.9231,0.2466,0.0220,-0.0611,-0.0073,1,1,1,1,1,1,1
17.7730,sweep,2,-down,0.07267,0.42210,1.71569,0.09251,-0.04559,-0.00744,-0.00324,-0.0024,-0.2271,-0.0024,0.0073,-0.0073,-0.0073,0.0073,0.0068,8.2803,0.9231,0.2466,0.0220,-0.0611,-0.0073,1,1,1,1,1,1,1
17.8134,sweep,2,-down,0.07305,0.40608,1.71569,0.09251,-0.04559,-0.00744,-0.00362,-0.0024,-0.1929,0.0024,-0.0073,-0.0220,-0.0220,-0.0220,-0.0205,8.4991,0.7179,0.1880,0.0269,-0.0562,-0.0122,1,1,1,1,1,1,1
17.8528,sweep,2,-down,0.07305,0.40608,1.71569,0.09251,-0.04559,-0.00744,-0.00362,-0.0024,-0.1929,0.0024,-0.0073,-0.0220,-0.0220,-0.0220,-0.0205,8.4991,0.7179,0.1880,0.0269,-0.0562,-0.0122,1,1,1,1,1,1,1
17.8932,sweep,2,-down,0.07305,0.38167,1.71569,0.09251,-0.04559,-0.00744,-0.00324,-0.0024,-0.2027,0.0024,-0.0073,-0.0073,-0.0220,-0.0073,-0.0068,8.7179,0.4855,0.1538,0.0317,-0.0562,-0.0073,1,1,1,1,1,1,1
17.9330,sweep,2,-down,0.07305,0.38167,1.71569,0.09251,-0.04559,-0.00744,-0.00324,-0.0024,-0.2027,0.0024,-0.0073,-0.0073,-0.0220,-0.0073,-0.0068,8.7179,0.4855,0.1538,0.0317,-0.0562,-0.0073,1,1,1,1,1,1,1
17.9731,sweep,2,-down,0.07305,0.38167,1.71569,0.09251,-0.04559,-0.00744,-0.00324,-0.0024,-0.2027,0.0024,-0.0073,-0.0073,-0.0220,-0.0073,-0.0068,8.7179,0.4855,0.1538,0.0317,-0.0562,-0.0073,1,1,1,1,1,1,1
18.0131,sweep,2,-down,0.07305,0.35763,1.71569,0.09251,-0.04521,-0.00744,-0.00324,-0.0024,-0.2076,-0.0024,-0.0220,-0.0220,-0.0220,-0.0073,0.0068,8.5812,0.3214,0.1148,0.0269,-0.0513,-0.0073,1,1,1,1,1,1,1
18.0533,sweep,2,-down,0.07305,0.35763,1.71569,0.09251,-0.04521,-0.00744,-0.00324,-0.0024,-0.2076,-0.0024,-0.0220,-0.0220,-0.0220,-0.0073,0.0068,8.5812,0.3214,0.1148,0.0269,-0.0513,-0.0073,1,1,1,1,1,1,1
18.0935,sweep,2,-down,0.07305,0.34123,1.71569,0.09251,-0.04521,-0.00744,-0.00324,-0.0073,-0.2271,-0.0024,-0.0073,-0.0073,-0.0073,-0.0073,-0.0205,9.0325,0.2393,0.0855,0.0317,-0.0464,-0.0073,1,1,1,1,1,1,1
18.1329,sweep,2,-down,0.07305,0.34123,1.71569,0.09251,-0.04521,-0.00744,-0.00324,-0.0073,-0.2271,-0.0024,-0.0073,-0.0073,-0.0073,-0.0073,-0.0205,9.0325,0.2393,0.0855,0.0317,-0.0464,-0.0073,1,1,1,1,1,1,1
18.1733,sweep,2,-down,0.07305,0.34123,1.71569,0.09251,-0.04521,-0.00744,-0.00324,-0.0073,-0.2271,-0.0024,-0.0073,-0.0073,-0.0073,-0.0073,-0.0205,9.0325,0.2393,0.0855,0.0317,-0.0464,-0.0073,1,1,1,1,1,1,1
18.2133,sweep,2,-down,0.07305,0.31720,1.71569,0.09289,-0.04521,-0.00744,-0.00324,-0.0024,-0.2222,-0.0024,-0.0073,-0.0073,-0.0073,-0.0073,-0.0342,9.1009,0.1436,0.0464,0.0366,-0.0513,-0.0073,1,1,1,1,1,1,1
18.2534,sweep,2,-down,0.07305,0.31720,1.71569,0.09289,-0.04521,-0.00744,-0.00324,-0.0024,-0.2222,-0.0024,-0.0073,-0.0073,-0.0073,-0.0073,-0.0342,9.1009,0.1436,0.0464,0.0366,-0.0513,-0.0073,1,1,1,1,1,1,1
18.2932,sweep,2,-down,0.07305,0.30156,1.71607,0.09289,-0.04521,-0.00744,-0.00324,-0.0073,-0.1832,-0.0024,-0.0073,0.0073,-0.0073,-0.0073,-0.0342,8.8137,0.1026,0.0317,0.0415,-0.0513,-0.0073,1,1,1,1,1,1,1
18.3330,sweep,2,-down,0.07305,0.30156,1.71607,0.09289,-0.04521,-0.00744,-0.00324,-0.0073,-0.1832,-0.0024,-0.0073,0.0073,-0.0073,-0.0073,-0.0342,8.8137,0.1026,0.0317,0.0415,-0.0513,-0.0073,1,1,1,1,1,1,1
18.3729,sweep,2,-down,0.07305,0.30156,1.71607,0.09289,-0.04521,-0.00744,-0.00324,-0.0073,-0.1832,-0.0024,-0.0073,0.0073,-0.0073,-0.0073,-0.0342,8.8137,0.1026,0.0317,0.0415,-0.0513,-0.0073,1,1,1,1,1,1,1
18.4135,sweep,2,-down,0.07305,0.27752,1.71607,0.09327,-0.04521,-0.00744,-0.00324,-0.0024,-0.2125,-0.0024,0.0220,-0.0220,-0.0220,-0.0073,-0.0205,8.8410,-0.0205,-0.0171,0.0415,-0.0464,-0.0024,1,1,1,1,1,1,1
18.4528,sweep,2,-down,0.07305,0.27752,1.71607,0.09327,-0.04521,-0.00744,-0.00324,-0.0024,-0.2125,-0.0024,0.0220,-0.0220,-0.0220,-0.0073,-0.0205,8.8410,-0.0205,-0.0171,0.0415,-0.0464,-0.0024,1,1,1,1,1,1,1
18.4931,sweep,2,-down,0.07305,0.26188,1.71607,0.09518,-0.04521,-0.00744,-0.00324,-0.0024,-0.1636,-0.0024,0.0073,0.0073,0.0073,-0.0073,-0.0342,8.3761,-0.0479,-0.0855,0.0415,-0.0415,-0.0024,1,1,1,1,1,1,1
18.5329,sweep,2,-down,0.07305,0.26188,1.71607,0.09518,-0.04521,-0.00744,-0.00324,-0.0024,-0.1636,-0.0024,0.0073,0.0073,0.0073,-0.0073,-0.0342,8.3761,-0.0479,-0.0855,0.0415,-0.0415,-0.0024,1,1,1,1,1,1,1
18.5732,sweep,2,-down,0.07305,0.26188,1.71607,0.09518,-0.04521,-0.00744,-0.00324,-0.0024,-0.1636,-0.0024,0.0073,0.0073,0.0073,-0.0073,-0.0342,8.3761,-0.0479,-0.0855,0.0415,-0.0415,-0.0024,1,1,1,1,1,1,1
18.6131,sweep,2,-down,0.07305,0.23861,1.71721,0.09899,-0.04521,-0.00744,-0.00362,-0.0024,-0.2027,0.0024,0.0073,-0.0073,-0.0073,-0.0073,-0.0889,11.0427,-1.6205,-0.7302,0.0366,-0.0415,-0.0073,1,1,1,1,1,1,1
18.6528,sweep,2,-down,0.07305,0.23861,1.71721,0.09899,-0.04521,-0.00744,-0.00362,-0.0024,-0.2027,0.0024,0.0073,-0.0073,-0.0073,-0.0073,-0.0889,11.0427,-1.6205,-0.7302,0.0366,-0.0415,-0.0073,1,1,1,1,1,1,1
18.6928,sweep,2,-down,0.07305,0.22717,1.71721,0.09670,-0.04521,-0.00744,-0.00324,-0.0024,-0.1245,-0.0073,-0.1099,-0.0220,-0.0073,-0.0073,-0.0752,9.9761,-1.9487,-0.8181,0.0366,-0.0366,-0.0073,1,1,1,1,1,1,1
18.7334,sweep,2,-down,0.07305,0.22717,1.71721,0.09670,-0.04521,-0.00744,-0.00324,-0.0024,-0.1245,-0.0073,-0.1099,-0.0220,-0.0073,-0.0073,-0.0752,9.9761,-1.9487,-0.8181,0.0366,-0.0366,-0.0073,1,1,1,1,1,1,1
18.7732,sweep,2,-down,0.07305,0.22717,1.71721,0.09670,-0.04521,-0.00744,-0.00324,-0.0024,-0.1245,-0.0073,-0.1099,-0.0220,-0.0073,-0.0073,-0.0752,9.9761,-1.9487,-0.8181,0.0366,-0.0366,-0.0073,1,1,1,1,1,1,1
18.8132,sweep,2,-down,0.07305,0.21267,1.71607,0.09060,-0.04521,-0.00744,-0.00362,0.0024,-0.1343,-0.0073,-0.0073,0.0073,-0.0073,-0.0220,-0.0205,7.8701,-0.7316,-0.4029,0.0464,-0.0415,-0.0024,1,1,1,1,1,1,1
18.8531,sweep,2,-down,0.07305,0.21267,1.71607,0.09060,-0.04521,-0.00744,-0.00362,0.0024,-0.1343,-0.0073,-0.0073,0.0073,-0.0073,-0.0220,-0.0205,7.8701,-0.7316,-0.4029,0.0464,-0.0415,-0.0024,1,1,1,1,1,1,1
18.8933,sweep,2,-down,0.07305,0.20237,1.71607,0.09174,-0.04482,-0.00744,-0.00324,0.0024,-0.1245,0.0024,0.0073,0.0073,-0.0220,-0.0073,-0.0752,8.9368,-1.0188,-0.4762,0.0415,-0.0366,-0.0024,1,1,1,1,1,1,1
18.9330,sweep,2,-down,0.07305,0.20237,1.71607,0.09174,-0.04482,-0.00744,-0.00324,0.0024,-0.1245,0.0024,0.0073,0.0073,-0.0220,-0.0073,-0.0752,8.9368,-1.0188,-0.4762,0.0415,-0.0366,-0.0024,1,1,1,1,1,1,1
18.9731,sweep,2,-down,0.07305,0.20237,1.71607,0.09174,-0.04482,-0.00744,-0.00324,0.0024,-0.1245,0.0024,0.0073,0.0073,-0.0220,-0.0073,-0.0752,8.9368,-1.0188,-0.4762,0.0415,-0.0366,-0.0024,1,1,1,1,1,1,1
19.0131,sweep,2,-down,0.07305,0.18978,1.71607,0.09289,-0.04482,-0.00744,-0.00324,-0.0024,-0.0708,-0.0024,-0.0073,-0.0073,0.0073,0.0073,-0.1162,9.0872,-1.4427,-0.6325,0.0366,-0.0317,-0.0024,1,1,1,1,1,1,1
19.0536,sweep,2,-down,0.07305,0.18978,1.71607,0.09289,-0.04482,-0.00744,-0.00324,-0.0024,-0.0708,-0.0024,-0.0073,-0.0073,0.0073,0.0073,-0.1162,9.0872,-1.4427,-0.6325,0.0366,-0.0317,-0.0024,1,1,1,1,1,1,1
19.0940,sweep,2,-down,0.07305,0.18330,1.71569,0.09136,-0.04482,-0.00744,-0.00324,-0.0024,-0.0806,-0.0122,-0.0220,-0.0073,-0.0073,-0.0220,-0.0889,8.0342,-1.1692,-0.5104,0.0464,-0.0317,-0.0024,1,1,1,1,1,1,1
19.1334,sweep,2,-down,0.07305,0.18330,1.71569,0.09136,-0.04482,-0.00744,-0.00324,-0.0024,-0.0806,-0.0122,-0.0220,-0.0073,-0.0073,-0.0220,-0.0889,8.0342,-1.1692,-0.5104,0.0464,-0.0317,-0.0024,1,1,1,1,1,1,1
19.1733,sweep,2,-down,0.07305,0.18330,1.71569,0.09136,-0.04482,-0.00744,-0.00324,-0.0024,-0.0806,-0.0122,-0.0220,-0.0073,-0.0073,-0.0220,-0.0889,8.0342,-1.1692,-0.5104,0.0464,-0.0317,-0.0024,1,1,1,1,1,1,1
19.2130,sweep,2,-down,0.07305,0.17338,1.71530,0.09174,-0.04482,-0.00744,-0.00324,-0.0024,-0.0757,-0.0024,-0.0073,0.0073,-0.0220,-0.0073,-0.1026,8.5265,-1.1556,-0.5592,0.0366,-0.0269,-0.0024,1,1,1,1,1,1,1
19.2528,sweep,2,-down,0.07305,0.17338,1.71530,0.09174,-0.04482,-0.00744,-0.00324,-0.0024,-0.0757,-0.0024,-0.0073,0.0073,-0.0220,-0.0073,-0.1026,8.5265,-1.1556,-0.5592,0.0366,-0.0269,-0.0024,1,1,1,1,1,1,1
19.2935,sweep,2,-down,0.07305,0.16880,1.71530,0.09289,-0.04482,-0.00744,-0.00324,-0.0024,-0.0415,-0.0171,-0.0220,-0.0073,-0.0073,-0.0073,-0.1162,7.1043,-0.8957,-0.6764,0.0366,-0.0269,-0.0024,1,1,1,1,1,1,1
19.3338,sweep,2,-down,0.07305,0.16880,1.71530,0.09289,-0.04482,-0.00744,-0.00324,-0.0024,-0.0415,-0.0171,-0.0220,-0.0073,-0.0073,-0.0073,-0.1162,7.1043,-0.8957,-0.6764,0.0366,-0.0269,-0.0024,1,1,1,1,1,1,1
19.3733,sweep,2,-down,0.07305,0.16880,1.71530,0.09289,-0.04482,-0.00744,-0.00324,-0.0024,-0.0415,-0.0171,-0.0220,-0.0073,-0.0073,-0.0073,-0.1162,7.1043,-0.8957,-0.6764,0.0366,-0.0269,-0.0024,1,1,1,1,1,1,1
19.4134,sweep,2,-down,0.07305,0.16232,1.71454,0.09174,-0.04482,-0.00744,-0.00324,-0.0024,-0.0464,-0.0024,0.0073,-0.0220,-0.0220,-0.0220,-0.1299,6.2838,-0.2530,-0.5641,0.0317,-0.0269,-0.0073,1,1,1,1,1,1,1
19.4532,sweep,2,-down,0.07305,0.16232,1.71454,0.09174,-0.04482,-0.00744,-0.00324,-0.0024,-0.0464,-0.0024,0.0073,-0.0220,-0.0220,-0.0220,-0.1299,6.2838,-0.2530,-0.5641,0.0317,-0.0269,-0.0073,1,1,1,1,1,1,1
19.4930,sweep,2,-down,0.07305,0.15774,1.71416,0.09098,-0.04482,-0.00744,-0.00324,-0.0073,-0.0415,-0.0024,-0.0073,-0.0073,-0.0073,-0.0073,-0.1299,6.4068,-0.1299,-0.5201,0.0317,-0.0317,-0.0073,1,1,1,1,1,1,1
19.5334,sweep,2,-down,0.07305,0.15774,1.71416,0.09098,-0.04482,-0.00744,-0.00324,-0.0073,-0.0415,-0.0024,-0.0073,-0.0073,-0.0073,-0.0073,-0.1299,6.4068,-0.1299,-0.5201,0.0317,-0.0317,-0.0073,1,1,1,1,1,1,1
19.5733,sweep,2,-down,0.07305,0.15774,1.71416,0.09098,-0.04482,-0.00744,-0.00324,-0.0073,-0.0415,-0.0024,-0.0073,-0.0073,-0.0073,-0.0073,-0.1299,6.4068,-0.1299,-0.5201,0.0317,-0.0317,-0.0073,1,1,1,1,1,1,1
19.6138,sweep,2,-down,0.07305,0.15164,1.71454,0.09136,-0.04482,-0.00744,-0.00324,-0.0024,-0.0415,0.0073,-0.0220,-0.0073,-0.0073,-0.0073,-0.1299,6.7761,-0.1436,-0.5250,0.0269,-0.0269,-0.0024,1,1,1,1,1,1,1
19.6536,sweep,2,-down,0.07305,0.15164,1.71454,0.09136,-0.04482,-0.00744,-0.00324,-0.0024,-0.0415,0.0073,-0.0220,-0.0073,-0.0073,-0.0073,-0.1299,6.7761,-0.1436,-0.5250,0.0269,-0.0269,-0.0024,1,1,1,1,1,1,1
19.6933,sweep,2,-down,0.07305,0.14820,1.71454,0.09174,-0.04482,-0.00744,-0.00324,-0.0024,-0.0708,-0.0024,-0.0073,-0.0073,-0.0073,-0.0073,-0.1299,7.1316,-0.3214,-0.5543,0.0269,-0.0317,-0.0024,1,1,1,1,1,1,1
19.7334,sweep,2,-down,0.07305,0.14820,1.71454,0.09174,-0.04482,-0.00744,-0.00324,-0.0024,-0.0708,-0.0024,-0.0073,-0.0073,-0.0073,-0.0073,-0.1299,7.1316,-0.3214,-0.5543,0.0269,-0.0317,-0.0024,1,1,1,1,1,1,1
19.7745,sweep,2,-down,0.07305,0.14820,1.71454,0.09174,-0.04482,-0.00744,-0.00324,-0.0024,-0.0708,-0.0024,-0.0073,-0.0073,-0.0073,-0.0073,-0.1299,7.1316,-0.3214,-0.5543,0.0269,-0.0317,-0.0024,1,1,1,1,1,1,1
19.8130,sweep,2,-down,0.07305,0.14286,1.71530,0.09213,-0.04482,-0.00744,-0.00324,-0.0024,-0.0366,-0.0024,-0.0220,-0.0073,-0.0073,0.0073,-0.1436,8.4444,-0.8410,-0.6227,0.0269,-0.0317,-0.0024,1,1,1,1,1,1,1
19.8533,sweep,2,-down,0.07305,0.14286,1.71530,0.09213,-0.04482,-0.00744,-0.00324,-0.0024,-0.0366,-0.0024,-0.0220,-0.0073,-0.0073,0.0073,-0.1436,8.4444,-0.8410,-0.6227,0.0269,-0.0317,-0.0024,1,1,1,1,1,1,1
19.8934,sweep,2,-down,0.07305,0.13981,1.71530,0.09213,-0.04482,-0.00744,-0.00324,-0.0024,-0.0317,-0.0073,-0.0220,-0.0073,-0.0073,-0.0073,-0.1436,9.2513,-1.0051,-0.6422,0.0220,-0.0317,-0.0024,1,1,1,1,1,1,1
20.3957,approach,2,return,0.07305,0.13905,1.71530,0.09213,-0.04521,-0.00744,-0.00324,-0.0024,-0.0366,-0.0024,-0.0073,-0.0073,-0.0073,-0.0073,-0.1299,9.1145,-1.0462,-0.6520,0.0269,-0.0269,-0.0024,1,1,1,1,1,1,1
20.4359,approach,2,return,0.07305,0.13905,1.71530,0.09213,-0.04521,-0.00744,-0.00324,-0.0024,-0.0366,-0.0024,-0.0073,-0.0073,-0.0073,-0.0073,-0.1299,9.1145,-1.0462,-0.6520,0.0269,-0.0269,-0.0024,1,1,1,1,1,1,1
20.4759,approach,2,return,0.07305,0.13905,1.71530,0.09213,-0.04521,-0.00744,-0.00324,-0.0024,-0.0366,-0.0024,-0.0073,-0.0073,-0.0073,-0.0073,-0.1299,9.1145,-1.0462,-0.6520,0.0269,-0.0269,-0.0024,1,1,1,1,1,1,1
20.5158,approach,2,return,0.07305,0.11730,1.71492,0.09022,-0.04521,-0.00706,-0.00324,-0.0024,-0.1685,-0.0073,-0.0220,-0.0073,0.0073,-0.0220,-0.1436,9.1282,-1.1692,-0.5641,0.0220,-0.0220,-0.0073,1,1,1,1,1,1,1
20.5558,approach,2,return,0.07305,0.11730,1.71492,0.09022,-0.04521,-0.00706,-0.00324,-0.0024,-0.1685,-0.0073,-0.0220,-0.0073,0.0073,-0.0220,-0.1436,9.1282,-1.1692,-0.5641,0.0220,-0.0220,-0.0073,1,1,1,1,1,1,1
20.5958,approach,2,return,0.07305,0.10472,1.71530,0.09251,-0.04521,-0.00744,-0.00324,0.0024,-0.1343,0.0024,0.0366,-0.0220,-0.0220,-0.0073,-0.1709,9.6479,-1.4427,-0.7546,0.0171,-0.0220,-0.0024,1,1,1,1,1,1,1
20.6358,approach,2,return,0.07305,0.10472,1.71530,0.09251,-0.04521,-0.00744,-0.00324,0.0024,-0.1343,0.0024,0.0366,-0.0220,-0.0220,-0.0073,-0.1709,9.6479,-1.4427,-0.7546,0.0171,-0.0220,-0.0024,1,1,1,1,1,1,1
20.6759,approach,2,return,0.07305,0.10472,1.71530,0.09251,-0.04521,-0.00744,-0.00324,0.0024,-0.1343,0.0024,0.0366,-0.0220,-0.0220,-0.0073,-0.1709,9.6479,-1.4427,-0.7546,0.0171,-0.0220,-0.0024,1,1,1,1,1,1,1
20.7161,approach,2,return,0.07305,0.08831,1.71530,0.09213,-0.04482,-0.00744,-0.00324,-0.0024,-0.1392,0.0024,0.0073,-0.0073,-0.0073,0.0073,-0.1983,10.7692,-1.6752,-0.7595,0.0122,-0.0171,-0.0073,1,1,1,1,1,1,1
20.7561,approach,2,return,0.07305,0.08831,1.71530,0.09213,-0.04482,-0.00744,-0.00324,-0.0024,-0.1392,0.0024,0.0073,-0.0073,-0.0073,0.0073,-0.1983,10.7692,-1.6752,-0.7595,0.0122,-0.0171,-0.0073,1,1,1,1,1,1,1
20.7966,approach,2,return,0.07305,0.07916,1.71530,0.09251,-0.04521,-0.00744,-0.00324,-0.0024,-0.0855,-0.0024,0.0073,-0.0220,-0.0073,-0.0073,-0.1846,10.4000,-1.8940,-0.8230,0.0171,-0.0171,-0.0024,1,1,1,1,1,1,1
20.8361,approach,2,return,0.07305,0.07916,1.71530,0.09251,-0.04521,-0.00744,-0.00324,-0.0024,-0.0855,-0.0024,0.0073,-0.0220,-0.0073,-0.0073,-0.1846,10.4000,-1.8940,-0.8230,0.0171,-0.0171,-0.0024,1,1,1,1,1,1,1
20.8762,approach,2,return,0.07305,0.07916,1.71530,0.09251,-0.04521,-0.00744,-0.00324,-0.0024,-0.0855,-0.0024,0.0073,-0.0220,-0.0073,-0.0073,-0.1846,10.4000,-1.8940,-0.8230,0.0171,-0.0171,-0.0024,1,1,1,1,1,1,1
20.9161,approach,2,return,0.07305,0.06733,1.71530,0.09251,-0.04521,-0.00744,-0.00324,0.0024,-0.1294,-0.0073,0.0220,-0.0073,-0.0073,-0.0073,-0.1573,10.5231,-2.0171,-0.8474,0.0171,-0.0220,-0.0122,1,1,1,1,1,1,1
20.9563,approach,2,return,0.07305,0.06733,1.71530,0.09251,-0.04521,-0.00744,-0.00324,0.0024,-0.1294,-0.0073,0.0220,-0.0073,-0.0073,-0.0073,-0.1573,10.5231,-2.0171,-0.8474,0.0171,-0.0220,-0.0122,1,1,1,1,1,1,1
20.9961,approach,2,return,0.07305,0.06008,1.71530,0.09213,-0.04482,-0.00744,-0.00362,0.0024,-0.0952,-0.0024,-0.0073,-0.0073,-0.0220,-0.0073,-0.1983,10.5915,-2.0991,-0.8474,0.0171,-0.0220,-0.0073,1,1,1,1,1,1,1
21.0360,approach,2,return,0.07305,0.06008,1.71530,0.09213,-0.04482,-0.00744,-0.00362,0.0024,-0.0952,-0.0024,-0.0073,-0.0073,-0.0220,-0.0073,-0.1983,10.5915,-2.0991,-0.8474,0.0171,-0.0220,-0.0073,1,1,1,1,1,1,1
21.0760,approach,2,return,0.07305,0.06008,1.71530,0.09213,-0.04482,-0.00744,-0.00362,0.0024,-0.0952,-0.0024,-0.0073,-0.0073,-0.0220,-0.0073,-0.1983,10.5915,-2.0991,-0.8474,0.0171,-0.0220,-0.0073,1,1,1,1,1,1,1
21.1162,approach,2,return,0.07305,0.05093,1.71530,0.09213,-0.04482,-0.00706,-0.00324,-0.0073,-0.0757,-0.0024,-0.0220,-0.0073,-0.0073,-0.0220,-0.2256,10.8513,-2.2222,-0.9011,0.0220,-0.0122,-0.0073,1,1,1,1,1,1,1
21.1563,approach,2,return,0.07305,0.05093,1.71530,0.09213,-0.04482,-0.00706,-0.00324,-0.0073,-0.0757,-0.0024,-0.0220,-0.0073,-0.0073,-0.0220,-0.2256,10.8513,-2.2222,-0.9011,0.0220,-0.0122,-0.0073,1,1,1,1,1,1,1
21.1963,approach,2,return,0.07305,0.04559,1.71530,0.09213,-0.04521,-0.00744,-0.00324,-0.0024,-0.0611,-0.0073,-0.0073,-0.0073,-0.0220,-0.0073,-0.1983,10.8103,-2.3316,-0.9060,0.0220,-0.0171,-0.0122,1,1,1,1,1,1,1
21.2362,approach,2,return,0.07305,0.04559,1.71530,0.09213,-0.04521,-0.00744,-0.00324,-0.0024,-0.0611,-0.0073,-0.0073,-0.0073,-0.0220,-0.0073,-0.1983,10.8103,-2.3316,-0.9060,0.0220,-0.0171,-0.0122,1,1,1,1,1,1,1
21.2764,approach,2,return,0.07305,0.04559,1.71530,0.09213,-0.04521,-0.00744,-0.00324,-0.0024,-0.0611,-0.0073,-0.0073,-0.0073,-0.0220,-0.0073,-0.1983,10.8103,-2.3316,-0.9060,0.0220,-0.0171,-0.0122,1,1,1,1,1,1,1
21.3162,approach,2,return,0.07305,0.03872,1.71530,0.09213,-0.04521,-0.00706,-0.00324,-0.0024,-0.0415,-0.0024,0.0073,-0.0073,0.0073,-0.0073,-0.2256,11.0427,-2.4547,-0.9402,0.0220,-0.0122,-0.0122,1,1,1,1,1,1,1
21.3561,approach,2,return,0.07305,0.03872,1.71530,0.09213,-0.04521,-0.00706,-0.00324,-0.0024,-0.0415,-0.0024,0.0073,-0.0073,0.0073,-0.0073,-0.2256,11.0427,-2.4547,-0.9402,0.0220,-0.0122,-0.0122,1,1,1,1,1,1,1
21.3960,approach,2,return,0.07305,0.03491,1.71530,0.09213,-0.04482,-0.00706,-0.00324,-0.0024,-0.0513,-0.0073,-0.0073,-0.0220,-0.0073,-0.0073,-0.2530,10.9060,-2.5368,-0.9402,0.0220,-0.0171,-0.0073,1,1,1,1,1,1,1
21.4359,approach,2,return,0.07305,0.03491,1.71530,0.09213,-0.04482,-0.00706,-0.00324,-0.0024,-0.0513,-0.0073,-0.0073,-0.0220,-0.0073,-0.0073,-0.2530,10.9060,-2.5368,-0.9402,0.0220,-0.0171,-0.0073,1,1,1,1,1,1,1
21.4759,approach,2,return,0.07305,0.03491,1.71530,0.09213,-0.04482,-0.00706,-0.00324,-0.0024,-0.0513,-0.0073,-0.0073,-0.0220,-0.0073,-0.0073,-0.2530,10.9060,-2.5368,-0.9402,0.0220,-0.0171,-0.0073,1,1,1,1,1,1,1
21.5159,approach,2,return,0.07305,0.02956,1.71530,0.09174,-0.04521,-0.00744,-0.00362,-0.0024,-0.0366,-0.0024,0.0073,-0.0073,-0.0073,-0.0220,-0.2667,11.0154,-2.6462,-0.9451,0.0220,-0.0269,-0.0122,1,1,1,1,1,1,1
21.5559,approach,2,return,0.07305,0.02956,1.71530,0.09174,-0.04521,-0.00744,-0.00362,-0.0024,-0.0366,-0.0024,0.0073,-0.0073,-0.0073,-0.0220,-0.2667,11.0154,-2.6462,-0.9451,0.0220,-0.0269,-0.0122,1,1,1,1,1,1,1
21.5961,approach,2,return,0.07305,0.02613,1.71530,0.09174,-0.04482,-0.00744,-0.00362,-0.0024,-0.0659,-0.0024,-0.0073,0.0220,0.0073,-0.0073,-0.2530,11.1658,-2.6735,-0.9548,0.0220,-0.0269,-0.0073,1,1,1,1,1,1,1
21.6357,approach,2,return,0.07305,0.02613,1.71530,0.09174,-0.04482,-0.00744,-0.00362,-0.0024,-0.0659,-0.0024,-0.0073,0.0220,0.0073,-0.0073,-0.2530,11.1658,-2.6735,-0.9548,0.0220,-0.0269,-0.0073,1,1,1,1,1,1,1
21.6760,approach,2,return,0.07305,0.02613,1.71530,0.09174,-0.04482,-0.00744,-0.00362,-0.0024,-0.0659,-0.0024,-0.0073,0.0220,0.0073,-0.0073,-0.2530,11.1658,-2.6735,-0.9548,0.0220,-0.0269,-0.0073,1,1,1,1,1,1,1
21.7159,approach,2,return,0.07305,0.02193,1.71530,0.09174,-0.04482,-0.00744,-0.00324,-0.0073,-0.0220,-0.0024,0.0073,-0.0073,0.0073,-0.0073,-0.2667,11.3983,-2.7966,-0.9597,0.0171,-0.0269,-0.0073,1,1,1,1,1,1,1
21.7560,approach,2,return,0.07305,0.02193,1.71530,0.09174,-0.04482,-0.00744,-0.00324,-0.0073,-0.0220,-0.0024,0.0073,-0.0073,0.0073,-0.0073,-0.2667,11.3983,-2.7966,-0.9597,0.0171,-0.0269,-0.0073,1,1,1,1,1,1,1
21.7960,approach,2,return,0.07305,0.02003,1.71530,0.09174,-0.04482,-0.00744,-0.00324,-0.0024,-0.0171,-0.0024,-0.0073,-0.0073,-0.0073,0.0073,-0.2530,11.2205,-2.8786,-0.9695,0.0171,-0.0220,-0.0122,1,1,1,1,1,1,1
21.8358,approach,2,return,0.07305,0.02003,1.71530,0.09174,-0.04482,-0.00744,-0.00324,-0.0024,-0.0171,-0.0024,-0.0073,-0.0073,-0.0073,0.0073,-0.2530,11.2205,-2.8786,-0.9695,0.0171,-0.0220,-0.0122,1,1,1,1,1,1,1
21.8768,approach,2,return,0.07305,0.02003,1.71530,0.09174,-0.04482,-0.00744,-0.00324,-0.0024,-0.0171,-0.0024,-0.0073,-0.0073,-0.0073,0.0073,-0.2530,11.2205,-2.8786,-0.9695,0.0171,-0.0220,-0.0122,1,1,1,1,1,1,1
21.9168,approach,2,return,0.07305,0.01659,1.71530,0.09174,-0.04521,-0.00744,-0.00324,-0.0024,-0.0317,-0.0024,-0.0073,0.0073,-0.0220,-0.0073,-0.2803,11.6034,-3.0291,-0.9841,0.0171,-0.0269,-0.0073,1,1,1,1,1,1,1
