peipl15/reBot_Arm/outputs/gravity_calib_20260622_153359.csv
t_s,phase,swept_joint,direction,q1,q2,q3,q4,q5,q6,q7,v1,v2,v3,v4,v5,v6,v7,tau1,tau2,tau3,tau4,tau5,tau6,tau7,st1,st2,st3,st4,st5,st6,st7
0.0024,approach,3,to_lo,0.08412,0.01926,0.02880,0.91688,0.00668,0.05398,-0.00362,-0.0073,-0.0024,-0.0024,-0.0073,-0.0073,0.0073,-0.0073,0.0068,-0.0068,-0.0068,0.1294,-0.0024,0.0024,-0.0122,1,1,1,1,1,1,1
0.0425,approach,3,to_lo,0.08412,0.01926,0.02880,0.91688,0.00668,0.05398,-0.00362,-0.0073,-0.0024,-0.0024,-0.0073,-0.0073,0.0073,-0.0073,0.0068,-0.0068,-0.0068,0.1294,-0.0024,0.0024,-0.0122,1,1,1,1,1,1,1
0.0824,approach,3,to_lo,0.08412,0.01926,0.02880,0.91688,0.00668,0.05398,-0.00362,-0.0073,-0.0024,-0.0024,-0.0073,-0.0073,0.0073,-0.0073,0.0068,-0.0068,-0.0068,0.1294,-0.0024,0.0024,-0.0122,1,1,1,1,1,1,1
0.1224,approach,3,to_lo,0.08412,0.01926,0.03567,0.90619,0.00668,0.05360,-0.00324,-0.0024,-0.0024,0.0904,0.0806,-0.0073,0.0073,-0.0220,-0.0068,-0.0342,2.5094,1.5263,-0.0122,-0.0024,-0.0073,1,1,1,1,1,1,1
0.1626,approach,3,to_lo,0.08412,0.01926,0.03567,0.90619,0.00668,0.05360,-0.00324,-0.0024,-0.0024,0.0904,0.0806,-0.0073,0.0073,-0.0220,-0.0068,-0.0342,2.5094,1.5263,-0.0122,-0.0024,-0.0073,1,1,1,1,1,1,1
0.2025,approach,3,to_lo,0.08412,0.01926,0.04292,0.91154,0.00668,0.05360,-0.00324,-0.0024,0.0024,0.0806,0.0073,-0.0073,0.0073,-0.0073,-0.0205,-0.0205,4.1915,1.4774,-0.0220,0.0024,-0.0024,1,1,1,1,1,1,1
0.2427,approach,3,to_lo,0.08412,0.01926,0.04292,0.91154,0.00668,0.05360,-0.00324,-0.0024,0.0024,0.0806,0.0073,-0.0073,0.0073,-0.0073,-0.0205,-0.0205,4.1915,1.4774,-0.0220,0.0024,-0.0024,1,1,1,1,1,1,1
0.2826,approach,3,to_lo,0.08412,0.01926,0.04292,0.91154,0.00668,0.05360,-0.00324,-0.0024,0.0024,0.0806,0.0073,-0.0073,0.0073,-0.0073,-0.0205,-0.0205,4.1915,1.4774,-0.0220,0.0024,-0.0024,1,1,1,1,1,1,1
0.3226,approach,3,to_lo,0.08412,0.01926,0.05131,0.91688,0.00668,0.05360,-0.00362,-0.0024,-0.0024,0.0757,0.0659,0.0073,-0.0073,0.0073,-0.0479,-0.0479,8.7043,1.3700,-0.0220,0.0073,-0.0073,1,1,1,1,1,1,1
0.3626,approach,3,to_lo,0.08412,0.01926,0.05131,0.91688,0.00668,0.05360,-0.00362,-0.0024,-0.0024,0.0757,0.0659,0.0073,-0.0073,0.0073,-0.0479,-0.0479,8.7043,1.3700,-0.0220,0.0073,-0.0073,1,1,1,1,1,1,1
0.4024,approach,3,to_lo,0.08412,0.01926,0.05627,0.91726,0.00668,0.05360,-0.00324,-0.0024,-0.0024,0.0855,-0.0220,-0.0073,0.0073,-0.0073,-0.0615,-0.0615,11.7402,1.4286,-0.0269,0.0073,-0.0024,1,1,1,1,1,1,1
0.4423,approach,3,to_lo,0.08412,0.01926,0.05627,0.91726,0.00668,0.05360,-0.00324,-0.0024,-0.0024,0.0855,-0.0220,-0.0073,0.0073,-0.0073,-0.0615,-0.0615,11.7402,1.4286,-0.0269,0.0073,-0.0024,1,1,1,1,1,1,1
0.4825,approach,3,to_lo,0.08412,0.01926,0.05627,0.91726,0.00668,0.05360,-0.00324,-0.0024,-0.0024,0.0855,-0.0220,-0.0073,0.0073,-0.0073,-0.0615,-0.0615,11.7402,1.4286,-0.0269,0.0073,-0.0024,1,1,1,1,1,1,1
0.5226,approach,3,to_lo,0.08412,0.01926,0.06695,0.92107,0.00668,0.05360,-0.00324,-0.0024,-0.0024,0.0659,-0.0073,-0.0073,0.0073,-0.0073,-0.0752,-0.0752,10.4684,1.1990,-0.0317,0.0024,-0.0024,1,1,1,1,1,1,1
0.5624,approach,3,to_lo,0.08412,0.01926,0.06695,0.92107,0.00668,0.05360,-0.00324,-0.0024,-0.0024,0.0659,-0.0073,-0.0073,0.0073,-0.0073,-0.0752,-0.0752,10.4684,1.1990,-0.0317,0.0024,-0.0024,1,1,1,1,1,1,1
0.6025,approach,3,to_lo,0.08412,0.01926,0.07191,0.91993,0.00668,0.05360,-0.00324,-0.0024,0.0024,0.0611,-0.0073,-0.0073,-0.0220,0.0073,-0.0752,-0.1026,10.9744,1.2479,-0.0366,0.0073,-0.0024,1,1,1,1,1,1,1
0.6426,approach,3,to_lo,0.08412,0.01926,0.07191,0.91993,0.00668,0.05360,-0.00324,-0.0024,0.0024,0.0611,-0.0073,-0.0073,-0.0220,0.0073,-0.0752,-0.1026,10.9744,1.2479,-0.0366,0.0073,-0.0024,1,1,1,1,1,1,1
0.6825,approach,3,to_lo,0.08412,0.01926,0.07191,0.91993,0.00668,0.05360,-0.00324,-0.0024,0.0024,0.0611,-0.0073,-0.0073,-0.0220,0.0073,-0.0752,-0.1026,10.9744,1.2479,-0.0366,0.0073,-0.0024,1,1,1,1,1,1,1
0.7228,approach,3,to_lo,0.08412,0.01926,0.07992,0.92069,0.00668,0.05360,-0.00362,-0.0024,0.0024,0.0562,-0.0073,-0.0073,0.0073,-0.0220,-0.0889,-0.1026,10.0991,1.1893,-0.0366,0.0073,-0.0024,1,1,1,1,1,1,1
0.7625,approach,3,to_lo,0.08412,0.01926,0.07992,0.92069,0.00668,0.05360,-0.00362,-0.0024,0.0024,0.0562,-0.0073,-0.0073,0.0073,-0.0220,-0.0889,-0.1026,10.0991,1.1893,-0.0366,0.0073,-0.0024,1,1,1,1,1,1,1
0.8025,approach,3,to_lo,0.08412,0.01926,0.08373,0.92031,0.00668,0.05360,-0.00362,0.0024,-0.0024,0.0269,-0.0220,0.0073,-0.0220,-0.0073,-0.1026,-0.1026,10.4821,1.1941,-0.0415,0.0073,-0.0073,1,1,1,1,1,1,1
0.8423,approach,3,to_lo,0.08412,0.01926,0.08373,0.92031,0.00668,0.05360,-0.00362,0.0024,-0.0024,0.0269,-0.0220,0.0073,-0.0220,-0.0073,-0.1026,-0.1026,10.4821,1.1941,-0.0415,0.0073,-0.0073,1,1,1,1,1,1,1
0.8824,approach,3,to_lo,0.08412,0.01926,0.08373,0.92031,0.00668,0.05360,-0.00362,0.0024,-0.0024,0.0269,-0.0220,0.0073,-0.0220,-0.0073,-0.1026,-0.1026,10.4821,1.1941,-0.0415,0.0073,-0.0073,1,1,1,1,1,1,1
0.9223,approach,3,to_lo,0.08412,0.01926,0.08907,0.92031,0.00668,0.05360,-0.00362,-0.0024,-0.0024,0.0220,-0.0220,-0.0220,-0.0073,0.0073,-0.1162,-0.1162,10.3179,1.1697,-0.0513,0.0073,-0.0073,1,1,1,1,1,1,1
0.9623,approach,3,to_lo,0.08412,0.01926,0.08907,0.92031,0.00668,0.05360,-0.00362,-0.0024,-0.0024,0.0220,-0.0220,-0.0220,-0.0073,0.0073,-0.1162,-0.1162,10.3179,1.1697,-0.0513,0.0073,-0.0073,1,1,1,1,1,1,1
1.0023,approach,3,to_lo,0.08412,0.01926,0.09251,0.92031,0.00668,0.05360,-0.00362,-0.0024,-0.0073,0.0415,-0.0366,-0.0220,-0.0073,-0.0073,-0.1299,-0.1299,10.3043,1.1648,-0.0513,0.0073,-0.0073,1,1,1,1,1,1,1
1.0422,approach,3,to_lo,0.08412,0.01926,0.09251,0.92031,0.00668,0.05360,-0.00362,-0.0024,-0.0073,0.0415,-0.0366,-0.0220,-0.0073,-0.0073,-0.1299,-0.1299,10.3043,1.1648,-0.0513,0.0073,-0.0073,1,1,1,1,1,1,1
1.0823,approach,3,to_lo,0.08412,0.01926,0.09251,0.92031,0.00668,0.05360,-0.00362,-0.0024,-0.0073,0.0415,-0.0366,-0.0220,-0.0073,-0.0073,-0.1299,-0.1299,10.3043,1.1648,-0.0513,0.0073,-0.0073,1,1,1,1,1,1,1
1.1224,approach,3,to_lo,0.08412,0.01926,0.09670,0.92031,0.00668,0.05360,-0.00362,-0.0024,0.0024,0.0220,-0.0073,-0.0073,0.0073,-0.0220,-0.1299,-0.1436,10.1128,1.1600,-0.0611,0.0073,-0.0024,1,1,1,1,1,1,1
1.1624,approach,3,to_lo,0.08412,0.01926,0.09670,0.92031,0.00668,0.05360,-0.00362,-0.0024,0.0024,0.0220,-0.0073,-0.0073,0.0073,-0.0220,-0.1299,-0.1436,10.1128,1.1600,-0.0611,0.0073,-0.0024,1,1,1,1,1,1,1
1.2024,approach,3,to_lo,0.08412,0.01926,0.09861,0.92031,0.00668,0.05360,-0.00362,-0.0073,-0.0024,0.0171,0.0073,-0.0073,-0.0073,-0.0073,-0.1436,-0.1709,10.4957,1.1355,-0.0659,0.0073,-0.0024,1,1,1,1,1,1,1
1.2424,approach,3,to_lo,0.08412,0.01926,0.09861,0.92031,0.00668,0.05360,-0.00362,-0.0073,-0.0024,0.0171,0.0073,-0.0073,-0.0073,-0.0073,-0.1436,-0.1709,10.4957,1.1355,-0.0659,0.0073,-0.0024,1,1,1,1,1,1,1
1.2825,approach,3,to_lo,0.08412,0.01926,0.09861,0.92031,0.00668,0.05360,-0.00362,-0.0073,-0.0024,0.0171,0.0073,-0.0073,-0.0073,-0.0073,-0.1436,-0.1709,10.4957,1.1355,-0.0659,0.0073,-0.0024,1,1,1,1,1,1,1
1.3225,approach,3,to_lo,0.08412,0.01926,0.10205,0.92031,0.00668,0.05360,-0.00324,-0.0024,-0.0024,0.0220,-0.0073,-0.0220,-0.0220,0.0073,-0.1573,-0.1846,10.1265,1.1306,-0.0659,0.0073,-0.0024,1,1,1,1,1,1,1
1.8249,sweep,3,+up,0.08412,0.01926,0.10281,0.92031,0.00668,0.05360,-0.00324,0.0024,-0.0024,0.0171,-0.0220,-0.0073,-0.0073,0.0073,-0.1573,-0.1846,10.2906,1.1258,-0.0708,0.0073,-0.0024,1,1,1,1,1,1,1
1.8649,sweep,3,+up,0.08412,0.01926,0.10281,0.92031,0.00668,0.05360,-0.00324,0.0024,-0.0024,0.0171,-0.0220,-0.0073,-0.0073,0.0073,-0.1573,-0.1846,10.2906,1.1258,-0.0708,0.0073,-0.0024,1,1,1,1,1,1,1
1.9051,sweep,3,+up,0.08412,0.01926,0.11654,0.91650,0.00668,0.05398,-0.00362,-0.0024,-0.0073,0.1734,-0.1685,-0.0073,0.0220,-0.0073,-0.1846,-0.2667,12.6291,1.4383,-0.0952,0.0024,0.0024,1,1,1,1,1,1,1
1.9451,sweep,3,+up,0.08412,0.01926,0.11654,0.91650,0.00668,0.05398,-0.00362,-0.0024,-0.0073,0.1734,-0.1685,-0.0073,0.0220,-0.0073,-0.1846,-0.2667,12.6291,1.4383,-0.0952,0.0024,0.0024,1,1,1,1,1,1,1
1.9850,sweep,3,+up,0.08412,0.01926,0.11654,0.91650,0.00668,0.05398,-0.00362,-0.0024,-0.0073,0.1734,-0.1685,-0.0073,0.0220,-0.0073,-0.1846,-0.2667,12.6291,1.4383,-0.0952,0.0024,0.0024,1,1,1,1,1,1,1
2.0249,sweep,3,+up,0.08412,0.01926,0.14210,0.92184,0.00668,0.05360,-0.00362,-0.0024,-0.0024,0.2125,0.0513,-0.0073,-0.0073,-0.0073,-0.1709,-0.2803,10.3727,1.0818,-0.1001,0.0024,-0.0024,1,1,1,1,1,1,1
2.0650,sweep,3,+up,0.08412,0.01926,0.14210,0.92184,0.00668,0.05360,-0.00362,-0.0024,-0.0024,0.2125,0.0513,-0.0073,-0.0073,-0.0073,-0.1709,-0.2803,10.3727,1.0818,-0.1001,0.0024,-0.0024,1,1,1,1,1,1,1
2.1052,sweep,3,+up,0.08412,0.01926,0.15850,0.92184,0.00668,0.05360,-0.00362,-0.0024,-0.0024,0.1685,-0.0513,0.0073,-0.0366,-0.0073,-0.1983,-0.3077,10.2222,0.9939,-0.1050,0.0024,-0.0024,1,1,1,1,1,1,1
2.1451,sweep,3,+up,0.08412,0.01926,0.15850,0.92184,0.00668,0.05360,-0.00362,-0.0024,-0.0024,0.1685,-0.0513,0.0073,-0.0366,-0.0073,-0.1983,-0.3077,10.2222,0.9939,-0.1050,0.0024,-0.0024,1,1,1,1,1,1,1
2.1850,sweep,3,+up,0.08412,0.01926,0.15850,0.92184,0.00668,0.05360,-0.00362,-0.0024,-0.0024,0.1685,-0.0513,0.0073,-0.0366,-0.0073,-0.1983,-0.3077,10.2222,0.9939,-0.1050,0.0024,-0.0024,1,1,1,1,1,1,1
2.2250,sweep,3,+up,0.08412,0.01926,0.18215,0.92107,0.00668,0.05398,-0.00324,-0.0073,-0.0024,0.1978,0.0220,0.0073,-0.0073,-0.0073,-0.2120,-0.3077,10.4137,1.0232,-0.1050,0.0024,-0.0024,1,1,1,1,1,1,1
2.2652,sweep,3,+up,0.08412,0.01926,0.18215,0.92107,0.00668,0.05398,-0.00324,-0.0073,-0.0024,0.1978,0.0220,0.0073,-0.0073,-0.0073,-0.2120,-0.3077,10.4137,1.0232,-0.1050,0.0024,-0.0024,1,1,1,1,1,1,1
2.3051,sweep,3,+up,0.08412,0.01926,0.19856,0.92145,0.00668,0.05360,-0.00324,-0.0024,-0.0024,0.1978,0.0073,-0.0073,-0.0220,-0.0073,-0.2256,-0.3077,9.9897,0.9548,-0.1099,-0.0024,-0.0024,1,1,1,1,1,1,1
2.3449,sweep,3,+up,0.08412,0.01926,0.19856,0.92145,0.00668,0.05360,-0.00324,-0.0024,-0.0024,0.1978,0.0073,-0.0073,-0.0220,-0.0073,-0.2256,-0.3077,9.9897,0.9548,-0.1099,-0.0024,-0.0024,1,1,1,1,1,1,1
2.3852,sweep,3,+up,0.08412,0.01926,0.19856,0.92145,0.00668,0.05360,-0.00324,-0.0024,-0.0024,0.1978,0.0073,-0.0073,-0.0220,-0.0073,-0.2256,-0.3077,9.9897,0.9548,-0.1099,-0.0024,-0.0024,1,1,1,1,1,1,1
2.4251,sweep,3,+up,0.08412,0.01926,0.22259,0.92107,0.00668,0.05360,-0.00362,-0.0024,-0.0024,0.2125,-0.0073,-0.0073,-0.0073,-0.0220,-0.2393,-0.3350,9.6889,0.9304,-0.1099,0.0024,0.0024,1,1,1,1,1,1,1
2.4651,sweep,3,+up,0.08412,0.01926,0.22259,0.92107,0.00668,0.05360,-0.00362,-0.0024,-0.0024,0.2125,-0.0073,-0.0073,-0.0073,-0.0220,-0.2393,-0.3350,9.6889,0.9304,-0.1099,0.0024,0.0024,1,1,1,1,1,1,1
2.5051,sweep,3,+up,0.08412,0.01926,0.23899,0.92145,0.00668,0.05398,-0.00324,-0.0073,-0.0024,0.2027,0.0073,-0.0073,-0.0073,-0.0073,-0.2393,-0.3487,9.5521,0.8816,-0.1099,-0.0073,0.0024,1,1,1,1,1,1,1
2.5450,sweep,3,+up,0.08412,0.01926,0.23899,0.92145,0.00668,0.05398,-0.00324,-0.0073,-0.0024,0.2027,0.0073,-0.0073,-0.0073,-0.0073,-0.2393,-0.3487,9.5521,0.8816,-0.1099,-0.0073,0.0024,1,1,1,1,1,1,1
2.5851,sweep,3,+up,0.08412,0.01926,0.23899,0.92145,0.00668,0.05398,-0.00324,-0.0073,-0.0024,0.2027,0.0073,-0.0073,-0.0073,-0.0073,-0.2393,-0.3487,9.5521,0.8816,-0.1099,-0.0073,0.0024,1,1,1,1,1,1,1
2.6251,sweep,3,+up,0.08412,0.01926,0.26265,0.92107,0.00668,0.05360,-0.00324,-0.0073,-0.0024,0.1832,-0.0073,-0.0073,-0.0073,-0.0073,-0.2393,-0.3624,9.7299,0.8376,-0.1050,-0.0024,0.0024,1,1,1,1,1,1,1
2.6649,sweep,3,+up,0.08412,0.01926,0.26265,0.92107,0.00668,0.05360,-0.00324,-0.0073,-0.0024,0.1832,-0.0073,-0.0073,-0.0073,-0.0073,-0.2393,-0.3624,9.7299,0.8376,-0.1050,-0.0024,0.0024,1,1,1,1,1,1,1
2.7049,sweep,3,+up,0.08412,0.01926,0.27867,0.92107,0.00668,0.05360,-0.00324,-0.0024,-0.0024,0.1929,-0.0073,-0.0073,0.0073,-0.0073,-0.2530,-0.3761,9.6615,0.8034,-0.1001,0.0024,0.0024,1,1,1,1,1,1,1
2.7450,sweep,3,+up,0.08412,0.01926,0.27867,0.92107,0.00668,0.05360,-0.00324,-0.0024,-0.0024,0.1929,-0.0073,-0.0073,0.0073,-0.0073,-0.2530,-0.3761,9.6615,0.8034,-0.1001,0.0024,0.0024,1,1,1,1,1,1,1
2.7851,sweep,3,+up,0.08412,0.01926,0.27867,0.92107,0.00668,0.05360,-0.00324,-0.0024,-0.0024,0.1929,-0.0073,-0.0073,0.0073,-0.0073,-0.2530,-0.3761,9.6615,0.8034,-0.1001,0.0024,0.0024,1,1,1,1,1,1,1
2.8249,sweep,3,+up,0.08412,0.01926,0.30308,0.92107,0.00668,0.05360,-0.00362,0.0024,-0.0024,0.2027,-0.0073,-0.0220,-0.0073,-0.0220,-0.2803,-0.3897,9.3060,0.7546,-0.1050,-0.0073,0.0024,1,1,1,1,1,1,1
2.8651,sweep,3,+up,0.08412,0.01926,0.30308,0.92107,0.00668,0.05360,-0.00362,0.0024,-0.0024,0.2027,-0.0073,-0.0220,-0.0073,-0.0220,-0.2803,-0.3897,9.3060,0.7546,-0.1050,-0.0073,0.0024,1,1,1,1,1,1,1
2.9050,sweep,3,+up,0.08412,0.01926,0.31910,0.92107,0.00629,0.05360,-0.00324,-0.0073,-0.0024,0.1880,-0.0073,-0.0220,-0.0073,-0.0073,-0.2803,-0.3897,9.3060,0.7106,-0.1001,-0.0024,0.0024,1,1,1,1,1,1,1
2.9451,sweep,3,+up,0.08412,0.01926,0.31910,0.92107,0.00629,0.05360,-0.00324,-0.0073,-0.0024,0.1880,-0.0073,-0.0220,-0.0073,-0.0073,-0.2803,-0.3897,9.3060,0.7106,-0.1001,-0.0024,0.0024,1,1,1,1,1,1,1
2.9851,sweep,3,+up,0.08412,0.01926,0.31910,0.92107,0.00629,0.05360,-0.00324,-0.0073,-0.0024,0.1880,-0.0073,-0.0220,-0.0073,-0.0073,-0.2803,-0.3897,9.3060,0.7106,-0.1001,-0.0024,0.0024,1,1,1,1,1,1,1
3.0253,sweep,3,+up,0.08412,0.01926,0.34314,0.92145,0.00591,0.05360,-0.00324,-0.0024,-0.0024,0.1880,-0.0073,-0.0073,0.0220,-0.0073,-0.3077,-0.3761,8.9504,0.6374,-0.0708,0.0024,0.0024,1,1,1,1,1,1,1
3.0651,sweep,3,+up,0.08412,0.01926,0.34314,0.92145,0.00591,0.05360,-0.00324,-0.0024,-0.0024,0.1880,-0.0073,-0.0073,0.0220,-0.0073,-0.3077,-0.3761,8.9504,0.6374,-0.0708,0.0024,0.0024,1,1,1,1,1,1,1
3.1050,sweep,3,+up,0.08412,0.01926,0.35954,0.92145,0.00591,0.05360,-0.00324,-0.0073,-0.0073,0.1978,-0.0073,-0.0073,-0.0073,-0.0073,-0.3214,-0.4034,8.7590,0.6129,-0.0659,0.0073,-0.0024,1,1,1,1,1,1,1
3.1451,sweep,3,+up,0.08412,0.01926,0.35954,0.92145,0.00591,0.05360,-0.00324,-0.0073,-0.0073,0.1978,-0.0073,-0.0073,-0.0073,-0.0073,-0.3214,-0.4034,8.7590,0.6129,-0.0659,0.0073,-0.0024,1,1,1,1,1,1,1
3.1851,sweep,3,+up,0.08412,0.01926,0.35954,0.92145,0.00591,0.05360,-0.00324,-0.0073,-0.0073,0.1978,-0.0073,-0.0073,-0.0073,-0.0073,-0.3214,-0.4034,8.7590,0.6129,-0.0659,0.0073,-0.0024,1,1,1,1,1,1,1
3.2251,sweep,3,+up,0.08412,0.01926,0.38396,0.92184,0.00515,0.05283,-0.00324,-0.0024,-0.0073,0.2027,0.0073,-0.0073,0.0073,0.0073,-0.3214,-0.4034,8.1983,0.4811,-0.0317,0.0415,-0.0024,1,1,1,1,1,1,1
3.2653,sweep,3,+up,0.08412,0.01926,0.38396,0.92184,0.00515,0.05283,-0.00324,-0.0024,-0.0073,0.2027,0.0073,-0.0073,0.0073,0.0073,-0.3214,-0.4034,8.1983,0.4811,-0.0317,0.0415,-0.0024,1,1,1,1,1,1,1
3.3051,sweep,3,+up,0.08412,0.01888,0.39998,0.92184,0.00515,0.05283,-0.00362,-0.0024,-0.0024,0.2027,-0.0220,0.0073,-0.0073,-0.0220,-0.3487,-0.3897,8.1983,0.4322,-0.0171,0.0464,-0.0024,1,1,1,1,1,1,1
3.3450,sweep,3,+up,0.08412,0.01888,0.39998,0.92184,0.00515,0.05283,-0.00362,-0.0024,-0.0024,0.2027,-0.0220,0.0073,-0.0073,-0.0220,-0.3487,-0.3897,8.1983,0.4322,-0.0171,0.0464,-0.0024,1,1,1,1,1,1,1
3.3851,sweep,3,+up,0.08412,0.01888,0.39998,0.92184,0.00515,0.05283,-0.00362,-0.0024,-0.0024,0.2027,-0.0220,0.0073,-0.0073,-0.0220,-0.3487,-0.3897,8.1983,0.4322,-0.0171,0.0464,-0.0024,1,1,1,1,1,1,1
3.4252,sweep,3,+up,0.08412,0.01888,0.42363,0.92145,0.00591,0.05360,-0.00324,-0.0024,-0.0073,0.2076,-0.0220,-0.0220,-0.0073,-0.0073,-0.3624,-0.3761,8.2803,0.3834,-0.0073,0.0415,-0.0073,1,1,1,1,1,1,1
3.4651,sweep,3,+up,0.08412,0.01888,0.42363,0.92145,0.00591,0.05360,-0.00324,-0.0024,-0.0073,0.2076,-0.0220,-0.0220,-0.0073,-0.0073,-0.3624,-0.3761,8.2803,0.3834,-0.0073,0.0415,-0.0073,1,1,1,1,1,1,1
3.5051,sweep,3,+up,0.08412,0.01888,0.44766,0.92107,0.00591,0.05398,-0.00362,-0.0024,-0.0024,0.1978,-0.0220,-0.0073,-0.0073,0.0073,-0.4034,-0.3624,8.3214,0.3443,-0.0024,0.0366,-0.0024,1,1,1,1,1,1,1
3.5453,sweep,3,+up,0.08412,0.01888,0.44766,0.92107,0.00591,0.05398,-0.00362,-0.0024,-0.0024,0.1978,-0.0220,-0.0073,-0.0073,0.0073,-0.4034,-0.3624,8.3214,0.3443,-0.0024,0.0366,-0.0024,1,1,1,1,1,1,1
3.5861,sweep,3,+up,0.08412,0.01888,0.44766,0.92107,0.00591,0.05398,-0.00362,-0.0024,-0.0024,0.1978,-0.0220,-0.0073,-0.0073,0.0073,-0.4034,-0.3624,8.3214,0.3443,-0.0024,0.0366,-0.0024,1,1,1,1,1,1,1
3.6252,sweep,3,+up,0.08412,0.01888,0.46445,0.92107,0.00591,0.05360,-0.00324,0.0024,-0.0024,0.1978,0.0073,-0.0073,-0.0073,-0.0073,-0.4171,-0.3487,7.8701,0.3150,0.0024,0.0464,-0.0073,1,1,1,1,1,1,1
3.6653,sweep,3,+up,0.08412,0.01888,0.46445,0.92107,0.00591,0.05360,-0.00324,0.0024,-0.0024,0.1978,0.0073,-0.0073,-0.0073,-0.0073,-0.4171,-0.3487,7.8701,0.3150,0.0024,0.0464,-0.0073,1,1,1,1,1,1,1
3.7052,sweep,3,+up,0.08412,0.01888,0.48810,0.92145,0.00591,0.05360,-0.00362,0.0024,-0.0024,0.1978,-0.0220,-0.0073,-0.0073,0.0073,-0.4171,-0.3487,7.5966,0.2222,0.0122,0.0464,-0.0073,1,1,1,1,1,1,1
3.7451,sweep,3,+up,0.08412,0.01888,0.48810,0.92145,0.00591,0.05360,-0.00362,-0.0024,-0.0024,0.1978,-0.0220,-0.0073,-0.0073,0.0073,-0.4171,-0.2256,7.5966,0.2222,0.0122,0.0464,-0.0073,1,1,1,1,1,1,1
3.7851,sweep,3,+up,0.08412,0.01888,0.48810,0.92145,0.00591,0.05360,-0.00362,-0.0024,-0.0024,0.1978,-0.0220,-0.0073,-0.0073,0.0073,-0.4171,-0.2256,7.5966,0.2222,0.0122,0.0464,-0.0073,1,1,1,1,1,1,1
3.8252,sweep,3,+up,0.08412,0.01888,0.50412,0.92031,0.00668,0.05398,-0.00324,-0.0024,0.0024,0.2027,-0.0220,-0.0073,-0.0366,-0.0073,-0.4308,-0.2120,8.2256,0.2662,-0.0024,0.0366,-0.0073,1,1,1,1,1,1,1
3.8652,sweep,3,+up,0.08412,0.01888,0.50412,0.92031,0.00668,0.05398,-0.00324,-0.0024,0.0024,0.2027,-0.0220,-0.0073,-0.0366,-0.0073,-0.4308,-0.2120,8.2256,0.2662,-0.0024,0.0366,-0.0073,1,1,1,1,1,1,1
3.9054,sweep,3,+up,0.08412,0.01888,0.50412,0.92031,0.00668,0.05398,-0.00324,-0.0024,0.0024,0.2027,-0.0220,-0.0220,-0.0220,-0.0073,-0.4308,-0.2120,8.2256,0.2662,-0.0171,0.0269,-0.0073,1,1,1,1,1,1,1
3.9453,sweep,3,+up,0.08412,0.01888,0.52815,0.92069,0.00668,0.05398,-0.00324,-0.0024,-0.0024,0.2076,0.0073,-0.0220,-0.0220,-0.0073,-0.4581,-0.1846,7.6103,0.2271,-0.0171,0.0269,-0.0073,1,1,1,1,1,1,1
3.9852,sweep,3,+up,0.08412,0.01888,0.52815,0.92069,0.00668,0.05398,-0.00324,-0.0024,-0.0024,0.2076,0.0073,-0.0220,-0.0220,-0.0073,-0.4581,-0.1846,7.6103,0.2271,-0.0171,0.0269,-0.0073,1,1,1,1,1,1,1
4.0253,sweep,3,+up,0.08412,0.01888,0.54418,0.92069,0.00668,0.05398,-0.00324,-0.0073,-0.0024,0.1929,-0.0073,-0.0073,0.0073,0.0073,-0.4581,-0.1846,7.6513,0.2125,-0.0220,0.0269,-0.0073,1,1,1,1,1,1,1
4.0651,sweep,3,+up,0.08412,0.01888,0.54418,0.92069,0.00668,0.05398,-0.00324,-0.0073,-0.0024,0.1929,-0.0073,-0.0073,0.0073,0.0073,-0.4581,-0.1846,7.6513,0.2125,-0.0220,0.0269,-0.0073,1,1,1,1,1,1,1
4.1051,sweep,3,+up,0.08412,0.01888,0.54418,0.92069,0.00668,0.05398,-0.00324,-0.0073,-0.0024,0.1929,-0.0073,-0.0073,0.0073,0.0073,-0.4581,-0.1846,7.6513,0.2125,-0.0220,0.0269,-0.0073,1,1,1,1,1,1,1
4.1451,sweep,3,+up,0.08412,0.01888,0.56859,0.92107,0.00668,0.05398,-0.00362,-0.0073,-0.0024,0.1978,-0.0073,-0.0073,-0.0073,-0.0073,-0.4855,-0.1436,7.2684,0.1636,-0.0269,0.0269,-0.0073,1,1,1,1,1,1,1
4.1851,sweep,3,+up,0.08412,0.01888,0.56859,0.92107,0.00668,0.05398,-0.00362,-0.0073,-0.0024,0.1978,-0.0073,-0.0073,-0.0073,-0.0073,-0.4855,-0.1436,7.2684,0.1636,-0.0269,0.0269,-0.0073,1,1,1,1,1,1,1
4.2248,sweep,3,+up,0.08412,0.01888,0.58461,0.92107,0.00668,0.05398,-0.00324,-0.0024,0.0024,0.2076,-0.0073,-0.0220,-0.0073,-0.0073,-0.4855,-0.1299,7.2137,0.1343,-0.0317,0.0269,-0.0073,1,1,1,1,1,1,1
4.2651,sweep,3,+up,0.08412,0.01888,0.58461,0.92107,0.00668,0.05398,-0.00324,-0.0024,0.0024,0.2076,-0.0073,-0.0220,-0.0073,-0.0073,-0.4855,-0.1299,7.2137,0.1343,-0.0317,0.0269,-0.0073,1,1,1,1,1,1,1
4.3051,sweep,3,+up,0.08412,0.01888,0.58461,0.92107,0.00668,0.05398,-0.00324,-0.0024,0.0024,0.2076,-0.0073,-0.0220,-0.0073,-0.0073,-0.4855,-0.1299,7.2137,0.1343,-0.0317,0.0269,-0.0073,1,1,1,1,1,1,1
4.3449,sweep,3,+up,0.08412,0.01888,0.60903,0.92107,0.00668,0.05398,-0.00324,-0.0024,-0.0024,0.2125,-0.0073,-0.0073,-0.0073,-0.0073,-0.4991,-0.0752,6.8171,0.1001,-0.0366,0.0220,-0.0073,1,1,1,1,1,1,1
4.3854,sweep,3,+up,0.08412,0.01888,0.60903,0.92107,0.00668,0.05398,-0.00324,-0.0024,-0.0024,0.2125,-0.0073,-0.0073,-0.0073,-0.0073,-0.4991,-0.0752,6.8171,0.1001,-0.0366,0.0220,-0.0073,1,1,1,1,1,1,1
4.4257,sweep,3,+up,0.08412,0.01850,0.62505,0.92145,0.00668,0.05398,-0.00362,-0.0073,-0.0024,0.1978,-0.0220,-0.0073,-0.0073,-0.0220,-0.4991,-0.0479,6.8581,0.0708,-0.0415,0.0220,-0.0073,1,1,1,1,1,1,1
4.4655,sweep,3,+up,0.08412,0.01850,0.62505,0.92145,0.00668,0.05398,-0.00362,-0.0073,-0.0024,0.1978,-0.0220,-0.0073,-0.0073,-0.0220,-0.4991,-0.0479,6.8581,0.0708,-0.0415,0.0220,-0.0073,1,1,1,1,1,1,1
4.5057,sweep,3,+up,0.08412,0.01850,0.62505,0.92145,0.00668,0.05398,-0.00362,-0.0073,-0.0024,0.1978,-0.0220,-0.0073,-0.0073,-0.0220,-0.4991,-0.0479,6.8581,0.0708,-0.0415,0.0220,-0.0073,1,1,1,1,1,1,1
4.5457,sweep,3,+up,0.08412,0.01850,0.64908,0.92184,0.00668,0.05398,-0.00362,-0.0024,-0.0024,0.1978,0.0220,-0.0073,-0.0220,-0.0073,-0.5128,0.0068,6.8991,0.0317,-0.0562,0.0171,-0.0073,1,1,1,1,1,1,1
4.5853,sweep,3,+up,0.08412,0.01850,0.64908,0.92184,0.00668,0.05398,-0.00362,-0.0024,-0.0024,0.1978,0.0220,-0.0073,-0.0220,-0.0073,-0.5128,0.0068,6.8991,0.0317,-0.0562,0.0171,-0.0073,1,1,1,1,1,1,1
4.6251,sweep,3,+up,0.08412,0.01850,0.66510,0.92184,0.00706,0.05398,-0.00362,-0.0024,-0.0024,0.2027,-0.0073,-0.0220,-0.0073,-0.0073,-0.5402,0.0342,6.6256,0.0171,-0.0659,0.0122,-0.0073,1,1,1,1,1,1,1
4.6657,sweep,3,+up,0.08412,0.01850,0.66510,0.92184,0.00706,0.05398,-0.00362,-0.0024,-0.0024,0.2027,-0.0073,-0.0220,-0.0073,-0.0073,-0.5402,0.0342,6.6256,0.0171,-0.0659,0.0122,-0.0073,1,1,1,1,1,1,1
4.7055,sweep,3,+up,0.08412,0.01850,0.66510,0.92184,0.00706,0.05398,-0.00362,-0.0024,-0.0024,0.2027,-0.0073,-0.0220,-0.0073,-0.0073,-0.5402,0.0342,6.6256,0.0171,-0.0659,0.0122,-0.0073,1,1,1,1,1,1,1
4.7456,sweep,3,+up,0.08412,0.01850,0.68914,0.92184,0.00744,0.05436,-0.00362,-0.0024,0.0024,0.1978,0.0073,0.0073,-0.0073,-0.0220,-0.5675,0.0615,6.5846,-0.0220,-0.0952,-0.0122,-0.0122,1,1,1,1,1,1,1
4.7855,sweep,3,+up,0.08412,0.01850,0.68914,0.92184,0.00744,0.05436,-0.00362,-0.0024,0.0024,0.1978,0.0073,0.0073,-0.0073,-0.0220,-0.5675,0.0615,6.5846,-0.0220,-0.0952,-0.0122,-0.0122,1,1,1,1,1,1,1
4.8255,sweep,3,+up,0.08412,0.01850,0.70516,0.92184,0.00744,0.05436,-0.00362,-0.0024,-0.0024,0.1978,-0.0073,-0.0073,-0.0073,-0.0220,-0.5675,0.0752,6.4205,-0.0415,-0.1197,-0.0171,-0.0122,1,1,1,1,1,1,1
4.8655,sweep,3,+up,0.08412,0.01850,0.70516,0.92184,0.00744,0.05436,-0.00362,-0.0024,-0.0024,0.1978,-0.0073,-0.0073,-0.0073,-0.0220,-0.5675,0.0752,6.4205,-0.0415,-0.1197,-0.0171,-0.0122,1,1,1,1,1,1,1
4.9056,sweep,3,+up,0.08412,0.01850,0.70516,0.92184,0.00744,0.05436,-0.00362,-0.0024,-0.0024,0.1978,-0.0073,-0.0073,-0.0073,-0.0220,-0.5675,0.0752,6.4205,-0.0415,-0.1197,-0.0171,-0.0122,1,1,1,1,1,1,1
4.9456,sweep,3,+up,0.08412,0.01850,0.72919,0.92184,0.00744,0.05474,-0.00324,-0.0024,-0.0024,0.1978,-0.0073,-0.0220,-0.0073,0.0073,-0.5675,0.1162,6.5299,-0.0952,-0.1490,-0.0366,-0.0073,1,1,1,1,1,1,1
4.9853,sweep,3,+up,0.08412,0.01850,0.72919,0.92184,0.00744,0.05474,-0.00324,-0.0024,-0.0024,0.1978,-0.0073,-0.0220,-0.0073,0.0073,-0.5675,0.1162,6.5299,-0.0952,-0.1490,-0.0366,-0.0073,1,1,1,1,1,1,1
5.0255,sweep,3,+up,0.08412,0.01850,0.74559,0.92489,0.00744,0.05550,-0.00362,-0.0024,-0.0024,0.2027,-0.0073,-0.0073,-0.0366,-0.0220,-0.6085,0.1846,6.1060,-0.3834,-0.1734,-0.0952,-0.0024,1,1,1,1,1,1,1
5.0652,sweep,3,+up,0.08412,0.01850,0.74559,0.92489,0.00744,0.05550,-0.00362,-0.0024,-0.0024,0.2027,-0.0073,-0.0073,-0.0366,-0.0220,-0.6085,0.1846,6.1060,-0.3834,-0.1734,-0.0952,-0.0024,1,1,1,1,1,1,1
5.1052,sweep,3,+up,0.08412,0.01850,0.74559,0.92489,0.00744,0.05550,-0.00362,-0.0024,-0.0024,0.2027,-0.0073,-0.0073,-0.0366,-0.0220,-0.6085,0.1846,6.1060,-0.3834,-0.1734,-0.0952,-0.0024,1,1,1,1,1,1,1
5.1453,sweep,3,+up,0.08412,0.01850,0.76925,0.92222,0.00706,0.05512,-0.00324,-0.0024,-0.0024,0.1880,-0.0806,-0.0073,-0.0220,-0.0073,-0.6222,0.2530,6.2838,-0.3785,-0.2076,-0.1490,-0.0073,1,1,1,1,1,1,1
5.1853,sweep,3,+up,0.08412,0.01850,0.76925,0.92222,0.00706,0.05512,-0.00324,-0.0024,-0.0024,0.1880,-0.0806,-0.0073,-0.0220,-0.0073,-0.6222,0.2530,6.2838,-0.3785,-0.2076,-0.1490,-0.0073,1,1,1,1,1,1,1
5.2252,sweep,3,+up,0.08412,0.01850,0.78565,0.92145,0.00744,0.05512,-0.00324,-0.0024,-0.0024,0.2076,0.0073,-0.0220,-0.0073,-0.0073,-0.6632,0.3077,6.0923,-0.3687,-0.2369,-0.1587,-0.0073,1,1,1,1,1,1,1
5.2651,sweep,3,+up,0.08412,0.01850,0.78565,0.92145,0.00744,0.05512,-0.00324,-0.0024,-0.0024,0.2076,0.0073,-0.0220,-0.0073,-0.0073,-0.6632,0.3077,6.0923,-0.3687,-0.2369,-0.1587,-0.0073,1,1,1,1,1,1,1
5.3051,sweep,3,+up,0.08412,0.01850,0.78565,0.92145,0.00744,0.05512,-0.00324,-0.0024,-0.0024,0.2076,0.0073,-0.0220,-0.0073,-0.0073,-0.6632,0.3077,6.0923,-0.3687,-0.2369,-0.1587,-0.0073,1,1,1,1,1,1,1
5.3451,sweep,3,+up,0.08412,0.01850,0.80968,0.92145,0.00706,0.05436,-0.00324,0.0024,-0.0024,0.2027,-0.0220,-0.0073,-0.0220,0.0073,-0.6769,0.4171,5.6547,-0.4567,-0.2613,-0.1832,-0.0024,1,1,1,1,1,1,1
5.3853,sweep,3,+up,0.08412,0.01850,0.80968,0.92145,0.00706,0.05436,-0.00324,0.0024,-0.0024,0.2027,-0.0220,-0.0073,-0.0220,0.0073,-0.6769,0.4171,5.6547,-0.4567,-0.2613,-0.1832,-0.0024,1,1,1,1,1,1,1
5.4250,sweep,3,+up,0.08412,0.01850,0.82570,0.92107,0.00706,0.05436,-0.00324,-0.0024,-0.0024,0.1880,-0.0220,-0.0073,-0.0220,-0.0073,-0.6632,0.4718,5.8325,-0.4664,-0.2857,-0.1978,-0.0073,1,1,1,1,1,1,1
5.4648,sweep,3,+up,0.08412,0.01850,0.82570,0.92107,0.00706,0.05436,-0.00324,-0.0024,-0.0024,0.1880,-0.0220,-0.0073,-0.0220,-0.0073,-0.6632,0.4718,5.8325,-0.4664,-0.2857,-0.1978,-0.0073,1,1,1,1,1,1,1
5.5056,sweep,3,+up,0.08412,0.01850,0.82570,0.92107,0.00706,0.05436,-0.00324,-0.0024,-0.0024,0.1880,-0.0220,-0.0073,-0.0220,-0.0073,-0.6632,0.4718,5.8325,-0.4664,-0.2857,-0.1978,-0.0073,1,1,1,1,1,1,1
5.5456,sweep,3,+up,0.08412,0.01850,0.85012,0.92107,0.00706,0.05436,-0.00362,-0.0024,-0.0024,0.1929,-0.0220,-0.0073,-0.0073,-0.0073,-0.6769,0.5949,5.5179,-0.5250,-0.3297,-0.2222,-0.0073,1,1,1,1,1,1,1
5.5856,sweep,3,+up,0.08412,0.01850,0.85012,0.92107,0.00706,0.05436,-0.00362,-0.0024,-0.0024,0.1929,-0.0220,-0.0073,-0.0073,-0.0073,-0.6769,0.5949,5.5179,-0.5250,-0.3297,-0.2222,-0.0073,1,1,1,1,1,1,1
5.6252,sweep,3,+up,0.08412,0.01850,0.86614,0.92107,0.00706,0.05436,-0.00362,-0.0073,-0.0024,0.1978,0.0220,-0.0073,0.0073,-0.0220,-0.7179,0.6769,5.5727,-0.5495,-0.3443,-0.2222,-0.0073,1,1,1,1,1,1,1
5.6657,sweep,3,+up,0.08412,0.01850,0.86614,0.92107,0.00706,0.05436,-0.00362,-0.0073,-0.0024,0.1978,0.0220,-0.0073,0.0073,-0.0220,-0.7179,0.6769,5.5727,-0.5495,-0.3443,-0.2222,-0.0073,1,1,1,1,1,1,1
5.7053,sweep,3,+up,0.08412,0.01850,0.86614,0.92107,0.00706,0.05436,-0.00362,-0.0073,-0.0024,0.1978,0.0220,-0.0073,0.0073,-0.0220,-0.7179,0.6769,5.5727,-0.5495,-0.3443,-0.2222,-0.0073,1,1,1,1,1,1,1
5.7457,sweep,3,+up,0.08412,0.01850,0.89017,0.92107,0.00706,0.05398,-0.00324,-0.0024,-0.0024,0.2027,-0.0073,-0.0073,-0.0073,-0.0073,-0.7316,0.7590,5.0667,-0.6178,-0.3687,-0.2222,-0.0073,1,1,1,1,1,1,1
5.7852,sweep,3,+up,0.08412,0.01850,0.89017,0.92107,0.00706,0.05398,-0.00324,-0.0024,-0.0024,0.2027,-0.0073,-0.0073,-0.0073,-0.0073,-0.7316,0.7590,5.0667,-0.6178,-0.3687,-0.2222,-0.0073,1,1,1,1,1,1,1
5.8256,sweep,3,+up,0.08412,0.01850,0.90619,0.92107,0.00706,0.05398,-0.00324,-0.0024,-0.0024,0.1978,-0.0220,-0.0073,-0.0073,-0.0073,-0.7453,0.8137,5.0940,-0.6422,-0.3834,-0.2320,-0.0073,1,1,1,1,1,1,1
5.8651,sweep,3,+up,0.08412,0.01850,0.90619,0.92107,0.00706,0.05398,-0.00324,-0.0024,-0.0024,0.1978,-0.0220,-0.0073,-0.0073,-0.0073,-0.7453,0.8137,5.0940,-0.6422,-0.3834,-0.2320,-0.0073,1,1,1,1,1,1,1
5.9052,sweep,3,+up,0.08412,0.01850,0.90619,0.92107,0.00706,0.05398,-0.00324,-0.0024,-0.0024,0.1978,-0.0220,-0.0073,-0.0073,-0.0073,-0.7453,0.8137,5.0940,-0.6422,-0.3834,-0.2320,-0.0073,1,1,1,1,1,1,1
5.9452,sweep,3,+up,0.08412,0.01850,0.93061,0.92107,0.00706,0.05398,-0.00324,-0.0024,-0.0024,0.2027,-0.0073,-0.0073,-0.0073,-0.0073,-0.7590,0.9504,4.7385,-0.7106,-0.4029,-0.2320,-0.0024,1,1,1,1,1,1,1
5.9856,sweep,3,+up,0.08412,0.01850,0.93061,0.92107,0.00706,0.05398,-0.00324,-0.0024,-0.0024,0.2027,-0.0073,-0.0073,-0.0073,-0.0073,-0.7590,0.9504,4.7385,-0.7106,-0.4029,-0.2320,-0.0024,1,1,1,1,1,1,1
6.0253,sweep,3,+up,0.08412,0.01850,0.94663,0.92145,0.00668,0.05360,-0.00324,0.0024,-0.0024,0.2027,-0.0220,-0.0073,-0.0220,-0.0073,-0.7590,0.9641,4.5607,-0.7546,-0.4078,-0.2271,-0.0073,1,1,1,1,1,1,1
6.0652,sweep,3,+up,0.08412,0.01850,0.94663,0.92145,0.00668,0.05360,-0.00324,0.0024,-0.0024,0.2027,-0.0220,-0.0073,-0.0220,-0.0073,-0.7590,0.9641,4.5607,-0.7546,-0.4078,-0.2271,-0.0073,1,1,1,1,1,1,1
6.1055,sweep,3,+up,0.08412,0.01850,0.94663,0.92145,0.00668,0.05360,-0.00324,0.0024,-0.0024,0.2027,-0.0220,-0.0073,-0.0220,-0.0073,-0.7590,0.9641,4.5607,-0.7546,-0.4078,-0.2271,-0.0073,1,1,1,1,1,1,1
6.1455,sweep,3,+up,0.08412,0.01850,0.97066,0.92107,0.00668,0.05360,-0.00324,-0.0024,-0.0024,0.2027,-0.0073,-0.0073,-0.0073,-0.0073,-0.7863,1.0872,4.4786,-0.8083,-0.4176,-0.2173,-0.0073,1,1,1,1,1,1,1
6.1852,sweep,3,+up,0.08412,0.01850,0.97066,0.92107,0.00668,0.05360,-0.00324,-0.0024,-0.0024,0.2027,-0.0073,-0.0073,-0.0073,-0.0073,-0.7863,1.0872,4.4786,-0.8083,-0.4176,-0.2173,-0.0073,1,1,1,1,1,1,1
6.2251,sweep,3,+up,0.08412,0.01850,0.98707,0.92145,0.00668,0.05360,-0.00362,-0.0024,0.0024,0.1978,-0.0220,-0.0073,-0.0073,-0.0073,-0.8137,1.1419,3.9863,-0.8718,-0.4225,-0.2125,-0.0073,1,1,1,1,1,1,1
6.2652,sweep,3,+up,0.08412,0.01850,0.98707,0.92145,0.00668,0.05360,-0.00362,-0.0024,0.0024,0.1978,-0.0220,-0.0073,-0.0073,-0.0073,-0.8137,1.1419,3.9863,-0.8718,-0.4225,-0.2125,-0.0073,1,1,1,1,1,1,1
6.3052,sweep,3,+up,0.08412,0.01850,0.98707,0.92145,0.00668,0.05360,-0.00362,-0.0024,0.0024,0.1978,-0.0220,-0.0073,-0.0073,-0.0073,-0.8137,1.1419,3.9863,-0.8718,-0.4225,-0.2125,-0.0073,1,1,1,1,1,1,1
6.3450,sweep,3,+up,0.08412,0.01850,1.01072,0.92107,0.00668,0.05360,-0.00362,-0.0024,-0.0024,0.1929,-0.0073,0.0073,-0.0073,-0.0073,-0.8000,1.2376,4.2188,-0.9011,-0.4176,-0.2125,-0.0073,1,1,1,1,1,1,1
6.3852,sweep,3,+up,0.08412,0.01850,1.01072,0.92107,0.00668,0.05360,-0.00362,-0.0024,-0.0024,0.1929,-0.0073,0.0073,-0.0073,-0.0073,-0.8000,1.2376,4.2188,-0.9011,-0.4176,-0.2125,-0.0073,1,1,1,1,1,1,1
6.4251,sweep,3,+up,0.08412,0.01850,1.02712,0.92107,0.00668,0.05360,-0.00324,-0.0024,-0.0024,0.1978,-0.0073,0.0073,-0.0073,-0.0073,-0.8547,1.3060,3.6171,-0.9499,-0.4225,-0.2076,-0.0073,1,1,1,1,1,1,1
6.4654,sweep,3,+up,0.08412,0.01850,1.02712,0.92107,0.00668,0.05360,-0.00324,-0.0024,-0.0024,0.1978,-0.0073,0.0073,-0.0073,-0.0073,-0.8547,1.3060,3.6171,-0.9499,-0.4225,-0.2076,-0.0073,1,1,1,1,1,1,1
6.5057,sweep,3,+up,0.08412,0.01850,1.02712,0.92107,0.00668,0.05360,-0.00324,-0.0024,-0.0024,0.1978,-0.0073,0.0073,-0.0073,-0.0073,-0.8547,1.3060,3.6171,-0.9499,-0.4225,-0.2076,-0.0073,1,1,1,1,1,1,1
6.5456,sweep,3,+up,0.08412,0.01850,1.05154,0.92107,0.00629,0.05360,-0.00324,-0.0024,-0.0024,0.2076,-0.0073,-0.0073,-0.0073,0.0073,-0.8410,1.4291,3.2615,-1.0037,-0.4225,-0.2027,-0.0073,1,1,1,1,1,1,1
6.5861,sweep,3,+up,0.08412,0.01850,1.05154,0.92107,0.00629,0.05360,-0.00324,-0.0024,-0.0024,0.2076,-0.0073,-0.0073,-0.0073,0.0073,-0.8410,1.4291,3.2615,-1.0037,-0.4225,-0.2027,-0.0073,1,1,1,1,1,1,1
6.6259,sweep,3,+up,0.08412,0.01850,1.06756,0.92107,0.00668,0.05360,-0.00324,-0.0024,-0.0073,0.1978,0.0073,-0.0073,-0.0220,-0.0220,-0.8274,1.4701,3.3299,-1.0281,-0.4225,-0.1929,-0.0122,1,1,1,1,1,1,1
6.6656,sweep,3,+up,0.08412,0.01850,1.06756,0.92107,0.00668,0.05360,-0.00324,-0.0024,-0.0073,0.1978,0.0073,-0.0073,-0.0220,-0.0220,-0.8274,1.4701,3.3299,-1.0281,-0.4225,-0.1929,-0.0122,1,1,1,1,1,1,1
6.7053,sweep,3,+up,0.08412,0.01850,1.06756,0.92107,0.00668,0.05360,-0.00324,-0.0024,-0.0073,0.1978,0.0073,-0.0073,-0.0220,-0.0220,-0.8274,1.4701,3.3299,-1.0281,-0.4225,-0.1929,-0.0122,1,1,1,1,1,1,1
6.7457,sweep,3,+up,0.08412,0.01850,1.09159,0.92107,0.00629,0.05360,-0.00324,-0.0024,-0.0024,0.2076,-0.0073,-0.0220,0.0073,-0.0073,-0.8547,1.5521,2.9880,-1.0867,-0.4176,-0.1783,-0.0122,1,1,1,1,1,1,1
6.7857,sweep,3,+up,0.08412,0.01850,1.09159,0.92107,0.00629,0.05360,-0.00324,-0.0024,-0.0024,0.2076,-0.0073,-0.0220,0.0073,-0.0073,-0.8547,1.5521,2.9880,-1.0867,-0.4176,-0.1783,-0.0122,1,1,1,1,1,1,1
6.8261,sweep,3,+up,0.08412,0.01850,1.10800,0.92107,0.00668,0.05360,-0.00362,-0.0024,-0.0024,0.1929,-0.0220,-0.0073,0.0073,-0.0073,-0.8684,1.6205,2.7829,-1.1306,-0.4176,-0.1832,-0.0073,1,1,1,1,1,1,1
6.8656,sweep,3,+up,0.08412,0.01850,1.10800,0.92107,0.00668,0.05360,-0.00362,-0.0024,-0.0024,0.1929,-0.0220,-0.0073,0.0073,-0.0073,-0.8684,1.6205,2.7829,-1.1306,-0.4176,-0.1832,-0.0073,1,1,1,1,1,1,1
6.9053,sweep,3,+up,0.08412,0.01850,1.10800,0.92107,0.00668,0.05360,-0.00362,-0.0024,-0.0024,0.1929,-0.0220,-0.0073,0.0073,-0.0073,-0.8684,1.6205,2.7829,-1.1306,-0.4176,-0.1832,-0.0073,1,1,1,1,1,1,1
6.9451,sweep,3,+up,0.08412,0.01850,1.13241,0.92107,0.00591,0.05322,-0.00362,-0.0024,-0.0024,0.2125,-0.0073,-0.0366,-0.0366,-0.0220,-0.8821,1.6889,2.1949,-1.1502,-0.3590,-0.1343,-0.0024,1,1,1,1,1,1,1
6.9851,sweep,3,+up,0.08412,0.01850,1.13241,0.92107,0.00591,0.05322,-0.00362,-0.0024,-0.0024,0.2125,-0.0073,-0.0366,-0.0366,-0.0220,-0.8821,1.6889,2.1949,-1.1502,-0.3590,-0.1343,-0.0024,1,1,1,1,1,1,1
7.0253,sweep,3,+up,0.08412,0.01850,1.14881,0.92145,0.00515,0.05283,-0.00324,-0.0024,-0.0024,0.2027,-0.0073,-0.0073,-0.0220,-0.0073,-0.8821,1.7436,1.5795,-1.2234,-0.2662,-0.1050,-0.0024,1,1,1,1,1,1,1
7.0650,sweep,3,+up,0.08412,0.01850,1.14881,0.92145,0.00515,0.05283,-0.00324,-0.0024,-0.0024,0.2027,-0.0073,-0.0073,-0.0220,-0.0073,-0.8821,1.7436,1.5795,-1.2234,-0.2662,-0.1050,-0.0024,1,1,1,1,1,1,1
7.1051,sweep,3,+up,0.08412,0.01850,1.14881,0.92145,0.00515,0.05283,-0.00324,-0.0024,-0.0024,0.2027,-0.0073,-0.0073,-0.0220,-0.0073,-0.8821,1.7436,1.5795,-1.2234,-0.2662,-0.1050,-0.0024,1,1,1,1,1,1,1
7.1449,sweep,3,+up,0.08412,0.01850,1.17285,0.92145,0.00515,0.05283,-0.00362,-0.0024,-0.0073,0.1832,-0.0220,-0.0073,-0.0220,-0.0073,-0.8684,1.8393,1.4154,-1.2821,-0.2027,-0.0806,-0.0073,1,1,1,1,1,1,1
7.1852,sweep,3,+up,0.08412,0.01850,1.17285,0.92145,0.00515,0.05283,-0.00362,-0.0024,-0.0073,0.1832,-0.0220,-0.0073,-0.0220,-0.0073,-0.8684,1.8393,1.4154,-1.2821,-0.2027,-0.0806,-0.0073,1,1,1,1,1,1,1
7.2251,sweep,3,+up,0.08412,0.01850,1.18925,0.92145,0.00515,0.05283,-0.00362,0.0024,-0.0024,0.1978,0.0220,-0.0073,-0.0073,-0.0220,-0.8137,1.9077,1.1145,-1.3260,-0.1538,-0.0659,-0.0122,1,1,1,1,1,1,1
7.2653,sweep,3,+up,0.08412,0.01850,1.18925,0.92145,0.00515,0.05283,-0.00362,0.0024,-0.0024,0.1978,0.0220,-0.0073,-0.0073,-0.0220,-0.8137,1.9077,1.1145,-1.3260,-0.1538,-0.0659,-0.0122,1,1,1,1,1,1,1
7.3053,sweep,3,+up,0.08412,0.01850,1.18925,0.92145,0.00515,0.05283,-0.00362,0.0024,-0.0024,0.1978,0.0220,-0.0073,-0.0073,-0.0220,-0.8137,1.9077,1.1145,-1.3260,-0.1538,-0.0659,-0.0122,1,1,1,1,1,1,1
7.3450,sweep,3,+up,0.08412,0.01850,1.21328,0.92107,0.00553,0.05283,-0.00362,-0.0024,-0.0024,0.2027,0.0073,0.0220,-0.0073,-0.0220,-0.8000,1.9487,1.0872,-1.3797,-0.1441,-0.0513,-0.0122,1,1,1,1,1,1,1
7.3851,sweep,3,+up,0.08412,0.01850,1.21328,0.92107,0.00553,0.05283,-0.00362,-0.0024,-0.0024,0.2027,0.0073,0.0220,-0.0073,-0.0220,-0.8000,1.9487,1.0872,-1.3797,-0.1441,-0.0513,-0.0122,1,1,1,1,1,1,1
7.4252,sweep,3,+up,0.08412,0.01850,1.22931,0.92107,0.00629,0.05322,-0.00324,-0.0024,-0.0024,0.1929,-0.0073,-0.0073,-0.0220,-0.0073,-0.8274,2.0855,0.8684,-1.4139,-0.1587,-0.0464,-0.0122,1,1,1,1,1,1,1
7.4651,sweep,3,+up,0.08412,0.01850,1.22931,0.92107,0.00629,0.05322,-0.00324,-0.0024,-0.0024,0.1929,-0.0073,-0.0073,-0.0220,-0.0073,-0.8274,2.0855,0.8684,-1.4139,-0.1587,-0.0464,-0.0122,1,1,1,1,1,1,1
7.5055,sweep,3,+up,0.08412,0.01850,1.22931,0.92107,0.00629,0.05322,-0.00324,-0.0024,-0.0024,0.1929,-0.0073,-0.0073,-0.0220,-0.0073,-0.8274,2.0855,0.8684,-1.4139,-0.1587,-0.0464,-0.0122,1,1,1,1,1,1,1
7.5452,sweep,3,+up,0.08412,0.01850,1.25372,0.92107,0.00629,0.05322,-0.00324,-0.0024,-0.0024,0.2027,-0.0220,-0.0220,-0.0073,-0.0073,-0.8137,2.1812,0.6222,-1.4725,-0.1441,-0.0366,-0.0122,1,1,1,1,1,1,1
7.5850,sweep,3,+up,0.08412,0.01850,1.25372,0.92107,0.00629,0.05322,-0.00324,-0.0024,-0.0024,0.2027,-0.0220,-0.0220,-0.0073,-0.0073,-0.8137,2.1812,0.6222,-1.4725,-0.1441,-0.0366,-0.0122,1,1,1,1,1,1,1
7.6251,sweep,3,+up,0.08412,0.01850,1.26974,0.92107,0.00629,0.05322,-0.00324,-0.0024,-0.0024,0.2076,0.0073,0.0073,-0.0073,0.0073,-0.8137,2.2222,0.4718,-1.5018,-0.1490,-0.0269,-0.0073,1,1,1,1,1,1,1
7.6651,sweep,3,+up,0.08412,0.01850,1.26974,0.92107,0.00629,0.05322,-0.00324,-0.0024,-0.0024,0.2076,0.0073,0.0073,-0.0073,0.0073,-0.8137,2.2222,0.4718,-1.5018,-0.1490,-0.0269,-0.0073,1,1,1,1,1,1,1
7.7051,sweep,3,+up,0.08412,0.01850,1.26974,0.92107,0.00629,0.05322,-0.00324,-0.0024,-0.0024,0.2076,0.0073,0.0073,-0.0073,0.0073,-0.8137,2.2222,0.4718,-1.5018,-0.1490,-0.0269,-0.0073,1,1,1,1,1,1,1
7.7451,sweep,3,+up,0.08412,0.01850,1.29377,0.92107,0.00668,0.05322,-0.00362,0.0024,-0.0024,0.2125,-0.0073,-0.0073,-0.0073,-0.0073,-0.8137,2.3179,0.3761,-1.5458,-0.1587,-0.0220,-0.0073,1,1,1,1,1,1,1
7.7851,sweep,3,+up,0.08412,0.01850,1.29377,0.92107,0.00668,0.05322,-0.00362,0.0024,-0.0024,0.2125,-0.0073,-0.0073,-0.0073,-0.0073,-0.8137,2.3179,0.3761,-1.5458,-0.1587,-0.0220,-0.0073,1,1,1,1,1,1,1
7.8253,sweep,3,+up,0.08412,0.01850,1.30980,0.92107,0.00668,0.05360,-0.00362,-0.0024,-0.0024,0.1978,0.0073,-0.0220,-0.0220,-0.0073,-0.8274,2.3863,0.3487,-1.5702,-0.1636,-0.0220,-0.0024,1,1,1,1,1,1,1
7.8653,sweep,3,+up,0.08412,0.01850,1.30980,0.92107,0.00668,0.05360,-0.00362,-0.0024,-0.0024,0.1978,0.0073,-0.0220,-0.0220,-0.0073,-0.8274,2.3863,0.3487,-1.5702,-0.1636,-0.0220,-0.0024,1,1,1,1,1,1,1
7.9050,sweep,3,+up,0.08412,0.01850,1.30980,0.92107,0.00668,0.05360,-0.00362,-0.0024,-0.0024,0.1978,0.0073,-0.0220,-0.0220,-0.0073,-0.8274,2.3863,0.3487,-1.5702,-0.1636,-0.0220,-0.0024,1,1,1,1,1,1,1
7.9455,sweep,3,+up,0.08412,0.01850,1.33421,0.92069,0.00668,0.05360,-0.00324,-0.0024,-0.0024,0.2125,-0.0073,-0.0073,-0.0073,-0.0073,-0.8000,2.4274,0.1846,-1.5849,-0.1832,-0.0171,-0.0073,1,1,1,1,1,1,1
7.9852,sweep,3,+up,0.08412,0.01850,1.33421,0.92069,0.00668,0.05360,-0.00324,-0.0024,-0.0024,0.2125,-0.0073,-0.0073,-0.0073,-0.0073,-0.8000,2.4274,0.1846,-1.5849,-0.1832,-0.0171,-0.0073,1,1,1,1,1,1,1
8.0255,sweep,3,+up,0.08412,0.01850,1.35100,0.92069,0.00668,0.05360,-0.00324,-0.0024,-0.0024,0.2222,-0.0073,-0.0073,-0.0073,0.0073,-0.8684,2.4957,-0.3214,-1.6142,-0.1929,-0.0122,-0.0073,1,1,1,1,1,1,1
8.0650,sweep,3,+up,0.08412,0.01850,1.35100,0.92069,0.00668,0.05360,-0.00324,-0.0024,-0.0024,0.2222,-0.0073,-0.0073,-0.0073,0.0073,-0.8684,2.4957,-0.3214,-1.6142,-0.1929,-0.0122,-0.0073,1,1,1,1,1,1,1
8.1051,sweep,3,+up,0.08412,0.01850,1.35100,0.92069,0.00668,0.05360,-0.00324,-0.0024,-0.0024,0.2222,-0.0073,-0.0073,-0.0073,0.0073,-0.8684,2.4957,-0.3214,-1.6142,-0.1929,-0.0122,-0.0073,1,1,1,1,1,1,1
8.1451,sweep,3,+up,0.08412,0.01850,1.37579,0.92145,0.00706,0.05398,-0.00362,0.0024,-0.0024,0.2027,-0.0220,-0.0220,-0.0073,-0.0073,-0.9231,2.5778,-1.1966,-1.7314,-0.2222,-0.0171,-0.0073,1,1,1,1,1,1,1
8.1855,sweep,3,+up,0.08412,0.01850,1.37579,0.92145,0.00706,0.05398,-0.00362,0.0024,-0.0024,0.2027,-0.0220,-0.0220,-0.0073,-0.0073,-0.9231,2.5778,-1.1966,-1.7314,-0.2222,-0.0171,-0.0073,1,1,1,1,1,1,1
8.2251,sweep,3,+up,0.08412,0.01850,1.39143,0.92069,0.00706,0.05398,-0.00362,-0.0073,-0.0024,0.1929,-0.0220,0.0073,-0.0220,-0.0073,-0.9094,2.6188,-0.4991,-1.7118,-0.2320,-0.0220,-0.0073,1,1,1,1,1,1,1
8.2655,sweep,3,+up,0.08412,0.01850,1.39143,0.92069,0.00706,0.05398,-0.00362,-0.0073,-0.0024,0.1929,-0.0220,0.0073,-0.0220,-0.0073,-0.9094,2.6188,-0.4991,-1.7118,-0.2320,-0.0220,-0.0073,1,1,1,1,1,1,1
8.3052,sweep,3,+up,0.08412,0.01850,1.39143,0.92069,0.00706,0.05398,-0.00362,-0.0073,-0.0024,0.1929,-0.0220,0.0073,-0.0220,-0.0073,-0.9094,2.6188,-0.4991,-1.7118,-0.2320,-0.0220,-0.0073,1,1,1,1,1,1,1
8.3451,sweep,3,+up,0.08412,0.01850,1.41585,0.92031,0.00629,0.05360,-0.00324,-0.0024,-0.0024,0.1978,-0.0220,-0.0073,-0.0366,-0.0073,-0.8821,2.6735,-0.8821,-1.7021,-0.2027,-0.0171,-0.0073,1,1,1,1,1,1,1
8.3851,sweep,3,+up,0.08412,0.01850,1.41585,0.92031,0.00629,0.05360,-0.00324,-0.0024,-0.0024,0.1978,-0.0220,-0.0073,-0.0366,-0.0073,-0.8821,2.6735,-0.8821,-1.7021,-0.2027,-0.0171,-0.0073,1,1,1,1,1,1,1
8.4251,sweep,3,+up,0.08412,0.01850,1.43187,0.92031,0.00591,0.05360,-0.00324,-0.0024,-0.0024,0.1929,-0.0220,-0.0073,-0.0073,-0.0073,-0.9094,2.7419,-1.1145,-1.7070,-0.1832,-0.0024,-0.0073,1,1,1,1,1,1,1
8.4652,sweep,3,+up,0.08412,0.01850,1.43187,0.92031,0.00591,0.05360,-0.00324,-0.0024,-0.0024,0.1929,-0.0220,-0.0073,-0.0073,-0.0073,-0.9094,2.7419,-1.1145,-1.7070,-0.1832,-0.0024,-0.0073,1,1,1,1,1,1,1
8.5049,sweep,3,+up,0.08412,0.01850,1.43187,0.92031,0.00591,0.05360,-0.00324,-0.0024,-0.0024,0.1929,-0.0220,-0.0073,-0.0073,-0.0073,-0.9094,2.7419,-1.1145,-1.7070,-0.1832,-0.0024,-0.0073,1,1,1,1,1,1,1
8.5452,sweep,3,+up,0.08412,0.01850,1.45590,0.92031,0.00591,0.05360,-0.00362,0.0024,-0.0024,0.2125,-0.0073,-0.0073,-0.0073,-0.0073,-0.9094,2.7966,-1.0735,-1.6874,-0.1685,0.0024,-0.0073,1,1,1,1,1,1,1
8.5853,sweep,3,+up,0.08412,0.01850,1.45590,0.92031,0.00591,0.05360,-0.00362,0.0024,-0.0024,0.2125,-0.0073,-0.0073,-0.0073,-0.0073,-0.9094,2.7966,-1.0735,-1.6874,-0.1685,0.0024,-0.0073,1,1,1,1,1,1,1
8.6255,sweep,3,+up,0.08373,0.01850,1.47231,0.92031,0.00591,0.05360,-0.00324,-0.0024,-0.0024,0.2125,-0.0073,-0.0073,-0.0073,-0.0073,-0.9231,2.8513,-1.5658,-1.7021,-0.1636,0.0073,-0.0122,1,1,1,1,1,1,1
8.6653,sweep,3,+up,0.08373,0.01850,1.47231,0.92031,0.00591,0.05360,-0.00324,-0.0024,-0.0024,0.2125,-0.0073,-0.0073,-0.0073,-0.0073,-0.9231,2.8513,-1.5658,-1.7021,-0.1636,0.0073,-0.0122,1,1,1,1,1,1,1
8.7053,sweep,3,+up,0.08373,0.01850,1.47231,0.92031,0.00591,0.05360,-0.00324,-0.0024,-0.0024,0.2125,-0.0073,-0.0073,-0.0073,-0.0073,-0.9231,2.8513,-1.5658,-1.7021,-0.1636,0.0073,-0.0122,1,1,1,1,1,1,1
8.7451,sweep,3,+up,0.08412,0.01850,1.49596,0.92031,0.00629,0.05360,-0.00362,-0.0073,-0.0024,0.1978,-0.0073,0.0073,-0.0073,-0.0220,-0.9094,2.9607,-1.5385,-1.7070,-0.1587,0.0122,-0.0073,1,1,1,1,1,1,1
8.7849,sweep,3,+up,0.08412,0.01850,1.49596,0.92031,0.00629,0.05360,-0.00362,-0.0073,-0.0024,0.1978,-0.0073,0.0073,-0.0073,-0.0220,-0.9094,2.9607,-1.5385,-1.7070,-0.1587,0.0122,-0.0073,1,1,1,1,1,1,1
8.8254,sweep,3,+up,0.08412,0.01850,1.51198,0.92031,0.00629,0.05360,-0.00324,0.0024,-0.0024,0.2027,-0.0073,0.0073,-0.0073,-0.0073,-0.8957,3.0154,-1.6889,-1.7167,-0.1441,0.0171,-0.0122,1,1,1,1,1,1,1
8.8655,sweep,3,+up,0.08412,0.01850,1.51198,0.92031,0.00629,0.05360,-0.00324,0.0024,-0.0024,0.2027,-0.0073,0.0073,-0.0073,-0.0073,-0.8957,3.0154,-1.6889,-1.7167,-0.1441,0.0171,-0.0122,1,1,1,1,1,1,1
8.9055,sweep,3,+up,0.08412,0.01850,1.51198,0.92031,0.00629,0.05360,-0.00324,0.0024,-0.0024,0.2027,-0.0073,0.0073,-0.0073,-0.0073,-0.8957,3.0154,-1.6889,-1.7167,-0.1441,0.0171,-0.0122,1,1,1,1,1,1,1
8.9451,sweep,3,+up,0.08412,0.01888,1.53601,0.92031,0.00668,0.05360,-0.00324,-0.0024,-0.0024,0.2076,-0.0073,-0.0073,0.0220,0.0073,-0.8957,3.1111,-1.6479,-1.7216,-0.1587,0.0171,-0.0073,1,1,1,1,1,1,1
8.9850,sweep,3,+up,0.08412,0.01888,1.53601,0.92031,0.00668,0.05360,-0.00324,-0.0024,-0.0024,0.2076,-0.0073,-0.0073,0.0220,0.0073,-0.8957,3.1111,-1.6479,-1.7216,-0.1587,0.0171,-0.0073,1,1,1,1,1,1,1
9.0251,sweep,3,+up,0.08412,0.01850,1.55203,0.92031,0.00668,0.05360,-0.00362,-0.0024,-0.0024,0.1978,-0.0220,-0.0073,-0.0220,-0.0073,-0.8821,3.1658,-1.7846,-1.7363,-0.1587,0.0171,-0.0073,1,1,1,1,1,1,1
9.0650,sweep,3,+up,0.08412,0.01850,1.55203,0.92031,0.00668,0.05360,-0.00362,-0.0024,-0.0024,0.1978,-0.0220,-0.0073,-0.0220,-0.0073,-0.8821,3.1658,-1.7846,-1.7363,-0.1587,0.0171,-0.0073,1,1,1,1,1,1,1
9.1053,sweep,3,+up,0.08412,0.01850,1.55203,0.92031,0.00668,0.05360,-0.00362,-0.0024,-0.0024,0.1978,-0.0220,-0.0073,-0.0220,-0.0073,-0.8821,3.1658,-1.7846,-1.7363,-0.1587,0.0171,-0.0073,1,1,1,1,1,1,1
9.1452,sweep,3,+up,0.08412,0.01850,1.57645,0.92069,0.00629,0.05360,-0.00324,-0.0024,-0.0024,0.2027,-0.0073,-0.0220,0.0073,0.0073,-0.8684,3.2342,-2.3179,-1.7656,-0.1587,0.0220,0.0024,1,1,1,1,1,1,1
9.1851,sweep,3,+up,0.08412,0.01850,1.57645,0.92069,0.00629,0.05360,-0.00324,-0.0024,-0.0024,0.2027,-0.0073,-0.0220,0.0073,0.0073,-0.8684,3.2342,-2.3179,-1.7656,-0.1587,0.0220,0.0024,1,1,1,1,1,1,1
9.2252,sweep,3,+up,0.08412,0.01850,1.59247,0.92069,0.00629,0.05360,-0.00362,-0.0024,-0.0024,0.1929,-0.0220,-0.0073,0.0073,-0.0073,-0.8957,3.2615,-2.3863,-1.8046,-0.1685,0.0220,-0.0024,1,1,1,1,1,1,1
9.2649,sweep,3,+up,0.08412,0.01850,1.59247,0.92069,0.00629,0.05360,-0.00362,-0.0024,-0.0024,0.1929,-0.0220,-0.0073,0.0073,-0.0073,-0.8957,3.2615,-2.3863,-1.8046,-0.1685,0.0220,-0.0024,1,1,1,1,1,1,1
9.3051,sweep,3,+up,0.08412,0.01850,1.59247,0.92069,0.00629,0.05360,-0.00362,-0.0024,-0.0024,0.1929,-0.0220,-0.0073,0.0073,-0.0073,-0.8957,3.2615,-2.3863,-1.8046,-0.1685,0.0220,-0.0024,1,1,1,1,1,1,1
9.3451,sweep,3,+up,0.08412,0.01888,1.61650,0.92069,0.00668,0.05360,-0.00362,-0.0024,-0.0024,0.2027,-0.0073,0.0073,0.0073,-0.0220,-0.9231,3.3573,-2.3179,-1.8242,-0.1685,0.0171,-0.0073,1,1,1,1,1,1,1
9.3852,sweep,3,+up,0.08412,0.01888,1.61650,0.92069,0.00668,0.05360,-0.00362,-0.0024,-0.0024,0.2027,-0.0073,0.0073,0.0073,-0.0220,-0.9231,3.3573,-2.3179,-1.8242,-0.1685,0.0171,-0.0073,1,1,1,1,1,1,1
9.4256,sweep,3,+up,0.08412,0.01850,1.63252,0.92069,0.00668,0.05360,-0.00324,-0.0024,-0.0024,0.1880,-0.0073,-0.0073,-0.0073,-0.0073,-0.9504,3.4120,-2.3316,-1.8388,-0.1783,0.0220,-0.0073,1,1,1,1,1,1,1
9.4650,sweep,3,+up,0.08412,0.01850,1.63252,0.92069,0.00668,0.05360,-0.00324,-0.0024,-0.0024,0.1880,-0.0073,-0.0073,-0.0073,-0.0073,-0.9504,3.4120,-2.3316,-1.8388,-0.1783,0.0220,-0.0073,1,1,1,1,1,1,1
9.5056,sweep,3,+up,0.08412,0.01850,1.63252,0.92069,0.00668,0.05360,-0.00324,-0.0024,-0.0024,0.1880,-0.0073,-0.0073,-0.0073,-0.0073,-0.9504,3.4120,-2.3316,-1.8388,-0.1783,0.0220,-0.0073,1,1,1,1,1,1,1
9.5454,sweep,3,+up,0.08412,0.01850,1.65694,0.92069,0.00668,0.05360,-0.00324,-0.0024,-0.0024,0.1929,-0.0073,-0.0073,-0.0073,-0.0073,-0.9231,3.4940,-2.6872,-1.8632,-0.1832,0.0220,-0.0122,1,1,1,1,1,1,1
9.5851,sweep,3,+up,0.08412,0.01850,1.65694,0.92069,0.00668,0.05360,-0.00324,-0.0024,-0.0024,0.1929,-0.0073,-0.0073,-0.0073,-0.0073,-0.9231,3.4940,-2.6872,-1.8632,-0.1832,0.0220,-0.0122,1,1,1,1,1,1,1
9.6252,sweep,3,+up,0.08412,0.01850,1.67296,0.92069,0.00668,0.05360,-0.00362,-0.0073,-0.0024,0.1978,-0.0073,0.0073,-0.0073,-0.0073,-0.9368,3.5487,-2.6598,-1.8828,-0.1832,0.0220,-0.0122,1,1,1,1,1,1,1
9.6659,sweep,3,+up,0.08412,0.01850,1.67296,0.92069,0.00668,0.05360,-0.00362,-0.0073,-0.0024,0.1978,-0.0073,0.0073,-0.0073,-0.0073,-0.9368,3.5487,-2.6598,-1.8828,-0.1832,0.0220,-0.0122,1,1,1,1,1,1,1
9.7049,sweep,3,+up,0.08412,0.01850,1.67296,0.92069,0.00668,0.05360,-0.00362,-0.0073,-0.0024,0.1978,-0.0073,0.0073,-0.0073,-0.0073,-0.9368,3.5487,-2.6598,-1.8828,-0.1832,0.0220,-0.0122,1,1,1,1,1,1,1
9.7450,sweep,3,+up,0.08412,0.01850,1.69699,0.92069,0.00668,0.05360,-0.00362,-0.0024,-0.0024,0.1880,0.0073,-0.0073,-0.0073,-0.0073,-0.9368,3.6171,-2.8786,-1.9121,-0.2027,0.0220,-0.0122,1,1,1,1,1,1,1
9.7850,sweep,3,+up,0.08412,0.01850,1.69699,0.92069,0.00668,0.05360,-0.00362,-0.0024,-0.0024,0.1880,0.0073,-0.0073,-0.0073,-0.0073,-0.9368,3.6171,-2.8786,-1.9121,-0.2027,0.0220,-0.0122,1,1,1,1,1,1,1
9.8251,sweep,3,+up,0.08412,0.01888,1.71302,0.92069,0.00668,0.05360,-0.00324,-0.0073,-0.0024,0.1978,-0.0073,-0.0073,-0.0073,-0.0073,-0.9778,3.6444,-3.0701,-1.9414,-0.1978,0.0220,-0.0122,1,1,1,1,1,1,1
9.8651,sweep,3,+up,0.08412,0.01888,1.71302,0.92069,0.00668,0.05360,-0.00324,-0.0073,-0.0024,0.1978,-0.0073,-0.0073,-0.0073,-0.0073,-0.9778,3.6444,-3.0701,-1.9414,-0.1978,0.0220,-0.0122,1,1,1,1,1,1,1
9.9051,sweep,3,+up,0.08412,0.01888,1.71302,0.92069,0.00668,0.05360,-0.00324,-0.0073,-0.0024,0.1978,-0.0073,-0.0073,-0.0073,-0.0073,-0.9778,3.6444,-3.0701,-1.9414,-0.1978,0.0220,-0.0122,1,1,1,1,1,1,1
9.9451,sweep,3,+up,0.08412,0.01850,1.73743,0.92069,0.00668,0.05360,-0.00324,-0.0024,-0.0024,0.2027,-0.0073,-0.0073,-0.0220,-0.0073,-0.9915,3.7265,-3.3709,-1.9756,-0.2076,0.0269,-0.0122,1,1,1,1,1,1,1
9.9851,sweep,3,+up,0.08412,0.01850,1.73743,0.92069,0.00668,0.05360,-0.00324,-0.0024,-0.0024,0.2027,-0.0073,-0.0073,-0.0220,-0.0073,-0.9915,3.7265,-3.3709,-1.9756,-0.2076,0.0269,-0.0122,1,1,1,1,1,1,1
10.0253,sweep,3,+up,0.08412,0.01888,1.75345,0.92069,0.00668,0.05360,-0.00362,-0.0024,-0.0024,0.2125,-0.0220,-0.0220,-0.0073,-0.0073,-1.0051,3.8222,-3.4940,-1.9951,-0.2222,0.0220,-0.0122,1,1,1,1,1,1,1
10.0651,sweep,3,+up,0.08412,0.01888,1.75345,0.92069,0.00668,0.05360,-0.00362,-0.0024,-0.0024,0.2125,-0.0220,-0.0220,-0.0073,-0.0073,-1.0051,3.8222,-3.4940,-1.9951,-0.2222,0.0220,-0.0122,1,1,1,1,1,1,1
10.1049,sweep,3,+up,0.08412,0.01888,1.75345,0.92069,0.00668,0.05360,-0.00362,-0.0024,-0.0024,0.2125,-0.0220,-0.0220,-0.0073,-0.0073,-1.0051,3.8222,-3.4940,-1.9951,-0.2222,0.0220,-0.0122,1,1,1,1,1,1,1
10.1449,sweep,3,+up,0.08412,0.01888,1.77748,0.92069,0.00668,0.05398,-0.00362,-0.0024,-0.0024,0.1880,0.0073,-0.0220,-0.0073,-0.0073,-1.0051,3.9316,-3.7265,-2.0342,-0.2369,0.0269,-0.0073,1,1,1,1,1,1,1
10.1851,sweep,3,+up,0.08412,0.01888,1.77748,0.92069,0.00668,0.05398,-0.00362,-0.0024,-0.0024,0.1880,0.0073,-0.0220,-0.0073,-0.0073,-1.0051,3.9316,-3.7265,-2.0342,-0.2369,0.0269,-0.0073,1,1,1,1,1,1,1
10.2251,sweep,3,+up,0.08412,0.01888,1.79351,0.92069,0.00668,0.05398,-0.00324,-0.0024,-0.0024,0.1880,-0.0220,0.0073,-0.0073,-0.0073,-0.9778,4.0000,-3.7402,-2.0488,-0.2320,0.0220,-0.0024,1,1,1,1,1,1,1
10.2656,sweep,3,+up,0.08412,0.01888,1.79351,0.92069,0.00668,0.05398,-0.00324,-0.0024,-0.0024,0.1880,-0.0220,0.0073,-0.0073,-0.0073,-0.9778,4.0000,-3.7402,-2.0488,-0.2320,0.0220,-0.0024,1,1,1,1,1,1,1
10.3051,sweep,3,+up,0.08412,0.01888,1.79351,0.92069,0.00668,0.05398,-0.00324,-0.0024,-0.0024,0.1880,-0.0220,0.0073,-0.0073,-0.0073,-0.9778,4.0000,-3.7402,-2.0488,-0.2320,0.0220,-0.0024,1,1,1,1,1,1,1
10.3451,sweep,3,+up,0.08412,0.01888,1.81754,0.92069,0.00668,0.05398,-0.00324,-0.0024,-0.0024,0.2027,-0.0073,-0.0220,-0.0073,-0.0073,-0.9915,4.0410,-3.5624,-2.0537,-0.2369,0.0220,-0.0024,1,1,1,1,1,1,1
10.3849,sweep,3,+up,0.08412,0.01888,1.81754,0.92069,0.00668,0.05398,-0.00324,-0.0024,-0.0024,0.2027,-0.0073,-0.0220,-0.0073,-0.0073,-0.9915,4.0410,-3.5624,-2.0537,-0.2369,0.0220,-0.0024,1,1,1,1,1,1,1
10.4252,sweep,3,+up,0.08412,0.01888,1.83394,0.92031,0.00668,0.05360,-0.00362,-0.0024,-0.0024,0.2027,-0.0073,-0.0073,-0.0220,-0.0073,-0.9915,4.0821,-3.8769,-2.0440,-0.2466,0.0220,-0.0024,1,1,1,1,1,1,1
10.4652,sweep,3,+up,0.08412,0.01888,1.83394,0.92031,0.00668,0.05360,-0.00362,-0.0024,-0.0024,0.2027,-0.0073,-0.0073,-0.0220,-0.0073,-0.9915,4.0821,-3.8769,-2.0440,-0.2466,0.0220,-0.0024,1,1,1,1,1,1,1
10.5058,sweep,3,+up,0.08412,0.01888,1.83394,0.92031,0.00668,0.05360,-0.00362,-0.0024,-0.0024,0.2027,-0.0073,-0.0073,-0.0220,-0.0073,-0.9915,4.0821,-3.8769,-2.0440,-0.2466,0.0220,-0.0024,1,1,1,1,1,1,1
10.5449,sweep,3,+up,0.08412,0.01888,1.85798,0.92031,0.00668,0.05398,-0.00324,-0.0024,-0.0024,0.1880,-0.0073,-0.0220,-0.0073,-0.0073,-1.0188,4.1231,-3.8085,-2.0342,-0.2564,0.0171,-0.0024,1,1,1,1,1,1,1
10.5851,sweep,3,+up,0.08412,0.01888,1.85798,0.92031,0.00668,0.05398,-0.00324,-0.0024,-0.0024,0.1880,-0.0073,-0.0220,-0.0073,-0.0073,-1.0188,4.1231,-3.8085,-2.0342,-0.2564,0.0171,-0.0024,1,1,1,1,1,1,1
10.6251,sweep,3,+up,0.08412,0.01888,1.87247,0.92031,0.00668,0.05360,-0.00324,-0.0024,-0.0024,0.1734,-0.0073,-0.0073,-0.0220,-0.0073,-1.0325,4.1778,-4.1094,-2.0440,-0.2515,0.0171,-0.0073,1,1,1,1,1,1,1
10.6651,sweep,3,+up,0.08412,0.01888,1.87247,0.92031,0.00668,0.05360,-0.00324,-0.0024,-0.0024,0.1734,-0.0073,-0.0073,-0.0220,-0.0073,-1.0325,4.1778,-4.1094,-2.0440,-0.2515,0.0171,-0.0073,1,1,1,1,1,1,1
10.7051,sweep,3,+up,0.08412,0.01888,1.87247,0.92031,0.00668,0.05360,-0.00324,-0.0024,-0.0024,0.1734,-0.0073,-0.0073,-0.0220,-0.0073,-1.0325,4.1778,-4.1094,-2.0440,-0.2515,0.0171,-0.0073,1,1,1,1,1,1,1
10.7453,sweep,3,+up,0.08412,0.01888,1.89155,0.92031,0.00668,0.05398,-0.00324,-0.0024,-0.0024,0.1294,-0.0073,-0.0073,-0.0220,-0.0073,-1.0188,4.2325,-3.9453,-2.0586,-0.2662,0.0171,-0.0073,1,1,1,1,1,1,1
10.7852,sweep,3,+up,0.08412,0.01888,1.89155,0.92031,0.00668,0.05398,-0.00324,-0.0024,-0.0024,0.1294,-0.0073,-0.0073,-0.0220,-0.0073,-1.0188,4.2325,-3.9453,-2.0586,-0.2662,0.0171,-0.0073,1,1,1,1,1,1,1
10.8251,sweep,3,+up,0.08412,0.01888,1.90299,0.91993,0.00668,0.05398,-0.00362,-0.0024,0.0024,0.1245,-0.0073,0.0073,-0.0073,-0.0220,-1.0462,4.2872,-4.2051,-2.0440,-0.2759,0.0171,-0.0073,1,1,1,1,1,1,1
10.8653,sweep,3,+up,0.08412,0.01888,1.90299,0.91993,0.00668,0.05398,-0.00362,-0.0024,0.0024,0.1245,-0.0073,0.0073,-0.0073,-0.0220,-1.0462,4.2872,-4.2051,-2.0440,-0.2759,0.0171,-0.0073,1,1,1,1,1,1,1
10.9052,sweep,3,+up,0.08412,0.01888,1.90299,0.91993,0.00668,0.05398,-0.00362,-0.0024,0.0024,0.1245,-0.0073,0.0073,-0.0073,-0.0220,-1.0462,4.2872,-4.2051,-2.0440,-0.2759,0.0171,-0.0073,1,1,1,1,1,1,1
10.9450,sweep,3,+up,0.08412,0.01888,1.91749,0.91917,0.00668,0.05360,-0.00362,0.0024,0.0024,0.1050,-0.0220,-0.0073,-0.0073,-0.0073,-1.0462,4.3145,-4.2462,-1.9658,-0.2662,0.0171,-0.0073,1,1,1,1,1,1,1
10.9852,sweep,3,+up,0.08412,0.01888,1.91749,0.91917,0.00668,0.05360,-0.00362,0.0024,0.0024,0.1050,-0.0220,-0.0073,-0.0073,-0.0073,-1.0462,4.3145,-4.2462,-1.9658,-0.2662,0.0171,-0.0073,1,1,1,1,1,1,1
11.0252,sweep,3,+up,0.08412,0.01888,1.92588,0.91917,0.00668,0.05360,-0.00324,-0.0024,-0.0024,0.1001,-0.0220,-0.0073,-0.0220,-0.0073,-1.0462,4.3419,-3.8222,-1.9414,-0.2759,0.0171,-0.0073,1,1,1,1,1,1,1
11.0651,sweep,3,+up,0.08412,0.01888,1.92588,0.91917,0.00668,0.05360,-0.00324,-0.0024,-0.0024,0.1001,-0.0220,-0.0073,-0.0220,-0.0073,-1.0462,4.3419,-3.8222,-1.9414,-0.2759,0.0171,-0.0073,1,1,1,1,1,1,1
11.1053,sweep,3,+up,0.08412,0.01888,1.92588,0.91917,0.00668,0.05360,-0.00324,-0.0024,-0.0024,0.1001,-0.0220,-0.0073,-0.0220,-0.0073,-1.0462,4.3419,-3.8222,-1.9414,-0.2759,0.0171,-0.0073,1,1,1,1,1,1,1
11.1452,sweep,3,+up,0.08412,0.01888,1.93732,0.91955,0.00629,0.05398,-0.00324,-0.0024,-0.0073,0.1001,-0.0073,0.0073,-0.0073,0.0073,-1.0462,4.3829,-4.4513,-1.9170,-0.2515,0.0073,-0.0073,1,1,1,1,1,1,1
11.1852,sweep,3,+up,0.08412,0.01888,1.93732,0.91955,0.00629,0.05398,-0.00324,-0.0024,-0.0073,0.1001,-0.0073,0.0073,-0.0073,0.0073,-1.0462,4.3829,-4.4513,-1.9170,-0.2515,0.0073,-0.0073,1,1,1,1,1,1,1
11.2250,sweep,3,+up,0.08373,0.01888,1.94381,0.92069,0.00591,0.05360,-0.00324,-0.0024,-0.0024,0.0708,-0.0073,-0.0073,-0.0073,0.0073,-1.0188,4.4103,-4.5197,-1.9951,-0.2222,0.0073,-0.0073,1,1,1,1,1,1,1
11.2652,sweep,3,+up,0.08373,0.01888,1.94381,0.92069,0.00591,0.05360,-0.00324,-0.0024,-0.0024,0.0708,-0.0073,-0.0073,-0.0073,0.0073,-1.0188,4.4103,-4.5197,-1.9951,-0.2222,0.0073,-0.0073,1,1,1,1,1,1,1
11.3050,sweep,3,+up,0.08373,0.01888,1.94381,0.92069,0.00591,0.05360,-0.00324,-0.0024,-0.0024,0.0708,-0.0073,-0.0073,-0.0073,0.0073,-1.0188,4.4103,-4.5197,-1.9951,-0.2222,0.0073,-0.0073,1,1,1,1,1,1,1
11.3451,sweep,3,+up,0.08373,0.01888,1.95258,0.92069,0.00591,0.05360,-0.00362,-0.0024,-0.0024,0.0806,-0.0220,-0.0073,-0.0073,-0.0073,-0.9094,4.4513,-4.6974,-2.0488,-0.2076,0.0171,-0.0073,1,1,1,1,1,1,1
11.3852,sweep,3,+up,0.08373,0.01888,1.95258,0.92069,0.00591,0.05360,-0.00362,-0.0024,-0.0024,0.0806,-0.0220,-0.0073,-0.0073,-0.0073,-0.9094,4.4513,-4.6974,-2.0488,-0.2076,0.0171,-0.0073,1,1,1,1,1,1,1
11.4250,sweep,3,+up,0.08373,0.01888,1.95716,0.92107,0.00591,0.05360,-0.00324,-0.0024,0.0024,0.0415,0.0220,-0.0073,-0.0073,-0.0073,-0.9094,4.4923,-4.2462,-2.0830,-0.1880,0.0171,-0.0122,1,1,1,1,1,1,1
11.4651,sweep,3,+up,0.08373,0.01888,1.95716,0.92107,0.00591,0.05360,-0.00324,-0.0024,0.0024,0.0415,0.0220,-0.0073,-0.0073,-0.0073,-0.9094,4.4923,-4.2462,-2.0830,-0.1880,0.0171,-0.0122,1,1,1,1,1,1,1
11.5051,sweep,3,+up,0.08373,0.01888,1.95716,0.92107,0.00591,0.05360,-0.00324,-0.0024,0.0024,0.0415,0.0220,-0.0073,-0.0073,-0.0073,-0.9094,4.4923,-4.2462,-2.0830,-0.1880,0.0171,-0.0122,1,1,1,1,1,1,1
11.5450,sweep,3,+up,0.08373,0.01888,1.96403,0.92069,0.00629,0.05360,-0.00324,-0.0073,-0.0024,0.0464,0.0073,-0.0073,-0.0073,0.0073,-0.9231,4.5607,-5.0667,-2.1074,-0.1978,0.0171,-0.0073,1,1,1,1,1,1,1
11.5851,sweep,3,+up,0.08373,0.01888,1.96403,0.92069,0.00629,0.05360,-0.00324,-0.0073,-0.0024,0.0464,0.0073,-0.0073,-0.0073,0.0073,-0.9231,4.5607,-5.0667,-2.1074,-0.1978,0.0171,-0.0073,1,1,1,1,1,1,1
11.6251,sweep,3,+up,0.08373,0.01888,1.96784,0.92069,0.00629,0.05360,-0.00324,-0.0024,-0.0073,0.0317,-0.0220,-0.0220,-0.0220,-0.0073,-0.9504,4.5880,-5.2581,-2.1270,-0.1978,0.0171,-0.0073,1,1,1,1,1,1,1
11.6652,sweep,3,+up,0.08373,0.01888,1.96784,0.92069,0.00629,0.05360,-0.00324,-0.0024,-0.0073,0.0317,-0.0220,-0.0220,-0.0220,-0.0073,-0.9504,4.5880,-5.2581,-2.1270,-0.1978,0.0171,-0.0073,1,1,1,1,1,1,1
11.7051,sweep,3,+up,0.08373,0.01888,1.96784,0.92069,0.00629,0.05360,-0.00324,-0.0024,-0.0073,0.0317,-0.0220,-0.0220,-0.0220,-0.0073,-0.9504,4.5880,-5.2581,-2.1270,-0.1978,0.0171,-0.0073,1,1,1,1,1,1,1
11.7449,sweep,3,+up,0.08373,0.01888,1.97242,0.92069,0.00629,0.05360,-0.00324,-0.0073,-0.0024,0.0317,-0.0073,-0.0220,-0.0073,-0.0220,-0.9094,4.6291,-4.8479,-2.1612,-0.1880,0.0220,-0.0073,1,1,1,1,1,1,1
11.7850,sweep,3,+up,0.08373,0.01888,1.97242,0.92069,0.00629,0.05360,-0.00324,-0.0073,-0.0024,0.0317,-0.0073,-0.0220,-0.0073,-0.0220,-0.9094,4.6291,-4.8479,-2.1612,-0.1880,0.0220,-0.0073,1,1,1,1,1,1,1
11.8250,sweep,3,+up,0.08373,0.01888,1.97509,0.92107,0.00629,0.05360,-0.00362,-0.0024,-0.0024,0.0269,0.0073,-0.0220,-0.0073,-0.0220,-0.9231,4.6701,-4.8752,-2.1807,-0.1783,0.0220,-0.0073,1,1,1,1,1,1,1
11.8651,sweep,3,+up,0.08373,0.01888,1.97509,0.92107,0.00629,0.05360,-0.00362,-0.0024,-0.0024,0.0269,0.0073,-0.0220,-0.0073,-0.0220,-0.9231,4.6701,-4.8752,-2.1807,-0.1783,0.0220,-0.0073,1,1,1,1,1,1,1
11.9050,sweep,3,+up,0.08373,0.01888,1.97509,0.92107,0.00629,0.05360,-0.00362,-0.0024,-0.0024,0.0269,0.0073,-0.0220,-0.0073,-0.0220,-0.9231,4.6701,-4.8752,-2.1807,-0.1783,0.0220,-0.0073,1,1,1,1,1,1,1
11.9451,sweep,3,+up,0.08373,0.01888,1.97890,0.92107,0.00629,0.05360,-0.00324,-0.0024,-0.0024,0.0122,-0.0073,-0.0220,-0.0073,-0.0220,-0.8957,4.7111,-5.0530,-2.2344,-0.1929,0.0171,-0.0024,1,1,1,1,1,1,1
11.9851,sweep,3,+up,0.08373,0.01888,1.97890,0.92107,0.00629,0.05360,-0.00324,-0.0024,-0.0024,0.0122,-0.0073,-0.0220,-0.0073,-0.0220,-0.8957,4.7111,-5.0530,-2.2344,-0.1929,0.0171,-0.0024,1,1,1,1,1,1,1
12.0250,sweep,3,+up,0.08373,0.01888,1.98158,0.92107,0.00629,0.05360,-0.00324,-0.0024,-0.0024,0.0317,-0.0073,-0.0073,-0.0220,-0.0073,-0.9368,4.7521,-5.3675,-2.2735,-0.1880,0.0171,-0.0024,1,1,1,1,1,1,1
12.5276,sweep,3,-down,0.08373,0.01888,1.98272,0.92107,0.00629,0.05360,-0.00324,-0.0024,-0.0024,0.0171,0.0073,-0.0073,-0.0220,-0.0073,-0.9231,4.7932,-5.6547,-2.2979,-0.1783,0.0220,-0.0024,1,1,1,1,1,1,1
12.5676,sweep,3,-down,0.08373,0.01888,1.98272,0.92107,0.00629,0.05360,-0.00324,-0.0024,-0.0024,0.0171,0.0073,-0.0073,-0.0220,-0.0073,-0.9231,4.7932,-5.6547,-2.2979,-0.1783,0.0220,-0.0024,1,1,1,1,1,1,1
12.6076,sweep,3,-down,0.08373,0.01888,1.98272,0.92107,0.00629,0.05360,-0.00324,-0.0024,-0.0024,0.0171,0.0073,-0.0073,-0.0220,-0.0073,-0.9231,4.7932,-5.6547,-2.2979,-0.1783,0.0220,-0.0024,1,1,1,1,1,1,1
12.6476,sweep,3,-down,0.08373,0.01888,1.98005,0.92107,0.00629,0.05360,-0.00324,0.0024,0.0024,-0.1685,-0.0073,0.0073,-0.0073,-0.0073,-0.8684,5.0667,-10.4957,-2.5177,-0.1538,0.0317,0.0024,1,1,1,1,1,1,1
12.6877,sweep,3,-down,0.08373,0.01888,1.98005,0.92107,0.00629,0.05360,-0.00324,0.0024,0.0024,-0.1685,-0.0073,0.0073,-0.0073,-0.0073,-0.8684,5.0667,-10.4957,-2.5177,-0.1538,0.0317,0.0024,1,1,1,1,1,1,1
12.7275,sweep,3,-down,0.08373,0.01888,1.96364,0.92107,0.00591,0.05360,-0.00362,-0.0024,-0.0024,-0.2222,-0.0220,-0.0073,-0.0220,-0.0073,-0.8684,5.0667,-9.8530,-2.5324,-0.1343,0.0317,-0.0024,1,1,1,1,1,1,1
12.7676,sweep,3,-down,0.08373,0.01888,1.96364,0.92107,0.00591,0.05360,-0.00362,-0.0024,-0.0024,-0.2222,-0.0220,-0.0073,-0.0220,-0.0073,-0.8684,5.0667,-9.8530,-2.5324,-0.1343,0.0317,-0.0024,1,1,1,1,1,1,1
12.8075,sweep,3,-down,0.08373,0.01888,1.96364,0.92107,0.00591,0.05360,-0.00362,-0.0024,-0.0024,-0.2222,-0.0220,-0.0073,-0.0220,-0.0073,-0.8684,5.0667,-9.8530,-2.5324,-0.1343,0.0317,-0.0024,1,1,1,1,1,1,1
12.8475,sweep,3,-down,0.08373,0.01888,1.93847,0.91993,0.00591,0.05360,-0.00324,0.0024,-0.0073,-0.2222,-0.0220,-0.0220,-0.0220,0.0073,-0.8137,5.0120,-8.7316,-2.4591,-0.1148,0.0366,-0.0024,1,1,1,1,1,1,1
12.8876,sweep,3,-down,0.08373,0.01888,1.93847,0.91993,0.00591,0.05360,-0.00324,0.0024,-0.0073,-0.2222,-0.0220,-0.0220,-0.0220,0.0073,-0.8137,5.0120,-8.7316,-2.4591,-0.1148,0.0366,-0.0024,1,1,1,1,1,1,1
12.9275,sweep,3,-down,0.08373,0.01888,1.92245,0.91993,0.00629,0.05360,-0.00324,-0.0073,-0.0024,-0.2222,-0.0073,-0.0220,-0.0073,0.0073,-0.8547,5.0256,-8.5949,-2.4542,-0.1099,0.0366,-0.0073,1,1,1,1,1,1,1
12.9679,sweep,3,-down,0.08373,0.01888,1.92245,0.91993,0.00629,0.05360,-0.00324,-0.0073,-0.0024,-0.2222,-0.0073,-0.0220,-0.0073,0.0073,-0.8547,5.0256,-8.5949,-2.4542,-0.1099,0.0366,-0.0073,1,1,1,1,1,1,1
13.0076,sweep,3,-down,0.08373,0.01888,1.92245,0.91993,0.00629,0.05360,-0.00324,-0.0073,-0.0024,-0.2222,-0.0073,-0.0220,-0.0073,0.0073,-0.8547,5.0256,-8.5949,-2.4542,-0.1099,0.0366,-0.0073,1,1,1,1,1,1,1
13.0475,sweep,3,-down,0.08373,0.01888,1.89841,0.91802,0.00629,0.05360,-0.00362,-0.0024,-0.0024,-0.1929,-0.0659,-0.0073,-0.0220,-0.0073,-0.8410,4.8205,-8.3897,-2.2686,-0.0952,0.0366,-0.0122,1,1,1,1,1,1,1
13.0877,sweep,3,-down,0.08373,0.01888,1.89841,0.91802,0.00629,0.05360,-0.00362,-0.0024,-0.0024,-0.1929,-0.0659,-0.0073,-0.0220,-0.0073,-0.8410,4.8205,-8.3897,-2.2686,-0.0952,0.0366,-0.0122,1,1,1,1,1,1,1
13.1280,sweep,3,-down,0.08373,0.01888,1.88239,0.91764,0.00629,0.05360,-0.00324,-0.0024,0.0024,-0.2125,0.0073,-0.0073,-0.0220,-0.0073,-0.8821,4.8068,-8.3214,-2.0928,-0.1001,0.0415,-0.0073,1,1,1,1,1,1,1
13.1677,sweep,3,-down,0.08373,0.01888,1.88239,0.91764,0.00629,0.05360,-0.00324,-0.0024,0.0024,-0.2125,0.0073,-0.0073,-0.0220,-0.0073,-0.8821,4.8068,-8.3214,-2.0928,-0.1001,0.0415,-0.0073,1,1,1,1,1,1,1
13.2077,sweep,3,-down,0.08373,0.01888,1.88239,0.91764,0.00629,0.05360,-0.00324,-0.0024,0.0024,-0.2125,0.0073,-0.0073,-0.0220,-0.0073,-0.8821,4.8068,-8.3214,-2.0928,-0.1001,0.0415,-0.0073,1,1,1,1,1,1,1
13.2476,sweep,3,-down,0.08373,0.01926,1.85760,0.91764,0.00629,0.05360,-0.00362,-0.0024,0.0024,-0.2173,-0.0073,0.0073,0.0073,-0.0073,-0.9368,4.7248,-7.2137,-1.9902,-0.0952,0.0415,-0.0073,1,1,1,1,1,1,1
13.2876,sweep,3,-down,0.08373,0.01926,1.85760,0.91764,0.00629,0.05360,-0.00362,-0.0024,0.0024,-0.2173,-0.0073,0.0073,0.0073,-0.0073,-0.9368,4.7248,-7.2137,-1.9902,-0.0952,0.0415,-0.0073,1,1,1,1,1,1,1
13.3280,sweep,3,-down,0.08373,0.01926,1.84119,0.91802,0.00629,0.05360,-0.00324,-0.0073,0.0024,-0.2027,0.0073,0.0073,-0.0073,-0.0220,-0.9094,4.6291,-6.9812,-1.9267,-0.0904,0.0415,-0.0073,1,1,1,1,1,1,1
13.3676,sweep,3,-down,0.08373,0.01926,1.84119,0.91802,0.00629,0.05360,-0.00324,-0.0073,0.0024,-0.2027,0.0073,0.0073,-0.0073,-0.0220,-0.9094,4.6291,-6.9812,-1.9267,-0.0904,0.0415,-0.0073,1,1,1,1,1,1,1
13.4078,sweep,3,-down,0.08373,0.01926,1.84119,0.91802,0.00629,0.05360,-0.00324,-0.0073,0.0024,-0.2027,0.0073,0.0073,-0.0073,-0.0220,-0.9094,4.6291,-6.9812,-1.9267,-0.0904,0.0415,-0.0073,1,1,1,1,1,1,1
13.4478,sweep,3,-down,0.08373,0.01926,1.81754,0.92107,0.00668,0.05360,-0.00362,-0.0024,-0.0024,-0.2027,-0.0220,-0.0073,-0.0073,-0.0220,-0.9231,4.6017,-7.2000,-2.1074,-0.1001,0.0415,-0.0073,1,1,1,1,1,1,1
13.4877,sweep,3,-down,0.08373,0.01926,1.81754,0.92107,0.00668,0.05360,-0.00362,-0.0024,-0.0024,-0.2027,-0.0220,-0.0073,-0.0073,-0.0220,-0.9231,4.6017,-7.2000,-2.1074,-0.1001,0.0415,-0.0073,1,1,1,1,1,1,1
13.5277,sweep,3,-down,0.08373,0.01926,1.80114,0.92107,0.00668,0.05360,-0.00324,-0.0024,0.0024,-0.2027,-0.0073,-0.0073,-0.0073,-0.0073,-0.9504,4.5607,-6.9675,-2.1368,-0.1148,0.0415,-0.0073,1,1,1,1,1,1,1
13.5677,sweep,3,-down,0.08373,0.01926,1.80114,0.92107,0.00668,0.05360,-0.00324,-0.0024,0.0024,-0.2027,-0.0073,-0.0073,-0.0073,-0.0073,-0.9504,4.5607,-6.9675,-2.1368,-0.1148,0.0415,-0.0073,1,1,1,1,1,1,1
13.6075,sweep,3,-down,0.08373,0.01926,1.80114,0.92107,0.00668,0.05360,-0.00324,-0.0024,0.0024,-0.2027,-0.0073,-0.0073,-0.0073,-0.0073,-0.9504,4.5607,-6.9675,-2.1368,-0.1148,0.0415,-0.0073,1,1,1,1,1,1,1
13.6480,sweep,3,-down,0.08373,0.01926,1.77672,0.92069,0.00706,0.05360,-0.00362,0.0024,-0.0024,-0.2076,-0.0220,-0.0073,0.0073,-0.0073,-0.9368,4.4239,-6.1880,-2.1514,-0.1441,0.0415,-0.0024,1,1,1,1,1,1,1
13.6878,sweep,3,-down,0.08373,0.01926,1.77672,0.92069,0.00706,0.05360,-0.00362,0.0024,-0.0024,-0.2076,-0.0220,-0.0073,0.0073,-0.0073,-0.9368,4.4239,-6.1880,-2.1514,-0.1441,0.0415,-0.0024,1,1,1,1,1,1,1
13.7277,sweep,3,-down,0.08373,0.01926,1.76032,0.92031,0.00706,0.05398,-0.00362,-0.0024,0.0024,-0.2027,-0.0073,-0.0220,-0.0073,-0.0073,-0.9915,4.3009,-5.8735,-2.1465,-0.1636,0.0366,-0.0073,1,1,1,1,1,1,1
13.7676,sweep,3,-down,0.08373,0.01926,1.76032,0.92031,0.00706,0.05398,-0.00362,-0.0024,0.0024,-0.2027,-0.0073,-0.0220,-0.0073,-0.0073,-0.9915,4.3009,-5.8735,-2.1465,-0.1636,0.0366,-0.0073,1,1,1,1,1,1,1
13.8077,sweep,3,-down,0.08373,0.01926,1.76032,0.92031,0.00706,0.05398,-0.00362,-0.0024,0.0024,-0.2027,-0.0073,-0.0220,-0.0073,-0.0073,-0.9915,4.3009,-5.8735,-2.1465,-0.1636,0.0366,-0.0073,1,1,1,1,1,1,1
13.8477,sweep,3,-down,0.08373,0.01926,1.73629,0.92031,0.00706,0.05398,-0.00324,-0.0024,-0.0073,-0.2027,-0.0073,-0.0073,-0.0220,0.0073,-0.9778,4.2325,-5.8735,-2.1563,-0.1880,0.0366,-0.0024,1,1,1,1,1,1,1
13.8876,sweep,3,-down,0.08373,0.01926,1.73629,0.92031,0.00706,0.05398,-0.00324,-0.0024,-0.0073,-0.2027,-0.0073,-0.0073,-0.0220,0.0073,-0.9778,4.2325,-5.8735,-2.1563,-0.1880,0.0366,-0.0024,1,1,1,1,1,1,1
13.9276,sweep,3,-down,0.08412,0.01926,1.72026,0.92031,0.00706,0.05398,-0.00362,0.0024,-0.0024,-0.2125,-0.0073,-0.0073,-0.0220,-0.0073,-0.9915,4.2051,-5.3949,-2.1758,-0.2027,0.0317,-0.0024,1,1,1,1,1,1,1
13.9677,sweep,3,-down,0.08412,0.01926,1.72026,0.92031,0.00706,0.05398,-0.00362,0.0024,-0.0024,-0.2125,-0.0073,-0.0073,-0.0220,-0.0073,-0.9915,4.2051,-5.3949,-2.1758,-0.2027,0.0317,-0.0024,1,1,1,1,1,1,1
14.0077,sweep,3,-down,0.08412,0.01926,1.72026,0.92031,0.00706,0.05398,-0.00362,0.0024,-0.0024,-0.2125,-0.0073,-0.0073,-0.0220,-0.0073,-0.9915,4.2051,-5.3949,-2.1758,-0.2027,0.0317,-0.0024,1,1,1,1,1,1,1
14.0477,sweep,3,-down,0.08373,0.01926,1.69661,0.92069,0.00706,0.05398,-0.00324,-0.0024,-0.0024,-0.2027,-0.0073,-0.0073,-0.0073,-0.0073,-1.0051,4.1504,-5.8598,-2.2051,-0.2222,0.0317,-0.0073,1,1,1,1,1,1,1
14.0878,sweep,3,-down,0.08373,0.01926,1.69661,0.92069,0.00706,0.05398,-0.00324,-0.0024,-0.0024,-0.2027,-0.0073,-0.0073,-0.0073,-0.0073,-1.0051,4.1504,-5.8598,-2.2051,-0.2222,0.0317,-0.0073,1,1,1,1,1,1,1
14.1277,sweep,3,-down,0.08373,0.01926,1.68021,0.92031,0.00706,0.05398,-0.00324,-0.0024,-0.0024,-0.1929,-0.0073,-0.0073,0.0073,-0.0073,-1.0051,4.1094,-5.3812,-2.1905,-0.2418,0.0317,-0.0024,1,1,1,1,1,1,1
14.1676,sweep,3,-down,0.08373,0.01926,1.68021,0.92031,0.00706,0.05398,-0.00324,-0.0024,-0.0024,-0.1929,-0.0073,-0.0073,0.0073,-0.0073,-1.0051,4.1094,-5.3812,-2.1905,-0.2418,0.0317,-0.0024,1,1,1,1,1,1,1
14.2078,sweep,3,-down,0.08373,0.01926,1.68021,0.92031,0.00706,0.05398,-0.00324,-0.0024,-0.0024,-0.1929,-0.0073,-0.0073,0.0073,-0.0073,-1.0051,4.1094,-5.3812,-2.1905,-0.2418,0.0317,-0.0024,1,1,1,1,1,1,1
14.2477,sweep,3,-down,0.08373,0.01926,1.65579,0.91955,0.00706,0.05398,-0.00324,-0.0024,-0.0024,-0.2027,0.0073,0.0073,-0.0073,0.0073,-1.0051,4.0137,-5.0940,-2.1368,-0.2662,0.0269,-0.0073,1,1,1,1,1,1,1
14.2879,sweep,3,-down,0.08373,0.01926,1.65579,0.91955,0.00706,0.05398,-0.00324,-0.0024,-0.0024,-0.2027,0.0073,0.0073,-0.0073,0.0073,-1.0051,4.0137,-5.0940,-2.1368,-0.2662,0.0269,-0.0073,1,1,1,1,1,1,1
14.3282,sweep,3,-down,0.08373,0.01926,1.63977,0.91993,0.00706,0.05398,-0.00324,-0.0024,-0.0024,-0.2076,-0.0073,0.0073,-0.0220,-0.0220,-1.0188,3.9453,-4.9709,-2.1319,-0.2808,0.0220,-0.0122,1,1,1,1,1,1,1
14.3679,sweep,3,-down,0.08373,0.01926,1.63977,0.91993,0.00706,0.05398,-0.00324,-0.0024,-0.0024,-0.2076,-0.0073,0.0073,-0.0220,-0.0220,-1.0188,3.9453,-4.9709,-2.1319,-0.2808,0.0220,-0.0122,1,1,1,1,1,1,1
14.4076,sweep,3,-down,0.08373,0.01926,1.63977,0.91993,0.00706,0.05398,-0.00324,-0.0024,-0.0024,-0.2076,-0.0073,0.0073,-0.0220,-0.0220,-1.0188,3.9453,-4.9709,-2.1319,-0.2808,0.0220,-0.0122,1,1,1,1,1,1,1
14.4475,sweep,3,-down,0.08373,0.01926,1.61498,0.91993,0.00782,0.05436,-0.00362,-0.0024,0.0024,-0.1978,-0.0073,-0.0073,0.0073,-0.0073,-0.9915,3.8496,-4.0410,-2.1221,-0.3883,-0.0024,-0.0073,1,1,1,1,1,1,1
14.4876,sweep,3,-down,0.08373,0.01926,1.61498,0.91993,0.00782,0.05436,-0.00362,-0.0024,0.0024,-0.1978,-0.0073,-0.0073,0.0073,-0.0073,-0.9915,3.8496,-4.0410,-2.1221,-0.3883,-0.0024,-0.0073,1,1,1,1,1,1,1
14.5279,sweep,3,-down,0.08412,0.01926,1.59171,0.91955,0.00744,0.05436,-0.00324,-0.0024,-0.0073,-0.2125,-0.0073,-0.0073,-0.0073,-0.0073,-1.0325,3.7402,-4.3145,-2.0977,-0.4078,-0.0073,-0.0024,1,1,1,1,1,1,1
14.5675,sweep,3,-down,0.08412,0.01926,1.59171,0.91955,0.00744,0.05436,-0.00324,-0.0024,-0.0073,-0.2125,-0.0073,-0.0073,-0.0073,-0.0073,-1.0325,3.7402,-4.3145,-2.0977,-0.4078,-0.0073,-0.0024,1,1,1,1,1,1,1
14.6078,sweep,3,-down,0.08412,0.01926,1.59171,0.91955,0.00744,0.05436,-0.00324,-0.0024,-0.0073,-0.2125,-0.0073,-0.0073,-0.0073,-0.0073,-1.0325,3.7402,-4.3145,-2.0977,-0.4078,-0.0073,-0.0024,1,1,1,1,1,1,1
14.6477,sweep,3,-down,0.08412,0.01926,1.57530,0.91993,0.00744,0.05436,-0.00324,0.0024,-0.0024,-0.1978,-0.0220,-0.0073,-0.0073,-0.0073,-1.0325,3.6718,-4.1915,-2.1123,-0.4518,-0.0269,-0.0024,1,1,1,1,1,1,1
14.6877,sweep,3,-down,0.08412,0.01926,1.57530,0.91993,0.00744,0.05436,-0.00324,0.0024,-0.0024,-0.1978,-0.0220,-0.0073,-0.0073,-0.0073,-1.0325,3.6718,-4.1915,-2.1123,-0.4518,-0.0269,-0.0024,1,1,1,1,1,1,1
14.7281,sweep,3,-down,0.08412,0.01926,1.55051,0.91993,0.00744,0.05436,-0.00362,-0.0024,-0.0024,-0.2125,0.0073,-0.0073,-0.0073,-0.0073,-1.0325,3.5761,-3.1932,-2.0733,-0.4908,-0.0317,-0.0073,1,1,1,1,1,1,1
14.7680,sweep,3,-down,0.08412,0.01926,1.55051,0.91993,0.00744,0.05436,-0.00362,-0.0024,-0.0024,-0.2125,0.0073,-0.0073,-0.0073,-0.0073,-1.0325,3.5761,-3.1932,-2.0733,-0.4908,-0.0317,-0.0073,1,1,1,1,1,1,1
14.8079,sweep,3,-down,0.08412,0.01926,1.55051,0.91993,0.00744,0.05436,-0.00362,-0.0024,-0.0024,-0.2125,0.0073,-0.0073,-0.0073,-0.0073,-1.0325,3.5761,-3.1932,-2.0733,-0.4908,-0.0317,-0.0073,1,1,1,1,1,1,1
14.8485,sweep,3,-down,0.08412,0.01926,1.53449,0.91993,0.00744,0.05512,-0.00324,-0.0073,-0.0024,-0.2027,-0.0073,-0.0073,-0.0073,-0.0073,-1.0325,3.5624,-3.1932,-2.0635,-0.5250,-0.0611,-0.0024,1,1,1,1,1,1,1
14.8879,sweep,3,-down,0.08412,0.01926,1.53449,0.91993,0.00744,0.05512,-0.00324,-0.0073,-0.0024,-0.2027,-0.0073,-0.0073,-0.0073,-0.0073,-1.0325,3.5624,-3.1932,-2.0635,-0.5250,-0.0611,-0.0024,1,1,1,1,1,1,1
14.9283,sweep,3,-down,0.08412,0.01926,1.51083,0.91955,0.00591,0.05436,-0.00362,-0.0024,-0.0024,-0.2076,0.0073,-0.0513,0.0073,-0.0073,-1.0325,3.4530,-3.7265,-2.0244,-0.4274,-0.0611,-0.0024,1,1,1,1,1,1,1
14.9682,sweep,3,-down,0.08412,0.01926,1.51083,0.91955,0.00591,0.05436,-0.00362,-0.0024,-0.0024,-0.2076,0.0073,-0.0513,0.0073,-0.0073,-1.0325,3.4530,-3.7265,-2.0244,-0.4274,-0.0611,-0.0024,1,1,1,1,1,1,1
15.0077,sweep,3,-down,0.08412,0.01926,1.51083,0.91955,0.00591,0.05436,-0.00362,-0.0024,-0.0024,-0.2076,0.0073,-0.0513,0.0073,-0.0073,-1.0325,3.4530,-3.7265,-2.0244,-0.4274,-0.0611,-0.0024,1,1,1,1,1,1,1
15.0478,sweep,3,-down,0.08412,0.01926,1.49519,0.91993,0.00553,0.05398,-0.00324,-0.0024,-0.0024,-0.1929,-0.0073,-0.0073,-0.0073,-0.0220,-1.0462,3.3983,-4.1231,-2.0293,-0.3736,-0.0611,-0.0024,1,1,1,1,1,1,1
15.0878,sweep,3,-down,0.08412,0.01926,1.49519,0.91993,0.00553,0.05398,-0.00324,-0.0024,-0.0024,-0.1929,-0.0073,-0.0073,-0.0073,-0.0220,-1.0462,3.3983,-4.1231,-2.0293,-0.3736,-0.0611,-0.0024,1,1,1,1,1,1,1
15.1273,sweep,3,-down,0.08412,0.01926,1.49519,0.91993,0.00553,0.05398,-0.00324,-0.0024,-0.0024,-0.1929,-0.0073,-0.0073,-0.0073,-0.0220,-1.0462,3.3983,-4.1231,-2.0293,-0.3736,-0.0611,-0.0024,1,1,1,1,1,1,1
15.1677,sweep,3,-down,0.08373,0.01926,1.47116,0.91993,0.00477,0.05398,-0.00324,0.0024,-0.0024,-0.1929,-0.0220,-0.0073,-0.0220,0.0073,-0.9641,3.3299,-3.8085,-2.0098,-0.2759,-0.0611,-0.0024,1,1,1,1,1,1,1
15.2077,sweep,3,-down,0.08373,0.01926,1.47116,0.91993,0.00477,0.05398,-0.00324,0.0024,-0.0024,-0.1929,-0.0220,-0.0073,-0.0220,0.0073,-0.9641,3.3299,-3.8085,-2.0098,-0.2759,-0.0611,-0.0024,1,1,1,1,1,1,1
15.2476,sweep,3,-down,0.08373,0.01926,1.45552,0.92031,0.00515,0.05360,-0.00324,-0.0024,-0.0073,-0.1929,0.0073,-0.0220,-0.0073,-0.0073,-0.9641,3.2615,-4.3145,-2.0391,-0.2271,-0.0611,-0.0024,1,1,1,1,1,1,1
15.2877,sweep,3,-down,0.08373,0.01926,1.45552,0.92031,0.00515,0.05360,-0.00324,-0.0024,-0.0073,-0.1929,0.0073,-0.0220,-0.0073,-0.0073,-0.9641,3.2615,-4.3145,-2.0391,-0.2271,-0.0611,-0.0024,1,1,1,1,1,1,1
15.3277,sweep,3,-down,0.08373,0.01926,1.45552,0.92031,0.00515,0.05360,-0.00324,-0.0024,-0.0073,-0.1929,0.0073,-0.0220,-0.0073,-0.0073,-0.9641,3.2615,-4.3145,-2.0391,-0.2271,-0.0611,-0.0024,1,1,1,1,1,1,1
15.3677,sweep,3,-down,0.08373,0.01926,1.43111,0.92031,0.00515,0.05360,-0.00362,-0.0073,-0.0024,-0.1978,-0.0073,-0.0220,-0.0073,-0.0073,-0.9778,3.2342,-4.1368,-2.0391,-0.1587,-0.0464,-0.0073,1,1,1,1,1,1,1
15.4077,sweep,3,-down,0.08373,0.01926,1.43111,0.92031,0.00515,0.05360,-0.00362,-0.0073,-0.0024,-0.1978,-0.0073,-0.0220,-0.0073,-0.0073,-0.9778,3.2342,-4.1368,-2.0391,-0.1587,-0.0464,-0.0073,1,1,1,1,1,1,1
15.4478,sweep,3,-down,0.08373,0.01926,1.41508,0.92031,0.00515,0.05360,-0.00362,0.0024,0.0024,-0.2125,-0.0073,-0.0073,0.0073,-0.0073,-0.9504,3.1521,-3.7538,-2.0342,-0.1197,-0.0464,-0.0122,1,1,1,1,1,1,1
15.4876,sweep,3,-down,0.08373,0.01926,1.41508,0.92031,0.00515,0.05360,-0.00362,0.0024,0.0024,-0.2125,-0.0073,-0.0073,0.0073,-0.0073,-0.9504,3.1521,-3.7538,-2.0342,-0.1197,-0.0464,-0.0122,1,1,1,1,1,1,1
15.5276,sweep,3,-down,0.08373,0.01926,1.41508,0.92031,0.00515,0.05360,-0.00362,0.0024,0.0024,-0.2125,-0.0073,-0.0073,0.0073,-0.0073,-0.9504,3.1521,-3.7538,-2.0342,-0.1197,-0.0464,-0.0122,1,1,1,1,1,1,1
15.5677,sweep,3,-down,0.08373,0.01926,1.39067,0.91993,0.00515,0.05322,-0.00324,-0.0024,-0.0024,-0.2027,-0.0073,0.0073,-0.0220,-0.0073,-0.9504,3.0974,-3.4803,-2.0195,-0.0855,-0.0366,-0.0073,1,1,1,1,1,1,1
15.6077,sweep,3,-down,0.08373,0.01926,1.39067,0.91993,0.00515,0.05322,-0.00324,-0.0024,-0.0024,-0.2027,-0.0073,0.0073,-0.0220,-0.0073,-0.9504,3.0974,-3.4803,-2.0195,-0.0855,-0.0366,-0.0073,1,1,1,1,1,1,1
15.6475,sweep,3,-down,0.08373,0.01926,1.37503,0.91993,0.00553,0.05360,-0.00362,0.0024,-0.0024,-0.1978,-0.0073,0.0073,-0.0073,-0.0073,-0.9641,3.0291,-3.7812,-2.0195,-0.0757,-0.0366,-0.0122,1,1,1,1,1,1,1
15.6881,sweep,3,-down,0.08373,0.01926,1.37503,0.91993,0.00553,0.05360,-0.00362,0.0024,-0.0024,-0.1978,-0.0073,0.0073,-0.0073,-0.0073,-0.9641,3.0291,-3.7812,-2.0195,-0.0757,-0.0366,-0.0122,1,1,1,1,1,1,1
15.7278,sweep,3,-down,0.08373,0.01926,1.37503,0.91993,0.00553,0.05360,-0.00362,0.0024,-0.0024,-0.1978,-0.0073,0.0073,-0.0073,-0.0073,-0.9641,3.0291,-3.7812,-2.0195,-0.0757,-0.0366,-0.0122,1,1,1,1,1,1,1
15.7680,sweep,3,-down,0.08373,0.01926,1.35061,0.91993,0.00553,0.05322,-0.00324,-0.0073,-0.0024,-0.2027,-0.0073,-0.0073,-0.0073,-0.0220,-0.9368,2.9744,-3.5761,-2.0195,-0.0513,-0.0269,-0.0024,1,1,1,1,1,1,1
15.8079,sweep,3,-down,0.08373,0.01926,1.35061,0.91993,0.00553,0.05322,-0.00324,-0.0073,-0.0024,-0.2027,-0.0073,-0.0073,-0.0073,-0.0220,-0.9368,2.9744,-3.5761,-2.0195,-0.0513,-0.0269,-0.0024,1,1,1,1,1,1,1
15.8483,sweep,3,-down,0.08373,0.01926,1.33459,0.91993,0.00553,0.05360,-0.00324,-0.0024,0.0024,-0.2125,-0.0073,0.0073,-0.0073,0.0073,-0.9094,2.8923,-3.2889,-2.0195,-0.0415,-0.0269,-0.0024,1,1,1,1,1,1,1
15.8882,sweep,3,-down,0.08373,0.01926,1.33459,0.91993,0.00553,0.05360,-0.00324,-0.0024,0.0024,-0.2125,-0.0073,0.0073,-0.0073,0.0073,-0.9094,2.8923,-3.2889,-2.0195,-0.0415,-0.0269,-0.0024,1,1,1,1,1,1,1
15.9277,sweep,3,-down,0.08373,0.01926,1.33459,0.91993,0.00553,0.05360,-0.00324,-0.0024,0.0024,-0.2125,-0.0073,0.0073,-0.0073,0.0073,-0.9094,2.8923,-3.2889,-2.0195,-0.0415,-0.0269,-0.0024,1,1,1,1,1,1,1
15.9678,sweep,3,-down,0.08373,0.01926,1.31056,0.91993,0.00591,0.05360,-0.00362,-0.0024,-0.0024,-0.2125,0.0073,0.0073,-0.0073,-0.0073,-0.8821,2.8103,-3.2205,-2.0098,-0.0317,-0.0122,-0.0024,1,1,1,1,1,1,1
16.0078,sweep,3,-down,0.08373,0.01926,1.31056,0.91993,0.00591,0.05360,-0.00362,-0.0024,-0.0024,-0.2125,0.0073,0.0073,-0.0073,-0.0073,-0.8821,2.8103,-3.2205,-2.0098,-0.0317,-0.0122,-0.0024,1,1,1,1,1,1,1
16.0476,sweep,3,-down,0.08373,0.01926,1.29454,0.91993,0.00591,0.05360,-0.00324,-0.0073,-0.0024,-0.2173,-0.0073,-0.0073,-0.0073,0.0073,-0.8957,2.7556,-3.0564,-1.9902,-0.0220,-0.0073,-0.0024,1,1,1,1,1,1,1
16.0878,sweep,3,-down,0.08373,0.01926,1.29454,0.91993,0.00591,0.05360,-0.00324,-0.0073,-0.0024,-0.2173,-0.0073,-0.0073,-0.0073,0.0073,-0.8957,2.7556,-3.0564,-1.9902,-0.0220,-0.0073,-0.0024,1,1,1,1,1,1,1
16.1277,sweep,3,-down,0.08373,0.01926,1.29454,0.91993,0.00591,0.05360,-0.00324,-0.0073,-0.0024,-0.2173,-0.0073,-0.0073,-0.0073,0.0073,-0.8957,2.7556,-3.0564,-1.9902,-0.0220,-0.0073,-0.0024,1,1,1,1,1,1,1
16.1677,sweep,3,-down,0.08373,0.01926,1.27012,0.91764,0.00591,0.05322,-0.00324,-0.0024,-0.0024,-0.2076,-0.0366,-0.0220,-0.0220,-0.0073,-0.8684,2.6325,-2.4274,-1.7802,-0.0073,0.0073,-0.0024,1,1,1,1,1,1,1
16.2078,sweep,3,-down,0.08373,0.01926,1.27012,0.91764,0.00591,0.05322,-0.00324,-0.0024,-0.0024,-0.2076,-0.0366,-0.0220,-0.0220,-0.0073,-0.8684,2.6325,-2.4274,-1.7802,-0.0073,0.0073,-0.0024,1,1,1,1,1,1,1
16.2476,sweep,3,-down,0.08373,0.01926,1.25372,0.91726,0.00591,0.05322,-0.00324,-0.0024,-0.0024,-0.2027,-0.0220,-0.0073,-0.0073,-0.0220,-0.8547,2.5915,-2.1812,-1.6777,-0.0024,0.0073,-0.0024,1,1,1,1,1,1,1
16.2877,sweep,3,-down,0.08373,0.01926,1.25372,0.91726,0.00591,0.05322,-0.00324,-0.0024,-0.0024,-0.2027,-0.0220,-0.0073,-0.0073,-0.0220,-0.8547,2.5915,-2.1812,-1.6777,-0.0024,0.0073,-0.0024,1,1,1,1,1,1,1
16.3278,sweep,3,-down,0.08373,0.01926,1.25372,0.91726,0.00591,0.05322,-0.00324,-0.0024,-0.0024,-0.2027,-0.0220,-0.0073,-0.0073,-0.0220,-0.8547,2.5915,-2.1812,-1.6777,-0.0024,0.0073,-0.0024,1,1,1,1,1,1,1
16.3678,sweep,3,-down,0.08373,0.01926,1.22969,0.91764,0.00591,0.05322,-0.00362,-0.0024,-0.0024,-0.2076,0.0073,-0.0220,-0.0073,-0.0073,-0.8137,2.4821,-2.0308,-1.5702,0.0024,0.0171,-0.0024,1,1,1,1,1,1,1
16.4076,sweep,3,-down,0.08373,0.01926,1.22969,0.91764,0.00591,0.05322,-0.00362,-0.0024,-0.0024,-0.2076,0.0073,-0.0220,-0.0073,-0.0073,-0.8137,2.4821,-2.0308,-1.5702,0.0024,0.0171,-0.0024,1,1,1,1,1,1,1
16.4478,sweep,3,-down,0.08373,0.01926,1.21366,0.91802,0.00629,0.05322,-0.00362,0.0024,-0.0073,-0.1978,0.0073,0.0073,-0.0073,-0.0073,-0.8000,2.4410,-1.8256,-1.5116,-0.0024,0.0171,-0.0073,1,1,1,1,1,1,1
16.4878,sweep,3,-down,0.08373,0.01926,1.21366,0.91802,0.00629,0.05322,-0.00362,0.0024,-0.0073,-0.1978,0.0073,0.0073,-0.0073,-0.0073,-0.8000,2.4410,-1.8256,-1.5116,-0.0024,0.0171,-0.0073,1,1,1,1,1,1,1
16.5276,sweep,3,-down,0.08373,0.01926,1.21366,0.91802,0.00629,0.05322,-0.00362,0.0024,-0.0073,-0.1978,0.0073,0.0073,-0.0073,-0.0073,-0.8000,2.4410,-1.8256,-1.5116,-0.0024,0.0171,-0.0073,1,1,1,1,1,1,1
16.5678,sweep,3,-down,0.08373,0.01926,1.18925,0.91840,0.00629,0.05360,-0.00324,-0.0024,-0.0024,-0.1929,0.0220,-0.0073,-0.0073,-0.0073,-0.8000,2.3590,-1.4701,-1.4335,-0.0024,0.0220,-0.0024,1,1,1,1,1,1,1
16.6077,sweep,3,-down,0.08373,0.01926,1.18925,0.91840,0.00629,0.05360,-0.00324,-0.0024,-0.0024,-0.1929,0.0220,-0.0073,-0.0073,-0.0073,-0.8000,2.3590,-1.4701,-1.4335,-0.0024,0.0220,-0.0024,1,1,1,1,1,1,1
16.6476,sweep,3,-down,0.08373,0.01926,1.17323,0.92069,0.00629,0.05322,-0.00324,-0.0024,-0.0024,-0.1978,0.0073,-0.0220,-0.0220,-0.0073,-0.8000,2.3179,-1.5248,-1.5946,-0.0024,0.0269,-0.0024,1,1,1,1,1,1,1
16.6877,sweep,3,-down,0.08373,0.01926,1.17323,0.92069,0.00629,0.05322,-0.00324,-0.0024,-0.0024,-0.1978,0.0073,-0.0220,-0.0220,-0.0073,-0.8000,2.3179,-1.5248,-1.5946,-0.0024,0.0269,-0.0024,1,1,1,1,1,1,1
16.7276,sweep,3,-down,0.08373,0.01926,1.17323,0.92069,0.00629,0.05322,-0.00324,-0.0024,-0.0024,-0.1978,0.0073,-0.0220,-0.0220,-0.0073,-0.8000,2.3179,-1.5248,-1.5946,-0.0024,0.0269,-0.0024,1,1,1,1,1,1,1
16.7677,sweep,3,-down,0.08373,0.01926,1.14919,0.92069,0.00629,0.05322,-0.00324,-0.0024,-0.0024,-0.2027,-0.0073,-0.0073,-0.0220,-0.0073,-0.7590,2.2085,-1.4564,-1.6288,-0.0024,0.0269,-0.0073,1,1,1,1,1,1,1
16.8076,sweep,3,-down,0.08373,0.01926,1.14919,0.92069,0.00629,0.05322,-0.00324,-0.0024,-0.0024,-0.2027,-0.0073,-0.0073,-0.0220,-0.0073,-0.7590,2.2085,-1.4564,-1.6288,-0.0024,0.0269,-0.0073,1,1,1,1,1,1,1
16.8477,sweep,3,-down,0.08373,0.01926,1.13279,0.92031,0.00668,0.05322,-0.00362,-0.0024,0.0024,-0.2125,-0.0220,0.0073,-0.0220,-0.0073,-0.7453,2.1812,-0.9368,-1.6288,-0.0024,0.0317,-0.0073,1,1,1,1,1,1,1
16.8878,sweep,3,-down,0.08373,0.01926,1.13279,0.92031,0.00668,0.05322,-0.00362,-0.0024,0.0024,-0.2125,-0.0220,0.0073,-0.0220,-0.0073,-0.7453,2.1812,-0.9368,-1.6288,-0.0024,0.0317,-0.0073,1,1,1,1,1,1,1
16.9275,sweep,3,-down,0.08373,0.01926,1.13279,0.92031,0.00668,0.05322,-0.00362,-0.0024,0.0024,-0.2125,-0.0220,0.0073,-0.0220,-0.0073,-0.7453,2.1812,-0.9368,-1.6288,-0.0024,0.0317,-0.0073,1,1,1,1,1,1,1
16.9680,sweep,3,-down,0.08373,0.01926,1.10838,0.91993,0.00668,0.05360,-0.00362,-0.0024,-0.0024,-0.1978,0.0073,0.0073,0.0073,-0.0073,-0.7453,2.1265,-0.5812,-1.5946,-0.0073,0.0415,-0.0073,1,1,1,1,1,1,1
17.0084,sweep,3,-down,0.08373,0.01926,1.10838,0.91993,0.00668,0.05360,-0.00362,-0.0024,-0.0024,-0.1978,0.0073,0.0073,0.0073,-0.0073,-0.7453,2.1265,-0.5812,-1.5946,-0.0073,0.0415,-0.0073,1,1,1,1,1,1,1
17.0476,sweep,3,-down,0.08373,0.01926,1.09235,0.91993,0.00668,0.05360,-0.00324,-0.0024,-0.0073,-0.2125,-0.0220,-0.0073,0.0073,-0.0073,-0.7590,2.0991,-0.4855,-1.5897,-0.0122,0.0464,-0.0073,1,1,1,1,1,1,1
17.0878,sweep,3,-down,0.08373,0.01926,1.09235,0.91993,0.00668,0.05360,-0.00324,-0.0024,-0.0073,-0.2125,-0.0220,-0.0073,0.0073,-0.0073,-0.7590,2.0991,-0.4855,-1.5897,-0.0122,0.0464,-0.0073,1,1,1,1,1,1,1
17.1279,sweep,3,-down,0.08373,0.01926,1.09235,0.91993,0.00668,0.05360,-0.00324,-0.0024,-0.0073,-0.2125,-0.0220,-0.0073,0.0073,-0.0073,-0.7590,2.0991,-0.4855,-1.5897,-0.0122,0.0464,-0.0073,1,1,1,1,1,1,1
17.1676,sweep,3,-down,0.08373,0.01926,1.06832,0.91993,0.00668,0.05360,-0.00362,-0.0024,-0.0024,-0.2027,0.0073,-0.0073,-0.0073,0.0073,-0.7316,2.0308,-0.3897,-1.5507,-0.0073,0.0513,-0.0073,1,1,1,1,1,1,1
17.2077,sweep,3,-down,0.08373,0.01926,1.06832,0.91993,0.00668,0.05360,-0.00362,-0.0024,-0.0024,-0.2027,0.0073,-0.0073,-0.0073,0.0073,-0.7316,2.0308,-0.3897,-1.5507,-0.0073,0.0513,-0.0073,1,1,1,1,1,1,1
17.2478,sweep,3,-down,0.08373,0.01926,1.05230,0.91993,0.00668,0.05360,-0.00324,0.0024,-0.0024,-0.2125,-0.0220,-0.0073,-0.0073,-0.0073,-0.7316,1.9897,-0.1573,-1.5311,-0.0073,0.0562,-0.0122,1,1,1,1,1,1,1
17.2879,sweep,3,-down,0.08373,0.01926,1.05230,0.91993,0.00668,0.05360,-0.00324,0.0024,-0.0024,-0.2125,-0.0220,-0.0073,-0.0073,-0.0073,-0.7316,1.9897,-0.1573,-1.5311,-0.0073,0.0562,-0.0122,1,1,1,1,1,1,1
17.3276,sweep,3,-down,0.08373,0.01926,1.05230,0.91993,0.00668,0.05360,-0.00324,0.0024,-0.0024,-0.2125,-0.0220,-0.0073,-0.0073,-0.0073,-0.7316,1.9897,-0.1573,-1.5311,-0.0073,0.0562,-0.0122,1,1,1,1,1,1,1
17.3676,sweep,3,-down,0.08373,0.01926,1.02636,0.91459,0.00668,0.05360,-0.00362,-0.0024,-0.0024,-0.2173,-0.1538,-0.0073,-0.0073,-0.0073,-0.7043,1.8530,1.1009,-1.0623,-0.0122,0.0562,-0.0122,1,1,1,1,1,1,1
17.4077,sweep,3,-down,0.08373,0.01926,1.02636,0.91459,0.00668,0.05360,-0.00362,-0.0024,-0.0024,-0.2173,-0.1538,-0.0073,-0.0073,-0.0073,-0.7043,1.8530,1.1009,-1.0623,-0.0122,0.0562,-0.0122,1,1,1,1,1,1,1
17.4478,sweep,3,-down,0.08373,0.01965,1.00996,0.91306,0.00668,0.05360,-0.00324,-0.0024,-0.0024,-0.1978,0.0073,-0.0073,-0.0073,-0.0073,-0.6769,1.4291,1.7983,-0.7155,-0.0122,0.0659,-0.0122,1,1,1,1,1,1,1
17.4877,sweep,3,-down,0.08373,0.01965,1.00996,0.91306,0.00668,0.05360,-0.00324,-0.0024,-0.0024,-0.1978,0.0073,-0.0073,-0.0073,-0.0073,-0.6769,1.4291,1.7983,-0.7155,-0.0122,0.0659,-0.0122,1,1,1,1,1,1,1
17.5277,sweep,3,-down,0.08373,0.01965,1.00996,0.91306,0.00668,0.05360,-0.00324,-0.0024,-0.0024,-0.1978,0.0073,-0.0073,-0.0073,-0.0073,-0.6769,1.4291,1.7983,-0.7155,-0.0122,0.0659,-0.0122,1,1,1,1,1,1,1
17.5677,sweep,3,-down,0.08373,0.01965,0.98669,0.92107,0.00668,0.05360,-0.00324,0.0024,-0.0024,-0.1978,-0.0073,0.0073,-0.0073,-0.0220,-0.7179,1.5248,0.5402,-1.1990,-0.0122,0.0659,-0.0122,1,1,1,1,1,1,1
17.6076,sweep,3,-down,0.08373,0.01965,0.98669,0.92107,0.00668,0.05360,-0.00324,0.0024,-0.0024,-0.1978,-0.0073,0.0073,-0.0073,-0.0220,-0.7179,1.5248,0.5402,-1.1990,-0.0122,0.0659,-0.0122,1,1,1,1,1,1,1
17.6476,sweep,3,-down,0.08373,0.01965,0.97028,0.91955,0.00668,0.05360,-0.00324,-0.0024,0.0024,-0.2125,-0.0659,-0.0220,-0.0073,-0.0073,-0.7043,1.4427,1.4017,-1.0720,-0.0122,0.0659,-0.0073,1,1,1,1,1,1,1
17.6875,sweep,3,-down,0.08373,0.01965,0.97028,0.91955,0.00668,0.05360,-0.00324,-0.0024,0.0024,-0.2125,-0.0659,-0.0220,-0.0073,-0.0073,-0.7043,1.4427,1.4017,-1.0720,-0.0122,0.0659,-0.0073,1,1,1,1,1,1,1
17.7276,sweep,3,-down,0.08373,0.01965,0.97028,0.91955,0.00668,0.05360,-0.00324,-0.0024,0.0024,-0.2125,-0.0659,-0.0220,-0.0073,-0.0073,-0.7043,1.4427,1.4017,-1.0720,-0.0122,0.0659,-0.0073,1,1,1,1,1,1,1
17.7676,sweep,3,-down,0.08373,0.01965,0.94625,0.91840,0.00668,0.05360,-0.00324,0.0024,-0.0073,-0.1978,0.0073,-0.0073,-0.0073,-0.0073,-0.6769,1.3470,1.2376,-0.9060,-0.0171,0.0757,-0.0024,1,1,1,1,1,1,1
17.8077,sweep,3,-down,0.08373,0.01965,0.94625,0.91840,0.00668,0.05360,-0.00324,0.0024,-0.0073,-0.1978,0.0073,-0.0073,-0.0073,-0.0073,-0.6769,1.3470,1.2376,-0.9060,-0.0171,0.0757,-0.0024,1,1,1,1,1,1,1
17.8476,sweep,3,-down,0.08373,0.01965,0.92985,0.91993,0.00668,0.05360,-0.00362,-0.0024,-0.0024,-0.2271,-0.0073,0.0073,-0.0073,-0.0073,-0.6496,1.2786,1.6342,-0.9890,-0.0171,0.0757,-0.0073,1,1,1,1,1,1,1
17.8881,sweep,3,-down,0.08373,0.01965,0.92985,0.91993,0.00668,0.05360,-0.00362,-0.0024,-0.0024,-0.2271,-0.0073,0.0073,-0.0073,-0.0073,-0.6496,1.2786,1.6342,-0.9890,-0.0171,0.0757,-0.0073,1,1,1,1,1,1,1
17.9276,sweep,3,-down,0.08373,0.01965,0.92985,0.91993,0.00668,0.05360,-0.00362,-0.0024,-0.0024,-0.2271,-0.0073,0.0073,-0.0073,-0.0073,-0.6496,1.2786,1.6342,-0.9890,-0.0171,0.0757,-0.0073,1,1,1,1,1,1,1
17.9675,sweep,3,-down,0.08373,0.01965,0.90581,0.91878,0.00668,0.05360,-0.00324,-0.0073,-0.0024,-0.1978,-0.0073,-0.0073,-0.0073,-0.0073,-0.6359,1.1692,1.8393,-0.8474,-0.0171,0.0806,-0.0024,1,1,1,1,1,1,1
18.0078,sweep,3,-down,0.08373,0.01965,0.90581,0.91878,0.00668,0.05360,-0.00324,-0.0073,-0.0024,-0.1978,-0.0073,-0.0073,-0.0073,-0.0073,-0.6359,1.1692,1.8393,-0.8474,-0.0171,0.0806,-0.0024,1,1,1,1,1,1,1
18.0477,sweep,3,-down,0.08373,0.01965,0.88979,0.91917,0.00668,0.05360,-0.00324,-0.0024,0.0024,-0.2027,-0.0073,-0.0220,-0.0073,-0.0073,-0.6222,1.1419,1.7573,-0.8376,-0.0171,0.0806,-0.0073,1,1,1,1,1,1,1
18.0876,sweep,3,-down,0.08373,0.01965,0.88979,0.91917,0.00668,0.05360,-0.00324,-0.0024,0.0024,-0.2027,-0.0073,-0.0220,-0.0073,-0.0073,-0.6222,1.1419,1.7573,-0.8376,-0.0171,0.0806,-0.0073,1,1,1,1,1,1,1
18.1276,sweep,3,-down,0.08373,0.01965,0.88979,0.91917,0.00668,0.05360,-0.00324,-0.0024,0.0024,-0.2027,-0.0073,-0.0220,-0.0073,-0.0073,-0.6222,1.1419,1.7573,-0.8376,-0.0171,0.0806,-0.0073,1,1,1,1,1,1,1
18.1677,sweep,3,-down,0.08373,0.01965,0.86538,0.91878,0.00668,0.05360,-0.00324,-0.0024,-0.0024,-0.2027,-0.0073,-0.0073,0.0073,0.0073,-0.6085,1.0325,2.2359,-0.7643,-0.0220,0.0806,-0.0073,1,1,1,1,1,1,1
18.2077,sweep,3,-down,0.08373,0.01965,0.86538,0.91878,0.00668,0.05360,-0.00324,-0.0024,-0.0024,-0.2027,-0.0073,-0.0073,0.0073,0.0073,-0.6085,1.0325,2.2359,-0.7643,-0.0220,0.0806,-0.0073,1,1,1,1,1,1,1
18.2477,sweep,3,-down,0.08373,0.01965,0.84936,0.91917,0.00668,0.05360,-0.00324,-0.0024,0.0024,-0.2076,-0.0073,-0.0073,-0.0073,-0.0073,-0.6222,1.0051,2.2769,-0.7350,-0.0220,0.0757,-0.0024,1,1,1,1,1,1,1
18.2878,sweep,3,-down,0.08373,0.01965,0.84936,0.91917,0.00668,0.05360,-0.00324,-0.0024,0.0024,-0.2076,-0.0073,-0.0073,-0.0073,-0.0073,-0.6222,1.0051,2.2769,-0.7350,-0.0220,0.0757,-0.0024,1,1,1,1,1,1,1
18.3276,sweep,3,-down,0.08373,0.01965,0.84936,0.91917,0.00668,0.05360,-0.00324,-0.0024,0.0024,-0.2076,-0.0073,-0.0073,-0.0073,-0.0073,-0.6222,1.0051,2.2769,-0.7350,-0.0220,0.0757,-0.0024,1,1,1,1,1,1,1
18.3677,sweep,3,-down,0.08373,0.01965,0.82532,0.91878,0.00668,0.05360,-0.00324,-0.0024,-0.0073,-0.2076,-0.0220,0.0073,-0.0073,-0.0073,-0.5812,0.9094,2.5094,-0.6667,-0.0220,0.0806,-0.0024,1,1,1,1,1,1,1
18.4076,sweep,3,-down,0.08373,0.01965,0.82532,0.91878,0.00668,0.05360,-0.00324,-0.0024,-0.0073,-0.2076,-0.0220,0.0073,-0.0073,-0.0073,-0.5812,0.9094,2.5094,-0.6667,-0.0220,0.0806,-0.0024,1,1,1,1,1,1,1
18.4476,sweep,3,-down,0.08373,0.01965,0.80930,0.91878,0.00668,0.05398,-0.00324,-0.0024,-0.0024,-0.1832,-0.0073,-0.0073,-0.0073,-0.0073,-0.5812,0.8410,2.4410,-0.6227,-0.0220,0.0806,-0.0024,1,1,1,1,1,1,1
18.4878,sweep,3,-down,0.08373,0.01965,0.80930,0.91878,0.00668,0.05398,-0.00324,-0.0024,-0.0024,-0.1832,-0.0073,-0.0073,-0.0073,-0.0073,-0.5812,0.8410,2.4410,-0.6227,-0.0220,0.0806,-0.0024,1,1,1,1,1,1,1
18.5277,sweep,3,-down,0.08373,0.01965,0.80930,0.91878,0.00668,0.05398,-0.00324,-0.0024,-0.0024,-0.1832,-0.0073,-0.0073,-0.0073,-0.0073,-0.5812,0.8410,2.4410,-0.6227,-0.0220,0.0806,-0.0024,1,1,1,1,1,1,1
18.5678,sweep,3,-down,0.08373,0.01965,0.78489,0.91878,0.00668,0.05360,-0.00362,-0.0024,-0.0024,-0.2076,0.0073,-0.0073,-0.0073,-0.0073,-0.5949,0.7453,2.8786,-0.5543,-0.0269,0.0855,0.0024,1,1,1,1,1,1,1
18.6076,sweep,3,-down,0.08373,0.01965,0.78489,0.91878,0.00668,0.05360,-0.00362,-0.0024,-0.0024,-0.2076,0.0073,-0.0073,-0.0073,-0.0073,-0.5949,0.7453,2.8786,-0.5543,-0.0269,0.0855,0.0024,1,1,1,1,1,1,1
18.6477,sweep,3,-down,0.08373,0.01965,0.76886,0.91878,0.00668,0.05398,-0.00324,-0.0024,0.0024,-0.2076,0.0073,-0.0073,0.0073,0.0073,-0.5675,0.7316,3.2068,-0.5104,-0.0269,0.0806,-0.0024,1,1,1,1,1,1,1
18.6877,sweep,3,-down,0.08373,0.01965,0.76886,0.91878,0.00668,0.05398,-0.00324,-0.0024,0.0024,-0.2076,0.0073,-0.0073,0.0073,0.0073,-0.5675,0.7316,3.2068,-0.5104,-0.0269,0.0806,-0.0024,1,1,1,1,1,1,1
18.7278,sweep,3,-down,0.08373,0.01965,0.76886,0.91878,0.00668,0.05398,-0.00324,-0.0024,0.0024,-0.2076,0.0073,-0.0073,0.0073,0.0073,-0.5675,0.7316,3.2068,-0.5104,-0.0269,0.0806,-0.0024,1,1,1,1,1,1,1
18.7676,sweep,3,-down,0.08373,0.01965,0.74483,0.91878,0.00668,0.05360,-0.00362,-0.0073,0.0024,-0.2125,0.0073,-0.0073,-0.0366,-0.0220,-0.5675,0.6632,3.1795,-0.4420,-0.0269,0.0806,-0.0024,1,1,1,1,1,1,1
18.8078,sweep,3,-down,0.08373,0.01965,0.74483,0.91878,0.00668,0.05360,-0.00362,-0.0073,0.0024,-0.2125,0.0073,-0.0073,-0.0366,-0.0220,-0.5675,0.6632,3.1795,-0.4420,-0.0269,0.0806,-0.0024,1,1,1,1,1,1,1
18.8475,sweep,3,-down,0.08373,0.01965,0.72881,0.91878,0.00668,0.05398,-0.00324,-0.0024,-0.0024,-0.2027,-0.0073,-0.0073,0.0220,-0.0073,-0.5538,0.6359,3.1385,-0.3932,-0.0269,0.0806,-0.0073,1,1,1,1,1,1,1
18.8876,sweep,3,-down,0.08373,0.01965,0.72881,0.91878,0.00668,0.05398,-0.00324,-0.0024,-0.0024,-0.2027,-0.0073,-0.0073,0.0220,-0.0073,-0.5538,0.6359,3.1385,-0.3932,-0.0269,0.0806,-0.0073,1,1,1,1,1,1,1
18.9276,sweep,3,-down,0.08373,0.01965,0.72881,0.91878,0.00668,0.05398,-0.00324,-0.0024,-0.0024,-0.2027,-0.0073,-0.0073,0.0220,-0.0073,-0.5538,0.6359,3.1385,-0.3932,-0.0269,0.0806,-0.0073,1,1,1,1,1,1,1
18.9677,sweep,3,-down,0.08373,0.01965,0.70439,0.91878,0.00668,0.05360,-0.00324,-0.0024,-0.0024,-0.1929,-0.0073,0.0073,-0.0073,-0.0073,-0.5402,0.5675,3.5487,-0.3443,-0.0317,0.0757,-0.0073,1,1,1,1,1,1,1
19.0076,sweep,3,-down,0.08373,0.01965,0.70439,0.91878,0.00668,0.05360,-0.00324,-0.0024,-0.0024,-0.1929,-0.0073,0.0073,-0.0073,-0.0073,-0.5402,0.5675,3.5487,-0.3443,-0.0317,0.0757,-0.0073,1,1,1,1,1,1,1
19.0476,sweep,3,-down,0.08373,0.01965,0.68837,0.91878,0.00629,0.05360,-0.00324,-0.0024,-0.0024,-0.2125,0.0073,-0.0220,0.0073,0.0073,-0.5265,0.5128,3.8085,-0.3053,-0.0269,0.0806,-0.0024,1,1,1,1,1,1,1
19.0879,sweep,3,-down,0.08373,0.01965,0.68837,0.91878,0.00629,0.05360,-0.00324,-0.0024,-0.0024,-0.2125,0.0073,-0.0220,0.0073,0.0073,-0.5265,0.5128,3.8085,-0.3053,-0.0269,0.0806,-0.0024,1,1,1,1,1,1,1
19.1277,sweep,3,-down,0.08373,0.01965,0.68837,0.91878,0.00629,0.05360,-0.00324,-0.0024,-0.0024,-0.2125,0.0073,-0.0220,0.0073,0.0073,-0.5265,0.5128,3.8085,-0.3053,-0.0269,0.0806,-0.0024,1,1,1,1,1,1,1
19.1674,sweep,3,-down,0.08373,0.01965,0.66434,0.91878,0.00629,0.05360,-0.00362,0.0024,-0.0024,-0.2027,-0.0073,-0.0073,-0.0220,-0.0073,-0.5265,0.4444,3.6855,-0.2515,-0.0269,0.0806,-0.0024,1,1,1,1,1,1,1
19.2074,sweep,3,-down,0.08373,0.01965,0.66434,0.91878,0.00629,0.05360,-0.00362,0.0024,-0.0024,-0.2027,-0.0073,-0.0073,-0.0220,-0.0073,-0.5265,0.4444,3.6855,-0.2515,-0.0269,0.0806,-0.0024,1,1,1,1,1,1,1
19.2477,sweep,3,-down,0.08373,0.01965,0.64832,0.91917,0.00668,0.05398,-0.00324,-0.0073,-0.0073,-0.2027,-0.0073,0.0073,0.0073,-0.0073,-0.5128,0.4171,3.7128,-0.2222,-0.0269,0.0757,-0.0024,1,1,1,1,1,1,1
19.2875,sweep,3,-down,0.08373,0.01965,0.64832,0.91917,0.00668,0.05398,-0.00324,-0.0073,-0.0073,-0.2027,-0.0073,0.0073,0.0073,-0.0073,-0.5128,0.4171,3.7128,-0.2222,-0.0269,0.0757,-0.0024,1,1,1,1,1,1,1
19.3277,sweep,3,-down,0.08373,0.01965,0.64832,0.91917,0.00668,0.05398,-0.00324,-0.0073,-0.0073,-0.2027,-0.0073,0.0073,0.0073,-0.0073,-0.5128,0.4171,3.7128,-0.2222,-0.0269,0.0757,-0.0024,1,1,1,1,1,1,1
19.3678,sweep,3,-down,0.08373,0.01965,0.62428,0.91917,0.00629,0.05360,-0.00324,-0.0024,-0.0024,-0.1978,-0.0073,-0.0073,-0.0073,-0.0073,-0.5265,0.3624,3.9453,-0.1734,-0.0317,0.0757,-0.0024,1,1,1,1,1,1,1
19.4077,sweep,3,-down,0.08373,0.01965,0.62428,0.91917,0.00629,0.05360,-0.00324,-0.0024,-0.0024,-0.1978,-0.0073,-0.0073,-0.0073,-0.0073,-0.5265,0.3624,3.9453,-0.1734,-0.0317,0.0757,-0.0024,1,1,1,1,1,1,1
19.4476,sweep,3,-down,0.08373,0.01965,0.60788,0.91878,0.00668,0.05360,-0.00324,-0.0024,-0.0024,-0.2125,-0.0220,-0.0073,-0.0073,-0.0073,-0.5128,0.3624,4.3419,-0.1392,-0.0269,0.0757,-0.0024,1,1,1,1,1,1,1
19.4875,sweep,3,-down,0.08373,0.01965,0.60788,0.91878,0.00668,0.05360,-0.00324,-0.0024,-0.0024,-0.2125,-0.0220,-0.0073,-0.0073,-0.0073,-0.5128,0.3624,4.3419,-0.1392,-0.0269,0.0757,-0.0024,1,1,1,1,1,1,1
19.5277,sweep,3,-down,0.08373,0.01965,0.60788,0.91878,0.00668,0.05360,-0.00324,-0.0024,-0.0024,-0.2125,-0.0220,-0.0073,-0.0073,-0.0073,-0.5128,0.3624,4.3419,-0.1392,-0.0269,0.0757,-0.0024,1,1,1,1,1,1,1
19.5677,sweep,3,-down,0.08373,0.01965,0.58423,0.91878,0.00629,0.05360,-0.00324,-0.0024,-0.0024,-0.2076,-0.0073,-0.0220,-0.0220,-0.0073,-0.5265,0.3214,4.1368,-0.0904,-0.0317,0.0659,-0.0024,1,1,1,1,1,1,1
19.6078,sweep,3,-down,0.08373,0.01965,0.58423,0.91878,0.00629,0.05360,-0.00324,-0.0024,-0.0024,-0.2076,-0.0073,-0.0220,-0.0220,-0.0073,-0.5265,0.3214,4.1368,-0.0904,-0.0317,0.0659,-0.0024,1,1,1,1,1,1,1
19.6476,sweep,3,-down,0.08373,0.01965,0.56783,0.91878,0.00629,0.05360,-0.00362,-0.0024,0.0024,-0.2076,-0.0073,-0.0220,0.0073,-0.0073,-0.5128,0.2940,4.5060,-0.0659,-0.0269,0.0708,-0.0073,1,1,1,1,1,1,1
19.6875,sweep,3,-down,0.08373,0.01965,0.56783,0.91878,0.00629,0.05360,-0.00362,-0.0024,0.0024,-0.2076,-0.0073,-0.0220,0.0073,-0.0073,-0.5128,0.2940,4.5060,-0.0659,-0.0269,0.0708,-0.0073,1,1,1,1,1,1,1
19.7277,sweep,3,-down,0.08373,0.01965,0.56783,0.91878,0.00629,0.05360,-0.00362,-0.0024,0.0024,-0.2076,-0.0073,-0.0220,0.0073,-0.0073,-0.5128,0.2940,4.5060,-0.0659,-0.0269,0.0708,-0.0073,1,1,1,1,1,1,1
19.7676,sweep,3,-down,0.08373,0.01965,0.54379,0.91802,0.00668,0.05360,-0.00362,-0.0024,-0.0024,-0.1978,-0.0073,-0.0073,-0.0073,-0.0073,-0.5265,0.2940,4.5333,-0.0024,-0.0269,0.0708,-0.0171,1,1,1,1,1,1,1
19.8077,sweep,3,-down,0.08373,0.01965,0.54379,0.91802,0.00668,0.05360,-0.00362,-0.0024,-0.0024,-0.1978,-0.0073,-0.0073,-0.0073,-0.0073,-0.5265,0.2940,4.5333,-0.0024,-0.0269,0.0708,-0.0171,1,1,1,1,1,1,1
19.8475,sweep,3,-down,0.08373,0.01965,0.52777,0.91573,0.00668,0.05398,-0.00324,-0.0073,-0.0073,-0.1929,-0.1099,-0.0220,0.0073,-0.0073,-0.5402,0.2530,4.5744,0.1197,-0.0317,0.0708,-0.0122,1,1,1,1,1,1,1
19.8877,sweep,3,-down,0.08373,0.01965,0.52777,0.91573,0.00668,0.05398,-0.00324,-0.0073,-0.0073,-0.1929,-0.1099,-0.0220,0.0073,-0.0073,-0.5402,0.2530,4.5744,0.1197,-0.0317,0.0708,-0.0122,1,1,1,1,1,1,1
19.9277,sweep,3,-down,0.08373,0.01965,0.52777,0.91573,0.00668,0.05398,-0.00324,-0.0073,-0.0073,-0.1929,-0.1099,-0.0220,0.0073,-0.0073,-0.5402,0.2530,4.5744,0.1197,-0.0317,0.0708,-0.0122,1,1,1,1,1,1,1
19.9678,sweep,3,-down,0.08373,0.01965,0.50336,0.91459,0.00629,0.05360,-0.00324,-0.0024,-0.0073,-0.2076,0.0659,-0.0073,-0.0073,-0.0220,-0.5128,0.2120,5.0393,0.5153,-0.0317,0.0757,-0.0073,1,1,1,1,1,1,1
20.0076,sweep,3,-down,0.08373,0.01965,0.50336,0.91459,0.00629,0.05360,-0.00324,-0.0024,-0.0073,-0.2076,0.0659,-0.0073,-0.0073,-0.0220,-0.5128,0.2120,5.0393,0.5153,-0.0317,0.0757,-0.0073,1,1,1,1,1,1,1
20.0477,sweep,3,-down,0.08373,0.01965,0.48734,0.91955,0.00668,0.05360,-0.00362,-0.0024,0.0024,-0.2076,0.0220,0.0073,0.0073,0.0073,-0.4991,0.1983,4.7932,0.2320,-0.0317,0.0757,-0.0073,1,1,1,1,1,1,1
20.0875,sweep,3,-down,0.08373,0.01965,0.48734,0.91955,0.00668,0.05360,-0.00362,-0.0024,0.0024,-0.2076,0.0220,0.0073,0.0073,0.0073,-0.4991,0.1983,4.7932,0.2320,-0.0317,0.0757,-0.0073,1,1,1,1,1,1,1
20.1279,sweep,3,-down,0.08373,0.01965,0.48734,0.91955,0.00668,0.05360,-0.00362,-0.0024,0.0024,-0.2076,0.0220,0.0073,0.0073,0.0073,-0.4991,0.1983,4.7932,0.2320,-0.0317,0.0757,-0.0073,1,1,1,1,1,1,1
20.1675,sweep,3,-down,0.08373,0.01965,0.46292,0.91840,0.00668,0.05360,-0.00362,-0.0024,0.0024,-0.1929,-0.0073,0.0073,-0.0073,0.0073,-0.5128,0.1573,5.3402,0.3590,-0.0269,0.0757,-0.0073,1,1,1,1,1,1,1
20.2075,sweep,3,-down,0.08373,0.01965,0.46292,0.91840,0.00668,0.05360,-0.00362,-0.0024,0.0024,-0.1929,-0.0073,0.0073,-0.0073,0.0073,-0.5128,0.1573,5.3402,0.3590,-0.0269,0.0757,-0.0073,1,1,1,1,1,1,1
20.2477,sweep,3,-down,0.08373,0.01965,0.44728,0.91878,0.00629,0.05398,-0.00324,0.0024,-0.0024,-0.1978,-0.0073,-0.0073,-0.0073,-0.0073,-0.5128,0.1299,5.1350,0.3785,-0.0220,0.0757,-0.0024,1,1,1,1,1,1,1
20.2876,sweep,3,-down,0.08373,0.01965,0.44728,0.91878,0.00629,0.05398,-0.00324,0.0024,-0.0024,-0.1978,-0.0073,-0.0073,-0.0073,-0.0073,-0.5128,0.1299,5.1350,0.3785,-0.0220,0.0757,-0.0024,1,1,1,1,1,1,1
20.3278,sweep,3,-down,0.08373,0.01965,0.44728,0.91878,0.00629,0.05398,-0.00324,0.0024,-0.0024,-0.1978,-0.0073,-0.0073,-0.0073,-0.0073,-0.5128,0.1299,5.1350,0.3785,-0.0220,0.0757,-0.0024,1,1,1,1,1,1,1
20.3676,sweep,3,-down,0.08373,0.01965,0.42325,0.91878,0.00668,0.05398,-0.00324,-0.0024,-0.0024,-0.2125,-0.0073,0.0073,-0.0073,-0.0073,-0.4991,0.1162,5.1761,0.4469,-0.0269,0.0757,-0.0073,1,1,1,1,1,1,1
20.4077,sweep,3,-down,0.08373,0.01965,0.42325,0.91878,0.00668,0.05398,-0.00324,-0.0024,-0.0024,-0.2125,-0.0073,0.0073,-0.0073,-0.0073,-0.4991,0.1162,5.1761,0.4469,-0.0269,0.0757,-0.0073,1,1,1,1,1,1,1
20.4475,sweep,3,-down,0.08373,0.01965,0.40684,0.91878,0.00629,0.05360,-0.00324,-0.0073,-0.0024,-0.2076,-0.0073,-0.0073,-0.0220,-0.0073,-0.4991,0.0889,5.5043,0.4957,-0.0269,0.0708,-0.0073,1,1,1,1,1,1,1
20.4875,sweep,3,-down,0.08373,0.01965,0.40684,0.91878,0.00629,0.05360,-0.00324,-0.0073,-0.0024,-0.2076,-0.0073,-0.0073,-0.0220,-0.0073,-0.4991,0.0889,5.5043,0.4957,-0.0269,0.0708,-0.0073,1,1,1,1,1,1,1
20.5276,sweep,3,-down,0.08373,0.01965,0.40684,0.91878,0.00629,0.05360,-0.00324,-0.0073,-0.0024,-0.2076,-0.0073,-0.0073,-0.0220,-0.0073,-0.4991,0.0889,5.5043,0.4957,-0.0269,0.0708,-0.0073,1,1,1,1,1,1,1
20.5676,sweep,3,-down,0.08373,0.01965,0.38281,0.91878,0.00629,0.05360,-0.00362,-0.0024,-0.0024,-0.1929,-0.0220,-0.0073,-0.0073,-0.0073,-0.5402,0.0479,5.5727,0.5690,-0.0269,0.0757,-0.0073,1,1,1,1,1,1,1
20.6075,sweep,3,-down,0.08373,0.01965,0.38281,0.91878,0.00629,0.05360,-0.00362,-0.0024,-0.0024,-0.1929,-0.0220,-0.0073,-0.0073,-0.0073,-0.5402,0.0479,5.5727,0.5690,-0.0269,0.0757,-0.0073,1,1,1,1,1,1,1
20.6475,sweep,3,-down,0.08373,0.01965,0.36679,0.91878,0.00629,0.05360,-0.00362,-0.0024,-0.0024,-0.1929,0.0073,-0.0073,-0.0073,-0.0073,-0.4991,0.0205,5.7641,0.6227,-0.0269,0.0757,-0.0073,1,1,1,1,1,1,1
20.6878,sweep,3,-down,0.08373,0.01965,0.36679,0.91878,0.00629,0.05360,-0.00362,-0.0024,-0.0024,-0.1929,0.0073,-0.0073,-0.0073,-0.0073,-0.4991,0.0205,5.7641,0.6227,-0.0269,0.0757,-0.0073,1,1,1,1,1,1,1
20.7277,sweep,3,-down,0.08373,0.01965,0.36679,0.91878,0.00629,0.05360,-0.00362,-0.0024,-0.0024,-0.1929,0.0073,-0.0073,-0.0073,-0.0073,-0.4991,0.0205,5.7641,0.6227,-0.0269,0.0757,-0.0073,1,1,1,1,1,1,1
20.7676,sweep,3,-down,0.08373,0.01965,0.34276,0.91917,0.00629,0.05360,-0.00324,-0.0024,0.0024,-0.1978,0.0220,-0.0220,-0.0073,-0.0073,-0.4991,-0.0342,5.6273,0.6471,-0.0269,0.0757,-0.0073,1,1,1,1,1,1,1
