peipl15/reBot_Arm/outputs/gravity_calib_20260622_002220.csv
t_s,phase,swept_joint,direction,q1,q2,q3,q4,q5,q6,q7,v1,v2,v3,v4,v5,v6,v7,tau1,tau2,tau3,tau4,tau5,tau6,tau7,st1,st2,st3,st4,st5,st6,st7
0.0022,approach,3,to_lo,-0.18444,0.70668,0.02613,1.06794,-0.01316,0.23442,-0.00324,-0.0122,-0.0024,-0.0024,-0.0073,-0.0073,-0.0073,-0.0073,-0.0068,0.0479,0.0889,0.2857,0.0024,-0.0220,-0.0024,1,1,1,1,1,1,1
0.0423,approach,3,to_lo,-0.18444,0.70668,0.02613,1.04391,-0.01240,0.23404,-0.00324,-0.0073,-0.0024,-0.0024,-0.0073,-0.0220,-0.0220,-0.0073,0.0342,0.0205,0.0752,2.1465,-0.0122,-0.0073,-0.0073,1,1,1,1,1,1,1
0.0825,approach,3,to_lo,-0.18444,0.70668,0.02613,1.04391,-0.01240,0.23404,-0.00324,-0.0073,-0.0024,-0.0024,-0.0073,-0.0220,-0.0220,-0.0073,0.0342,0.0205,0.0752,2.1465,-0.0122,-0.0073,-0.0073,1,1,1,1,1,1,1
0.1225,approach,3,to_lo,-0.18444,0.70668,0.02613,1.04391,-0.01240,0.23404,-0.00324,-0.0073,-0.0024,-0.0024,-0.0073,-0.0220,-0.0220,-0.0073,0.0342,0.0205,0.0752,2.1465,-0.0122,-0.0073,-0.0073,1,1,1,1,1,1,1
0.1625,approach,3,to_lo,-0.18444,0.70668,0.03681,1.05955,-0.01240,0.23404,-0.00324,-0.0073,-0.0024,0.1099,0.1392,-0.0073,-0.0220,-0.0073,0.0068,0.0068,3.8906,2.1123,-0.0366,-0.0073,-0.0024,1,1,1,1,1,1,1
0.2023,approach,3,to_lo,-0.18444,0.70668,0.03681,1.05955,-0.01240,0.23404,-0.00324,-0.0073,-0.0024,0.1099,0.1392,-0.0073,-0.0220,-0.0073,0.0068,0.0068,3.8906,2.1123,-0.0366,-0.0073,-0.0024,1,1,1,1,1,1,1
0.2423,approach,3,to_lo,-0.18444,0.70668,0.04368,1.06222,-0.01240,0.23404,-0.00324,-0.0024,-0.0073,0.0757,0.0659,0.0073,-0.0220,-0.0073,0.0342,0.0615,6.0513,2.3614,-0.0464,-0.0122,-0.0024,1,1,1,1,1,1,1
0.2824,approach,3,to_lo,-0.18444,0.70668,0.04368,1.06222,-0.01240,0.23404,-0.00324,-0.0024,-0.0073,0.0757,0.0659,0.0073,-0.0220,-0.0073,0.0342,0.0615,6.0513,2.3614,-0.0464,-0.0122,-0.0024,1,1,1,1,1,1,1
0.3225,approach,3,to_lo,-0.18444,0.70668,0.04368,1.06222,-0.01240,0.23404,-0.00324,-0.0024,-0.0073,0.0757,0.0659,0.0073,-0.0220,-0.0073,0.0342,0.0615,6.0513,2.3614,-0.0464,-0.0122,-0.0024,1,1,1,1,1,1,1
0.3625,approach,3,to_lo,-0.18444,0.70668,0.05207,1.06718,-0.01240,0.23404,-0.00362,-0.0073,0.0024,0.0415,0.0073,-0.0073,-0.0073,-0.0073,0.0342,0.0068,10.5641,2.3810,-0.0611,-0.0122,-0.0024,1,1,1,1,1,1,1
0.4023,approach,3,to_lo,-0.18444,0.70668,0.05207,1.06718,-0.01240,0.23404,-0.00362,-0.0073,0.0024,0.0415,0.0073,-0.0073,-0.0073,-0.0073,0.0342,0.0068,10.5641,2.3810,-0.0611,-0.0122,-0.0024,1,1,1,1,1,1,1
0.4423,approach,3,to_lo,-0.18444,0.70668,0.05856,1.06794,-0.01240,0.23404,-0.00362,-0.0024,-0.0024,0.1245,0.0220,-0.0220,0.0073,-0.0073,0.0205,-0.0205,10.9470,2.5128,-0.0757,-0.0122,-0.0024,1,1,1,1,1,1,1
0.4825,approach,3,to_lo,-0.18444,0.70668,0.05856,1.06794,-0.01240,0.23404,-0.00362,-0.0024,-0.0024,0.1245,0.0220,-0.0220,0.0073,-0.0073,0.0205,-0.0205,10.9470,2.5128,-0.0757,-0.0122,-0.0024,1,1,1,1,1,1,1
0.5225,approach,3,to_lo,-0.18444,0.70668,0.05856,1.06794,-0.01240,0.23404,-0.00362,-0.0024,-0.0024,0.1245,0.0220,-0.0220,0.0073,-0.0073,0.0205,-0.0205,10.9470,2.5128,-0.0757,-0.0122,-0.0024,1,1,1,1,1,1,1
0.5626,approach,3,to_lo,-0.18444,0.70668,0.06771,1.07404,-0.01240,0.23404,-0.00324,0.0024,-0.0024,0.0611,-0.0073,0.0073,-0.0220,-0.0220,0.0205,0.0068,11.0291,2.1221,-0.1050,-0.0220,-0.0024,1,1,1,1,1,1,1
0.6024,approach,3,to_lo,-0.18444,0.70668,0.06771,1.07404,-0.01240,0.23404,-0.00324,0.0024,-0.0024,0.0611,-0.0073,0.0073,-0.0220,-0.0220,0.0205,0.0068,11.0291,2.1221,-0.1050,-0.0220,-0.0024,1,1,1,1,1,1,1
0.6425,approach,3,to_lo,-0.18444,0.70668,0.07343,1.07404,-0.01240,0.23404,-0.00362,-0.0073,-0.0024,0.0757,0.0073,-0.0220,-0.0073,-0.0220,0.0068,-0.0342,10.8923,2.1074,-0.1294,-0.0269,-0.0073,1,1,1,1,1,1,1
0.6824,approach,3,to_lo,-0.18444,0.70668,0.07343,1.07404,-0.01240,0.23404,-0.00362,-0.0073,-0.0024,0.0757,0.0073,-0.0220,-0.0073,-0.0220,0.0068,-0.0342,10.8923,2.1074,-0.1294,-0.0269,-0.0073,1,1,1,1,1,1,1
0.7223,approach,3,to_lo,-0.18444,0.70668,0.07343,1.07404,-0.01240,0.23404,-0.00362,-0.0073,-0.0024,0.0757,0.0073,-0.0220,-0.0073,-0.0220,0.0068,-0.0342,10.8923,2.1074,-0.1294,-0.0269,-0.0073,1,1,1,1,1,1,1
0.7625,approach,3,to_lo,-0.18444,0.70668,0.08030,1.07443,-0.01240,0.23404,-0.00362,-0.0024,-0.0073,0.0317,-0.0073,-0.0220,0.0073,-0.0220,-0.0068,-0.0068,10.7419,2.0488,-0.1636,-0.0317,-0.0073,1,1,1,1,1,1,1
0.8022,approach,3,to_lo,-0.18444,0.70668,0.08030,1.07443,-0.01240,0.23404,-0.00362,-0.0024,-0.0073,0.0317,-0.0073,-0.0220,0.0073,-0.0220,-0.0068,-0.0068,10.7419,2.0488,-0.1636,-0.0317,-0.0073,1,1,1,1,1,1,1
0.8425,approach,3,to_lo,-0.18444,0.70668,0.08412,1.07404,-0.01240,0.23404,-0.00324,-0.0024,-0.0024,0.0562,0.0073,0.0073,0.0073,-0.0073,-0.0342,-0.0479,10.8923,2.0488,-0.1832,-0.0366,-0.0024,1,1,1,1,1,1,1
0.8823,approach,3,to_lo,-0.18444,0.70668,0.08412,1.07404,-0.01240,0.23404,-0.00324,-0.0024,-0.0024,0.0562,0.0073,0.0073,0.0073,-0.0073,-0.0342,-0.0479,10.8923,2.0488,-0.1832,-0.0366,-0.0024,1,1,1,1,1,1,1
0.9223,approach,3,to_lo,-0.18444,0.70668,0.08412,1.07404,-0.01240,0.23404,-0.00324,-0.0024,-0.0024,0.0562,0.0073,0.0073,0.0073,-0.0073,-0.0342,-0.0479,10.8923,2.0488,-0.1832,-0.0366,-0.0024,1,1,1,1,1,1,1
0.9624,approach,3,to_lo,-0.18444,0.70668,0.08946,1.07404,-0.01278,0.23404,-0.00324,-0.0024,-0.0024,0.0269,0.0073,-0.0073,0.0073,-0.0073,0.0068,-0.0479,11.1385,2.0244,-0.2222,-0.0366,-0.0024,1,1,1,1,1,1,1
1.0026,approach,3,to_lo,-0.18444,0.70668,0.08946,1.07404,-0.01278,0.23404,-0.00324,-0.0024,-0.0024,0.0269,0.0073,-0.0073,0.0073,-0.0073,0.0068,-0.0479,11.1385,2.0244,-0.2222,-0.0366,-0.0024,1,1,1,1,1,1,1
1.0423,approach,3,to_lo,-0.18444,0.70668,0.09289,1.07366,-0.01278,0.23404,-0.00324,-0.0073,-0.0024,0.0269,-0.0220,-0.0073,-0.0073,-0.0073,-0.0068,-0.0752,10.6872,2.0440,-0.2320,-0.0415,-0.0073,1,1,1,1,1,1,1
1.0827,approach,3,to_lo,-0.18444,0.70668,0.09289,1.07366,-0.01278,0.23404,-0.00324,-0.0073,-0.0024,0.0269,-0.0220,-0.0073,-0.0073,-0.0073,-0.0068,-0.0752,10.6872,2.0440,-0.2320,-0.0415,-0.0073,1,1,1,1,1,1,1
1.1222,approach,3,to_lo,-0.18444,0.70668,0.09289,1.07366,-0.01278,0.23404,-0.00324,-0.0073,-0.0024,0.0269,-0.0220,-0.0073,-0.0073,-0.0073,-0.0068,-0.0752,10.6872,2.0440,-0.2320,-0.0415,-0.0073,1,1,1,1,1,1,1
1.1626,approach,3,to_lo,-0.18444,0.70668,0.09670,1.07366,-0.01278,0.23404,-0.00324,-0.0073,-0.0024,0.0220,0.0073,-0.0220,-0.0073,-0.0073,0.0068,-0.0752,10.9333,2.0391,-0.2515,-0.0415,-0.0024,1,1,1,1,1,1,1
1.2024,approach,3,to_lo,-0.18444,0.70668,0.09670,1.07366,-0.01278,0.23404,-0.00324,-0.0073,-0.0024,0.0220,0.0073,-0.0220,-0.0073,-0.0073,0.0068,-0.0752,10.9333,2.0391,-0.2515,-0.0415,-0.0024,1,1,1,1,1,1,1
1.2426,approach,3,to_lo,-0.18444,0.70668,0.09899,1.07366,-0.01278,0.23404,-0.00324,-0.0024,0.0024,0.0220,-0.0073,-0.0073,-0.0073,0.0073,-0.0205,-0.0889,11.2342,2.0195,-0.2662,-0.0464,-0.0073,1,1,1,1,1,1,1
1.2825,approach,3,to_lo,-0.18444,0.70668,0.09899,1.07366,-0.01278,0.23404,-0.00324,-0.0024,0.0024,0.0220,-0.0073,-0.0073,-0.0073,0.0073,-0.0205,-0.0889,11.2342,2.0195,-0.2662,-0.0464,-0.0073,1,1,1,1,1,1,1
1.3227,approach,3,to_lo,-0.18444,0.70668,0.09899,1.07366,-0.01278,0.23404,-0.00324,-0.0024,0.0024,0.0220,-0.0073,-0.0073,-0.0073,0.0073,-0.0205,-0.0889,11.2342,2.0195,-0.2662,-0.0464,-0.0073,1,1,1,1,1,1,1
1.3625,approach,3,to_lo,-0.18444,0.70668,0.10243,1.07366,-0.01278,0.23404,-0.00324,0.0024,-0.0024,0.0122,0.0073,-0.0073,-0.0073,-0.0073,-0.0068,-0.1026,10.9607,2.0342,-0.2759,-0.0513,-0.0024,1,1,1,1,1,1,1
1.8652,sweep,3,+up,-0.18444,0.70668,0.10319,1.07366,-0.01316,0.23404,-0.00324,-0.0024,-0.0024,0.0220,-0.0073,-0.0073,-0.0220,-0.0220,-0.0068,-0.1162,11.0564,2.0244,-0.2759,-0.0513,-0.0024,1,1,1,1,1,1,1
1.9051,sweep,3,+up,-0.18444,0.70668,0.10319,1.07366,-0.01316,0.23404,-0.00324,-0.0024,-0.0024,0.0220,-0.0073,-0.0073,-0.0220,-0.0220,-0.0068,-0.1162,11.0564,2.0244,-0.2759,-0.0513,-0.0024,1,1,1,1,1,1,1
1.9453,sweep,3,+up,-0.18444,0.70668,0.11692,1.06947,-0.01316,0.23404,-0.00324,0.0024,-0.0024,0.1636,-0.1978,-0.0073,-0.0073,-0.0073,-0.0205,-0.1709,13.4222,2.3223,-0.3150,-0.0757,-0.0122,1,1,1,1,1,1,1
1.9854,sweep,3,+up,-0.18444,0.70668,0.11692,1.06947,-0.01316,0.23404,-0.00324,0.0024,-0.0024,0.1636,-0.1978,-0.0073,-0.0073,-0.0073,-0.0205,-0.1709,13.4222,2.3223,-0.3150,-0.0757,-0.0122,1,1,1,1,1,1,1
2.0253,sweep,3,+up,-0.18444,0.70668,0.11692,1.06947,-0.01316,0.23404,-0.00324,0.0024,-0.0024,0.1636,-0.1978,-0.0073,-0.0073,-0.0073,-0.0205,-0.1709,13.4222,2.3223,-0.3150,-0.0757,-0.0122,1,1,1,1,1,1,1
2.0654,sweep,3,+up,-0.18444,0.70668,0.14210,1.07404,-0.01316,0.23404,-0.00324,-0.0024,-0.0024,0.1880,-0.0366,-0.0073,-0.0073,-0.0073,-0.0068,-0.2120,11.3026,2.1172,-0.3248,-0.0855,-0.0122,1,1,1,1,1,1,1
2.1054,sweep,3,+up,-0.18444,0.70668,0.14210,1.07404,-0.01316,0.23404,-0.00324,-0.0024,-0.0024,0.1880,-0.0366,-0.0073,-0.0073,-0.0073,-0.0068,-0.2120,11.3026,2.1172,-0.3248,-0.0855,-0.0122,1,1,1,1,1,1,1
2.1451,sweep,3,+up,-0.18444,0.70668,0.15812,1.07404,-0.01316,0.23442,-0.00324,-0.0024,0.0024,0.1978,-0.0073,-0.0073,0.0073,-0.0073,-0.0068,-0.1983,11.3299,2.1172,-0.3443,-0.1001,-0.0122,1,1,1,1,1,1,1
2.1852,sweep,3,+up,-0.18444,0.70668,0.15812,1.07404,-0.01316,0.23442,-0.00324,-0.0024,0.0024,0.1978,-0.0073,-0.0073,0.0073,-0.0073,-0.0068,-0.1983,11.3299,2.1172,-0.3443,-0.1001,-0.0122,1,1,1,1,1,1,1
2.2254,sweep,3,+up,-0.18444,0.70668,0.15812,1.07404,-0.01316,0.23442,-0.00324,-0.0024,0.0024,0.1978,-0.0073,-0.0073,0.0073,-0.0073,-0.0068,-0.1983,11.3299,2.1172,-0.3443,-0.1001,-0.0122,1,1,1,1,1,1,1
2.2651,sweep,3,+up,-0.18444,0.70668,0.17376,1.07404,-0.01278,0.23442,-0.00324,-0.0024,-0.0024,0.2027,0.0073,-0.0073,0.0073,-0.0073,0.0068,-0.2667,12.2598,2.1172,-0.3736,-0.1343,-0.0073,1,1,1,1,1,1,1
2.3052,sweep,3,+up,-0.18444,0.70668,0.17376,1.07404,-0.01278,0.23442,-0.00324,-0.0024,-0.0024,0.2027,0.0073,-0.0073,0.0073,-0.0073,0.0068,-0.2667,12.2598,2.1172,-0.3736,-0.1343,-0.0073,1,1,1,1,1,1,1
2.3453,sweep,3,+up,-0.18444,0.70668,0.19741,1.07404,-0.01278,0.23480,-0.00324,-0.0073,-0.0024,0.1880,-0.0220,-0.0073,0.0073,-0.0220,-0.0068,-0.2803,12.4239,2.0879,-0.3932,-0.1636,-0.0073,1,1,1,1,1,1,1
2.3852,sweep,3,+up,-0.18444,0.70668,0.19741,1.07404,-0.01278,0.23480,-0.00324,-0.0073,-0.0024,0.1880,-0.0220,-0.0073,0.0073,-0.0220,-0.0068,-0.2803,12.4239,2.0879,-0.3932,-0.1636,-0.0073,1,1,1,1,1,1,1
2.4253,sweep,3,+up,-0.18444,0.70668,0.19741,1.07404,-0.01278,0.23480,-0.00324,-0.0073,-0.0024,0.1880,-0.0220,-0.0073,0.0073,-0.0220,-0.0068,-0.2803,12.4239,2.0879,-0.3932,-0.1636,-0.0073,1,1,1,1,1,1,1
2.4653,sweep,3,+up,-0.18444,0.70668,0.22145,1.07404,-0.01278,0.23480,-0.00324,-0.0024,-0.0024,0.1880,0.0073,-0.0073,0.0220,-0.0073,-0.0205,-0.3350,12.5607,2.0733,-0.4322,-0.2027,-0.0073,1,1,1,1,1,1,1
2.5054,sweep,3,+up,-0.18444,0.70668,0.22145,1.07404,-0.01278,0.23480,-0.00324,-0.0024,-0.0024,0.1880,0.0073,-0.0073,0.0220,-0.0073,-0.0205,-0.3350,12.5607,2.0733,-0.4322,-0.2027,-0.0073,1,1,1,1,1,1,1
2.5453,sweep,3,+up,-0.18444,0.70668,0.23785,1.07366,-0.01278,0.23480,-0.00362,-0.0024,-0.0024,0.2076,-0.0073,-0.0073,-0.0073,-0.0073,0.0068,-0.3761,12.1368,2.0684,-0.4518,-0.2222,-0.0073,1,1,1,1,1,1,1
2.5853,sweep,3,+up,-0.18444,0.70668,0.23785,1.07366,-0.01278,0.23480,-0.00362,-0.0024,-0.0024,0.2076,-0.0073,-0.0073,-0.0073,-0.0073,0.0068,-0.3761,12.1368,2.0684,-0.4518,-0.2222,-0.0073,1,1,1,1,1,1,1
2.6253,sweep,3,+up,-0.18444,0.70668,0.23785,1.07366,-0.01278,0.23480,-0.00362,-0.0024,-0.0024,0.2076,-0.0073,-0.0073,-0.0073,-0.0073,0.0068,-0.3761,12.1368,2.0684,-0.4518,-0.2222,-0.0073,1,1,1,1,1,1,1
2.6653,sweep,3,+up,-0.18482,0.70668,0.26112,1.07366,-0.01278,0.23442,-0.00362,-0.0073,-0.0024,0.1978,-0.0073,-0.0073,-0.0073,-0.0073,0.0068,-0.4308,12.7248,2.0733,-0.4957,-0.2515,-0.0073,1,1,1,1,1,1,1
2.7054,sweep,3,+up,-0.18482,0.70668,0.26112,1.07366,-0.01278,0.23442,-0.00362,-0.0073,-0.0024,0.1978,-0.0073,-0.0073,-0.0073,-0.0073,0.0068,-0.4308,12.7248,2.0733,-0.4957,-0.2515,-0.0073,1,1,1,1,1,1,1
2.7455,sweep,3,+up,-0.18444,0.70668,0.27714,1.07366,-0.01240,0.23442,-0.00362,-0.0024,-0.0024,0.1978,-0.0073,-0.0073,-0.0073,-0.0073,0.0205,-0.4581,12.9573,2.0684,-0.5153,-0.2857,-0.0073,1,1,1,1,1,1,1
2.7853,sweep,3,+up,-0.18444,0.70668,0.27714,1.07366,-0.01240,0.23442,-0.00362,-0.0024,-0.0024,0.1978,-0.0073,-0.0073,-0.0073,-0.0073,0.0205,-0.4581,12.9573,2.0684,-0.5153,-0.2857,-0.0073,1,1,1,1,1,1,1
2.8255,sweep,3,+up,-0.18444,0.70668,0.27714,1.07366,-0.01240,0.23442,-0.00362,-0.0024,-0.0024,0.1978,-0.0073,-0.0073,-0.0073,-0.0073,0.0205,-0.4581,12.9573,2.0684,-0.5153,-0.2857,-0.0073,1,1,1,1,1,1,1
2.8653,sweep,3,+up,-0.18444,0.70668,0.30118,1.07328,-0.01240,0.23442,-0.00324,0.0024,-0.0024,0.2027,-0.0220,-0.0073,-0.0220,-0.0073,0.0068,-0.4581,13.0393,2.0586,-0.5446,-0.3053,-0.0073,1,1,1,1,1,1,1
2.9053,sweep,3,+up,-0.18444,0.70668,0.30118,1.07328,-0.01240,0.23442,-0.00324,0.0024,-0.0024,0.2027,-0.0220,-0.0073,-0.0220,-0.0073,0.0068,-0.4581,13.0393,2.0586,-0.5446,-0.3053,-0.0073,1,1,1,1,1,1,1
2.9453,sweep,3,+up,-0.18482,0.70668,0.31720,1.07366,-0.01240,0.23442,-0.00324,-0.0024,-0.0024,0.1978,-0.0073,-0.0073,-0.0073,-0.0073,0.0068,-0.4855,12.8889,2.0440,-0.5739,-0.3199,-0.0073,1,1,1,1,1,1,1
2.9853,sweep,3,+up,-0.18482,0.70668,0.31720,1.07366,-0.01240,0.23442,-0.00324,-0.0024,-0.0024,0.1978,-0.0073,-0.0073,-0.0073,-0.0073,0.0068,-0.4855,12.8889,2.0440,-0.5739,-0.3199,-0.0073,1,1,1,1,1,1,1
3.0254,sweep,3,+up,-0.18482,0.70668,0.31720,1.07366,-0.01240,0.23442,-0.00324,-0.0024,-0.0024,0.1978,-0.0073,-0.0073,-0.0073,-0.0073,0.0068,-0.4855,12.8889,2.0440,-0.5739,-0.3199,-0.0073,1,1,1,1,1,1,1
3.0653,sweep,3,+up,-0.18482,0.70668,0.34085,1.07404,-0.01278,0.23404,-0.00362,-0.0024,-0.0024,0.1734,-0.0073,-0.0073,0.0073,-0.0073,0.0205,-0.4855,13.2444,2.0098,-0.6032,-0.3101,-0.0024,1,1,1,1,1,1,1
3.1053,sweep,3,+up,-0.18482,0.70668,0.34085,1.07404,-0.01278,0.23404,-0.00362,-0.0024,-0.0024,0.1734,-0.0073,-0.0073,0.0073,-0.0073,0.0205,-0.4855,13.2444,2.0098,-0.6032,-0.3101,-0.0024,1,1,1,1,1,1,1
3.1455,sweep,3,+up,-0.18482,0.70668,0.35687,1.07366,-0.01278,0.23404,-0.00324,-0.0024,-0.0024,0.2173,-0.0073,-0.0073,-0.0220,0.0073,0.0205,-0.5402,12.9299,2.0000,-0.6325,-0.3101,-0.0073,1,1,1,1,1,1,1
3.1853,sweep,3,+up,-0.18482,0.70668,0.35687,1.07366,-0.01278,0.23404,-0.00324,-0.0024,-0.0024,0.2173,-0.0073,-0.0073,-0.0220,0.0073,0.0205,-0.5402,12.9299,2.0000,-0.6325,-0.3101,-0.0073,1,1,1,1,1,1,1
3.2254,sweep,3,+up,-0.18482,0.70668,0.35687,1.07366,-0.01278,0.23404,-0.00324,-0.0024,-0.0024,0.2173,-0.0073,-0.0073,-0.0220,0.0073,0.0205,-0.5402,12.9299,2.0000,-0.6325,-0.3101,-0.0073,1,1,1,1,1,1,1
3.2655,sweep,3,+up,-0.18444,0.70668,0.38090,1.07404,-0.01278,0.23404,-0.00324,-0.0024,-0.0073,0.2027,-0.0220,-0.0073,-0.0220,-0.0073,0.0205,-0.5675,13.1897,1.9609,-0.6471,-0.3004,-0.0073,1,1,1,1,1,1,1
3.3055,sweep,3,+up,-0.18444,0.70668,0.38090,1.07404,-0.01278,0.23404,-0.00324,-0.0024,-0.0073,0.2027,-0.0220,-0.0073,-0.0220,-0.0073,0.0205,-0.5675,13.1897,1.9609,-0.6471,-0.3004,-0.0073,1,1,1,1,1,1,1
3.3454,sweep,3,+up,-0.18444,0.70668,0.39692,1.07366,-0.01278,0.23404,-0.00324,-0.0024,-0.0024,0.1929,-0.0220,-0.0073,0.0073,-0.0073,-0.0068,-0.6085,13.2308,1.9316,-0.6764,-0.3101,-0.0073,1,1,1,1,1,1,1
3.3855,sweep,3,+up,-0.18444,0.70668,0.39692,1.07366,-0.01278,0.23404,-0.00324,-0.0024,-0.0024,0.1929,-0.0220,-0.0073,0.0073,-0.0073,-0.0068,-0.6085,13.2308,1.9316,-0.6764,-0.3101,-0.0073,1,1,1,1,1,1,1
3.4255,sweep,3,+up,-0.18444,0.70668,0.39692,1.07366,-0.01278,0.23404,-0.00324,-0.0024,-0.0024,0.1929,-0.0220,-0.0073,0.0073,-0.0073,-0.0068,-0.6085,13.2308,1.9316,-0.6764,-0.3101,-0.0073,1,1,1,1,1,1,1
3.4656,sweep,3,+up,-0.18482,0.70668,0.42096,1.07366,-0.01278,0.23404,-0.00324,-0.0024,0.0024,0.1978,-0.0073,-0.0073,0.0073,-0.0073,-0.0205,-0.6496,13.3402,1.9316,-0.6960,-0.3101,-0.0024,1,1,1,1,1,1,1
3.5056,sweep,3,+up,-0.18482,0.70668,0.42096,1.07366,-0.01278,0.23404,-0.00324,-0.0024,0.0024,0.1978,-0.0073,-0.0073,0.0073,-0.0073,-0.0205,-0.6496,13.3402,1.9316,-0.6960,-0.3101,-0.0024,1,1,1,1,1,1,1
3.5456,sweep,3,+up,-0.18444,0.70668,0.43698,1.07404,-0.01278,0.23404,-0.00324,0.0024,-0.0024,0.2076,-0.0073,-0.0220,-0.0073,0.0073,-0.0205,-0.6496,13.1624,1.8828,-0.7106,-0.3199,-0.0073,1,1,1,1,1,1,1
3.5850,sweep,3,+up,-0.18444,0.70668,0.43698,1.07404,-0.01278,0.23404,-0.00324,0.0024,-0.0024,0.2076,-0.0073,-0.0220,-0.0073,0.0073,-0.0205,-0.6496,13.1624,1.8828,-0.7106,-0.3199,-0.0073,1,1,1,1,1,1,1
3.6252,sweep,3,+up,-0.18444,0.70668,0.43698,1.07404,-0.01278,0.23404,-0.00324,0.0024,-0.0024,0.2076,-0.0073,-0.0220,-0.0073,0.0073,-0.0205,-0.6496,13.1624,1.8828,-0.7106,-0.3199,-0.0073,1,1,1,1,1,1,1
3.6652,sweep,3,+up,-0.18482,0.70668,0.46101,1.07404,-0.01278,0.23365,-0.00324,-0.0024,-0.0024,0.2076,0.0073,0.0220,-0.0073,-0.0073,-0.0205,-0.7043,12.8889,1.8535,-0.7302,-0.3150,-0.0073,1,1,1,1,1,1,1
3.7052,sweep,3,+up,-0.18482,0.70668,0.46101,1.07404,-0.01278,0.23365,-0.00324,-0.0024,-0.0024,0.2076,0.0073,0.0220,-0.0073,-0.0073,-0.0205,-0.7043,12.8889,1.8535,-0.7302,-0.3150,-0.0073,1,1,1,1,1,1,1
3.7453,sweep,3,+up,-0.18482,0.70668,0.47665,1.07443,-0.01278,0.23365,-0.00324,-0.0024,-0.0024,0.1832,-0.0073,-0.0073,0.0073,0.0073,-0.0068,-0.7043,13.4359,1.8193,-0.7497,-0.3199,-0.0073,1,1,1,1,1,1,1
3.7852,sweep,3,+up,-0.18482,0.70668,0.47665,1.07443,-0.01278,0.23365,-0.00324,-0.0024,-0.0024,0.1832,-0.0073,-0.0073,0.0073,0.0073,-0.0068,-0.7043,13.4359,1.8193,-0.7497,-0.3199,-0.0073,1,1,1,1,1,1,1
3.8252,sweep,3,+up,-0.18482,0.70668,0.47665,1.07443,-0.01278,0.23365,-0.00324,-0.0024,-0.0024,0.1832,-0.0073,-0.0073,0.0073,0.0073,-0.0068,-0.7043,13.4359,1.8193,-0.7497,-0.3199,-0.0073,1,1,1,1,1,1,1
3.8653,sweep,3,+up,-0.18444,0.70668,0.50069,1.07443,-0.01278,0.23365,-0.00324,-0.0024,-0.0024,0.2076,0.0073,-0.0073,0.0220,-0.0073,0.0068,-0.7453,13.3538,1.7656,-0.7595,-0.3101,-0.0073,1,1,1,1,1,1,1
3.9052,sweep,3,+up,-0.18444,0.70668,0.50069,1.07443,-0.01278,0.23365,-0.00324,-0.0024,-0.0024,0.2076,0.0073,-0.0073,0.0220,-0.0073,0.0068,-0.7453,13.3538,1.7656,-0.7595,-0.3101,-0.0073,1,1,1,1,1,1,1
3.9453,sweep,3,+up,-0.18444,0.70668,0.51747,1.07443,-0.01278,0.23365,-0.00324,-0.0073,-0.0024,0.2027,0.0220,0.0073,-0.0073,-0.0073,0.0068,-0.7590,12.6154,1.7167,-0.7595,-0.3004,-0.0073,1,1,1,1,1,1,1
3.9854,sweep,3,+up,-0.18444,0.70668,0.51747,1.07443,-0.01278,0.23365,-0.00324,-0.0073,-0.0024,0.2027,0.0220,0.0073,-0.0073,-0.0073,0.0068,-0.7590,12.6154,1.7167,-0.7595,-0.3004,-0.0073,1,1,1,1,1,1,1
4.0254,sweep,3,+up,-0.18444,0.70668,0.51747,1.07443,-0.01278,0.23365,-0.00324,-0.0073,-0.0024,0.2027,0.0220,0.0073,-0.0073,-0.0073,0.0068,-0.7590,12.6154,1.7167,-0.7595,-0.3004,-0.0073,1,1,1,1,1,1,1
4.0653,sweep,3,+up,-0.18482,0.70668,0.54150,1.07481,-0.01278,0.23365,-0.00324,-0.0073,-0.0024,0.1880,0.0073,0.0073,-0.0073,-0.0073,0.0205,-0.7590,12.7248,1.6581,-0.7595,-0.2906,-0.0073,1,1,1,1,1,1,1
4.1050,sweep,3,+up,-0.18482,0.70668,0.54150,1.07481,-0.01278,0.23365,-0.00324,-0.0073,-0.0024,0.1880,0.0073,0.0073,-0.0073,-0.0073,0.0205,-0.7590,12.7248,1.6581,-0.7595,-0.2906,-0.0073,1,1,1,1,1,1,1
4.1455,sweep,3,+up,-0.18444,0.70668,0.55676,1.07443,-0.01278,0.23365,-0.00362,-0.0024,-0.0024,0.2125,-0.0073,-0.0073,-0.0220,-0.0220,0.0205,-0.7316,13.1624,1.6630,-0.7741,-0.2857,-0.0122,1,1,1,1,1,1,1
4.1856,sweep,3,+up,-0.18444,0.70668,0.55676,1.07443,-0.01278,0.23365,-0.00362,-0.0024,-0.0024,0.2125,-0.0073,-0.0073,-0.0220,-0.0220,0.0205,-0.7316,13.1624,1.6630,-0.7741,-0.2857,-0.0122,1,1,1,1,1,1,1
4.2254,sweep,3,+up,-0.18444,0.70668,0.55676,1.07443,-0.01278,0.23365,-0.00362,-0.0024,-0.0024,0.2125,-0.0073,-0.0073,-0.0220,-0.0220,0.0205,-0.7316,13.1624,1.6630,-0.7741,-0.2857,-0.0122,1,1,1,1,1,1,1
4.2652,sweep,3,+up,-0.18444,0.70668,0.58080,1.07443,-0.01278,0.23365,-0.00362,-0.0024,-0.0024,0.2027,0.0073,-0.0073,0.0073,-0.0073,0.0068,-0.7453,13.3265,1.5995,-0.8034,-0.2906,-0.0122,1,1,1,1,1,1,1
4.3053,sweep,3,+up,-0.18444,0.70668,0.58080,1.07443,-0.01278,0.23365,-0.00362,-0.0024,-0.0024,0.2027,0.0073,-0.0073,0.0073,-0.0073,0.0068,-0.7453,13.3265,1.5995,-0.8034,-0.2906,-0.0122,1,1,1,1,1,1,1
4.3454,sweep,3,+up,-0.18444,0.70668,0.59720,1.07443,-0.01278,0.23365,-0.00362,-0.0024,-0.0024,0.1783,0.0073,0.0073,0.0073,-0.0220,0.0068,-0.6632,12.9709,1.5556,-0.8181,-0.2759,-0.0171,1,1,1,1,1,1,1
4.3854,sweep,3,+up,-0.18444,0.70668,0.59720,1.07443,-0.01278,0.23365,-0.00362,-0.0024,-0.0024,0.1783,0.0073,0.0073,0.0073,-0.0220,0.0068,-0.6632,12.9709,1.5556,-0.8181,-0.2759,-0.0171,1,1,1,1,1,1,1
4.4252,sweep,3,+up,-0.18444,0.70668,0.59720,1.07443,-0.01278,0.23365,-0.00362,-0.0024,-0.0024,0.1783,0.0073,0.0073,0.0073,-0.0220,0.0068,-0.6632,12.9709,1.5556,-0.8181,-0.2759,-0.0171,1,1,1,1,1,1,1
4.4652,sweep,3,+up,-0.18482,0.70668,0.62123,1.07443,-0.01278,0.23365,-0.00362,-0.0024,-0.0024,0.1832,-0.0073,-0.0220,0.0073,-0.0073,-0.0068,-0.7590,13.0256,1.5507,-0.8376,-0.2662,-0.0122,1,1,1,1,1,1,1
4.5053,sweep,3,+up,-0.18482,0.70668,0.62123,1.07443,-0.01278,0.23365,-0.00362,-0.0024,-0.0024,0.1832,-0.0073,-0.0220,0.0073,-0.0073,-0.0068,-0.7590,13.0256,1.5507,-0.8376,-0.2662,-0.0122,1,1,1,1,1,1,1
4.5454,sweep,3,+up,-0.18444,0.70668,0.64527,1.07481,-0.01469,0.23365,-0.00362,-0.0024,-0.0024,0.1832,-0.0073,-0.0659,-0.0073,-0.0073,-0.0205,-0.7726,12.2188,1.4383,-0.7155,-0.2369,-0.0122,1,1,1,1,1,1,1
4.5853,sweep,3,+up,-0.18444,0.70668,0.64527,1.07481,-0.01469,0.23365,-0.00362,-0.0024,-0.0024,0.1832,-0.0073,-0.0659,-0.0073,-0.0073,-0.0205,-0.7726,12.2188,1.4383,-0.7155,-0.2369,-0.0122,1,1,1,1,1,1,1
4.6251,sweep,3,+up,-0.18444,0.70668,0.64527,1.07481,-0.01469,0.23365,-0.00362,-0.0024,-0.0024,0.1832,-0.0073,-0.0659,-0.0073,-0.0073,-0.0205,-0.7726,12.2188,1.4383,-0.7155,-0.2369,-0.0122,1,1,1,1,1,1,1
4.6653,sweep,3,+up,-0.18444,0.70668,0.66014,1.07404,-0.01202,0.23442,-0.00324,-0.0024,-0.0024,0.1978,-0.0220,0.0073,-0.0073,-0.0073,0.0068,-0.7863,14.0376,1.4725,-0.8620,-0.3053,-0.0073,1,1,1,1,1,1,1
4.7051,sweep,3,+up,-0.18444,0.70668,0.66014,1.07404,-0.01202,0.23442,-0.00324,-0.0024,-0.0024,0.1978,-0.0220,0.0073,-0.0073,-0.0073,0.0068,-0.7863,14.0376,1.4725,-0.8620,-0.3053,-0.0073,1,1,1,1,1,1,1
4.7451,sweep,3,+up,-0.18444,0.70668,0.66014,1.07443,-0.01278,0.23404,-0.00362,-0.0024,-0.0024,0.1978,-0.0073,-0.0073,-0.0073,-0.0073,0.0068,-0.7863,14.0376,1.4139,-0.8571,-0.2906,-0.0122,1,1,1,1,1,1,1
4.7850,sweep,3,+up,-0.18444,0.70668,0.68494,1.07443,-0.01278,0.23404,-0.00362,-0.0024,-0.0024,0.2027,-0.0073,-0.0073,-0.0073,-0.0073,-0.0068,-0.8274,12.7385,1.4139,-0.8571,-0.2906,-0.0122,1,1,1,1,1,1,1
4.8253,sweep,3,+up,-0.18444,0.70668,0.68494,1.07443,-0.01278,0.23404,-0.00362,-0.0024,-0.0024,0.2027,-0.0073,-0.0073,-0.0073,-0.0073,-0.0068,-0.8274,12.7385,1.4139,-0.8571,-0.2906,-0.0122,1,1,1,1,1,1,1
4.8651,sweep,3,+up,-0.18444,0.70668,0.69944,1.07443,-0.01240,0.23404,-0.00324,-0.0073,-0.0024,0.1685,-0.0366,0.0073,0.0073,-0.0220,-0.0205,-0.8547,13.1214,1.3700,-0.8816,-0.3004,-0.0073,1,1,1,1,1,1,1
4.9051,sweep,3,+up,-0.18444,0.70668,0.69944,1.07443,-0.01240,0.23404,-0.00324,-0.0073,-0.0024,0.1685,-0.0366,0.0073,0.0073,-0.0220,-0.0205,-0.8547,13.1214,1.3700,-0.8816,-0.3004,-0.0073,1,1,1,1,1,1,1
4.9452,sweep,3,+up,-0.18444,0.70668,0.69944,1.07443,-0.01240,0.23404,-0.00324,-0.0073,-0.0024,0.1685,-0.0366,0.0073,0.0073,0.0073,-0.0205,-0.8547,13.1214,1.3700,-0.8816,-0.3004,-0.0024,1,1,1,1,1,1,1
4.9853,sweep,3,+up,-0.18444,0.70668,0.71851,1.07404,-0.01240,0.23404,-0.00324,0.0024,-0.0024,0.1441,-0.0073,-0.0073,-0.0073,0.0073,-0.0205,-0.8410,13.1487,1.3504,-0.9353,-0.3150,-0.0024,1,1,1,1,1,1,1
5.0253,sweep,3,+up,-0.18444,0.70668,0.71851,1.07404,-0.01240,0.23404,-0.00324,0.0024,-0.0024,0.1441,-0.0073,-0.0073,-0.0073,0.0073,-0.0205,-0.8410,13.1487,1.3504,-0.9353,-0.3150,-0.0024,1,1,1,1,1,1,1
5.0653,sweep,3,+up,-0.18444,0.70592,0.72919,1.07481,-0.01278,0.23404,-0.00324,-0.0024,-0.0024,0.1343,0.0073,-0.0220,-0.0220,-0.0220,0.0205,-0.2120,13.5590,1.2674,-0.9646,-0.3150,-0.0024,1,1,1,1,1,1,1
5.1051,sweep,3,+up,-0.18444,0.70592,0.72919,1.07481,-0.01278,0.23404,-0.00324,-0.0024,-0.0024,0.1343,0.0073,-0.0220,-0.0220,-0.0220,0.0205,-0.2120,13.5590,1.2674,-0.9646,-0.3150,-0.0024,1,1,1,1,1,1,1
5.1454,sweep,3,+up,-0.18444,0.70592,0.72919,1.07481,-0.01278,0.23404,-0.00324,-0.0024,-0.0024,0.1343,0.0073,-0.0220,-0.0220,-0.0220,0.0205,-0.2120,13.5590,1.2674,-0.9646,-0.3150,-0.0024,1,1,1,1,1,1,1
5.1852,sweep,3,+up,-0.18444,0.70592,0.74369,1.07443,-0.01278,0.23404,-0.00324,-0.0024,-0.0024,0.1245,-0.0073,-0.0073,0.0073,-0.0220,-0.0068,-0.1709,13.7231,1.2430,-0.9890,-0.3199,-0.0024,1,1,1,1,1,1,1
5.2253,sweep,3,+up,-0.18444,0.70592,0.74369,1.07443,-0.01278,0.23404,-0.00324,-0.0024,-0.0024,0.1245,-0.0073,-0.0073,0.0073,-0.0220,-0.0068,-0.1709,13.7231,1.2430,-0.9890,-0.3199,-0.0024,1,1,1,1,1,1,1
5.2653,sweep,3,+up,-0.18444,0.70592,0.75284,1.07443,-0.01278,0.23404,-0.00324,0.0024,-0.0024,0.1148,0.0073,-0.0073,-0.0073,-0.0073,0.0205,-0.1573,12.8068,1.2039,-1.0085,-0.3248,-0.0024,1,1,1,1,1,1,1
5.3051,sweep,3,+up,-0.18444,0.70592,0.75284,1.07443,-0.01278,0.23404,-0.00324,0.0024,-0.0024,0.1148,0.0073,-0.0073,-0.0073,-0.0073,0.0205,-0.1573,12.8068,1.2039,-1.0085,-0.3248,-0.0024,1,1,1,1,1,1,1
5.3452,sweep,3,+up,-0.18444,0.70592,0.75284,1.07443,-0.01278,0.23404,-0.00324,0.0024,-0.0024,0.1148,0.0073,-0.0073,-0.0073,-0.0073,0.0205,-0.1573,12.8068,1.2039,-1.0085,-0.3248,-0.0024,1,1,1,1,1,1,1
5.3853,sweep,3,+up,-0.18444,0.70592,0.76352,1.07404,-0.01278,0.23365,-0.00324,0.0024,-0.0024,0.0904,-0.0073,-0.0073,-0.0073,-0.0073,0.0205,-0.1026,13.1350,1.1697,-1.0085,-0.3150,-0.0073,1,1,1,1,1,1,1
5.4252,sweep,3,+up,-0.18444,0.70592,0.76352,1.07404,-0.01278,0.23365,-0.00324,0.0024,-0.0024,0.0904,-0.0073,-0.0073,-0.0073,-0.0073,0.0205,-0.1026,13.1350,1.1697,-1.0085,-0.3150,-0.0073,1,1,1,1,1,1,1
5.4652,sweep,3,+up,-0.18444,0.70592,0.77001,1.07404,-0.01316,0.23365,-0.00362,-0.0024,-0.0024,0.0464,-0.0220,-0.0073,-0.0073,-0.0073,0.0205,-0.0479,13.2581,1.1551,-1.0134,-0.3053,-0.0073,1,1,1,1,1,1,1
5.5051,sweep,3,+up,-0.18444,0.70592,0.77001,1.07404,-0.01316,0.23365,-0.00362,-0.0024,-0.0024,0.0464,-0.0220,-0.0073,-0.0073,-0.0073,0.0205,-0.0479,13.2581,1.1551,-1.0134,-0.3053,-0.0073,1,1,1,1,1,1,1
5.5451,sweep,3,+up,-0.18444,0.70592,0.77001,1.07404,-0.01316,0.23365,-0.00362,-0.0024,-0.0024,0.0464,-0.0220,-0.0073,-0.0073,-0.0073,0.0205,-0.0479,13.2581,1.1551,-1.0134,-0.3053,-0.0073,1,1,1,1,1,1,1
5.5850,sweep,3,+up,-0.18444,0.70592,0.77840,1.07404,-0.01316,0.23365,-0.00324,-0.0024,-0.0024,0.0855,0.0073,-0.0073,-0.0073,-0.0073,0.0615,-0.0205,13.1487,1.1160,-0.9988,-0.2955,-0.0073,1,1,1,1,1,1,1
5.6251,sweep,3,+up,-0.18444,0.70592,0.77840,1.07404,-0.01316,0.23365,-0.00324,-0.0024,-0.0024,0.0855,0.0073,-0.0073,-0.0073,-0.0073,0.0615,-0.0205,13.1487,1.1160,-0.9988,-0.2955,-0.0073,1,1,1,1,1,1,1
5.6651,sweep,3,+up,-0.18444,0.70592,0.78374,1.07404,-0.01354,0.23365,-0.00324,-0.0073,-0.0024,0.0562,0.0073,0.0073,-0.0073,-0.0073,0.0479,0.0205,12.6291,1.0867,-0.9939,-0.2906,-0.0024,1,1,1,1,1,1,1
5.7051,sweep,3,+up,-0.18444,0.70592,0.78374,1.07404,-0.01354,0.23365,-0.00324,-0.0073,-0.0024,0.0562,0.0073,0.0073,-0.0073,-0.0073,0.0479,0.0205,12.6291,1.0867,-0.9939,-0.2906,-0.0024,1,1,1,1,1,1,1
5.7452,sweep,3,+up,-0.18444,0.70592,0.78374,1.07404,-0.01354,0.23365,-0.00324,-0.0073,-0.0024,0.0562,0.0073,0.0073,-0.0073,-0.0073,0.0479,0.0205,12.6291,1.0867,-0.9939,-0.2906,-0.0024,1,1,1,1,1,1,1
5.7853,sweep,3,+up,-0.18444,0.70592,0.79023,1.07443,-0.01354,0.23365,-0.00362,-0.0024,-0.0024,0.0562,-0.0073,0.0073,-0.0073,-0.0220,0.0342,0.1162,12.6564,1.0525,-0.9695,-0.2857,-0.0073,1,1,1,1,1,1,1
5.8252,sweep,3,+up,-0.18444,0.70592,0.79023,1.07443,-0.01354,0.23365,-0.00362,-0.0024,-0.0024,0.0562,-0.0073,0.0073,-0.0073,-0.0220,0.0342,0.1162,12.6564,1.0525,-0.9695,-0.2857,-0.0073,1,1,1,1,1,1,1
5.8652,sweep,3,+up,-0.18444,0.70592,0.79366,1.07404,-0.01354,0.23365,-0.00324,-0.0073,-0.0024,0.0464,-0.0220,-0.0073,-0.0073,-0.0073,0.0342,0.1299,12.9846,1.0330,-0.9695,-0.2808,-0.0024,1,1,1,1,1,1,1
5.9053,sweep,3,+up,-0.18444,0.70592,0.79366,1.07404,-0.01354,0.23365,-0.00324,-0.0073,-0.0024,0.0464,-0.0220,-0.0073,-0.0073,-0.0073,0.0342,0.1299,12.9846,1.0330,-0.9695,-0.2808,-0.0024,1,1,1,1,1,1,1
5.9453,sweep,3,+up,-0.18444,0.70592,0.79366,1.07404,-0.01354,0.23365,-0.00324,-0.0073,-0.0024,0.0464,-0.0220,-0.0073,-0.0073,-0.0073,0.0342,0.1299,12.9846,1.0330,-0.9695,-0.2808,-0.0024,1,1,1,1,1,1,1
5.9854,sweep,3,+up,-0.18444,0.70592,0.79862,1.07404,-0.01354,0.23365,-0.00324,-0.0024,-0.0024,0.0366,0.0073,-0.0073,-0.0073,-0.0073,0.0068,0.1573,12.4786,1.0134,-0.9548,-0.2613,-0.0073,1,1,1,1,1,1,1
6.0251,sweep,3,+up,-0.18444,0.70592,0.79862,1.07404,-0.01354,0.23365,-0.00324,-0.0024,-0.0024,0.0366,0.0073,-0.0073,-0.0073,-0.0073,0.0068,0.1573,12.4786,1.0134,-0.9548,-0.2613,-0.0073,1,1,1,1,1,1,1
6.0655,sweep,3,+up,-0.18444,0.70592,0.80167,1.07404,-0.01354,0.23365,-0.00362,-0.0024,-0.0024,0.0220,-0.0073,-0.0220,-0.0073,-0.0220,0.0205,0.1983,12.4513,1.0183,-0.9451,-0.2564,-0.0024,1,1,1,1,1,1,1
6.1053,sweep,3,+up,-0.18444,0.70592,0.80167,1.07404,-0.01354,0.23365,-0.00362,-0.0024,-0.0024,0.0220,-0.0073,-0.0220,-0.0073,-0.0220,0.0205,0.1983,12.4513,1.0183,-0.9451,-0.2564,-0.0024,1,1,1,1,1,1,1
6.1453,sweep,3,+up,-0.18444,0.70592,0.80167,1.07404,-0.01354,0.23365,-0.00362,-0.0024,-0.0024,0.0220,-0.0073,-0.0220,-0.0073,-0.0220,0.0205,0.1983,12.4513,1.0183,-0.9451,-0.2564,-0.0024,1,1,1,1,1,1,1
6.1854,sweep,3,+up,-0.18444,0.70592,0.80282,1.07404,-0.01431,0.23365,-0.00362,-0.0024,-0.0024,0.0317,0.0073,-0.0366,-0.0073,-0.0073,0.0068,0.2393,12.4103,0.9792,-0.8767,-0.2466,-0.0073,1,1,1,1,1,1,1
6.2254,sweep,3,+up,-0.18444,0.70592,0.80282,1.07404,-0.01431,0.23365,-0.00362,-0.0024,-0.0024,0.0317,0.0073,-0.0366,-0.0073,-0.0073,0.0068,0.2393,12.4103,0.9792,-0.8767,-0.2466,-0.0073,1,1,1,1,1,1,1
6.2651,sweep,3,+up,-0.18444,0.70592,0.80816,1.07404,-0.01774,0.23289,-0.00362,0.0024,-0.0024,0.0513,0.0073,-0.1245,-0.0513,-0.0073,0.0205,0.2530,11.4120,0.9451,-0.5250,-0.1783,-0.0073,1,1,1,1,1,1,1
6.7681,sweep,3,-down,-0.18444,0.70592,0.81006,1.07443,-0.02041,0.23251,-0.00324,0.0024,-0.0024,0.0513,0.0366,0.0806,0.0220,-0.0073,-0.0068,0.2393,9.8120,0.8913,-0.2173,-0.1294,-0.0024,1,1,1,1,1,1,1
6.8078,sweep,3,-down,-0.18444,0.70592,0.81006,1.07443,-0.02041,0.23251,-0.00324,0.0024,-0.0024,0.0513,0.0366,0.0806,0.0220,-0.0073,-0.0068,0.2393,9.8120,0.8913,-0.2173,-0.1294,-0.0024,1,1,1,1,1,1,1
6.8476,sweep,3,-down,-0.18444,0.70592,0.81006,1.07443,-0.02041,0.23251,-0.00324,0.0024,-0.0024,0.0513,0.0366,0.0806,0.0220,-0.0073,-0.0068,0.2393,9.8120,0.8913,-0.2173,-0.1294,-0.0024,1,1,1,1,1,1,1
6.8878,sweep,3,-down,-0.18444,0.70592,0.80625,1.07404,-0.01431,0.23327,-0.00362,-0.0024,-0.0024,-0.2369,-0.0659,-0.0073,-0.0073,0.0073,-0.0068,0.4855,6.1880,0.8327,-0.2662,-0.0757,-0.0122,1,1,1,1,1,1,1
6.9278,sweep,3,-down,-0.18444,0.70592,0.80625,1.07404,-0.01431,0.23327,-0.00362,-0.0024,-0.0024,-0.2369,-0.0659,-0.0073,-0.0073,0.0073,-0.0068,0.4855,6.1880,0.8327,-0.2662,-0.0757,-0.0122,1,1,1,1,1,1,1
6.9697,sweep,3,-down,-0.18444,0.70592,0.79023,1.07404,-0.01469,0.23327,-0.00324,-0.0024,-0.0024,-0.1832,0.0073,-0.0073,-0.0073,0.0073,-0.0068,0.5538,6.0513,0.7937,-0.2125,-0.0611,-0.0122,1,1,1,1,1,1,1
7.0080,sweep,3,-down,-0.18444,0.70592,0.79023,1.07404,-0.01469,0.23327,-0.00324,-0.0024,-0.0024,-0.1832,0.0073,-0.0073,-0.0073,0.0073,-0.0068,0.5538,6.0513,0.7937,-0.2125,-0.0611,-0.0122,1,1,1,1,1,1,1
7.0477,sweep,3,-down,-0.18444,0.70592,0.79023,1.07404,-0.01469,0.23327,-0.00324,-0.0024,-0.0024,-0.1832,0.0073,-0.0073,-0.0073,0.0073,-0.0068,0.5538,6.0513,0.7937,-0.2125,-0.0611,-0.0122,1,1,1,1,1,1,1
7.0878,sweep,3,-down,-0.18444,0.70592,0.76581,1.07366,-0.01507,0.23327,-0.00324,-0.0024,-0.0024,-0.2076,-0.0220,-0.0220,0.0073,-0.0073,0.0068,0.6085,6.5846,0.8034,-0.1245,-0.0464,-0.0073,1,1,1,1,1,1,1
7.1282,sweep,3,-down,-0.18444,0.70592,0.76581,1.07366,-0.01507,0.23327,-0.00324,-0.0024,-0.0024,-0.2076,-0.0220,-0.0220,0.0073,-0.0073,0.0068,0.6085,6.5846,0.8034,-0.1245,-0.0464,-0.0073,1,1,1,1,1,1,1
7.1678,sweep,3,-down,-0.18444,0.70630,0.74979,1.07176,-0.01469,0.23327,-0.00324,-0.0073,0.0073,-0.2076,0.0073,-0.0220,0.0073,-0.0073,-0.0068,0.3487,6.5846,1.0134,-0.0952,-0.0415,-0.0073,1,1,1,1,1,1,1
7.2078,sweep,3,-down,-0.18444,0.70630,0.74979,1.07176,-0.01469,0.23327,-0.00324,-0.0073,0.0073,-0.2076,0.0073,-0.0220,0.0073,-0.0073,-0.0068,0.3487,6.5846,1.0134,-0.0952,-0.0415,-0.0073,1,1,1,1,1,1,1
7.2476,sweep,3,-down,-0.18444,0.70630,0.74979,1.07176,-0.01469,0.23327,-0.00324,-0.0073,0.0073,-0.2076,0.0073,-0.0220,0.0073,-0.0073,-0.0068,0.3487,6.5846,1.0134,-0.0952,-0.0415,-0.0073,1,1,1,1,1,1,1
7.2876,sweep,3,-down,-0.18444,0.70668,0.72614,1.07176,-0.01469,0.23327,-0.00324,-0.0073,-0.0024,-0.2173,-0.0073,-0.0220,0.0073,-0.0073,-0.0068,0.2393,6.4205,1.1209,-0.0659,-0.0269,-0.0073,1,1,1,1,1,1,1
7.3276,sweep,3,-down,-0.18444,0.70668,0.72614,1.07176,-0.01469,0.23327,-0.00324,-0.0073,-0.0024,-0.2173,-0.0073,-0.0220,0.0073,-0.0073,-0.0068,0.2393,6.4205,1.1209,-0.0659,-0.0269,-0.0073,1,1,1,1,1,1,1
7.3679,sweep,3,-down,-0.18444,0.70668,0.70973,1.07214,-0.01431,0.23327,-0.00362,-0.0024,-0.0024,-0.1978,0.0073,0.0073,-0.0220,-0.0073,-0.0205,0.2393,6.9402,1.1551,-0.0562,-0.0171,-0.0073,1,1,1,1,1,1,1
7.4076,sweep,3,-down,-0.18444,0.70668,0.70973,1.07214,-0.01431,0.23327,-0.00362,-0.0024,-0.0024,-0.1978,0.0073,0.0073,-0.0220,-0.0073,-0.0205,0.2393,6.9402,1.1551,-0.0562,-0.0171,-0.0073,1,1,1,1,1,1,1
7.4477,sweep,3,-down,-0.18444,0.70668,0.70973,1.07214,-0.01431,0.23327,-0.00362,-0.0024,-0.0024,-0.1978,0.0073,0.0073,-0.0220,-0.0073,-0.0205,0.2393,6.9402,1.1551,-0.0562,-0.0171,-0.0073,1,1,1,1,1,1,1
7.4877,sweep,3,-down,-0.18444,0.70668,0.68570,1.07252,-0.01431,0.23327,-0.00324,-0.0073,-0.0024,-0.1929,0.0220,-0.0073,-0.0073,0.0073,-0.0205,0.2120,6.9675,1.1795,-0.0415,0.0024,-0.0073,1,1,1,1,1,1,1
7.5277,sweep,3,-down,-0.18444,0.70668,0.68570,1.07252,-0.01431,0.23327,-0.00324,-0.0073,-0.0024,-0.1929,0.0220,-0.0073,-0.0073,0.0073,-0.0205,0.2120,6.9675,1.1795,-0.0415,0.0024,-0.0073,1,1,1,1,1,1,1
7.5677,sweep,3,-down,-0.18444,0.70668,0.66968,1.07252,-0.01431,0.23327,-0.00362,-0.0024,-0.0024,-0.2076,-0.0073,-0.0073,-0.0073,-0.0220,-0.0068,0.2120,6.9265,1.1941,-0.0317,0.0122,-0.0073,1,1,1,1,1,1,1
7.6078,sweep,3,-down,-0.18444,0.70668,0.66968,1.07252,-0.01431,0.23327,-0.00362,-0.0024,-0.0024,-0.2076,-0.0073,-0.0073,-0.0073,-0.0220,-0.0068,0.2120,6.9265,1.1941,-0.0317,0.0122,-0.0073,1,1,1,1,1,1,1
7.6477,sweep,3,-down,-0.18444,0.70668,0.66968,1.07252,-0.01431,0.23327,-0.00362,-0.0024,-0.0024,-0.2076,-0.0073,-0.0073,-0.0073,-0.0220,-0.0068,0.2120,6.9265,1.1941,-0.0317,0.0122,-0.0073,1,1,1,1,1,1,1
7.6881,sweep,3,-down,-0.18444,0.70668,0.64565,1.07290,-0.01392,0.23327,-0.00362,0.0024,-0.0073,-0.2076,-0.0220,-0.0073,-0.0073,-0.0073,-0.0068,0.1573,6.9675,1.2234,-0.0220,0.0220,-0.0073,1,1,1,1,1,1,1
7.7278,sweep,3,-down,-0.18444,0.70668,0.64565,1.07290,-0.01392,0.23327,-0.00362,0.0024,-0.0073,-0.2076,-0.0220,-0.0073,-0.0073,-0.0073,-0.0068,0.1573,6.9675,1.2234,-0.0220,0.0220,-0.0073,1,1,1,1,1,1,1
7.7680,sweep,3,-down,-0.18444,0.70668,0.62963,1.07290,-0.01392,0.23327,-0.00362,-0.0024,-0.0024,-0.1978,-0.0073,-0.0073,-0.0073,-0.0073,-0.0068,0.1436,7.0496,1.2527,-0.0171,0.0269,-0.0073,1,1,1,1,1,1,1
7.8076,sweep,3,-down,-0.18444,0.70668,0.62963,1.07290,-0.01392,0.23327,-0.00362,-0.0024,-0.0024,-0.1978,-0.0073,-0.0073,-0.0073,-0.0073,-0.0068,0.1436,7.0496,1.2527,-0.0171,0.0269,-0.0073,1,1,1,1,1,1,1
7.8477,sweep,3,-down,-0.18444,0.70668,0.62963,1.07290,-0.01392,0.23327,-0.00362,-0.0024,-0.0024,-0.1978,-0.0073,-0.0073,-0.0073,-0.0073,-0.0068,0.1436,7.0496,1.2527,-0.0171,0.0269,-0.0073,1,1,1,1,1,1,1
7.8878,sweep,3,-down,-0.18444,0.70668,0.60559,1.07290,-0.01392,0.23327,-0.00324,-0.0024,-0.0024,-0.1880,-0.0073,-0.0220,-0.0073,0.0073,0.0068,0.1299,7.1043,1.2821,0.0024,0.0317,-0.0073,1,1,1,1,1,1,1
7.9276,sweep,3,-down,-0.18444,0.70668,0.60559,1.07290,-0.01392,0.23327,-0.00324,-0.0024,-0.0024,-0.1880,-0.0073,-0.0220,-0.0073,0.0073,0.0068,0.1299,7.1043,1.2821,0.0024,0.0317,-0.0073,1,1,1,1,1,1,1
7.9678,sweep,3,-down,-0.18444,0.70668,0.58957,1.07252,-0.01354,0.23327,-0.00324,-0.0073,-0.0024,-0.2027,-0.0073,-0.0073,0.0073,-0.0073,-0.0068,0.1026,6.9675,1.3162,-0.0024,0.0366,-0.0073,1,1,1,1,1,1,1
8.0078,sweep,3,-down,-0.18444,0.70668,0.58957,1.07252,-0.01354,0.23327,-0.00324,-0.0073,-0.0024,-0.2027,-0.0073,-0.0073,0.0073,-0.0073,-0.0068,0.1026,6.9675,1.3162,-0.0024,0.0366,-0.0073,1,1,1,1,1,1,1
8.0479,sweep,3,-down,-0.18444,0.70668,0.58957,1.07252,-0.01354,0.23327,-0.00324,-0.0073,-0.0024,-0.2027,-0.0073,-0.0073,0.0073,-0.0073,-0.0068,0.1026,6.9675,1.3162,-0.0024,0.0366,-0.0073,1,1,1,1,1,1,1
8.0876,sweep,3,-down,-0.18444,0.70668,0.56516,1.07252,-0.01354,0.23327,-0.00324,-0.0024,-0.0073,-0.2173,-0.0220,-0.0073,-0.0073,-0.0073,0.0068,0.0889,7.4051,1.3700,0.0024,0.0415,-0.0073,1,1,1,1,1,1,1
8.1277,sweep,3,-down,-0.18444,0.70668,0.56516,1.07252,-0.01354,0.23327,-0.00324,-0.0024,-0.0073,-0.2173,-0.0220,-0.0073,-0.0073,-0.0073,0.0068,0.0889,7.4051,1.3700,0.0024,0.0415,-0.0073,1,1,1,1,1,1,1
8.1679,sweep,3,-down,-0.18444,0.70668,0.54952,1.07252,-0.01354,0.23365,-0.00362,-0.0024,-0.0024,-0.2027,-0.0220,-0.0073,0.0073,-0.0220,-0.0068,0.0479,7.2547,1.3944,0.0024,0.0464,-0.0073,1,1,1,1,1,1,1
8.2079,sweep,3,-down,-0.18444,0.70668,0.54952,1.07252,-0.01354,0.23365,-0.00362,-0.0024,-0.0024,-0.2027,-0.0220,-0.0073,0.0073,-0.0220,-0.0068,0.0479,7.2547,1.3944,0.0024,0.0464,-0.0073,1,1,1,1,1,1,1
8.2482,sweep,3,-down,-0.18444,0.70668,0.54952,1.07252,-0.01354,0.23365,-0.00362,-0.0024,-0.0024,-0.2027,-0.0220,-0.0073,0.0073,-0.0220,-0.0068,0.0479,7.2547,1.3944,0.0024,0.0464,-0.0073,1,1,1,1,1,1,1
8.2876,sweep,3,-down,-0.18444,0.70668,0.54150,1.07252,-0.01354,0.23365,-0.00362,-0.0024,0.0024,-0.1978,-0.0073,-0.0220,0.0073,-0.0073,-0.0068,-0.0068,7.3368,1.4530,0.0024,0.0562,-0.0122,1,1,1,1,1,1,1
8.3283,sweep,3,-down,-0.18444,0.70668,0.54150,1.07252,-0.01354,0.23365,-0.00362,-0.0024,0.0024,-0.1978,-0.0073,-0.0220,0.0073,-0.0073,-0.0068,-0.0068,7.3368,1.4530,0.0024,0.0562,-0.0122,1,1,1,1,1,1,1
8.3680,sweep,3,-down,-0.18444,0.70668,0.50984,1.07252,-0.01354,0.23365,-0.00324,-0.0024,-0.0024,-0.1978,-0.0073,0.0073,-0.0073,-0.0073,-0.0205,-0.0479,6.8171,1.5018,0.0024,0.0611,-0.0122,1,1,1,1,1,1,1
8.4081,sweep,3,-down,-0.18444,0.70668,0.50984,1.07252,-0.01354,0.23365,-0.00324,-0.0024,-0.0024,-0.1978,-0.0073,0.0073,-0.0073,-0.0073,-0.0205,-0.0479,6.8171,1.5018,0.0024,0.0611,-0.0122,1,1,1,1,1,1,1
8.4479,sweep,3,-down,-0.18444,0.70668,0.50984,1.07252,-0.01354,0.23365,-0.00324,-0.0024,-0.0024,-0.1978,-0.0073,0.0073,-0.0073,-0.0073,-0.0205,-0.0479,6.8171,1.5018,0.0024,0.0611,-0.0122,1,1,1,1,1,1,1
8.4877,sweep,3,-down,-0.18444,0.70668,0.48543,1.07290,-0.01354,0.23365,-0.00324,0.0024,-0.0024,-0.2027,-0.0220,-0.0073,-0.0073,-0.0073,-0.0205,-0.0342,7.4051,1.4969,0.0073,0.0611,-0.0122,1,1,1,1,1,1,1
8.5280,sweep,3,-down,-0.18444,0.70668,0.48543,1.07290,-0.01354,0.23365,-0.00324,0.0024,-0.0024,-0.2027,-0.0220,-0.0073,-0.0073,-0.0073,-0.0205,-0.0342,7.4051,1.4969,0.0073,0.0611,-0.0122,1,1,1,1,1,1,1
8.5677,sweep,3,-down,-0.18444,0.70668,0.46941,1.07290,-0.01354,0.23365,-0.00362,-0.0024,-0.0024,-0.2076,-0.0220,-0.0073,0.0073,-0.0073,0.0068,-0.0479,7.5009,1.5263,0.0122,0.0611,-0.0122,1,1,1,1,1,1,1
8.6075,sweep,3,-down,-0.18444,0.70668,0.46941,1.07290,-0.01354,0.23365,-0.00362,-0.0024,-0.0024,-0.2076,-0.0220,-0.0073,0.0073,-0.0073,0.0068,-0.0479,7.5009,1.5263,0.0122,0.0611,-0.0122,1,1,1,1,1,1,1
8.6478,sweep,3,-down,-0.18444,0.70668,0.46941,1.07290,-0.01354,0.23365,-0.00362,-0.0024,-0.0024,-0.2076,-0.0220,-0.0073,0.0073,-0.0073,0.0068,-0.0479,7.5009,1.5263,0.0122,0.0611,-0.0122,1,1,1,1,1,1,1
8.6878,sweep,3,-down,-0.18444,0.70668,0.44575,1.07252,-0.01354,0.23365,-0.00324,-0.0024,-0.0024,-0.2027,-0.0073,-0.0073,0.0073,0.0073,0.0068,-0.0615,7.1043,1.5800,0.0073,0.0611,-0.0073,1,1,1,1,1,1,1
8.7277,sweep,3,-down,-0.18444,0.70668,0.44575,1.07252,-0.01354,0.23365,-0.00324,-0.0024,-0.0024,-0.2027,-0.0073,-0.0073,0.0073,0.0073,0.0068,-0.0615,7.1043,1.5800,0.0073,0.0611,-0.0073,1,1,1,1,1,1,1
8.7676,sweep,3,-down,-0.18444,0.70668,0.43011,1.07290,-0.01354,0.23365,-0.00324,0.0024,-0.0073,-0.1929,0.0220,-0.0220,0.0073,-0.0220,-0.0205,-0.0752,6.6940,1.5995,0.0122,0.0708,-0.0073,1,1,1,1,1,1,1
8.8076,sweep,3,-down,-0.18444,0.70668,0.43011,1.07290,-0.01354,0.23365,-0.00324,0.0024,-0.0073,-0.1929,0.0220,-0.0220,0.0073,-0.0220,-0.0205,-0.0752,6.6940,1.5995,0.0122,0.0708,-0.0073,1,1,1,1,1,1,1
8.8479,sweep,3,-down,-0.18444,0.70668,0.43011,1.07290,-0.01354,0.23365,-0.00324,0.0024,-0.0073,-0.1929,0.0220,-0.0220,0.0073,-0.0220,-0.0205,-0.0752,6.6940,1.5995,0.0122,0.0708,-0.0073,1,1,1,1,1,1,1
8.8878,sweep,3,-down,-0.18444,0.70668,0.40532,1.07290,-0.01316,0.23365,-0.00324,-0.0024,-0.0024,-0.1929,-0.0073,-0.0220,0.0073,-0.0073,-0.0205,-0.1026,7.2547,1.6239,0.0073,0.0708,-0.0024,1,1,1,1,1,1,1
8.9279,sweep,3,-down,-0.18444,0.70668,0.40532,1.07290,-0.01316,0.23365,-0.00324,-0.0024,-0.0024,-0.1929,-0.0073,-0.0220,0.0073,-0.0073,-0.0205,-0.1026,7.2547,1.6239,0.0073,0.0708,-0.0024,1,1,1,1,1,1,1
8.9679,sweep,3,-down,-0.18444,0.70668,0.38930,1.07290,-0.01316,0.23365,-0.00362,-0.0024,0.0024,-0.2076,-0.0073,-0.0073,-0.0220,-0.0220,-0.0342,-0.1162,7.5282,1.6435,0.0073,0.0708,-0.0024,1,1,1,1,1,1,1
9.0076,sweep,3,-down,-0.18444,0.70668,0.38930,1.07290,-0.01316,0.23365,-0.00362,-0.0024,0.0024,-0.2076,-0.0073,-0.0073,-0.0220,-0.0220,-0.0342,-0.1162,7.5282,1.6435,0.0073,0.0708,-0.0024,1,1,1,1,1,1,1
9.0476,sweep,3,-down,-0.18444,0.70668,0.38930,1.07290,-0.01316,0.23365,-0.00362,-0.0024,0.0024,-0.2076,-0.0073,-0.0073,-0.0220,-0.0220,-0.0342,-0.1162,7.5282,1.6435,0.0073,0.0708,-0.0024,1,1,1,1,1,1,1
9.0879,sweep,3,-down,-0.18444,0.70668,0.36564,1.07252,-0.01354,0.23365,-0.00324,-0.0073,-0.0073,-0.2125,-0.0220,-0.0366,-0.0220,0.0073,-0.0479,-0.1299,7.2274,1.7118,0.0073,0.0708,-0.0024,1,1,1,1,1,1,1
9.1277,sweep,3,-down,-0.18444,0.70668,0.36564,1.07252,-0.01354,0.23365,-0.00324,-0.0073,-0.0073,-0.2125,-0.0220,-0.0366,-0.0220,0.0073,-0.0479,-0.1299,7.2274,1.7118,0.0073,0.0708,-0.0024,1,1,1,1,1,1,1
9.1681,sweep,3,-down,-0.18444,0.70668,0.34962,1.07290,-0.01316,0.23404,-0.00324,-0.0073,-0.0024,-0.2076,-0.0073,-0.0073,0.0073,-0.0073,-0.0479,-0.1436,6.9402,1.7167,0.0073,0.0659,-0.0024,1,1,1,1,1,1,1
9.2077,sweep,3,-down,-0.18444,0.70668,0.34962,1.07290,-0.01316,0.23404,-0.00324,-0.0073,-0.0024,-0.2076,-0.0073,-0.0073,0.0073,-0.0073,-0.0479,-0.1436,6.9402,1.7167,0.0073,0.0659,-0.0024,1,1,1,1,1,1,1
9.2478,sweep,3,-down,-0.18444,0.70668,0.34962,1.07290,-0.01316,0.23404,-0.00324,-0.0073,-0.0024,-0.2076,-0.0073,-0.0073,0.0073,-0.0073,-0.0479,-0.1436,6.9402,1.7167,0.0073,0.0659,-0.0024,1,1,1,1,1,1,1
9.2878,sweep,3,-down,-0.18444,0.70668,0.32559,1.07252,-0.01278,0.23442,-0.00324,-0.0024,-0.0024,-0.1978,0.0073,0.0073,-0.0220,-0.0073,-0.0342,-0.1573,7.4188,1.7705,-0.0317,0.0366,-0.0024,1,1,1,1,1,1,1
9.3279,sweep,3,-down,-0.18444,0.70668,0.32559,1.07252,-0.01278,0.23442,-0.00324,-0.0024,-0.0024,-0.1978,0.0073,0.0073,-0.0220,-0.0073,-0.0342,-0.1573,7.4188,1.7705,-0.0317,0.0366,-0.0024,1,1,1,1,1,1,1
9.3679,sweep,3,-down,-0.18444,0.70668,0.30919,1.07252,-0.01278,0.23442,-0.00324,-0.0024,-0.0024,-0.2027,-0.0073,0.0073,-0.0073,-0.0220,-0.0479,-0.1573,7.5009,1.7949,-0.0366,0.0269,-0.0024,1,1,1,1,1,1,1
9.4078,sweep,3,-down,-0.18444,0.70668,0.30919,1.07252,-0.01278,0.23442,-0.00324,-0.0024,-0.0024,-0.2027,-0.0073,0.0073,-0.0073,-0.0220,-0.0479,-0.1573,7.5009,1.7949,-0.0366,0.0269,-0.0024,1,1,1,1,1,1,1
9.4479,sweep,3,-down,-0.18444,0.70668,0.30919,1.07252,-0.01278,0.23442,-0.00324,-0.0024,-0.0024,-0.2027,-0.0073,0.0073,-0.0073,-0.0220,-0.0479,-0.1573,7.5009,1.7949,-0.0366,0.0269,-0.0024,1,1,1,1,1,1,1
9.4879,sweep,3,-down,-0.18444,0.70668,0.28592,1.07252,-0.01278,0.23442,-0.00362,-0.0024,-0.0024,-0.1783,-0.0220,-0.0073,-0.0073,0.0073,-0.0479,-0.1709,6.8308,1.8535,-0.0464,0.0220,-0.0024,1,1,1,1,1,1,1
9.5276,sweep,3,-down,-0.18444,0.70668,0.28592,1.07252,-0.01278,0.23442,-0.00362,-0.0024,-0.0024,-0.1783,-0.0220,-0.0073,-0.0073,0.0073,-0.0479,-0.1709,6.8308,1.8535,-0.0464,0.0220,-0.0024,1,1,1,1,1,1,1
9.5677,sweep,3,-down,-0.18444,0.70668,0.26951,1.07290,-0.01278,0.23442,-0.00362,-0.0024,-0.0024,-0.2027,-0.0220,0.0073,-0.0073,-0.0073,-0.0615,-0.1709,7.3231,1.8388,-0.0513,0.0171,-0.0073,1,1,1,1,1,1,1
9.6077,sweep,3,-down,-0.18444,0.70668,0.26951,1.07290,-0.01278,0.23442,-0.00362,-0.0024,-0.0024,-0.2027,-0.0220,0.0073,-0.0073,-0.0073,-0.0615,-0.1709,7.3231,1.8388,-0.0513,0.0171,-0.0073,1,1,1,1,1,1,1
9.6476,sweep,3,-down,-0.18444,0.70668,0.26951,1.07290,-0.01278,0.23442,-0.00362,-0.0024,-0.0024,-0.2027,-0.0220,0.0073,-0.0073,-0.0073,-0.0615,-0.1709,7.3231,1.8388,-0.0513,0.0171,-0.0073,1,1,1,1,1,1,1
9.6882,sweep,3,-down,-0.18444,0.70668,0.24701,1.07252,-0.01278,0.23404,-0.00324,0.0024,-0.0024,-0.1734,-0.0220,-0.0220,-0.0220,-0.0073,-0.0615,-0.2120,7.4325,1.8828,-0.0611,0.0171,-0.0073,1,1,1,1,1,1,1
9.7278,sweep,3,-down,-0.18444,0.70668,0.24701,1.07252,-0.01278,0.23404,-0.00324,0.0024,-0.0024,-0.1734,-0.0220,-0.0220,-0.0220,-0.0073,-0.0615,-0.2120,7.4325,1.8828,-0.0611,0.0171,-0.0073,1,1,1,1,1,1,1
9.7676,sweep,3,-down,-0.18444,0.70668,0.23404,1.07290,-0.01278,0.23404,-0.00324,-0.0024,-0.0024,-0.1343,0.0073,-0.0073,-0.0220,-0.0220,-0.0889,-0.2120,7.2684,1.9023,-0.0659,0.0122,-0.0024,1,1,1,1,1,1,1
9.8076,sweep,3,-down,-0.18444,0.70668,0.23404,1.07290,-0.01278,0.23404,-0.00324,-0.0024,-0.0024,-0.1343,0.0073,-0.0073,-0.0220,-0.0220,-0.0889,-0.2120,7.2684,1.9023,-0.0659,0.0122,-0.0024,1,1,1,1,1,1,1
9.8476,sweep,3,-down,-0.18444,0.70668,0.23404,1.07290,-0.01278,0.23404,-0.00324,-0.0024,-0.0024,-0.1343,0.0073,-0.0073,-0.0220,-0.0220,-0.0889,-0.2120,7.2684,1.9023,-0.0659,0.0122,-0.0024,1,1,1,1,1,1,1
9.8878,sweep,3,-down,-0.18444,0.70668,0.21687,1.07290,-0.01278,0.23404,-0.00324,-0.0024,-0.0024,-0.1148,0.0220,-0.0073,-0.0073,-0.0073,-0.1026,-0.2393,7.0359,1.9267,-0.0757,0.0122,-0.0024,1,1,1,1,1,1,1
9.9278,sweep,3,-down,-0.18444,0.70668,0.21687,1.07290,-0.01278,0.23404,-0.00324,-0.0024,-0.0024,-0.1148,0.0220,-0.0073,-0.0073,-0.0073,-0.1026,-0.2393,7.0359,1.9267,-0.0757,0.0122,-0.0024,1,1,1,1,1,1,1
9.9676,sweep,3,-down,-0.18444,0.70668,0.20695,1.07290,-0.01316,0.23404,-0.00324,-0.0024,-0.0024,-0.1343,-0.0073,-0.0220,-0.0073,-0.0073,-0.1026,-0.2393,7.2000,1.9414,-0.0855,0.0073,-0.0024,1,1,1,1,1,1,1
10.0076,sweep,3,-down,-0.18444,0.70668,0.20695,1.07290,-0.01316,0.23404,-0.00324,-0.0024,-0.0024,-0.1343,-0.0073,-0.0220,-0.0073,-0.0073,-0.1026,-0.2393,7.2000,1.9414,-0.0855,0.0073,-0.0024,1,1,1,1,1,1,1
10.0477,sweep,3,-down,-0.18444,0.70668,0.20695,1.07290,-0.01316,0.23404,-0.00324,-0.0024,-0.0024,-0.1343,-0.0073,-0.0220,-0.0073,-0.0073,-0.1026,-0.2393,7.2000,1.9414,-0.0855,0.0073,-0.0024,1,1,1,1,1,1,1
10.0877,sweep,3,-down,-0.18444,0.70668,0.19322,1.07290,-0.01316,0.23404,-0.00324,-0.0024,0.0024,-0.1245,-0.0220,-0.0073,-0.0073,-0.0073,-0.1026,-0.2667,7.7333,1.9609,-0.0904,0.0073,-0.0073,1,1,1,1,1,1,1
10.1277,sweep,3,-down,-0.18444,0.70668,0.19322,1.07290,-0.01316,0.23404,-0.00324,-0.0024,0.0024,-0.1245,-0.0220,-0.0073,-0.0073,-0.0073,-0.1026,-0.2667,7.7333,1.9609,-0.0904,0.0073,-0.0073,1,1,1,1,1,1,1
10.1677,sweep,3,-down,-0.18444,0.70668,0.18635,1.07328,-0.01316,0.23365,-0.00362,-0.0024,-0.0024,-0.0855,-0.0073,0.0073,-0.0220,-0.0220,-0.1026,-0.2803,6.8308,1.9512,-0.0952,0.0073,-0.0024,1,1,1,1,1,1,1
10.2076,sweep,3,-down,-0.18444,0.70668,0.18635,1.07328,-0.01316,0.23365,-0.00362,-0.0024,-0.0024,-0.0855,-0.0073,0.0073,-0.0220,-0.0220,-0.1026,-0.2803,6.8308,1.9512,-0.0952,0.0073,-0.0024,1,1,1,1,1,1,1
10.2478,sweep,3,-down,-0.18444,0.70668,0.18635,1.07328,-0.01316,0.23365,-0.00362,-0.0024,-0.0024,-0.0855,-0.0073,0.0073,-0.0220,-0.0220,-0.1026,-0.2803,6.8308,1.9512,-0.0952,0.0073,-0.0024,1,1,1,1,1,1,1
10.2877,sweep,3,-down,-0.18444,0.70668,0.17605,1.07328,-0.01316,0.23365,-0.00324,-0.0024,0.0024,-0.0708,-0.0073,0.0073,-0.0073,-0.0073,-0.1026,-0.2803,7.4051,1.9316,-0.0952,0.0073,-0.0024,1,1,1,1,1,1,1
10.3277,sweep,3,-down,-0.18444,0.70668,0.17605,1.07328,-0.01316,0.23365,-0.00324,-0.0024,0.0024,-0.0708,-0.0073,0.0073,-0.0073,-0.0073,-0.1026,-0.2803,7.4051,1.9316,-0.0952,0.0073,-0.0024,1,1,1,1,1,1,1
10.3677,sweep,3,-down,-0.18444,0.70668,0.17033,1.07328,-0.01316,0.23365,-0.00362,-0.0024,0.0024,-0.0659,0.0073,0.0220,-0.0220,-0.0073,-0.1026,-0.3077,7.1726,1.9463,-0.0904,0.0122,-0.0024,1,1,1,1,1,1,1
10.4078,sweep,3,-down,-0.18444,0.70668,0.17033,1.07328,-0.01316,0.23365,-0.00362,-0.0024,0.0024,-0.0659,0.0073,0.0220,-0.0220,-0.0073,-0.1026,-0.3077,7.1726,1.9463,-0.0904,0.0122,-0.0024,1,1,1,1,1,1,1
10.4479,sweep,3,-down,-0.18444,0.70668,0.17033,1.07328,-0.01316,0.23365,-0.00362,-0.0024,0.0024,-0.0659,0.0073,0.0220,-0.0220,-0.0073,-0.1026,-0.3077,7.1726,1.9463,-0.0904,0.0122,-0.0024,1,1,1,1,1,1,1
10.4882,sweep,3,-down,-0.18444,0.70668,0.16232,1.07328,-0.01316,0.23365,-0.00324,-0.0024,-0.0024,-0.0708,-0.0220,-0.0220,0.0073,-0.0073,-0.1162,-0.3077,7.5282,1.9512,-0.0904,0.0122,-0.0024,1,1,1,1,1,1,1
10.5279,sweep,3,-down,-0.18444,0.70668,0.16232,1.07328,-0.01316,0.23365,-0.00324,-0.0024,-0.0024,-0.0708,-0.0220,-0.0220,0.0073,-0.0073,-0.1162,-0.3077,7.5282,1.9512,-0.0904,0.0122,-0.0024,1,1,1,1,1,1,1
10.5679,sweep,3,-down,-0.18444,0.70668,0.15850,1.07328,-0.01316,0.23365,-0.00324,-0.0024,-0.0024,-0.0611,0.0220,-0.0073,-0.0220,-0.0073,-0.1299,-0.3350,7.0906,1.9560,-0.0904,0.0122,-0.0073,1,1,1,1,1,1,1
10.6079,sweep,3,-down,-0.18444,0.70668,0.15850,1.07328,-0.01316,0.23365,-0.00324,-0.0024,-0.0024,-0.0611,0.0220,-0.0073,-0.0220,-0.0073,-0.1299,-0.3350,7.0906,1.9560,-0.0904,0.0122,-0.0073,1,1,1,1,1,1,1
10.6480,sweep,3,-down,-0.18444,0.70668,0.15850,1.07328,-0.01316,0.23365,-0.00324,-0.0024,-0.0024,-0.0611,0.0220,-0.0073,-0.0220,-0.0073,-0.1299,-0.3350,7.0906,1.9560,-0.0904,0.0122,-0.0073,1,1,1,1,1,1,1
10.6879,sweep,3,-down,-0.18444,0.70668,0.15278,1.07366,-0.01316,0.23365,-0.00362,-0.0024,-0.0073,-0.0611,0.0073,-0.0073,-0.0073,-0.0220,-0.1026,-0.3350,6.7214,1.9463,-0.0904,0.0122,-0.0024,1,1,1,1,1,1,1
10.7277,sweep,3,-down,-0.18444,0.70668,0.15278,1.07366,-0.01316,0.23365,-0.00362,-0.0024,-0.0073,-0.0611,0.0073,-0.0073,-0.0073,-0.0220,-0.1026,-0.3350,6.7214,1.9463,-0.0904,0.0122,-0.0024,1,1,1,1,1,1,1
10.7676,sweep,3,-down,-0.18444,0.70668,0.14897,1.07328,-0.01316,0.23365,-0.00324,-0.0024,-0.0024,-0.0415,-0.0073,-0.0073,0.0073,-0.0073,-0.1026,-0.3487,7.0906,1.9707,-0.0952,0.0171,-0.0024,1,1,1,1,1,1,1
10.8076,sweep,3,-down,-0.18444,0.70668,0.14897,1.07328,-0.01316,0.23365,-0.00324,-0.0024,-0.0024,-0.0415,-0.0073,-0.0073,0.0073,-0.0073,-0.1026,-0.3487,7.0906,1.9707,-0.0952,0.0171,-0.0024,1,1,1,1,1,1,1
10.8477,sweep,3,-down,-0.18444,0.70668,0.14897,1.07328,-0.01316,0.23365,-0.00324,-0.0024,-0.0024,-0.0415,-0.0073,-0.0073,0.0073,-0.0073,-0.1026,-0.3487,7.0906,1.9707,-0.0952,0.0171,-0.0024,1,1,1,1,1,1,1
10.8878,sweep,3,-down,-0.18444,0.70668,0.14477,1.07366,-0.01316,0.23365,-0.00324,-0.0073,-0.0024,-0.0269,-0.0220,-0.0220,0.0073,-0.0073,-0.1026,-0.3214,7.1590,1.9560,-0.0952,0.0171,-0.0024,1,1,1,1,1,1,1
10.9277,sweep,3,-down,-0.18444,0.70668,0.14477,1.07366,-0.01316,0.23365,-0.00324,-0.0073,-0.0024,-0.0269,-0.0220,-0.0220,0.0073,-0.0073,-0.1026,-0.3214,7.1590,1.9560,-0.0952,0.0171,-0.0024,1,1,1,1,1,1,1
10.9677,sweep,3,-down,-0.18444,0.70668,0.14248,1.07328,-0.01316,0.23365,-0.00362,-0.0024,0.0024,-0.0269,-0.0366,-0.0220,0.0073,0.0073,-0.1162,-0.3624,6.7487,1.9902,-0.1001,0.0220,-0.0073,1,1,1,1,1,1,1
11.0078,sweep,3,-down,-0.18444,0.70668,0.14248,1.07328,-0.01316,0.23365,-0.00362,-0.0024,0.0024,-0.0269,-0.0366,-0.0220,0.0073,0.0073,-0.1162,-0.3624,6.7487,1.9902,-0.1001,0.0220,-0.0073,1,1,1,1,1,1,1
11.0478,sweep,3,-down,-0.18444,0.70668,0.14248,1.07328,-0.01316,0.23365,-0.00362,-0.0024,0.0024,-0.0269,-0.0366,-0.0220,0.0073,0.0073,-0.1162,-0.3624,6.7487,1.9902,-0.1001,0.0220,-0.0073,1,1,1,1,1,1,1
11.0878,sweep,3,-down,-0.18444,0.70668,0.13905,1.07366,-0.01316,0.23365,-0.00324,-0.0024,-0.0024,-0.0220,-0.0073,-0.0220,0.0073,-0.0073,-0.1026,-0.3897,6.5846,1.9609,-0.1001,0.0220,-0.0122,1,1,1,1,1,1,1
11.5906,sweep,3,+up,-0.18444,0.70668,0.13828,1.07328,-0.01354,0.23365,-0.00324,-0.0024,-0.0024,-0.0269,0.0220,-0.0220,0.0073,-0.0073,-0.1026,-0.4171,6.5436,1.9805,-0.1050,0.0220,-0.0122,1,1,1,1,1,1,1
11.6303,sweep,3,+up,-0.18444,0.70668,0.13828,1.07328,-0.01354,0.23365,-0.00324,-0.0024,-0.0024,-0.0269,0.0220,-0.0220,0.0073,-0.0073,-0.1026,-0.4171,6.5436,1.9805,-0.1050,0.0220,-0.0122,1,1,1,1,1,1,1
11.6705,sweep,3,+up,-0.18444,0.70668,0.13104,1.07176,-0.01354,0.23365,-0.00324,-0.0024,0.0024,0.1099,-0.1245,-0.0073,0.0073,-0.0073,-0.1299,-0.4171,13.2034,2.1514,-0.1050,0.0269,-0.0122,1,1,1,1,1,1,1
11.7102,sweep,3,+up,-0.18444,0.70668,0.13104,1.07176,-0.01354,0.23365,-0.00324,-0.0024,0.0024,0.1099,-0.1245,-0.0073,0.0073,-0.0073,-0.1299,-0.4171,13.2034,2.1514,-0.1050,0.0269,-0.0122,1,1,1,1,1,1,1
11.7503,sweep,3,+up,-0.18444,0.70668,0.13104,1.07176,-0.01354,0.23365,-0.00324,-0.0024,0.0024,0.1099,-0.1245,-0.0073,0.0073,-0.0073,-0.1299,-0.4171,13.2034,2.1514,-0.1050,0.0269,-0.0122,1,1,1,1,1,1,1
11.7902,sweep,3,+up,-0.18444,0.70668,0.14897,1.07481,-0.01316,0.23404,-0.00324,-0.0024,-0.0073,0.2173,-0.0220,-0.0220,0.0220,-0.0073,-0.1162,-0.3761,10.1949,1.9756,-0.1148,0.0269,-0.0122,1,1,1,1,1,1,1
11.8306,sweep,3,+up,-0.18444,0.70668,0.14897,1.07481,-0.01316,0.23404,-0.00324,-0.0024,-0.0073,0.2173,-0.0220,-0.0220,0.0220,-0.0073,-0.1162,-0.3761,10.1949,1.9756,-0.1148,0.0269,-0.0122,1,1,1,1,1,1,1
11.8703,sweep,3,+up,-0.18444,0.70668,0.17262,1.07481,-0.01316,0.23404,-0.00324,0.0024,-0.0024,0.2076,0.0073,-0.0220,-0.0073,-0.0073,-0.1162,-0.3624,11.0427,1.9414,-0.1099,0.0269,-0.0073,1,1,1,1,1,1,1
11.9103,sweep,3,+up,-0.18444,0.70668,0.17262,1.07481,-0.01316,0.23404,-0.00324,0.0024,-0.0024,0.2076,0.0073,-0.0220,-0.0073,-0.0073,-0.1162,-0.3624,11.0427,1.9414,-0.1099,0.0269,-0.0073,1,1,1,1,1,1,1
11.9504,sweep,3,+up,-0.18444,0.70668,0.17262,1.07481,-0.01316,0.23404,-0.00324,0.0024,-0.0024,0.2076,0.0073,-0.0220,-0.0073,-0.0073,-0.1162,-0.3624,11.0427,1.9414,-0.1099,0.0269,-0.0073,1,1,1,1,1,1,1
11.9903,sweep,3,+up,-0.18444,0.70668,0.19665,1.07404,-0.01316,0.23404,-0.00324,-0.0024,-0.0024,0.2027,-0.0073,-0.0073,-0.0220,-0.0073,-0.1162,-0.4581,11.2615,1.9219,-0.1197,0.0220,-0.0122,1,1,1,1,1,1,1
12.0307,sweep,3,+up,-0.18444,0.70668,0.19665,1.07404,-0.01316,0.23404,-0.00324,-0.0024,-0.0024,0.2027,-0.0073,-0.0073,-0.0220,-0.0073,-0.1162,-0.4581,11.2615,1.9219,-0.1197,0.0220,-0.0122,1,1,1,1,1,1,1
12.0703,sweep,3,+up,-0.18444,0.70668,0.21267,1.07443,-0.01316,0.23365,-0.00324,0.0024,-0.0024,0.1929,0.0073,0.0073,-0.0220,-0.0073,-0.1299,-0.4034,10.9197,1.8535,-0.1197,0.0220,-0.0122,1,1,1,1,1,1,1
12.1103,sweep,3,+up,-0.18444,0.70668,0.21267,1.07443,-0.01316,0.23365,-0.00324,0.0024,-0.0024,0.1929,0.0073,0.0073,-0.0220,-0.0073,-0.1299,-0.4034,10.9197,1.8535,-0.1197,0.0220,-0.0122,1,1,1,1,1,1,1
12.1503,sweep,3,+up,-0.18444,0.70668,0.21267,1.07443,-0.01316,0.23365,-0.00324,0.0024,-0.0024,0.1929,0.0073,0.0073,-0.0220,-0.0073,-0.1299,-0.4034,10.9197,1.8535,-0.1197,0.0220,-0.0122,1,1,1,1,1,1,1
12.1904,sweep,3,+up,-0.18444,0.70668,0.23671,1.07404,-0.01316,0.23404,-0.00324,-0.0024,-0.0024,0.1832,-0.0220,-0.0073,-0.0073,-0.0073,-0.1162,-0.4991,11.2068,1.8388,-0.1197,0.0171,-0.0073,1,1,1,1,1,1,1
12.2306,sweep,3,+up,-0.18444,0.70668,0.23671,1.07404,-0.01316,0.23404,-0.00324,-0.0024,-0.0024,0.1832,-0.0220,-0.0073,-0.0073,-0.0073,-0.1162,-0.4991,11.2068,1.8388,-0.1197,0.0171,-0.0073,1,1,1,1,1,1,1
12.2705,sweep,3,+up,-0.18444,0.70668,0.25273,1.07404,-0.01316,0.23404,-0.00324,-0.0073,-0.0024,0.1880,-0.0073,0.0073,-0.0073,-0.0073,-0.1026,-0.4991,11.2342,1.8193,-0.1245,0.0122,-0.0122,1,1,1,1,1,1,1
12.3105,sweep,3,+up,-0.18444,0.70668,0.25273,1.07404,-0.01316,0.23404,-0.00324,-0.0073,-0.0024,0.1880,-0.0073,0.0073,-0.0073,-0.0073,-0.1026,-0.4991,11.2342,1.8193,-0.1245,0.0122,-0.0122,1,1,1,1,1,1,1
12.3510,sweep,3,+up,-0.18444,0.70668,0.25273,1.07404,-0.01316,0.23404,-0.00324,-0.0073,-0.0024,0.1880,-0.0073,0.0073,-0.0073,-0.0073,-0.1026,-0.4991,11.2342,1.8193,-0.1245,0.0122,-0.0122,1,1,1,1,1,1,1
12.3904,sweep,3,+up,-0.18444,0.70668,0.27638,1.07366,-0.01316,0.23404,-0.00324,-0.0024,-0.0024,0.2076,-0.0073,0.0073,0.0073,-0.0073,-0.1162,-0.4991,11.4256,1.8144,-0.1343,0.0122,-0.0122,1,1,1,1,1,1,1
12.4306,sweep,3,+up,-0.18444,0.70668,0.27638,1.07366,-0.01316,0.23404,-0.00324,-0.0024,-0.0024,0.2076,-0.0073,0.0073,0.0073,-0.0073,-0.1162,-0.4991,11.4256,1.8144,-0.1343,0.0122,-0.0122,1,1,1,1,1,1,1
12.4704,sweep,3,+up,-0.18444,0.70668,0.29278,1.07404,-0.01316,0.23404,-0.00362,-0.0024,-0.0024,0.1978,0.0073,-0.0073,0.0073,0.0073,-0.1026,-0.5265,11.0154,1.7802,-0.1343,0.0073,-0.0122,1,1,1,1,1,1,1
12.5106,sweep,3,+up,-0.18444,0.70668,0.29278,1.07404,-0.01316,0.23404,-0.00362,-0.0024,-0.0024,0.1978,0.0073,-0.0073,0.0073,0.0073,-0.1026,-0.5265,11.0154,1.7802,-0.1343,0.0073,-0.0122,1,1,1,1,1,1,1
12.5507,sweep,3,+up,-0.18444,0.70668,0.29278,1.07404,-0.01316,0.23404,-0.00362,-0.0024,-0.0024,0.1978,0.0073,-0.0073,0.0073,0.0073,-0.1026,-0.5265,11.0154,1.7802,-0.1343,0.0073,-0.0122,1,1,1,1,1,1,1
12.5904,sweep,3,+up,-0.18444,0.70668,0.31682,1.07404,-0.01316,0.23404,-0.00324,-0.0024,-0.0024,0.1978,-0.0073,-0.0073,-0.0073,-0.0073,-0.1026,-0.5265,11.1111,1.7509,-0.1343,0.0024,-0.0122,1,1,1,1,1,1,1
12.6302,sweep,3,+up,-0.18444,0.70668,0.31682,1.07404,-0.01316,0.23404,-0.00324,-0.0024,-0.0024,0.1978,-0.0073,-0.0073,-0.0073,-0.0073,-0.1026,-0.5265,11.1111,1.7509,-0.1343,0.0024,-0.0122,1,1,1,1,1,1,1
12.6705,sweep,3,+up,-0.18444,0.70668,0.33246,1.07404,-0.01316,0.23404,-0.00324,0.0024,-0.0024,0.2076,-0.0073,-0.0220,-0.0073,-0.0073,-0.0889,-0.5265,11.3026,1.7460,-0.1441,0.0024,-0.0073,1,1,1,1,1,1,1
12.7106,sweep,3,+up,-0.18444,0.70668,0.33246,1.07404,-0.01316,0.23404,-0.00324,0.0024,-0.0024,0.2076,-0.0073,-0.0220,-0.0073,-0.0073,-0.0889,-0.5265,11.3026,1.7460,-0.1441,0.0024,-0.0073,1,1,1,1,1,1,1
12.7505,sweep,3,+up,-0.18444,0.70668,0.33246,1.07404,-0.01316,0.23404,-0.00324,0.0024,-0.0024,0.2076,-0.0073,-0.0220,-0.0073,-0.0073,-0.0889,-0.5265,11.3026,1.7460,-0.1441,0.0024,-0.0073,1,1,1,1,1,1,1
12.7906,sweep,3,+up,-0.18444,0.70668,0.35649,1.07404,-0.01316,0.23404,-0.00324,-0.0024,-0.0024,0.2125,-0.0073,-0.0073,0.0073,-0.0073,-0.0889,-0.5128,11.0564,1.6972,-0.1538,0.0024,-0.0073,1,1,1,1,1,1,1
12.8305,sweep,3,+up,-0.18444,0.70668,0.35649,1.07404,-0.01316,0.23404,-0.00324,-0.0024,-0.0024,0.2125,-0.0073,-0.0073,0.0073,-0.0073,-0.0889,-0.5128,11.0564,1.6972,-0.1538,0.0024,-0.0073,1,1,1,1,1,1,1
12.8708,sweep,3,+up,-0.18444,0.70668,0.37213,1.07366,-0.01316,0.23404,-0.00324,-0.0024,-0.0024,0.1929,-0.0366,-0.0073,-0.0073,-0.0073,-0.1026,-0.5265,11.5350,1.6923,-0.1587,-0.0024,-0.0024,1,1,1,1,1,1,1
12.9108,sweep,3,+up,-0.18444,0.70668,0.37213,1.07366,-0.01316,0.23404,-0.00324,-0.0024,-0.0024,0.1929,-0.0366,-0.0073,-0.0073,-0.0073,-0.1026,-0.5265,11.5350,1.6923,-0.1587,-0.0024,-0.0024,1,1,1,1,1,1,1
12.9503,sweep,3,+up,-0.18444,0.70668,0.37213,1.07366,-0.01316,0.23404,-0.00324,-0.0024,-0.0024,0.1929,-0.0366,-0.0073,-0.0073,-0.0073,-0.1026,-0.5265,11.5350,1.6923,-0.1587,-0.0024,-0.0024,1,1,1,1,1,1,1
12.9907,sweep,3,+up,-0.18444,0.70668,0.39616,1.07404,-0.01316,0.23404,-0.00324,-0.0024,-0.0024,0.1978,-0.0073,0.0073,-0.0073,-0.0073,-0.0889,-0.5538,11.4120,1.6532,-0.1734,-0.0073,-0.0073,1,1,1,1,1,1,1
13.0304,sweep,3,+up,-0.18444,0.70668,0.39616,1.07404,-0.01316,0.23404,-0.00324,-0.0024,-0.0024,0.1978,-0.0073,0.0073,-0.0073,-0.0073,-0.0889,-0.5538,11.4120,1.6532,-0.1734,-0.0073,-0.0073,1,1,1,1,1,1,1
13.0705,sweep,3,+up,-0.18444,0.70668,0.41218,1.07404,-0.01316,0.23404,-0.00362,-0.0024,-0.0024,0.2076,0.0073,0.0073,0.0073,-0.0073,-0.0889,-0.5538,11.3436,1.6337,-0.1783,-0.0122,-0.0073,1,1,1,1,1,1,1
13.1103,sweep,3,+up,-0.18444,0.70668,0.41218,1.07404,-0.01316,0.23404,-0.00362,-0.0024,-0.0024,0.2076,0.0073,0.0073,0.0073,-0.0073,-0.0889,-0.5538,11.3436,1.6337,-0.1783,-0.0122,-0.0073,1,1,1,1,1,1,1
13.1503,sweep,3,+up,-0.18444,0.70668,0.41218,1.07404,-0.01316,0.23404,-0.00362,-0.0024,-0.0024,0.2076,0.0073,0.0073,0.0073,-0.0073,-0.0889,-0.5538,11.3436,1.6337,-0.1783,-0.0122,-0.0073,1,1,1,1,1,1,1
13.1903,sweep,3,+up,-0.18444,0.70668,0.43622,1.07443,-0.01316,0.23404,-0.00362,-0.0024,-0.0024,0.1978,0.0073,-0.0073,-0.0073,-0.0220,-0.1026,-0.4991,11.2615,1.5897,-0.1929,-0.0171,-0.0073,1,1,1,1,1,1,1
13.2304,sweep,3,+up,-0.18444,0.70668,0.43622,1.07443,-0.01316,0.23404,-0.00362,-0.0024,-0.0024,0.1978,0.0073,-0.0073,-0.0073,-0.0220,-0.1026,-0.4991,11.2615,1.5897,-0.1929,-0.0171,-0.0073,1,1,1,1,1,1,1
13.2703,sweep,3,+up,-0.18444,0.70668,0.45224,1.07404,-0.01278,0.23404,-0.00324,-0.0024,-0.0073,0.2076,-0.0073,-0.0073,-0.0220,-0.0073,-0.0752,-0.5265,11.3983,1.5751,-0.2076,-0.0220,-0.0073,1,1,1,1,1,1,1
13.3106,sweep,3,+up,-0.18444,0.70668,0.45224,1.07404,-0.01278,0.23404,-0.00324,-0.0024,-0.0073,0.2076,-0.0073,-0.0073,-0.0220,-0.0073,-0.0752,-0.5265,11.3983,1.5751,-0.2076,-0.0220,-0.0073,1,1,1,1,1,1,1
13.3504,sweep,3,+up,-0.18444,0.70668,0.45224,1.07404,-0.01278,0.23404,-0.00324,-0.0024,-0.0073,0.2076,-0.0073,-0.0073,-0.0220,-0.0073,-0.0752,-0.5265,11.3983,1.5751,-0.2076,-0.0220,-0.0073,1,1,1,1,1,1,1
13.3905,sweep,3,+up,-0.18444,0.70668,0.47627,1.07404,-0.01278,0.23404,-0.00324,-0.0024,-0.0024,0.1978,-0.0073,-0.0073,-0.0220,0.0073,-0.0889,-0.4991,11.3846,1.5360,-0.2173,-0.0269,-0.0024,1,1,1,1,1,1,1
13.4305,sweep,3,+up,-0.18444,0.70668,0.47627,1.07404,-0.01278,0.23404,-0.00324,-0.0024,-0.0024,0.1978,-0.0073,-0.0073,-0.0220,0.0073,-0.0889,-0.4991,11.3846,1.5360,-0.2173,-0.0269,-0.0024,1,1,1,1,1,1,1
13.4705,sweep,3,+up,-0.18444,0.70668,0.49191,1.07404,-0.01278,0.23404,-0.00362,-0.0073,-0.0024,0.1783,-0.0073,0.0073,-0.0073,-0.0220,-0.0752,-0.5402,11.8769,1.5263,-0.2369,-0.0317,-0.0073,1,1,1,1,1,1,1
13.5104,sweep,3,+up,-0.18444,0.70668,0.49191,1.07404,-0.01278,0.23404,-0.00362,-0.0073,-0.0024,0.1783,-0.0073,0.0073,-0.0073,-0.0220,-0.0752,-0.5402,11.8769,1.5263,-0.2369,-0.0317,-0.0073,1,1,1,1,1,1,1
13.5506,sweep,3,+up,-0.18444,0.70668,0.49191,1.07404,-0.01278,0.23404,-0.00362,-0.0073,-0.0024,0.1783,-0.0073,0.0073,-0.0073,-0.0220,-0.0752,-0.5402,11.8769,1.5263,-0.2369,-0.0317,-0.0073,1,1,1,1,1,1,1
13.5902,sweep,3,+up,-0.18444,0.70668,0.51633,1.07404,-0.01278,0.23442,-0.00324,-0.0073,-0.0024,0.1929,-0.0073,-0.0073,-0.0073,-0.0073,-0.0889,-0.5812,11.4667,1.5067,-0.2613,-0.0415,-0.0073,1,1,1,1,1,1,1
13.6303,sweep,3,+up,-0.18444,0.70668,0.51633,1.07404,-0.01278,0.23442,-0.00324,-0.0073,-0.0024,0.1929,-0.0073,-0.0073,-0.0073,-0.0073,-0.0889,-0.5812,11.4667,1.5067,-0.2613,-0.0415,-0.0073,1,1,1,1,1,1,1
13.6703,sweep,3,+up,-0.18444,0.70668,0.53197,1.07404,-0.01278,0.23442,-0.00324,-0.0024,-0.0024,0.1880,0.0073,-0.0073,-0.0073,-0.0073,-0.0889,-0.5402,11.7675,1.4872,-0.2808,-0.0513,-0.0073,1,1,1,1,1,1,1
13.7105,sweep,3,+up,-0.18444,0.70668,0.53197,1.07404,-0.01278,0.23442,-0.00324,-0.0024,-0.0024,0.1880,0.0073,-0.0073,-0.0073,-0.0073,-0.0889,-0.5402,11.7675,1.4872,-0.2808,-0.0513,-0.0073,1,1,1,1,1,1,1
13.7503,sweep,3,+up,-0.18444,0.70668,0.53197,1.07404,-0.01278,0.23442,-0.00324,-0.0024,-0.0024,0.1880,0.0073,-0.0073,-0.0073,-0.0073,-0.0889,-0.5402,11.7675,1.4872,-0.2808,-0.0513,-0.0073,1,1,1,1,1,1,1
13.7904,sweep,3,+up,-0.18444,0.70668,0.55600,1.07404,-0.01240,0.23480,-0.00362,-0.0024,-0.0024,0.1929,0.0073,-0.0073,0.0073,-0.0073,-0.0752,-0.5538,11.6444,1.4481,-0.3199,-0.0757,-0.0073,1,1,1,1,1,1,1
13.8303,sweep,3,+up,-0.18444,0.70668,0.55600,1.07404,-0.01240,0.23480,-0.00362,-0.0024,-0.0024,0.1929,0.0073,-0.0073,0.0073,-0.0073,-0.0752,-0.5538,11.6444,1.4481,-0.3199,-0.0757,-0.0073,1,1,1,1,1,1,1
13.8705,sweep,3,+up,-0.18444,0.70630,0.57202,1.07404,-0.01240,0.23480,-0.00324,-0.0024,-0.0024,0.1929,-0.0073,0.0073,0.0073,0.0073,-0.0615,-0.5128,11.8906,1.4090,-0.3541,-0.0952,-0.0024,1,1,1,1,1,1,1
13.9103,sweep,3,+up,-0.18444,0.70630,0.57202,1.07404,-0.01240,0.23480,-0.00324,-0.0024,-0.0024,0.1929,-0.0073,0.0073,0.0073,0.0073,-0.0615,-0.5128,11.8906,1.4090,-0.3541,-0.0952,-0.0024,1,1,1,1,1,1,1
13.9505,sweep,3,+up,-0.18444,0.70630,0.57202,1.07404,-0.01240,0.23480,-0.00324,-0.0024,-0.0024,0.1929,-0.0073,0.0073,0.0073,0.0073,-0.0615,-0.5128,11.8906,1.4090,-0.3541,-0.0952,-0.0024,1,1,1,1,1,1,1
13.9905,sweep,3,+up,-0.18444,0.70668,0.59567,1.07404,-0.01240,0.23480,-0.00324,-0.0024,-0.0024,0.1929,-0.0073,-0.0073,-0.0073,0.0073,-0.0752,-0.5538,12.0821,1.4188,-0.3980,-0.1197,-0.0024,1,1,1,1,1,1,1
14.0302,sweep,3,+up,-0.18444,0.70668,0.59567,1.07404,-0.01240,0.23480,-0.00324,-0.0024,-0.0024,0.1929,-0.0073,-0.0073,-0.0073,0.0073,-0.0752,-0.5538,12.0821,1.4188,-0.3980,-0.1197,-0.0024,1,1,1,1,1,1,1
14.0705,sweep,3,+up,-0.18444,0.70630,0.61208,1.07404,-0.01240,0.23480,-0.00324,-0.0024,-0.0024,0.1929,-0.0073,-0.0073,-0.0073,-0.0073,-0.0615,-0.5402,11.7812,1.3895,-0.4371,-0.1441,-0.0024,1,1,1,1,1,1,1
14.1105,sweep,3,+up,-0.18444,0.70630,0.61208,1.07404,-0.01240,0.23480,-0.00324,-0.0024,-0.0024,0.1929,-0.0073,-0.0073,-0.0073,-0.0073,-0.0615,-0.5402,11.7812,1.3895,-0.4371,-0.1441,-0.0024,1,1,1,1,1,1,1
14.1503,sweep,3,+up,-0.18444,0.70630,0.61208,1.07404,-0.01240,0.23480,-0.00324,-0.0024,-0.0024,0.1929,-0.0073,-0.0073,-0.0073,-0.0073,-0.0615,-0.5402,11.7812,1.3895,-0.4371,-0.1441,-0.0024,1,1,1,1,1,1,1
14.1905,sweep,3,+up,-0.18444,0.70630,0.63535,1.07366,-0.01240,0.23480,-0.00324,-0.0024,-0.0024,0.2027,-0.0513,0.0073,-0.0073,-0.0073,-0.0342,-0.4991,12.6017,1.3846,-0.5006,-0.1783,-0.0024,1,1,1,1,1,1,1
14.2307,sweep,3,+up,-0.18444,0.70630,0.63535,1.07366,-0.01240,0.23480,-0.00324,-0.0024,-0.0024,0.2027,-0.0513,0.0073,-0.0073,-0.0073,-0.0342,-0.4991,12.6017,1.3846,-0.5006,-0.1783,-0.0024,1,1,1,1,1,1,1
14.2704,sweep,3,+up,-0.18444,0.70668,0.65137,1.07366,-0.01202,0.23480,-0.00324,-0.0024,-0.0024,0.2027,-0.0220,-0.0073,-0.0220,-0.0220,-0.0205,-0.5402,12.7385,1.3748,-0.5446,-0.1978,-0.0024,1,1,1,1,1,1,1
14.3103,sweep,3,+up,-0.18444,0.70668,0.65137,1.07366,-0.01202,0.23480,-0.00324,-0.0024,-0.0024,0.2027,-0.0220,-0.0073,-0.0220,-0.0220,-0.0205,-0.5402,12.7385,1.3748,-0.5446,-0.1978,-0.0024,1,1,1,1,1,1,1
14.3504,sweep,3,+up,-0.18444,0.70668,0.65137,1.07366,-0.01202,0.23480,-0.00324,-0.0024,-0.0024,0.2027,-0.0220,-0.0073,-0.0220,-0.0220,-0.0205,-0.5402,12.7385,1.3748,-0.5446,-0.1978,-0.0024,1,1,1,1,1,1,1
14.3903,sweep,3,+up,-0.18444,0.70630,0.67502,1.07404,-0.01202,0.23480,-0.00324,-0.0024,-0.0024,0.2027,-0.0073,0.0073,-0.0220,0.0073,0.0068,-0.4444,12.8342,1.3211,-0.6178,-0.2466,-0.0073,1,1,1,1,1,1,1
14.4304,sweep,3,+up,-0.18444,0.70630,0.67502,1.07404,-0.01202,0.23480,-0.00324,-0.0024,-0.0024,0.2027,-0.0073,0.0073,-0.0220,0.0073,0.0068,-0.4444,12.8342,1.3211,-0.6178,-0.2466,-0.0073,1,1,1,1,1,1,1
14.4702,sweep,3,+up,-0.18444,0.70630,0.69066,1.07404,-0.01202,0.23480,-0.00362,-0.0024,-0.0024,0.1734,0.0073,-0.0073,-0.0073,-0.0220,0.0205,-0.4444,12.5470,1.2918,-0.6618,-0.2613,-0.0073,1,1,1,1,1,1,1
14.5105,sweep,3,+up,-0.18444,0.70630,0.69066,1.07404,-0.01202,0.23480,-0.00362,-0.0024,-0.0024,0.1734,0.0073,-0.0073,-0.0073,-0.0220,0.0205,-0.4444,12.5470,1.2918,-0.6618,-0.2613,-0.0073,1,1,1,1,1,1,1
14.5504,sweep,3,+up,-0.18444,0.70630,0.69066,1.07404,-0.01202,0.23480,-0.00362,-0.0024,-0.0024,0.1734,0.0073,-0.0073,-0.0073,-0.0220,0.0205,-0.4444,12.5470,1.2918,-0.6618,-0.2613,-0.0073,1,1,1,1,1,1,1
14.5905,sweep,3,+up,-0.18444,0.70630,0.71126,1.07443,-0.01202,0.23442,-0.00324,-0.0073,-0.0024,0.1343,-0.0220,-0.0073,0.0073,0.0073,0.0479,-0.2803,12.4103,1.2332,-0.7155,-0.2613,-0.0122,1,1,1,1,1,1,1
14.6304,sweep,3,+up,-0.18444,0.70630,0.71126,1.07443,-0.01202,0.23442,-0.00324,-0.0073,-0.0024,0.1343,-0.0220,-0.0073,0.0073,0.0073,0.0479,-0.2803,12.4103,1.2332,-0.7155,-0.2613,-0.0122,1,1,1,1,1,1,1
14.6704,sweep,3,+up,-0.18444,0.70630,0.72309,1.07443,-0.01240,0.23442,-0.00324,0.0024,-0.0024,0.1490,-0.0073,-0.0073,0.0073,-0.0073,0.0479,-0.2393,12.6564,1.2088,-0.7546,-0.2808,-0.0122,1,1,1,1,1,1,1
14.7106,sweep,3,+up,-0.18444,0.70630,0.72309,1.07443,-0.01240,0.23442,-0.00324,0.0024,-0.0024,0.1490,-0.0073,-0.0073,0.0073,-0.0073,0.0479,-0.2393,12.6564,1.2088,-0.7546,-0.2808,-0.0122,1,1,1,1,1,1,1
14.7504,sweep,3,+up,-0.18444,0.70630,0.72309,1.07443,-0.01240,0.23442,-0.00324,0.0024,-0.0024,0.1490,-0.0073,-0.0073,0.0073,-0.0073,0.0479,-0.2393,12.6564,1.2088,-0.7546,-0.2808,-0.0122,1,1,1,1,1,1,1
14.7903,sweep,3,+up,-0.18444,0.70630,0.73835,1.07404,-0.01240,0.23404,-0.00324,-0.0073,-0.0024,0.1050,0.0073,-0.0073,-0.0073,-0.0073,0.0479,-0.2803,12.5607,1.2088,-0.8034,-0.2857,-0.0073,1,1,1,1,1,1,1
14.8304,sweep,3,+up,-0.18444,0.70630,0.73835,1.07404,-0.01240,0.23404,-0.00324,-0.0073,-0.0024,0.1050,0.0073,-0.0073,-0.0073,-0.0073,0.0479,-0.2803,12.5607,1.2088,-0.8034,-0.2857,-0.0073,1,1,1,1,1,1,1
14.8704,sweep,3,+up,-0.18444,0.70630,0.74750,1.07404,-0.01240,0.23404,-0.00324,-0.0024,-0.0073,0.1343,-0.0073,-0.0073,0.0073,0.0073,0.0342,-0.1846,12.8068,1.1697,-0.8181,-0.2906,-0.0073,1,1,1,1,1,1,1
14.9104,sweep,3,+up,-0.18444,0.70630,0.74750,1.07404,-0.01240,0.23404,-0.00324,-0.0024,-0.0073,0.1343,-0.0073,-0.0073,0.0073,0.0073,0.0342,-0.1846,12.8068,1.1697,-0.8181,-0.2906,-0.0073,1,1,1,1,1,1,1
14.9503,sweep,3,+up,-0.18444,0.70630,0.74750,1.07404,-0.01240,0.23404,-0.00324,-0.0024,-0.0073,0.1343,-0.0073,-0.0073,0.0073,0.0073,0.0342,-0.1846,12.8068,1.1697,-0.8181,-0.2906,-0.0073,1,1,1,1,1,1,1
14.9905,sweep,3,+up,-0.18444,0.70630,0.75933,1.07404,-0.01278,0.23404,-0.00362,-0.0024,-0.0024,0.0611,-0.0220,-0.0220,-0.0073,-0.0073,0.0342,-0.1709,12.7658,1.1404,-0.8376,-0.2808,-0.0122,1,1,1,1,1,1,1
15.0303,sweep,3,+up,-0.18444,0.70630,0.75933,1.07404,-0.01278,0.23404,-0.00362,-0.0024,-0.0024,0.0611,-0.0220,-0.0220,-0.0073,-0.0073,0.0342,-0.1709,12.7658,1.1404,-0.8376,-0.2808,-0.0122,1,1,1,1,1,1,1
15.0704,sweep,3,+up,-0.18444,0.70630,0.76619,1.07404,-0.01278,0.23404,-0.00362,-0.0024,-0.0024,0.0659,-0.0220,-0.0073,-0.0220,-0.0073,0.0205,-0.1436,12.4650,1.1306,-0.8571,-0.2906,-0.0122,1,1,1,1,1,1,1
15.1103,sweep,3,+up,-0.18444,0.70630,0.76619,1.07404,-0.01278,0.23404,-0.00362,-0.0024,-0.0024,0.0659,-0.0220,-0.0073,-0.0220,-0.0073,0.0205,-0.1436,12.4650,1.1306,-0.8571,-0.2906,-0.0122,1,1,1,1,1,1,1
15.1505,sweep,3,+up,-0.18444,0.70630,0.76619,1.07404,-0.01278,0.23404,-0.00362,-0.0024,-0.0024,0.0659,-0.0220,-0.0073,-0.0220,-0.0073,0.0205,-0.1436,12.4650,1.1306,-0.8571,-0.2906,-0.0122,1,1,1,1,1,1,1
15.1904,sweep,3,+up,-0.18444,0.70630,0.77535,1.07404,-0.01278,0.23365,-0.00324,0.0024,-0.0024,0.0611,-0.0220,-0.0220,0.0073,0.0073,0.0479,-0.1026,12.4513,1.0916,-0.8620,-0.2857,-0.0073,1,1,1,1,1,1,1
15.2304,sweep,3,+up,-0.18444,0.70630,0.77535,1.07404,-0.01278,0.23365,-0.00324,0.0024,-0.0024,0.0611,-0.0220,-0.0220,0.0073,0.0073,0.0479,-0.1026,12.4513,1.0916,-0.8620,-0.2857,-0.0073,1,1,1,1,1,1,1
15.2703,sweep,3,+up,-0.18444,0.70630,0.78069,1.07404,-0.01316,0.23365,-0.00324,-0.0024,-0.0024,0.0855,0.0073,-0.0073,-0.0073,-0.0220,0.0205,-0.0889,12.1504,1.0525,-0.8571,-0.2759,-0.0122,1,1,1,1,1,1,1
15.3104,sweep,3,+up,-0.18444,0.70630,0.78069,1.07404,-0.01316,0.23365,-0.00324,-0.0024,-0.0024,0.0855,0.0073,-0.0073,-0.0073,-0.0220,0.0205,-0.0889,12.1504,1.0525,-0.8571,-0.2759,-0.0122,1,1,1,1,1,1,1
15.3504,sweep,3,+up,-0.18444,0.70630,0.78069,1.07404,-0.01316,0.23365,-0.00324,-0.0024,-0.0024,0.0855,0.0073,-0.0073,-0.0073,-0.0220,0.0205,-0.0889,12.1504,1.0525,-0.8571,-0.2759,-0.0122,1,1,1,1,1,1,1
15.3906,sweep,3,+up,-0.18444,0.70592,0.78718,1.07404,-0.01354,0.23365,-0.00362,0.0024,-0.0024,0.0562,0.0073,-0.0220,-0.0220,-0.0073,0.0068,-0.0068,12.5744,1.0427,-0.8327,-0.2759,-0.0122,1,1,1,1,1,1,1
15.4305,sweep,3,+up,-0.18444,0.70592,0.78718,1.07404,-0.01354,0.23365,-0.00362,0.0024,-0.0024,0.0562,0.0073,-0.0220,-0.0220,-0.0073,0.0068,-0.0068,12.5744,1.0427,-0.8327,-0.2759,-0.0122,1,1,1,1,1,1,1
15.4704,sweep,3,+up,-0.18444,0.70592,0.79137,1.07404,-0.01354,0.23365,-0.00324,-0.0024,-0.0024,0.0366,-0.0073,-0.0220,0.0073,0.0073,0.0068,0.0068,12.4513,1.0134,-0.8278,-0.2711,-0.0073,1,1,1,1,1,1,1
15.5105,sweep,3,+up,-0.18444,0.70592,0.79137,1.07404,-0.01354,0.23365,-0.00324,-0.0024,-0.0024,0.0366,-0.0073,-0.0220,0.0073,0.0073,0.0068,0.0068,12.4513,1.0134,-0.8278,-0.2711,-0.0073,1,1,1,1,1,1,1
15.5504,sweep,3,+up,-0.18444,0.70592,0.79137,1.07404,-0.01354,0.23365,-0.00324,-0.0024,-0.0024,0.0366,-0.0073,-0.0220,0.0073,0.0073,0.0068,0.0068,12.4513,1.0134,-0.8278,-0.2711,-0.0073,1,1,1,1,1,1,1
15.5905,sweep,3,+up,-0.18444,0.70630,0.79671,1.07404,-0.01354,0.23365,-0.00324,-0.0024,-0.0024,0.0464,0.0220,-0.0366,-0.0073,-0.0073,-0.0068,0.0615,12.1915,1.0134,-0.8181,-0.2711,-0.0024,1,1,1,1,1,1,1
15.6303,sweep,3,+up,-0.18444,0.70630,0.79671,1.07404,-0.01354,0.23365,-0.00324,-0.0024,-0.0024,0.0464,0.0220,-0.0366,-0.0073,-0.0073,-0.0068,0.0615,12.1915,1.0134,-0.8181,-0.2711,-0.0024,1,1,1,1,1,1,1
15.6704,sweep,3,+up,-0.18444,0.70592,0.80015,1.07366,-0.01354,0.23365,-0.00324,-0.0024,-0.0073,0.0220,0.0073,0.0073,-0.0073,0.0073,-0.0068,0.0889,11.9590,1.0085,-0.8132,-0.2613,-0.0024,1,1,1,1,1,1,1
15.7107,sweep,3,+up,-0.18444,0.70592,0.80015,1.07366,-0.01354,0.23365,-0.00324,-0.0024,-0.0073,0.0220,0.0073,0.0073,-0.0073,0.0073,-0.0068,0.0889,11.9590,1.0085,-0.8132,-0.2613,-0.0024,1,1,1,1,1,1,1
15.7502,sweep,3,+up,-0.18444,0.70592,0.80015,1.07366,-0.01354,0.23365,-0.00324,-0.0024,-0.0073,0.0220,0.0073,0.0073,-0.0073,0.0073,-0.0068,0.0889,11.9590,1.0085,-0.8132,-0.2613,-0.0024,1,1,1,1,1,1,1
15.7905,sweep,3,+up,-0.18444,0.70592,0.80358,1.07404,-0.01354,0.23365,-0.00324,-0.0073,-0.0024,0.0220,0.0073,-0.0073,-0.0073,-0.0073,-0.0205,0.1026,12.1915,0.9939,-0.8083,-0.2564,-0.0024,1,1,1,1,1,1,1
15.8304,sweep,3,+up,-0.18444,0.70592,0.80358,1.07404,-0.01354,0.23365,-0.00324,-0.0073,-0.0024,0.0220,0.0073,-0.0073,-0.0073,-0.0073,-0.0205,0.1026,12.1915,0.9939,-0.8083,-0.2564,-0.0024,1,1,1,1,1,1,1
15.8706,sweep,3,+up,-0.18444,0.70630,0.80587,1.07404,-0.01354,0.23365,-0.00362,0.0024,-0.0024,0.0269,-0.0073,-0.0220,-0.0220,-0.0073,-0.0068,0.1026,12.2872,0.9988,-0.7937,-0.2515,-0.0073,1,1,1,1,1,1,1
15.9105,sweep,3,+up,-0.18444,0.70630,0.80587,1.07404,-0.01354,0.23365,-0.00362,0.0024,-0.0024,0.0269,-0.0073,-0.0220,-0.0220,-0.0073,-0.0068,0.1026,12.2872,0.9988,-0.7937,-0.2515,-0.0073,1,1,1,1,1,1,1
15.9511,sweep,3,+up,-0.18444,0.70630,0.80587,1.07404,-0.01354,0.23365,-0.00362,0.0024,-0.0024,0.0269,-0.0073,-0.0220,-0.0220,-0.0073,-0.0068,0.1026,12.2872,0.9988,-0.7937,-0.2515,-0.0073,1,1,1,1,1,1,1
15.9906,sweep,3,+up,-0.18444,0.70592,0.80930,1.07366,-0.01354,0.23365,-0.00362,-0.0073,-0.0024,0.0171,0.0073,-0.0073,-0.0073,-0.0073,0.0068,0.1299,12.0000,0.9792,-0.7937,-0.2515,-0.0073,1,1,1,1,1,1,1
16.4936,sweep,3,-down,-0.18444,0.70630,0.81006,1.07366,-0.01354,0.23365,-0.00324,0.0024,0.0024,0.0171,-0.0366,-0.0220,0.0073,-0.0073,-0.0068,0.1436,12.1504,0.9890,-0.7937,-0.2418,-0.0024,1,1,1,1,1,1,1
16.5336,sweep,3,-down,-0.18444,0.70630,0.81006,1.07366,-0.01354,0.23365,-0.00324,0.0024,0.0024,0.0171,-0.0366,-0.0220,0.0073,-0.0073,-0.0068,0.1436,12.1504,0.9890,-0.7937,-0.2418,-0.0024,1,1,1,1,1,1,1
16.5732,sweep,3,-down,-0.18444,0.70630,0.81502,1.07443,-0.01392,0.23365,-0.00362,-0.0024,-0.0024,-0.1392,0.0513,-0.0513,-0.0220,-0.0073,0.0068,0.2530,6.2291,0.8718,-0.7253,-0.2173,-0.0073,1,1,1,1,1,1,1
16.6132,sweep,3,-down,-0.18444,0.70630,0.81502,1.07443,-0.01392,0.23365,-0.00362,-0.0024,-0.0024,-0.1392,0.0513,-0.0513,-0.0220,-0.0073,0.0068,0.2530,6.2291,0.8718,-0.7253,-0.2173,-0.0073,1,1,1,1,1,1,1
16.6533,sweep,3,-down,-0.18444,0.70630,0.81502,1.07443,-0.01392,0.23365,-0.00362,-0.0024,-0.0024,-0.1392,0.0513,-0.0513,-0.0220,-0.0073,0.0068,0.2530,6.2291,0.8718,-0.7253,-0.2173,-0.0073,1,1,1,1,1,1,1
16.6932,sweep,3,-down,-0.18444,0.70592,0.79061,1.07404,-0.01469,0.23404,-0.00362,-0.0024,-0.0024,-0.2027,-0.0220,0.0073,-0.0073,-0.0220,0.0068,0.4855,7.2274,0.8767,-0.5641,-0.2173,-0.0073,1,1,1,1,1,1,1
16.7335,sweep,3,-down,-0.18444,0.70592,0.79061,1.07404,-0.01469,0.23404,-0.00362,-0.0024,-0.0024,-0.2027,-0.0220,0.0073,-0.0073,-0.0220,0.0068,0.4855,7.2274,0.8767,-0.5641,-0.2173,-0.0073,1,1,1,1,1,1,1
16.7734,sweep,3,-down,-0.18444,0.70592,0.77459,1.07366,-0.01545,0.23365,-0.00324,-0.0024,0.0024,-0.1978,-0.0073,-0.0220,0.0073,-0.0073,-0.0205,0.4581,7.1863,0.9109,-0.4567,-0.1929,-0.0122,1,1,1,1,1,1,1
16.8133,sweep,3,-down,-0.18444,0.70592,0.77459,1.07366,-0.01545,0.23365,-0.00324,-0.0024,0.0024,-0.1978,-0.0073,-0.0220,0.0073,-0.0073,-0.0205,0.4581,7.1863,0.9109,-0.4567,-0.1929,-0.0122,1,1,1,1,1,1,1
16.8533,sweep,3,-down,-0.18444,0.70592,0.77459,1.07366,-0.01545,0.23365,-0.00324,-0.0024,0.0024,-0.1978,-0.0073,-0.0220,0.0073,-0.0073,-0.0205,0.4581,7.1863,0.9109,-0.4567,-0.1929,-0.0122,1,1,1,1,1,1,1
16.8934,sweep,3,-down,-0.18444,0.70668,0.75055,1.07137,-0.01545,0.23327,-0.00324,-0.0024,0.0024,-0.1978,0.0220,0.0073,-0.0073,-0.0073,-0.0205,0.1846,7.1863,1.1160,-0.3248,-0.1636,-0.0024,1,1,1,1,1,1,1
16.9331,sweep,3,-down,-0.18444,0.70668,0.75055,1.07137,-0.01545,0.23327,-0.00324,-0.0024,0.0024,-0.1978,0.0220,0.0073,-0.0073,-0.0073,-0.0205,0.1846,7.1863,1.1160,-0.3248,-0.1636,-0.0024,1,1,1,1,1,1,1
16.9734,sweep,3,-down,-0.18444,0.70668,0.73529,1.07137,-0.01583,0.23289,-0.00324,0.0024,-0.0024,-0.1978,-0.0073,-0.0073,0.0073,-0.0073,-0.0205,0.1709,6.6803,1.1893,-0.2418,-0.1245,-0.0024,1,1,1,1,1,1,1
17.0134,sweep,3,-down,-0.18444,0.70668,0.73529,1.07137,-0.01583,0.23289,-0.00324,0.0024,-0.0024,-0.1978,-0.0073,-0.0073,0.0073,-0.0073,-0.0205,0.1709,6.6803,1.1893,-0.2418,-0.1245,-0.0024,1,1,1,1,1,1,1
17.0538,sweep,3,-down,-0.18444,0.70668,0.73529,1.07137,-0.01583,0.23289,-0.00324,0.0024,-0.0024,-0.1978,-0.0073,-0.0073,0.0073,-0.0073,-0.0205,0.1709,6.6803,1.1893,-0.2418,-0.1245,-0.0024,1,1,1,1,1,1,1
17.0933,sweep,3,-down,-0.18444,0.70668,0.71050,1.07214,-0.01545,0.23289,-0.00324,-0.0024,-0.0024,-0.1978,-0.0073,-0.0220,-0.0220,-0.0073,-0.0205,0.1709,7.2821,1.2479,-0.1490,-0.0904,-0.0024,1,1,1,1,1,1,1
17.1337,sweep,3,-down,-0.18444,0.70668,0.71050,1.07214,-0.01545,0.23289,-0.00324,-0.0024,-0.0024,-0.1978,-0.0073,-0.0220,-0.0220,-0.0073,-0.0205,0.1709,7.2821,1.2479,-0.1490,-0.0904,-0.0024,1,1,1,1,1,1,1
17.1733,sweep,3,-down,-0.18444,0.70668,0.69448,1.07404,-0.01545,0.23289,-0.00362,0.0024,-0.0024,-0.2027,-0.0220,-0.0073,0.0073,-0.0073,0.0205,0.1846,7.2547,1.1355,-0.1050,-0.0757,-0.0024,1,1,1,1,1,1,1
17.2133,sweep,3,-down,-0.18444,0.70668,0.69448,1.07404,-0.01545,0.23289,-0.00362,0.0024,-0.0024,-0.2027,-0.0220,-0.0073,0.0073,-0.0073,0.0205,0.1846,7.2547,1.1355,-0.1050,-0.0757,-0.0024,1,1,1,1,1,1,1
17.2531,sweep,3,-down,-0.18444,0.70668,0.69448,1.07404,-0.01545,0.23289,-0.00362,0.0024,-0.0024,-0.2027,-0.0220,-0.0073,0.0073,-0.0073,0.0205,0.1846,7.2547,1.1355,-0.1050,-0.0757,-0.0024,1,1,1,1,1,1,1
17.2933,sweep,3,-down,-0.18444,0.70668,0.67083,1.07366,-0.01507,0.23289,-0.00324,0.0024,-0.0024,-0.2076,-0.0073,-0.0073,-0.0073,-0.0073,-0.0205,0.1436,6.9812,1.1209,-0.0562,-0.0562,-0.0024,1,1,1,1,1,1,1
17.3331,sweep,3,-down,-0.18444,0.70668,0.67083,1.07366,-0.01507,0.23289,-0.00324,0.0024,-0.0024,-0.2076,-0.0073,-0.0073,-0.0073,-0.0073,-0.0205,0.1436,6.9812,1.1209,-0.0562,-0.0562,-0.0024,1,1,1,1,1,1,1
17.3733,sweep,3,-down,-0.18444,0.70668,0.65518,1.07328,-0.01469,0.23289,-0.00324,-0.0024,0.0024,-0.2173,0.0073,-0.0073,0.0073,-0.0073,-0.0068,0.1299,6.6256,1.1502,-0.0415,-0.0464,-0.0024,1,1,1,1,1,1,1
17.4133,sweep,3,-down,-0.18444,0.70668,0.65518,1.07328,-0.01469,0.23289,-0.00324,-0.0024,0.0024,-0.2173,0.0073,-0.0073,0.0073,-0.0073,-0.0068,0.1299,6.6256,1.1502,-0.0415,-0.0464,-0.0024,1,1,1,1,1,1,1
17.4535,sweep,3,-down,-0.18444,0.70668,0.65518,1.07328,-0.01469,0.23289,-0.00324,-0.0024,0.0024,-0.2173,0.0073,-0.0073,0.0073,-0.0073,-0.0068,0.1299,6.6256,1.1502,-0.0415,-0.0464,-0.0024,1,1,1,1,1,1,1
17.4933,sweep,3,-down,-0.18444,0.70668,0.63077,1.07290,-0.01469,0.23327,-0.00324,-0.0024,-0.0024,-0.2027,-0.0073,0.0073,-0.0073,-0.0073,0.0068,0.0889,7.2410,1.2430,-0.0220,-0.0366,-0.0024,1,1,1,1,1,1,1
17.5336,sweep,3,-down,-0.18444,0.70668,0.63077,1.07290,-0.01469,0.23327,-0.00324,-0.0024,-0.0024,-0.2027,-0.0073,0.0073,-0.0073,-0.0073,0.0068,0.0889,7.2410,1.2430,-0.0220,-0.0366,-0.0024,1,1,1,1,1,1,1
17.5735,sweep,3,-down,-0.18444,0.70668,0.61437,1.07252,-0.01431,0.23327,-0.00324,0.0024,-0.0024,-0.2125,-0.0220,0.0073,-0.0073,-0.0073,0.0068,0.0889,7.5556,1.2723,-0.0220,-0.0269,-0.0024,1,1,1,1,1,1,1
17.6133,sweep,3,-down,-0.18444,0.70668,0.61437,1.07252,-0.01431,0.23327,-0.00324,0.0024,-0.0024,-0.2125,-0.0220,0.0073,-0.0073,-0.0073,0.0068,0.0889,7.5556,1.2723,-0.0220,-0.0269,-0.0024,1,1,1,1,1,1,1
17.6532,sweep,3,-down,-0.18444,0.70668,0.61437,1.07252,-0.01431,0.23327,-0.00324,0.0024,-0.0024,-0.2125,-0.0220,0.0073,-0.0073,-0.0073,0.0068,0.0889,7.5556,1.2723,-0.0220,-0.0269,-0.0024,1,1,1,1,1,1,1
17.6934,sweep,3,-down,-0.18444,0.70668,0.59071,1.07252,-0.01240,0.23327,-0.00324,-0.0024,0.0024,-0.1978,-0.0073,-0.0220,-0.0073,-0.0073,0.0068,0.0479,7.0769,1.3211,-0.0855,-0.0171,-0.0024,1,1,1,1,1,1,1
17.7334,sweep,3,-down,-0.18444,0.70668,0.59071,1.07252,-0.01240,0.23327,-0.00324,-0.0024,0.0024,-0.1978,-0.0073,-0.0220,-0.0073,-0.0073,0.0068,0.0479,7.0769,1.3211,-0.0855,-0.0171,-0.0024,1,1,1,1,1,1,1
17.7732,sweep,3,-down,-0.18444,0.70668,0.57507,1.07290,-0.01240,0.23327,-0.00362,-0.0024,-0.0024,-0.2222,-0.0073,-0.0073,-0.0073,-0.0073,-0.0205,0.0342,6.9265,1.3455,-0.1050,-0.0073,-0.0024,1,1,1,1,1,1,1
17.8135,sweep,3,-down,-0.18444,0.70668,0.57507,1.07290,-0.01240,0.23327,-0.00362,-0.0024,-0.0024,-0.2222,-0.0073,-0.0073,-0.0073,-0.0073,-0.0205,0.0342,6.9265,1.3455,-0.1050,-0.0073,-0.0024,1,1,1,1,1,1,1
17.8533,sweep,3,-down,-0.18444,0.70668,0.57507,1.07290,-0.01240,0.23327,-0.00362,-0.0024,-0.0024,-0.2222,-0.0073,-0.0073,-0.0073,-0.0073,-0.0205,0.0342,6.9265,1.3455,-0.1050,-0.0073,-0.0024,1,1,1,1,1,1,1
17.8934,sweep,3,-down,-0.18444,0.70668,0.55066,1.07290,-0.01278,0.23327,-0.00324,-0.0024,0.0024,-0.2076,-0.0073,-0.0073,-0.0073,-0.0073,-0.0205,0.0342,7.2957,1.3700,-0.1245,0.0073,-0.0024,1,1,1,1,1,1,1
17.9335,sweep,3,-down,-0.18444,0.70668,0.55066,1.07290,-0.01278,0.23327,-0.00324,-0.0024,0.0024,-0.2076,-0.0073,-0.0073,-0.0073,-0.0073,-0.0205,0.0342,7.2957,1.3700,-0.1245,0.0073,-0.0024,1,1,1,1,1,1,1
17.9733,sweep,3,-down,-0.18444,0.70668,0.53464,1.07252,-0.01278,0.23327,-0.00362,-0.0073,-0.0024,-0.1832,0.0073,0.0073,-0.0220,-0.0073,-0.0479,-0.0068,7.1726,1.4237,-0.1343,0.0122,-0.0024,1,1,1,1,1,1,1
18.0133,sweep,3,-down,-0.18444,0.70668,0.53464,1.07252,-0.01278,0.23327,-0.00362,-0.0073,-0.0024,-0.1832,0.0073,0.0073,-0.0220,-0.0073,-0.0479,-0.0068,7.1726,1.4237,-0.1343,0.0122,-0.0024,1,1,1,1,1,1,1
18.0533,sweep,3,-down,-0.18444,0.70668,0.53464,1.07252,-0.01278,0.23327,-0.00362,-0.0073,-0.0024,-0.1832,0.0073,0.0073,-0.0220,-0.0073,-0.0479,-0.0068,7.1726,1.4237,-0.1343,0.0122,-0.0024,1,1,1,1,1,1,1
18.0931,sweep,3,-down,-0.18444,0.70668,0.51099,1.07214,-0.01278,0.23327,-0.00324,-0.0024,-0.0024,-0.1978,-0.0366,0.0073,0.0073,0.0073,-0.0342,-0.0479,6.8991,1.4969,-0.1587,0.0220,-0.0024,1,1,1,1,1,1,1
18.1335,sweep,3,-down,-0.18444,0.70668,0.51099,1.07214,-0.01278,0.23327,-0.00324,-0.0024,-0.0024,-0.1978,-0.0366,0.0073,0.0073,0.0073,-0.0342,-0.0479,6.8991,1.4969,-0.1587,0.0220,-0.0024,1,1,1,1,1,1,1
18.1734,sweep,3,-down,-0.18444,0.70668,0.49458,1.07252,-0.01278,0.23327,-0.00362,-0.0024,-0.0024,-0.2076,-0.0220,-0.0073,-0.0073,-0.0220,-0.0479,-0.0615,7.1863,1.4872,-0.1636,0.0269,-0.0073,1,1,1,1,1,1,1
18.2133,sweep,3,-down,-0.18444,0.70668,0.49458,1.07252,-0.01278,0.23327,-0.00362,-0.0024,-0.0024,-0.2076,-0.0220,-0.0073,-0.0073,-0.0220,-0.0479,-0.0615,7.1863,1.4872,-0.1636,0.0269,-0.0073,1,1,1,1,1,1,1
18.2534,sweep,3,-down,-0.18444,0.70668,0.49458,1.07252,-0.01278,0.23327,-0.00362,-0.0024,-0.0024,-0.2076,-0.0220,-0.0073,-0.0073,-0.0220,-0.0479,-0.0615,7.1863,1.4872,-0.1636,0.0269,-0.0073,1,1,1,1,1,1,1
18.2935,sweep,3,-down,-0.18444,0.70668,0.47055,1.07290,-0.01278,0.23327,-0.00324,-0.0024,-0.0024,-0.2027,-0.0220,-0.0073,-0.0073,-0.0073,-0.0479,-0.0615,7.4325,1.5067,-0.1685,0.0269,-0.0073,1,1,1,1,1,1,1
18.3335,sweep,3,-down,-0.18444,0.70668,0.47055,1.07290,-0.01278,0.23327,-0.00324,-0.0024,-0.0024,-0.2027,-0.0220,-0.0073,-0.0073,-0.0073,-0.0479,-0.0615,7.4325,1.5067,-0.1685,0.0269,-0.0073,1,1,1,1,1,1,1
18.3734,sweep,3,-down,-0.18444,0.70668,0.45453,1.07290,-0.01316,0.23365,-0.00362,-0.0024,-0.0024,-0.1978,0.0220,-0.0073,0.0073,-0.0073,-0.0615,-0.0752,7.3504,1.5409,-0.1734,0.0317,-0.0122,1,1,1,1,1,1,1
18.4135,sweep,3,-down,-0.18444,0.70668,0.45453,1.07290,-0.01316,0.23365,-0.00362,-0.0024,-0.0024,-0.1978,0.0220,-0.0073,0.0073,-0.0073,-0.0615,-0.0752,7.3504,1.5409,-0.1734,0.0317,-0.0122,1,1,1,1,1,1,1
18.4533,sweep,3,-down,-0.18444,0.70668,0.45453,1.07290,-0.01316,0.23365,-0.00362,-0.0024,-0.0024,-0.1978,0.0220,-0.0073,0.0073,-0.0073,-0.0615,-0.0752,7.3504,1.5409,-0.1734,0.0317,-0.0122,1,1,1,1,1,1,1
18.4933,sweep,3,-down,-0.18444,0.70668,0.43088,1.07252,-0.01316,0.23365,-0.00362,-0.0024,0.0024,-0.2125,-0.0220,-0.0073,-0.0073,-0.0220,-0.0615,-0.1026,6.8171,1.6142,-0.1636,0.0366,-0.0073,1,1,1,1,1,1,1
18.5333,sweep,3,-down,-0.18444,0.70668,0.43088,1.07252,-0.01316,0.23365,-0.00362,-0.0024,0.0024,-0.2125,-0.0220,-0.0073,-0.0073,-0.0220,-0.0615,-0.1026,6.8171,1.6142,-0.1636,0.0366,-0.0073,1,1,1,1,1,1,1
18.5732,sweep,3,-down,-0.18444,0.70668,0.41486,1.07252,-0.01316,0.23365,-0.00324,-0.0073,-0.0024,-0.2027,-0.0366,-0.0073,0.0073,-0.0073,-0.0752,-0.1162,7.3504,1.6337,-0.1685,0.0415,-0.0073,1,1,1,1,1,1,1
18.6133,sweep,3,-down,-0.18444,0.70668,0.41486,1.07252,-0.01316,0.23365,-0.00324,-0.0073,-0.0024,-0.2027,-0.0366,-0.0073,0.0073,-0.0073,-0.0752,-0.1162,7.3504,1.6337,-0.1685,0.0415,-0.0073,1,1,1,1,1,1,1
18.6532,sweep,3,-down,-0.18444,0.70668,0.41486,1.07252,-0.01316,0.23365,-0.00324,-0.0073,-0.0024,-0.2027,-0.0366,-0.0073,0.0073,-0.0073,-0.0752,-0.1162,7.3504,1.6337,-0.1685,0.0415,-0.0073,1,1,1,1,1,1,1
18.6932,sweep,3,-down,-0.18444,0.70668,0.39044,1.07290,-0.01316,0.23365,-0.00324,-0.0073,-0.0073,-0.1978,-0.0073,-0.0220,-0.0073,-0.0073,-0.0615,-0.1299,7.5145,1.6484,-0.1636,0.0415,0.0024,1,1,1,1,1,1,1
18.7335,sweep,3,-down,-0.18444,0.70668,0.39044,1.07290,-0.01316,0.23365,-0.00324,-0.0073,-0.0073,-0.1978,-0.0073,-0.0220,-0.0073,-0.0073,-0.0615,-0.1299,7.5145,1.6484,-0.1636,0.0415,0.0024,1,1,1,1,1,1,1
18.7732,sweep,3,-down,-0.18444,0.70668,0.36717,1.07328,-0.01354,0.23365,-0.00362,-0.0024,-0.0024,-0.1978,0.0220,-0.0073,-0.0073,-0.0073,-0.0479,-0.1436,7.2000,1.6386,-0.1538,0.0464,0.0024,1,1,1,1,1,1,1
18.8132,sweep,3,-down,-0.18444,0.70668,0.36717,1.07328,-0.01354,0.23365,-0.00362,-0.0024,-0.0024,-0.1978,0.0220,-0.0073,-0.0073,-0.0073,-0.0479,-0.1436,7.2000,1.6386,-0.1538,0.0464,0.0024,1,1,1,1,1,1,1
18.8531,sweep,3,-down,-0.18444,0.70668,0.36717,1.07328,-0.01354,0.23365,-0.00362,-0.0024,-0.0024,-0.1978,0.0220,-0.0073,-0.0073,-0.0073,-0.0479,-0.1436,7.2000,1.6386,-0.1538,0.0464,0.0024,1,1,1,1,1,1,1
18.8933,sweep,3,-down,-0.18444,0.70668,0.35115,1.07328,-0.01354,0.23365,-0.00324,-0.0073,-0.0073,-0.1880,-0.0073,-0.0073,-0.0220,-0.0073,-0.0615,-0.1573,6.8444,1.6825,-0.1490,0.0464,-0.0024,1,1,1,1,1,1,1
18.9334,sweep,3,-down,-0.18444,0.70668,0.35115,1.07328,-0.01354,0.23365,-0.00324,-0.0073,-0.0073,-0.1880,-0.0073,-0.0073,-0.0220,-0.0073,-0.0615,-0.1573,6.8444,1.6825,-0.1490,0.0464,-0.0024,1,1,1,1,1,1,1
18.9731,sweep,3,-down,-0.18444,0.70668,0.32673,1.07290,-0.01354,0.23365,-0.00324,-0.0073,-0.0024,-0.2027,-0.0073,-0.0073,-0.0073,0.0073,-0.0615,-0.1573,7.3094,1.7118,-0.1392,0.0513,-0.0024,1,1,1,1,1,1,1
19.0133,sweep,3,-down,-0.18444,0.70668,0.32673,1.07290,-0.01354,0.23365,-0.00324,0.0024,-0.0024,-0.2027,-0.0073,-0.0073,-0.0073,0.0073,-0.0615,-0.1573,7.3094,1.7118,-0.1392,0.0513,-0.0024,1,1,1,1,1,1,1
19.0537,sweep,3,-down,-0.18444,0.70668,0.32673,1.07290,-0.01354,0.23365,-0.00324,0.0024,-0.0024,-0.2027,-0.0073,-0.0073,-0.0073,0.0073,-0.0615,-0.1573,7.3094,1.7118,-0.1392,0.0513,-0.0024,1,1,1,1,1,1,1
19.0934,sweep,3,-down,-0.18444,0.70668,0.31033,1.07290,-0.01354,0.23365,-0.00324,-0.0024,-0.0024,-0.1929,0.0073,0.0073,-0.0073,-0.0220,-0.0752,-0.1846,7.4872,1.7460,-0.1392,0.0513,0.0024,1,1,1,1,1,1,1
19.1332,sweep,3,-down,-0.18444,0.70668,0.31033,1.07290,-0.01354,0.23365,-0.00324,-0.0024,-0.0024,-0.1929,0.0073,0.0073,-0.0073,-0.0220,-0.0752,-0.1846,7.4872,1.7460,-0.1392,0.0513,0.0024,1,1,1,1,1,1,1
19.1734,sweep,3,-down,-0.18444,0.70668,0.28706,1.07252,-0.01354,0.23365,-0.00324,-0.0024,-0.0024,-0.2027,-0.0366,-0.0073,-0.0073,-0.0073,-0.0752,-0.2256,6.9538,1.8046,-0.1343,0.0562,0.0024,1,1,1,1,1,1,1
19.2135,sweep,3,-down,-0.18444,0.70668,0.28706,1.07252,-0.01354,0.23365,-0.00324,-0.0073,-0.0024,-0.2027,-0.0366,-0.0073,-0.0073,-0.0073,-0.0889,-0.2256,6.9538,1.8046,-0.1343,0.0562,0.0024,1,1,1,1,1,1,1
19.2535,sweep,3,-down,-0.18444,0.70668,0.28706,1.07252,-0.01354,0.23365,-0.00324,-0.0073,-0.0024,-0.2027,-0.0366,-0.0073,-0.0073,-0.0073,-0.0889,-0.2256,6.9538,1.8046,-0.1343,0.0562,0.0024,1,1,1,1,1,1,1
19.2933,sweep,3,-down,-0.18444,0.70668,0.27066,1.07328,-0.01354,0.23365,-0.00324,-0.0024,-0.0073,-0.2027,-0.0220,-0.0073,-0.0073,-0.0073,-0.0752,-0.2256,7.1453,1.7802,-0.1294,0.0611,0.0024,1,1,1,1,1,1,1
19.3331,sweep,3,-down,-0.18444,0.70668,0.27066,1.07328,-0.01354,0.23365,-0.00324,-0.0024,-0.0073,-0.2027,-0.0220,-0.0073,-0.0073,-0.0073,-0.0752,-0.2256,7.1453,1.7802,-0.1294,0.0611,0.0024,1,1,1,1,1,1,1
19.3734,sweep,3,-down,-0.18444,0.70668,0.27066,1.07328,-0.01354,0.23365,-0.00362,-0.0024,-0.0073,-0.2027,-0.0220,-0.0073,-0.0073,-0.0220,-0.0752,-0.2256,7.1453,1.7802,-0.1245,0.0659,-0.0024,1,1,1,1,1,1,1
19.4133,sweep,3,-down,-0.18444,0.70668,0.24815,1.07252,-0.01354,0.23365,-0.00362,-0.0024,-0.0024,-0.1783,-0.0220,-0.0073,-0.0073,-0.0220,-0.0889,-0.2667,7.3094,1.8486,-0.1245,0.0659,-0.0024,1,1,1,1,1,1,1
19.4536,sweep,3,-down,-0.18444,0.70668,0.24815,1.07252,-0.01354,0.23365,-0.00362,-0.0024,-0.0024,-0.1783,-0.0220,-0.0073,-0.0073,-0.0220,-0.0889,-0.2667,7.3094,1.8486,-0.1245,0.0659,-0.0024,1,1,1,1,1,1,1
19.4932,sweep,3,-down,-0.18444,0.70668,0.23480,1.07252,-0.01354,0.23365,-0.00362,-0.0024,-0.0024,-0.1636,-0.0073,-0.0073,-0.0073,-0.0220,-0.0889,-0.2940,7.3504,1.8779,-0.1197,0.0659,-0.0024,1,1,1,1,1,1,1
19.5335,sweep,3,-down,-0.18444,0.70668,0.23480,1.07252,-0.01354,0.23365,-0.00362,-0.0024,-0.0024,-0.1636,-0.0073,-0.0073,-0.0073,-0.0220,-0.0889,-0.2940,7.3504,1.8779,-0.1197,0.0659,-0.0024,1,1,1,1,1,1,1
19.5741,sweep,3,-down,-0.18444,0.70668,0.21763,1.07252,-0.01354,0.23365,-0.00362,-0.0024,0.0024,-0.1490,-0.0220,-0.0073,0.0073,-0.0220,-0.0889,-0.3214,7.1590,1.9072,-0.1148,0.0708,-0.0024,1,1,1,1,1,1,1
19.6134,sweep,3,-down,-0.18444,0.70668,0.21763,1.07252,-0.01354,0.23365,-0.00362,-0.0024,0.0024,-0.1490,-0.0220,-0.0073,0.0073,-0.0220,-0.1026,-0.3214,7.1590,1.9072,-0.1148,0.0708,-0.0024,1,1,1,1,1,1,1
19.6534,sweep,3,-down,-0.18444,0.70668,0.21763,1.07252,-0.01354,0.23365,-0.00362,-0.0024,0.0024,-0.1490,-0.0220,-0.0073,0.0073,-0.0220,-0.1026,-0.3214,7.1590,1.9072,-0.1148,0.0708,-0.0024,1,1,1,1,1,1,1
19.6933,sweep,3,-down,-0.18444,0.70668,0.20771,1.07290,-0.01354,0.23365,-0.00324,0.0024,-0.0024,-0.1050,-0.0073,-0.0220,0.0073,-0.0073,-0.0889,-0.3214,6.9812,1.9267,-0.1148,0.0659,-0.0024,1,1,1,1,1,1,1
19.7331,sweep,3,-down,-0.18444,0.70668,0.20771,1.07290,-0.01354,0.23365,-0.00324,0.0024,-0.0024,-0.1050,-0.0073,-0.0220,0.0073,-0.0073,-0.0889,-0.3214,6.9812,1.9267,-0.1148,0.0659,-0.0024,1,1,1,1,1,1,1
19.7731,sweep,3,-down,-0.18444,0.70668,0.20771,1.07290,-0.01354,0.23365,-0.00324,0.0024,-0.0024,-0.1050,-0.0073,-0.0220,0.0073,-0.0073,-0.0889,-0.3214,6.9812,1.9267,-0.1148,0.0659,-0.0024,1,1,1,1,1,1,1
19.8134,sweep,3,-down,-0.18444,0.70668,0.19398,1.07328,-0.01354,0.23365,-0.00324,-0.0024,-0.0024,-0.1148,-0.0073,-0.0073,-0.0073,-0.0220,-0.0889,-0.3350,7.4051,1.9219,-0.1099,0.0708,-0.0073,1,1,1,1,1,1,1
19.8533,sweep,3,-down,-0.18444,0.70668,0.19398,1.07328,-0.01354,0.23365,-0.00324,-0.0024,-0.0024,-0.1148,-0.0073,-0.0073,-0.0073,-0.0220,-0.0889,-0.3350,7.4051,1.9219,-0.1099,0.0708,-0.0073,1,1,1,1,1,1,1
19.8933,sweep,3,-down,-0.18444,0.70668,0.18673,1.07328,-0.01354,0.23404,-0.00324,-0.0024,-0.0024,-0.0952,-0.0073,-0.0073,0.0073,0.0073,-0.0889,-0.3487,6.8718,1.9414,-0.1050,0.0708,-0.0024,1,1,1,1,1,1,1
19.9333,sweep,3,-down,-0.18444,0.70668,0.18673,1.07328,-0.01354,0.23404,-0.00324,-0.0024,-0.0024,-0.0952,-0.0073,-0.0073,0.0073,0.0073,-0.0889,-0.3487,6.8718,1.9414,-0.1050,0.0708,-0.0024,1,1,1,1,1,1,1
19.9733,sweep,3,-down,-0.18444,0.70668,0.18673,1.07328,-0.01354,0.23404,-0.00324,-0.0024,-0.0024,-0.0952,-0.0073,-0.0073,0.0073,0.0073,-0.0889,-0.3487,6.8718,1.9414,-0.1050,0.0708,-0.0024,1,1,1,1,1,1,1
20.0131,sweep,3,-down,-0.18444,0.70668,0.17643,1.07366,-0.01354,0.23404,-0.00324,-0.0024,-0.0024,-0.0659,-0.0073,-0.0073,-0.0220,0.0073,-0.1026,-0.2940,7.5419,1.9023,-0.1099,0.0708,-0.0024,1,1,1,1,1,1,1
20.0534,sweep,3,-down,-0.18444,0.70668,0.17643,1.07366,-0.01354,0.23404,-0.00324,-0.0024,-0.0024,-0.0659,-0.0073,-0.0073,-0.0220,0.0073,-0.1026,-0.2940,7.5419,1.9023,-0.1099,0.0708,-0.0024,1,1,1,1,1,1,1
20.0933,sweep,3,-down,-0.18444,0.70668,0.17071,1.07366,-0.01354,0.23404,-0.00324,0.0024,-0.0024,-0.0659,-0.0073,0.0073,-0.0220,-0.0073,-0.0889,-0.2940,7.0632,1.8926,-0.1001,0.0708,-0.0024,1,1,1,1,1,1,1
20.1333,sweep,3,-down,-0.18444,0.70668,0.17071,1.07366,-0.01354,0.23404,-0.00324,0.0024,-0.0024,-0.0659,-0.0073,0.0073,-0.0220,-0.0073,-0.0889,-0.2940,7.0632,1.8926,-0.1001,0.0708,-0.0024,1,1,1,1,1,1,1
20.1733,sweep,3,-down,-0.18444,0.70668,0.17071,1.07366,-0.01354,0.23404,-0.00324,0.0024,-0.0024,-0.0659,-0.0073,0.0073,-0.0220,-0.0073,-0.0889,-0.2940,7.0632,1.8926,-0.1001,0.0708,-0.0024,1,1,1,1,1,1,1
20.2133,sweep,3,-down,-0.18444,0.70668,0.16308,1.07328,-0.01354,0.23404,-0.00324,-0.0024,-0.0024,-0.0611,-0.0073,-0.0073,0.0073,-0.0073,-0.0889,-0.3214,7.2821,1.8877,-0.1050,0.0708,-0.0073,1,1,1,1,1,1,1
20.2539,sweep,3,-down,-0.18444,0.70668,0.16308,1.07328,-0.01354,0.23404,-0.00324,-0.0024,-0.0024,-0.0611,-0.0073,-0.0073,0.0073,-0.0073,-0.0889,-0.3214,7.2821,1.8877,-0.1050,0.0708,-0.0073,1,1,1,1,1,1,1
20.2933,sweep,3,-down,-0.18444,0.70668,0.15850,1.07328,-0.01354,0.23404,-0.00362,-0.0024,-0.0073,-0.0464,-0.0073,-0.0073,-0.0073,-0.0073,-0.0889,-0.3214,7.0222,1.9267,-0.1001,0.0708,-0.0024,1,1,1,1,1,1,1
20.3332,sweep,3,-down,-0.18444,0.70668,0.15850,1.07328,-0.01354,0.23404,-0.00362,-0.0024,-0.0073,-0.0464,-0.0073,-0.0073,-0.0073,-0.0073,-0.0889,-0.3214,7.0222,1.9267,-0.1001,0.0708,-0.0024,1,1,1,1,1,1,1
20.3737,sweep,3,-down,-0.18444,0.70668,0.15850,1.07328,-0.01354,0.23404,-0.00362,-0.0024,-0.0073,-0.0464,-0.0073,-0.0073,-0.0073,-0.0073,-0.0889,-0.3214,7.0222,1.9267,-0.1001,0.0708,-0.0024,1,1,1,1,1,1,1
20.4136,sweep,3,-down,-0.18444,0.70668,0.15316,1.07290,-0.01354,0.23404,-0.00362,0.0024,-0.0024,-0.0513,-0.0220,-0.0073,-0.0220,-0.0073,-0.0889,-0.3077,6.6667,1.9463,-0.0952,0.0659,-0.0024,1,1,1,1,1,1,1
20.4532,sweep,3,-down,-0.18444,0.70668,0.15316,1.07290,-0.01354,0.23404,-0.00362,0.0024,-0.0024,-0.0513,-0.0220,-0.0073,-0.0220,-0.0073,-0.0889,-0.3077,6.6667,1.9463,-0.0952,0.0659,-0.0024,1,1,1,1,1,1,1
20.4938,sweep,3,-down,-0.18444,0.70668,0.14935,1.07290,-0.01354,0.23404,-0.00324,0.0024,-0.0024,-0.0366,-0.0073,0.0073,-0.0073,-0.0073,-0.0889,-0.3350,7.0769,1.9609,-0.1050,0.0708,-0.0073,1,1,1,1,1,1,1
20.5334,sweep,3,-down,-0.18444,0.70668,0.14935,1.07290,-0.01354,0.23404,-0.00324,0.0024,-0.0024,-0.0366,-0.0073,0.0073,-0.0073,-0.0073,-0.0889,-0.3350,7.0769,1.9609,-0.1050,0.0708,-0.0073,1,1,1,1,1,1,1
20.5733,sweep,3,-down,-0.18444,0.70668,0.14935,1.07290,-0.01354,0.23404,-0.00324,0.0024,-0.0024,-0.0366,-0.0073,0.0073,-0.0073,-0.0073,-0.0889,-0.3350,7.0769,1.9609,-0.1050,0.0708,-0.0073,1,1,1,1,1,1,1
20.6132,sweep,3,-down,-0.18444,0.70668,0.14477,1.07328,-0.01354,0.23404,-0.00362,-0.0024,0.0024,-0.0220,-0.0073,0.0073,0.0073,-0.0073,-0.1026,-0.3350,7.2410,1.9512,-0.0952,0.0708,-0.0073,1,1,1,1,1,1,1
20.6533,sweep,3,-down,-0.18444,0.70668,0.14477,1.07328,-0.01354,0.23404,-0.00362,-0.0024,0.0024,-0.0220,-0.0073,0.0073,0.0073,-0.0073,-0.1026,-0.3350,7.2410,1.9512,-0.0952,0.0708,-0.0073,1,1,1,1,1,1,1
20.6931,sweep,3,-down,-0.18444,0.70668,0.14248,1.07290,-0.01354,0.23404,-0.00324,-0.0073,-0.0073,-0.0220,-0.0220,0.0073,-0.0073,0.0073,-0.0752,-0.3350,6.6803,1.9658,-0.0904,0.0659,-0.0073,1,1,1,1,1,1,1
20.7331,sweep,3,-down,-0.18444,0.70668,0.14248,1.07290,-0.01354,0.23404,-0.00324,-0.0073,-0.0073,-0.0220,-0.0220,0.0073,-0.0073,0.0073,-0.0752,-0.3350,6.6803,1.9658,-0.0904,0.0659,-0.0073,1,1,1,1,1,1,1
20.7734,sweep,3,-down,-0.18444,0.70668,0.14248,1.07290,-0.01354,0.23404,-0.00324,-0.0073,-0.0073,-0.0220,-0.0220,0.0073,-0.0073,0.0073,-0.0752,-0.3350,6.6803,1.9658,-0.0904,0.0659,-0.0073,1,1,1,1,1,1,1
20.8133,sweep,3,-down,-0.18444,0.70668,0.13905,1.07328,-0.01354,0.23404,-0.00324,-0.0024,-0.0024,-0.0220,-0.0073,0.0073,0.0073,-0.0073,-0.0889,-0.3487,6.6256,1.9414,-0.0904,0.0708,-0.0024,1,1,1,1,1,1,1
21.3158,approach,3,return,-0.18444,0.70668,0.13828,1.07328,-0.01354,0.23404,-0.00362,-0.0024,-0.0024,-0.0317,-0.0073,-0.0220,0.0073,-0.0073,-0.0752,-0.3350,6.4889,1.9463,-0.0952,0.0708,-0.0024,1,1,1,1,1,1,1
21.3558,approach,3,return,-0.18444,0.70668,0.13828,1.07328,-0.01354,0.23404,-0.00362,-0.0024,-0.0024,-0.0317,-0.0073,-0.0220,0.0073,-0.0073,-0.0752,-0.3350,6.4889,1.9463,-0.0952,0.0708,-0.0024,1,1,1,1,1,1,1
21.3959,approach,3,return,-0.18444,0.70630,0.12493,1.07519,-0.01354,0.23404,-0.00324,-0.0024,-0.0024,-0.1294,0.0513,-0.0073,-0.0073,-0.0073,-0.1026,-0.3077,6.0650,1.8291,-0.0904,0.0708,-0.0073,1,1,1,1,1,1,1
21.4360,approach,3,return,-0.18444,0.70630,0.12493,1.07519,-0.01354,0.23404,-0.00324,-0.0024,-0.0024,-0.1294,0.0513,-0.0073,-0.0073,-0.0073,-0.1026,-0.3077,6.0650,1.8291,-0.0904,0.0708,-0.0073,1,1,1,1,1,1,1
21.4758,approach,3,return,-0.18444,0.70630,0.10929,1.07404,-0.01316,0.23404,-0.00324,-0.0024,-0.0024,-0.1197,-0.0220,0.0073,0.0073,-0.0073,-0.1162,-0.3077,7.0769,1.8974,-0.0904,0.0708,-0.0073,1,1,1,1,1,1,1
21.5161,approach,3,return,-0.18444,0.70630,0.10929,1.07404,-0.01316,0.23404,-0.00324,-0.0024,-0.0024,-0.1197,-0.0220,0.0073,0.0073,-0.0073,-0.1162,-0.3077,7.0769,1.8974,-0.0904,0.0708,-0.0073,1,1,1,1,1,1,1
21.5558,approach,3,return,-0.18444,0.70630,0.10929,1.07404,-0.01316,0.23404,-0.00324,-0.0024,-0.0024,-0.1197,-0.0220,0.0073,0.0073,-0.0073,-0.1162,-0.3077,7.0769,1.8974,-0.0904,0.0708,-0.0073,1,1,1,1,1,1,1
21.5959,approach,3,return,-0.18444,0.70630,0.10128,1.07443,-0.01354,0.23404,-0.00362,-0.0024,-0.0024,-0.0952,0.0073,-0.0220,0.0220,-0.0073,-0.1162,-0.1983,6.4615,1.8486,-0.0855,0.0708,-0.0073,1,1,1,1,1,1,1
21.6359,approach,3,return,-0.18444,0.70630,0.10128,1.07443,-0.01354,0.23404,-0.00362,-0.0024,-0.0024,-0.0952,0.0073,-0.0220,0.0220,-0.0073,-0.1162,-0.1983,6.4615,1.8486,-0.0855,0.0708,-0.0073,1,1,1,1,1,1,1
21.6757,approach,3,return,-0.18444,0.70630,0.09022,1.07404,-0.01316,0.23365,-0.00324,-0.0024,0.0024,-0.0659,-0.0220,-0.0220,-0.0073,-0.0073,-0.1162,-0.0889,6.3932,1.8242,-0.0952,0.0708,-0.0122,1,1,1,1,1,1,1
21.7163,approach,3,return,-0.18444,0.70630,0.09022,1.07404,-0.01316,0.23365,-0.00324,-0.0024,0.0024,-0.0659,-0.0220,-0.0220,-0.0073,-0.0073,-0.1162,-0.0889,6.3932,1.8242,-0.0952,0.0708,-0.0122,1,1,1,1,1,1,1
21.7559,approach,3,return,-0.18444,0.70630,0.09022,1.07404,-0.01316,0.23365,-0.00324,-0.0024,0.0024,-0.0659,-0.0220,-0.0220,-0.0073,-0.0073,-0.1162,-0.0889,6.3932,1.8242,-0.0952,0.0708,-0.0122,1,1,1,1,1,1,1
21.7960,approach,3,return,-0.18444,0.70630,0.08297,1.07366,-0.01354,0.23365,-0.00324,-0.0024,0.0024,-0.0806,-0.0366,0.0073,-0.0073,0.0073,-0.1299,-0.1162,7.2000,1.8535,-0.0904,0.0757,-0.0024,1,1,1,1,1,1,1
21.8360,approach,3,return,-0.18444,0.70630,0.08297,1.07366,-0.01354,0.23365,-0.00324,-0.0024,0.0024,-0.0806,-0.0366,0.0073,-0.0073,0.0073,-0.1299,-0.1162,7.2000,1.8535,-0.0904,0.0757,-0.0024,1,1,1,1,1,1,1
21.8761,approach,3,return,-0.18444,0.70630,0.07458,1.07252,-0.01354,0.23404,-0.00324,-0.0024,-0.0024,-0.0708,-0.0220,-0.0220,-0.0073,-0.0073,-0.1299,-0.0889,6.5436,1.9512,-0.0806,0.0708,-0.0024,1,1,1,1,1,1,1
21.9159,approach,3,return,-0.18444,0.70630,0.07458,1.07252,-0.01354,0.23404,-0.00324,-0.0024,-0.0024,-0.0708,-0.0220,-0.0220,-0.0073,-0.0073,-0.1162,-0.0889,6.5436,1.9512,-0.0806,0.0708,-0.0024,1,1,1,1,1,1,1
21.9558,approach,3,return,-0.18444,0.70630,0.07458,1.07252,-0.01354,0.23404,-0.00324,-0.0024,-0.0024,-0.0708,-0.0220,-0.0220,-0.0073,-0.0073,-0.1162,-0.0889,6.5436,1.9512,-0.0806,0.0708,-0.0024,1,1,1,1,1,1,1
