peipl15/reBot_Arm/outputs/gravity_calib_20260621_230302.csv
t_s,phase,swept_joint,direction,q1,q2,q3,q4,q5,q6,q7,v1,v2,v3,v4,v5,v6,v7,tau1,tau2,tau3,tau4,tau5,tau6,tau7,st1,st2,st3,st4,st5,st6,st7
0.0025,approach,2,to_lo,-0.00591,0.01392,0.00019,1.58408,0.08297,0.01125,-0.00095,-0.0024,-0.0073,-0.0024,-0.0073,-0.0366,-0.0220,-0.0073,-0.0068,-0.0068,-0.0342,0.0122,-0.0171,-0.0024,-0.0024,1,1,1,1,1,1,1
0.0425,approach,2,to_lo,-0.00591,0.01392,0.00019,1.58408,0.08335,0.01125,-0.00095,-0.0024,-0.0024,-0.0024,-0.0073,-0.0073,-0.0073,-0.0073,0.0205,-0.1026,-0.0342,-0.0073,-0.0073,-0.0073,-0.0073,1,1,1,1,1,1,1
0.0823,approach,2,to_lo,-0.00591,0.01392,0.00019,1.58408,0.08335,0.01125,-0.00095,-0.0024,-0.0024,-0.0024,-0.0073,-0.0073,-0.0073,-0.0073,0.0205,-0.1026,-0.0342,-0.0073,-0.0073,-0.0073,-0.0073,1,1,1,1,1,1,1
0.1224,approach,2,to_lo,-0.00591,0.02193,0.00019,1.58408,0.08335,0.01125,-0.00095,-0.0073,0.1050,-0.0024,-0.0073,0.0220,-0.0073,0.0073,-0.0205,2.1949,-0.0342,-0.0757,-0.0122,-0.0122,-0.0122,1,1,1,1,1,1,1
0.1623,approach,2,to_lo,-0.00591,0.02193,0.00019,1.58408,0.08335,0.01125,-0.00095,-0.0073,0.1050,-0.0024,-0.0073,0.0220,-0.0073,0.0073,-0.0205,2.1949,-0.0342,-0.0757,-0.0122,-0.0122,-0.0122,1,1,1,1,1,1,1
0.2026,approach,2,to_lo,-0.00591,0.02193,0.00019,1.58408,0.08335,0.01125,-0.00095,-0.0073,0.1050,-0.0024,-0.0073,0.0220,-0.0073,0.0073,-0.0205,2.1949,-0.0342,-0.0757,-0.0122,-0.0122,-0.0122,1,1,1,1,1,1,1
0.2423,approach,2,to_lo,-0.00591,0.03491,0.00019,1.58064,0.08335,0.01125,-0.00095,-0.0024,0.0904,-0.0024,-0.0073,-0.0073,-0.0073,-0.0073,-0.0479,4.9983,-0.0205,-0.5690,-0.0269,-0.0122,-0.0171,1,1,1,1,1,1,1
0.2824,approach,2,to_lo,-0.00591,0.03491,0.00019,1.58064,0.08335,0.01125,-0.00095,-0.0024,0.0904,-0.0024,-0.0073,-0.0073,-0.0073,-0.0073,-0.0479,4.9983,-0.0205,-0.5690,-0.0269,-0.0122,-0.0171,1,1,1,1,1,1,1
0.3223,approach,2,to_lo,-0.00591,0.04292,0.00019,1.57912,0.08335,0.01125,-0.00095,-0.0073,0.1099,-0.0024,-0.0513,-0.0073,-0.0073,-0.0073,-0.0752,5.7231,-0.0205,-0.7839,-0.0317,-0.0220,-0.0171,1,1,1,1,1,1,1
0.3624,approach,2,to_lo,-0.00591,0.04292,0.00019,1.57912,0.08335,0.01125,-0.00095,-0.0073,0.1099,-0.0024,-0.0513,-0.0073,-0.0073,-0.0073,-0.0752,5.7231,-0.0205,-0.7839,-0.0317,-0.0220,-0.0171,1,1,1,1,1,1,1
0.4024,approach,2,to_lo,-0.00591,0.04292,0.00019,1.57912,0.08335,0.01125,-0.00095,-0.0073,0.1099,-0.0024,-0.0513,-0.0073,-0.0073,-0.0073,-0.0752,5.7231,-0.0205,-0.7839,-0.0317,-0.0220,-0.0171,1,1,1,1,1,1,1
0.4426,approach,2,to_lo,-0.00591,0.05474,0.00019,1.57149,0.08335,0.01125,-0.00095,-0.0024,0.0757,-0.0024,0.0073,-0.0220,-0.0073,-0.0073,-0.0752,5.5179,-0.0342,-0.3834,-0.0415,-0.0269,-0.0122,1,1,1,1,1,1,1
0.4824,approach,2,to_lo,-0.00591,0.05474,0.00019,1.57149,0.08335,0.01125,-0.00095,-0.0024,0.0757,-0.0024,0.0073,-0.0220,-0.0073,-0.0073,-0.0752,5.5179,-0.0342,-0.3834,-0.0415,-0.0269,-0.0122,1,1,1,1,1,1,1
0.5224,approach,2,to_lo,-0.00591,0.06123,0.00019,1.57111,0.08335,0.01125,-0.00134,-0.0024,0.0659,0.0024,-0.0220,0.0073,-0.0073,-0.0220,-0.0615,5.6137,-0.0342,-0.3639,-0.0415,-0.0269,-0.0122,1,1,1,1,1,1,1
0.5624,approach,2,to_lo,-0.00591,0.06123,0.00019,1.57111,0.08335,0.01125,-0.00134,-0.0024,0.0659,0.0024,-0.0220,0.0073,-0.0073,-0.0220,-0.0615,5.6137,-0.0342,-0.3639,-0.0415,-0.0269,-0.0122,1,1,1,1,1,1,1
0.6023,approach,2,to_lo,-0.00591,0.06123,0.00019,1.57111,0.08335,0.01125,-0.00134,-0.0024,0.0659,0.0024,-0.0220,0.0073,-0.0073,-0.0220,-0.0615,5.6137,-0.0342,-0.3639,-0.0415,-0.0269,-0.0122,1,1,1,1,1,1,1
0.6423,approach,2,to_lo,-0.00591,0.06962,0.00019,1.56996,0.08335,0.01125,-0.00134,-0.0024,0.0464,0.0024,0.0220,-0.0073,-0.0073,-0.0220,-0.0889,6.1333,-0.0615,-0.2369,-0.0513,-0.0317,-0.0122,1,1,1,1,1,1,1
0.6827,approach,2,to_lo,-0.00591,0.06962,0.00019,1.56996,0.08335,0.01125,-0.00134,-0.0024,0.0464,0.0024,0.0220,-0.0073,-0.0073,-0.0220,-0.0889,6.1333,-0.0615,-0.2369,-0.0513,-0.0317,-0.0122,1,1,1,1,1,1,1
0.7226,approach,2,to_lo,-0.00591,0.07496,0.00019,1.57073,0.08297,0.01125,-0.00095,-0.0024,0.0513,0.0024,-0.0366,-0.0220,-0.0073,-0.0073,-0.0889,5.8188,-0.0615,-0.3004,-0.0513,-0.0269,-0.0122,1,1,1,1,1,1,1
0.7624,approach,2,to_lo,-0.00591,0.07496,0.00019,1.57073,0.08297,0.01125,-0.00095,-0.0024,0.0513,0.0024,-0.0366,-0.0220,-0.0073,-0.0073,-0.0889,5.8188,-0.0615,-0.3004,-0.0513,-0.0269,-0.0122,1,1,1,1,1,1,1
0.8023,approach,2,to_lo,-0.00591,0.07496,0.00019,1.57073,0.08297,0.01125,-0.00095,-0.0024,0.0513,0.0024,-0.0366,-0.0220,-0.0073,-0.0073,-0.0889,5.8188,-0.0615,-0.3004,-0.0513,-0.0269,-0.0122,1,1,1,1,1,1,1
0.8424,approach,2,to_lo,-0.00591,0.08183,0.00019,1.57111,0.08335,0.01125,-0.00095,-0.0073,0.0757,-0.0024,-0.0366,0.0073,-0.0073,-0.0073,-0.1026,6.0239,-0.0479,-0.3443,-0.0562,-0.0317,-0.0122,1,1,1,1,1,1,1
0.8823,approach,2,to_lo,-0.00591,0.08183,0.00019,1.57111,0.08335,0.01125,-0.00095,-0.0073,0.0757,-0.0024,-0.0366,0.0073,-0.0073,-0.0073,-0.1026,6.0239,-0.0479,-0.3443,-0.0562,-0.0317,-0.0122,1,1,1,1,1,1,1
0.9227,approach,2,to_lo,-0.00591,0.08564,0.00019,1.57111,0.08335,0.01125,-0.00095,0.0024,0.0513,-0.0024,-0.0073,-0.0073,0.0073,-0.0073,-0.1026,6.2564,-0.0479,-0.3492,-0.0611,-0.0317,-0.0073,1,1,1,1,1,1,1
0.9623,approach,2,to_lo,-0.00591,0.08564,0.00019,1.57111,0.08335,0.01125,-0.00095,0.0024,0.0513,-0.0024,-0.0073,-0.0073,0.0073,-0.0073,-0.1026,6.2564,-0.0479,-0.3492,-0.0611,-0.0317,-0.0073,1,1,1,1,1,1,1
1.0024,approach,2,to_lo,-0.00591,0.08564,0.00019,1.57111,0.08335,0.01125,-0.00095,0.0024,0.0513,-0.0024,-0.0073,-0.0073,0.0073,-0.0073,-0.1026,6.2564,-0.0479,-0.3492,-0.0611,-0.0317,-0.0073,1,1,1,1,1,1,1
1.0423,approach,2,to_lo,-0.00591,0.09098,0.00019,1.57034,0.08335,0.01125,-0.00134,0.0024,0.0513,0.0024,-0.0073,0.0073,0.0073,-0.0220,-0.1162,5.7094,-0.0342,-0.3053,-0.0708,-0.0366,-0.0122,1,1,1,1,1,1,1
1.0823,approach,2,to_lo,-0.00591,0.09098,0.00019,1.57034,0.08335,0.01125,-0.00134,0.0024,0.0513,0.0024,-0.0073,0.0073,0.0073,-0.0220,-0.1162,5.7094,-0.0342,-0.3053,-0.0708,-0.0366,-0.0122,1,1,1,1,1,1,1
1.1222,approach,2,to_lo,-0.00591,0.09403,0.00019,1.56958,0.08297,0.01125,-0.00095,-0.0024,0.0220,-0.0024,-0.0220,-0.0073,-0.0073,-0.0073,-0.1299,5.7504,-0.0342,-0.2418,-0.0708,-0.0317,-0.0122,1,1,1,1,1,1,1
1.1623,approach,2,to_lo,-0.00591,0.09403,0.00019,1.56958,0.08297,0.01125,-0.00095,-0.0024,0.0220,-0.0024,-0.0220,-0.0073,-0.0073,-0.0073,-0.1299,5.7504,-0.0342,-0.2418,-0.0708,-0.0317,-0.0122,1,1,1,1,1,1,1
1.2024,approach,2,to_lo,-0.00591,0.09403,0.00019,1.56958,0.08297,0.01125,-0.00095,-0.0024,0.0220,-0.0024,-0.0220,-0.0073,-0.0073,-0.0073,-0.1299,5.7504,-0.0342,-0.2418,-0.0708,-0.0317,-0.0122,1,1,1,1,1,1,1
1.2424,approach,2,to_lo,-0.00591,0.09785,0.00019,1.56920,0.08297,0.01125,-0.00134,0.0024,0.0220,-0.0073,-0.0073,-0.0073,-0.0220,-0.0073,-0.1162,5.7094,-0.0479,-0.1685,-0.0757,-0.0317,-0.0122,1,1,1,1,1,1,1
1.2824,approach,2,to_lo,-0.00591,0.09785,0.00019,1.56920,0.08297,0.01125,-0.00134,0.0024,0.0220,-0.0073,-0.0073,-0.0073,-0.0220,-0.0073,-0.1162,5.7094,-0.0479,-0.1685,-0.0757,-0.0317,-0.0122,1,1,1,1,1,1,1
1.3225,approach,2,to_lo,-0.00591,0.10014,0.00019,1.56920,0.08297,0.01087,-0.00134,-0.0024,0.0171,-0.0073,0.0073,-0.0073,-0.0366,-0.0220,-0.1162,5.9145,-0.0205,-0.1343,-0.0855,-0.0366,-0.0171,1,1,1,1,1,1,1
1.8249,sweep,2,+up,-0.00591,0.10090,0.00019,1.56958,0.08297,0.01125,-0.00134,-0.0024,0.0317,-0.0073,-0.0073,-0.0073,0.0073,-0.0073,-0.1299,5.9419,-0.0342,-0.1245,-0.0904,-0.0366,-0.0122,1,1,1,1,1,1,1
1.8649,sweep,2,+up,-0.00591,0.10090,0.00019,1.56958,0.08297,0.01125,-0.00134,-0.0024,0.0317,-0.0073,-0.0073,-0.0073,0.0073,-0.0073,-0.1299,5.9419,-0.0342,-0.1245,-0.0904,-0.0366,-0.0122,1,1,1,1,1,1,1
1.9050,sweep,2,+up,-0.00591,0.10090,0.00019,1.56958,0.08297,0.01125,-0.00134,-0.0024,0.0317,-0.0073,-0.0073,-0.0073,0.0073,-0.0073,-0.1299,5.9419,-0.0342,-0.1245,-0.0904,-0.0366,-0.0122,1,1,1,1,1,1,1
1.9451,sweep,2,+up,-0.00591,0.12531,0.00019,1.57454,0.08259,0.01087,-0.00134,-0.0024,0.1978,-0.0073,-0.0659,-0.0073,-0.0073,-0.0073,-0.1846,5.9145,-0.0205,-0.5006,-0.1099,-0.0366,-0.0073,1,1,1,1,1,1,1
1.9851,sweep,2,+up,-0.00591,0.12531,0.00019,1.57454,0.08259,0.01087,-0.00134,-0.0024,0.1978,-0.0073,-0.0659,-0.0073,-0.0073,-0.0073,-0.1846,5.9145,-0.0205,-0.5006,-0.1099,-0.0366,-0.0073,1,1,1,1,1,1,1
2.0248,sweep,2,+up,-0.00591,0.14172,0.00019,1.57187,0.08297,0.01087,-0.00134,-0.0024,0.1880,-0.0024,-0.0073,-0.0073,-0.0220,-0.0073,-0.1846,5.2308,-0.0342,-0.3346,-0.1197,-0.0366,-0.0073,1,1,1,1,1,1,1
2.0651,sweep,2,+up,-0.00591,0.14172,0.00019,1.57187,0.08297,0.01087,-0.00134,-0.0024,0.1880,-0.0024,-0.0073,-0.0073,-0.0220,-0.0073,-0.1846,5.2308,-0.0342,-0.3346,-0.1197,-0.0366,-0.0073,1,1,1,1,1,1,1
2.1052,sweep,2,+up,-0.00591,0.14172,0.00019,1.57187,0.08297,0.01087,-0.00134,-0.0024,0.1880,-0.0024,-0.0073,-0.0073,-0.0220,-0.0073,-0.1846,5.2308,-0.0342,-0.3346,-0.1197,-0.0366,-0.0073,1,1,1,1,1,1,1
2.1450,sweep,2,+up,-0.00591,0.16613,0.00019,1.56806,0.08259,0.01087,-0.00134,-0.0024,0.2173,-0.0024,-0.0513,-0.0220,0.0073,0.0073,-0.1983,5.1624,-0.0205,-0.1050,-0.1099,-0.0317,-0.0024,1,1,1,1,1,1,1
2.1851,sweep,2,+up,-0.00591,0.16613,0.00019,1.56806,0.08259,0.01087,-0.00134,-0.0024,0.2173,-0.0024,-0.0513,-0.0220,0.0073,0.0073,-0.1983,5.1624,-0.0205,-0.1050,-0.1099,-0.0317,-0.0024,1,1,1,1,1,1,1
2.2250,sweep,2,+up,-0.00591,0.18177,0.00019,1.56729,0.08259,0.01087,-0.00134,-0.0024,0.1734,-0.0073,-0.0220,0.0073,0.0073,-0.0073,-0.1846,5.1350,-0.0342,-0.0269,-0.1050,-0.0317,-0.0073,1,1,1,1,1,1,1
2.2652,sweep,2,+up,-0.00591,0.18177,0.00019,1.56729,0.08259,0.01087,-0.00134,-0.0024,0.1734,-0.0073,-0.0220,0.0073,0.0073,-0.0073,-0.1846,5.1350,-0.0342,-0.0269,-0.1050,-0.0317,-0.0073,1,1,1,1,1,1,1
2.3050,sweep,2,+up,-0.00591,0.18177,0.00019,1.56729,0.08259,0.01087,-0.00134,-0.0024,0.1734,-0.0073,-0.0220,0.0073,0.0073,-0.0073,-0.1846,5.1350,-0.0342,-0.0269,-0.1050,-0.0317,-0.0073,1,1,1,1,1,1,1
2.3453,sweep,2,+up,-0.00591,0.20619,0.00019,1.56729,0.08297,0.01087,-0.00134,-0.0024,0.2027,-0.0024,-0.0073,0.0073,-0.0073,-0.0220,-0.2256,4.7385,-0.0342,0.0513,-0.1099,-0.0317,-0.0024,1,1,1,1,1,1,1
2.3851,sweep,2,+up,-0.00591,0.20619,0.00019,1.56729,0.08297,0.01087,-0.00134,-0.0024,0.2027,-0.0024,-0.0073,0.0073,-0.0073,-0.0220,-0.2256,4.7385,-0.0342,0.0513,-0.1099,-0.0317,-0.0024,1,1,1,1,1,1,1
2.4251,sweep,2,+up,-0.00591,0.22221,0.00019,1.56729,0.08259,0.01087,-0.00134,-0.0073,0.1929,-0.0024,0.0073,-0.0073,-0.0073,-0.0220,-0.2393,4.8752,-0.0342,0.1001,-0.1050,-0.0317,0.0024,1,1,1,1,1,1,1
2.4650,sweep,2,+up,-0.00591,0.22221,0.00019,1.56729,0.08259,0.01087,-0.00134,-0.0073,0.1929,-0.0024,0.0073,-0.0073,-0.0073,-0.0220,-0.2393,4.8752,-0.0342,0.1001,-0.1050,-0.0317,0.0024,1,1,1,1,1,1,1
2.5049,sweep,2,+up,-0.00591,0.22221,0.00019,1.56729,0.08259,0.01087,-0.00134,-0.0073,0.1929,-0.0024,0.0073,-0.0073,-0.0073,-0.0220,-0.2393,4.8752,-0.0342,0.1001,-0.1050,-0.0317,0.0024,1,1,1,1,1,1,1
2.5449,sweep,2,+up,-0.00591,0.23785,0.00019,1.56767,0.08297,0.01087,-0.00134,-0.0024,0.2222,-0.0024,-0.0073,-0.0073,-0.0073,-0.0073,-0.2393,4.6564,-0.0342,0.1832,-0.1099,-0.0317,0.0024,1,1,1,1,1,1,1
2.5850,sweep,2,+up,-0.00591,0.23785,0.00019,1.56767,0.08297,0.01087,-0.00134,-0.0024,0.2222,-0.0024,-0.0073,-0.0073,-0.0073,-0.0073,-0.2393,4.6564,-0.0342,0.1832,-0.1099,-0.0317,0.0024,1,1,1,1,1,1,1
2.6253,sweep,2,+up,-0.00591,0.26226,0.00019,1.56806,0.08259,0.01087,-0.00134,-0.0024,0.2125,-0.0024,-0.0073,-0.0073,-0.0073,0.0073,-0.2393,4.4786,-0.0205,0.2515,-0.1050,-0.0317,0.0024,1,1,1,1,1,1,1
2.6649,sweep,2,+up,-0.00591,0.26226,0.00019,1.56806,0.08259,0.01087,-0.00134,-0.0024,0.2125,-0.0024,-0.0073,-0.0073,-0.0073,0.0073,-0.2393,4.4786,-0.0205,0.2515,-0.1050,-0.0317,0.0024,1,1,1,1,1,1,1
2.7050,sweep,2,+up,-0.00591,0.26226,0.00019,1.56806,0.08259,0.01087,-0.00134,-0.0024,0.2125,-0.0024,-0.0073,-0.0073,-0.0073,0.0073,-0.2393,4.4786,-0.0205,0.2515,-0.1050,-0.0317,0.0024,1,1,1,1,1,1,1
2.7450,sweep,2,+up,-0.00591,0.28630,0.00019,1.56806,0.08297,0.01087,-0.00134,-0.0024,0.1929,-0.0024,-0.0073,-0.0073,-0.0073,-0.0220,-0.2530,4.4923,-0.0205,0.3541,-0.1099,-0.0317,-0.0024,1,1,1,1,1,1,1
2.7849,sweep,2,+up,-0.00591,0.28630,0.00019,1.56806,0.08297,0.01087,-0.00134,-0.0024,0.1929,-0.0024,-0.0073,-0.0073,-0.0073,-0.0220,-0.2530,4.4923,-0.0205,0.3541,-0.1099,-0.0317,-0.0024,1,1,1,1,1,1,1
2.8248,sweep,2,+up,-0.00591,0.30270,0.00019,1.56806,0.08297,0.01087,-0.00134,-0.0073,0.2222,0.0024,-0.0073,-0.0073,-0.0073,-0.0073,-0.2530,4.0410,-0.0342,0.4274,-0.1001,-0.0317,-0.0024,1,1,1,1,1,1,1
2.8649,sweep,2,+up,-0.00591,0.30270,0.00019,1.56806,0.08297,0.01087,-0.00134,-0.0073,0.2222,0.0024,-0.0073,-0.0073,-0.0073,-0.0073,-0.2530,4.0410,-0.0342,0.4274,-0.1001,-0.0317,-0.0024,1,1,1,1,1,1,1
2.9049,sweep,2,+up,-0.00591,0.30270,0.00019,1.56806,0.08297,0.01087,-0.00134,-0.0073,0.2222,0.0024,-0.0073,-0.0073,-0.0073,-0.0073,-0.2530,4.0410,-0.0342,0.4274,-0.1001,-0.0317,-0.0024,1,1,1,1,1,1,1
2.9451,sweep,2,+up,-0.00591,0.31071,0.00019,1.56844,0.08259,0.01087,-0.00134,-0.0024,0.1978,-0.0073,0.0073,-0.0220,-0.0073,0.0073,-0.2667,3.9726,-0.0342,0.5055,-0.1001,-0.0317,-0.0024,1,1,1,1,1,1,1
2.9850,sweep,2,+up,-0.00591,0.31071,0.00019,1.56844,0.08259,0.01087,-0.00134,-0.0024,0.1978,-0.0073,0.0073,-0.0220,-0.0073,0.0073,-0.2667,3.9726,-0.0342,0.5055,-0.1001,-0.0317,-0.0024,1,1,1,1,1,1,1
3.0251,sweep,2,+up,-0.00591,0.34276,0.00019,1.56882,0.08297,0.01125,-0.00134,-0.0024,0.2076,-0.0073,-0.0220,0.0073,0.0073,-0.0073,-0.2667,3.7675,-0.0342,0.5104,-0.1050,-0.0269,0.0024,1,1,1,1,1,1,1
3.0651,sweep,2,+up,-0.00591,0.34276,0.00019,1.56882,0.08297,0.01125,-0.00134,-0.0024,0.2076,-0.0073,-0.0220,0.0073,0.0073,-0.0073,-0.2667,3.7675,-0.0342,0.5104,-0.1050,-0.0269,0.0024,1,1,1,1,1,1,1
3.1052,sweep,2,+up,-0.00591,0.34276,0.00019,1.56882,0.08297,0.01125,-0.00134,-0.0024,0.2076,-0.0073,-0.0220,0.0073,0.0073,-0.0073,-0.2667,3.7675,-0.0342,0.5104,-0.1050,-0.0269,0.0024,1,1,1,1,1,1,1
3.1452,sweep,2,+up,-0.00591,0.36679,0.00019,1.56958,0.08259,0.01087,-0.00134,0.0024,0.2076,0.0024,0.0073,-0.0073,-0.0073,-0.0073,-0.2530,3.9863,-0.0205,0.5397,-0.0952,-0.0269,-0.0024,1,1,1,1,1,1,1
3.1851,sweep,2,+up,-0.00591,0.36679,0.00019,1.56958,0.08259,0.01087,-0.00134,0.0024,0.2076,0.0024,0.0073,-0.0073,-0.0073,-0.0073,-0.2530,3.9863,-0.0205,0.5397,-0.0952,-0.0269,-0.0024,1,1,1,1,1,1,1
3.2249,sweep,2,+up,-0.00591,0.38281,0.00019,1.56996,0.08259,0.01125,-0.00134,-0.0024,0.1929,-0.0024,0.0073,0.0073,0.0073,-0.0073,-0.2667,3.8085,-0.0342,0.5446,-0.1001,-0.0317,0.0024,1,1,1,1,1,1,1
3.2651,sweep,2,+up,-0.00591,0.38281,0.00019,1.56996,0.08259,0.01125,-0.00134,-0.0024,0.1929,-0.0024,0.0073,0.0073,0.0073,-0.0073,-0.2667,3.8085,-0.0342,0.5446,-0.1001,-0.0317,0.0024,1,1,1,1,1,1,1
3.3050,sweep,2,+up,-0.00591,0.38281,0.00019,1.56996,0.08259,0.01125,-0.00134,-0.0024,0.1929,-0.0024,0.0073,0.0073,0.0073,-0.0073,-0.2667,3.8085,-0.0342,0.5446,-0.1001,-0.0317,0.0024,1,1,1,1,1,1,1
3.3460,sweep,2,+up,-0.00591,0.40684,0.00019,1.56996,0.08297,0.01125,-0.00134,-0.0024,0.2027,-0.0024,-0.0073,-0.0073,-0.0073,-0.0220,-0.2667,3.7402,-0.0205,0.5495,-0.0952,-0.0269,0.0024,1,1,1,1,1,1,1
3.3851,sweep,2,+up,-0.00591,0.40684,0.00019,1.56996,0.08297,0.01125,-0.00134,-0.0024,0.2027,-0.0024,-0.0073,-0.0073,-0.0073,-0.0220,-0.2667,3.7402,-0.0205,0.5495,-0.0952,-0.0269,0.0024,1,1,1,1,1,1,1
3.4250,sweep,2,+up,-0.00591,0.42287,0.00019,1.56996,0.08297,0.01087,-0.00134,-0.0024,0.1929,0.0024,-0.0073,-0.0073,-0.0220,-0.0073,-0.2667,3.5214,-0.0205,0.5836,-0.1001,-0.0317,0.0024,1,1,1,1,1,1,1
3.4651,sweep,2,+up,-0.00591,0.42287,0.00019,1.56996,0.08297,0.01087,-0.00134,-0.0024,0.1929,0.0024,-0.0073,-0.0073,-0.0220,-0.0073,-0.2667,3.5214,-0.0205,0.5836,-0.1001,-0.0317,0.0024,1,1,1,1,1,1,1
3.5053,sweep,2,+up,-0.00591,0.42287,0.00019,1.56996,0.08297,0.01087,-0.00134,-0.0024,0.1929,0.0024,-0.0073,-0.0073,-0.0220,-0.0073,-0.2667,3.5214,-0.0205,0.5836,-0.1001,-0.0317,0.0024,1,1,1,1,1,1,1
3.5451,sweep,2,+up,-0.00591,0.44690,0.00019,1.56996,0.08297,0.01125,-0.00134,-0.0024,0.2320,-0.0024,-0.0073,-0.0073,-0.0073,-0.0073,-0.2667,3.4530,0.0068,0.6276,-0.1050,-0.0317,0.0024,1,1,1,1,1,1,1
3.5851,sweep,2,+up,-0.00591,0.44690,0.00019,1.56996,0.08297,0.01125,-0.00134,-0.0024,0.2320,-0.0024,-0.0073,-0.0073,-0.0073,-0.0073,-0.2667,3.4530,0.0068,0.6276,-0.1050,-0.0317,0.0024,1,1,1,1,1,1,1
3.6251,sweep,2,+up,-0.00591,0.46292,0.00019,1.56958,0.08259,0.01087,-0.00134,-0.0024,0.1880,-0.0024,-0.0073,-0.0073,-0.0220,-0.0073,-0.2940,3.6034,0.0068,0.6667,-0.1099,-0.0317,0.0024,1,1,1,1,1,1,1
3.6649,sweep,2,+up,-0.00591,0.46292,0.00019,1.56958,0.08259,0.01087,-0.00134,-0.0024,0.1880,-0.0024,-0.0073,-0.0073,-0.0220,-0.0073,-0.2940,3.6034,0.0068,0.6667,-0.1099,-0.0317,0.0024,1,1,1,1,1,1,1
3.7051,sweep,2,+up,-0.00591,0.46292,0.00019,1.56958,0.08259,0.01087,-0.00134,-0.0024,0.1880,-0.0024,-0.0073,-0.0073,-0.0220,-0.0073,-0.2940,3.6034,0.0068,0.6667,-0.1099,-0.0317,0.0024,1,1,1,1,1,1,1
3.7449,sweep,2,+up,-0.00591,0.48734,0.00019,1.56958,0.08259,0.01087,-0.00134,0.0024,0.1978,-0.0073,-0.0073,0.0073,-0.0220,-0.0073,-0.2803,2.9880,-0.0205,0.7204,-0.1099,-0.0317,0.0024,1,1,1,1,1,1,1
3.7851,sweep,2,+up,-0.00591,0.48734,0.00019,1.56958,0.08259,0.01087,-0.00134,0.0024,0.1978,-0.0073,-0.0073,0.0073,-0.0220,-0.0073,-0.2803,2.9880,-0.0205,0.7204,-0.1099,-0.0317,0.0024,1,1,1,1,1,1,1
3.8250,sweep,2,+up,-0.00591,0.50336,0.00019,1.56920,0.08259,0.01125,-0.00134,-0.0073,0.1880,-0.0073,-0.0073,-0.0073,-0.0073,0.0073,-0.2667,3.1521,-0.0205,0.7741,-0.1050,-0.0317,0.0073,1,1,1,1,1,1,1
3.8651,sweep,2,+up,-0.00591,0.50336,0.00019,1.56920,0.08259,0.01125,-0.00134,-0.0073,0.1880,-0.0073,-0.0073,-0.0073,-0.0073,0.0073,-0.2667,3.1521,-0.0205,0.7741,-0.1050,-0.0317,0.0073,1,1,1,1,1,1,1
3.9050,sweep,2,+up,-0.00591,0.50336,0.00019,1.56920,0.08259,0.01125,-0.00134,-0.0073,0.1880,-0.0073,-0.0073,-0.0073,-0.0073,0.0073,-0.2667,3.1521,-0.0205,0.7741,-0.1050,-0.0317,0.0073,1,1,1,1,1,1,1
3.9451,sweep,2,+up,-0.00591,0.52739,0.00019,1.56920,0.08297,0.01125,-0.00134,-0.0024,0.1929,-0.0073,-0.0073,-0.0073,0.0073,-0.0073,-0.2393,2.8923,-0.0068,0.8571,-0.1099,-0.0317,0.0073,1,1,1,1,1,1,1
3.9850,sweep,2,+up,-0.00591,0.52739,0.00019,1.56920,0.08297,0.01125,-0.00134,-0.0024,0.1929,-0.0073,-0.0073,-0.0073,0.0073,-0.0073,-0.2393,2.8923,-0.0068,0.8571,-0.1099,-0.0317,0.0073,1,1,1,1,1,1,1
4.0251,sweep,2,+up,-0.00591,0.54341,0.00019,1.56920,0.08297,0.01087,-0.00134,-0.0024,0.1880,-0.0024,-0.0073,-0.0073,0.0073,-0.0073,-0.2393,2.7829,-0.0342,0.8962,-0.1099,-0.0317,0.0073,1,1,1,1,1,1,1
4.0651,sweep,2,+up,-0.00591,0.54341,0.00019,1.56920,0.08297,0.01087,-0.00134,-0.0024,0.1880,-0.0024,-0.0073,-0.0073,0.0073,-0.0073,-0.2393,2.7829,-0.0342,0.8962,-0.1099,-0.0317,0.0073,1,1,1,1,1,1,1
4.1050,sweep,2,+up,-0.00591,0.54341,0.00019,1.56920,0.08297,0.01087,-0.00134,-0.0024,0.1880,-0.0024,-0.0073,-0.0073,0.0073,-0.0073,-0.2393,2.7829,-0.0342,0.8962,-0.1099,-0.0317,0.0073,1,1,1,1,1,1,1
4.1451,sweep,2,+up,-0.00591,0.56783,0.00019,1.56920,0.08259,0.01125,-0.00134,-0.0024,0.1783,0.0024,-0.0073,-0.0073,-0.0073,-0.0073,-0.2393,2.4547,-0.0342,0.9695,-0.1197,-0.0317,0.0073,1,1,1,1,1,1,1
4.1851,sweep,2,+up,-0.00591,0.56783,0.00019,1.56920,0.08259,0.01125,-0.00134,-0.0024,0.1783,0.0024,-0.0073,-0.0073,-0.0073,-0.0073,-0.2393,2.4547,-0.0342,0.9695,-0.1197,-0.0317,0.0073,1,1,1,1,1,1,1
4.2250,sweep,2,+up,-0.00591,0.58385,0.00019,1.56920,0.08259,0.01125,-0.00134,-0.0024,0.1978,-0.0024,-0.0220,-0.0073,-0.0073,0.0073,-0.2256,2.4274,-0.0479,1.0037,-0.1197,-0.0317,0.0073,1,1,1,1,1,1,1
4.2651,sweep,2,+up,-0.00591,0.58385,0.00019,1.56920,0.08259,0.01125,-0.00134,-0.0024,0.1978,-0.0024,-0.0220,-0.0073,-0.0073,0.0073,-0.2256,2.4274,-0.0479,1.0037,-0.1197,-0.0317,0.0073,1,1,1,1,1,1,1
4.3049,sweep,2,+up,-0.00591,0.58385,0.00019,1.56920,0.08259,0.01125,-0.00134,-0.0024,0.1978,-0.0024,-0.0220,-0.0073,-0.0073,0.0073,-0.2256,2.4274,-0.0479,1.0037,-0.1197,-0.0317,0.0073,1,1,1,1,1,1,1
4.3450,sweep,2,+up,-0.00591,0.60788,0.00019,1.56920,0.08259,0.01087,-0.00134,-0.0024,0.1783,-0.0024,-0.0073,-0.0220,-0.0073,-0.0073,-0.2393,2.4410,-0.0205,1.0720,-0.1245,-0.0317,0.0073,1,1,1,1,1,1,1
4.3851,sweep,2,+up,-0.00591,0.60788,0.00019,1.56920,0.08259,0.01087,-0.00134,-0.0024,0.1783,-0.0024,-0.0073,-0.0220,-0.0073,-0.0073,-0.2393,2.4410,-0.0205,1.0720,-0.1245,-0.0317,0.0073,1,1,1,1,1,1,1
4.4248,sweep,2,+up,-0.00591,0.62390,0.00019,1.56996,0.08259,0.01125,-0.00134,-0.0024,0.2173,0.0024,0.0073,-0.0220,0.0073,-0.0073,-0.2256,2.2359,-0.0342,1.0574,-0.1197,-0.0317,0.0073,1,1,1,1,1,1,1
4.4650,sweep,2,+up,-0.00591,0.62390,0.00019,1.56996,0.08259,0.01125,-0.00134,-0.0024,0.2173,0.0024,0.0073,-0.0220,0.0073,-0.0073,-0.2256,2.2359,-0.0342,1.0574,-0.1197,-0.0317,0.0073,1,1,1,1,1,1,1
4.5050,sweep,2,+up,-0.00591,0.62390,0.00019,1.56996,0.08259,0.01125,-0.00134,-0.0024,0.2173,0.0024,0.0073,-0.0220,0.0073,-0.0073,-0.2256,2.2359,-0.0342,1.0574,-0.1197,-0.0317,0.0073,1,1,1,1,1,1,1
4.5450,sweep,2,+up,-0.00591,0.63191,0.00019,1.57034,0.08259,0.01125,-0.00134,-0.0024,0.2076,-0.0024,0.0073,0.0073,-0.0073,-0.0073,-0.2256,2.1538,-0.0342,1.0379,-0.1050,-0.0317,0.0073,1,1,1,1,1,1,1
4.5850,sweep,2,+up,-0.00591,0.63191,0.00019,1.57034,0.08259,0.01125,-0.00134,-0.0024,0.2076,-0.0024,0.0073,0.0073,-0.0073,-0.0073,-0.2256,2.1538,-0.0342,1.0379,-0.1050,-0.0317,0.0073,1,1,1,1,1,1,1
4.6249,sweep,2,+up,-0.00591,0.65595,0.00019,1.57034,0.08259,0.01125,-0.00134,0.0024,0.2173,-0.0073,-0.0220,-0.0073,-0.0073,-0.0073,-0.2256,2.1949,-0.0342,1.0330,-0.1050,-0.0317,0.0122,1,1,1,1,1,1,1
4.6652,sweep,2,+up,-0.00591,0.65595,0.00019,1.57034,0.08259,0.01125,-0.00134,0.0024,0.2173,-0.0073,-0.0220,-0.0073,-0.0073,-0.0073,-0.2256,2.1949,-0.0342,1.0330,-0.1050,-0.0317,0.0122,1,1,1,1,1,1,1
4.7050,sweep,2,+up,-0.00591,0.65595,0.00019,1.57034,0.08259,0.01125,-0.00134,0.0024,0.2173,-0.0073,-0.0220,-0.0073,-0.0073,-0.0073,-0.2256,2.1949,-0.0342,1.0330,-0.1050,-0.0317,0.0122,1,1,1,1,1,1,1
4.7451,sweep,2,+up,-0.00591,0.68647,0.00019,1.56996,0.08259,0.01125,-0.00134,-0.0024,0.1636,-0.0024,0.0220,-0.0073,-0.0073,0.0073,-0.2256,1.9350,-0.0342,1.1013,-0.1050,-0.0317,0.0122,1,1,1,1,1,1,1
4.7851,sweep,2,+up,-0.00591,0.68647,0.00019,1.56996,0.08259,0.01125,-0.00134,-0.0024,0.1636,-0.0024,0.0220,-0.0073,-0.0073,0.0073,-0.2256,1.9350,-0.0342,1.1013,-0.1050,-0.0317,0.0122,1,1,1,1,1,1,1
4.8251,sweep,2,+up,-0.00629,0.69944,0.00019,1.57301,0.08259,0.01125,-0.00134,-0.0073,0.1490,-0.0024,0.0073,-0.0220,0.0073,-0.0073,-0.2256,2.3043,-0.0205,0.8425,-0.1050,-0.0317,0.0122,1,1,1,1,1,1,1
4.8650,sweep,2,+up,-0.00629,0.69944,0.00019,1.57301,0.08259,0.01125,-0.00134,-0.0073,0.1490,-0.0024,0.0073,-0.0220,0.0073,-0.0073,-0.2256,2.3043,-0.0205,0.8425,-0.1050,-0.0317,0.0122,1,1,1,1,1,1,1
4.9052,sweep,2,+up,-0.00629,0.69944,0.00019,1.57301,0.08259,0.01125,-0.00134,-0.0073,0.1490,-0.0024,0.0073,-0.0220,0.0073,-0.0073,-0.2256,2.3043,-0.0205,0.8425,-0.1050,-0.0317,0.0122,1,1,1,1,1,1,1
4.9452,sweep,2,+up,-0.00629,0.71736,0.00019,1.56882,0.08259,0.01125,-0.00134,0.0024,0.1245,-0.0024,-0.0952,-0.0220,-0.0073,-0.0220,-0.1983,1.5248,-0.0342,1.1062,-0.1099,-0.0366,0.0073,1,1,1,1,1,1,1
4.9851,sweep,2,+up,-0.00629,0.71736,0.00019,1.56882,0.08259,0.01125,-0.00134,0.0024,0.1245,-0.0024,-0.0952,-0.0220,-0.0073,-0.0220,-0.1983,1.5248,-0.0342,1.1062,-0.1099,-0.0366,0.0073,1,1,1,1,1,1,1
5.0250,sweep,2,+up,-0.00629,0.72766,0.00019,1.56767,0.08259,0.01125,-0.00134,-0.0024,0.1245,-0.0024,-0.0073,-0.0073,-0.0073,-0.0073,-0.1983,0.8684,-0.0342,1.3065,-0.1148,-0.0317,0.0122,1,1,1,1,1,1,1
5.0649,sweep,2,+up,-0.00629,0.72766,0.00019,1.56767,0.08259,0.01125,-0.00134,-0.0024,0.1245,-0.0024,-0.0073,-0.0073,-0.0073,-0.0073,-0.1983,0.8684,-0.0342,1.3065,-0.1148,-0.0317,0.0122,1,1,1,1,1,1,1
5.1051,sweep,2,+up,-0.00629,0.72766,0.00019,1.56767,0.08259,0.01125,-0.00134,-0.0024,0.1245,-0.0024,-0.0073,-0.0073,-0.0073,-0.0073,-0.1983,0.8684,-0.0342,1.3065,-0.1148,-0.0317,0.0122,1,1,1,1,1,1,1
5.1451,sweep,2,+up,-0.00629,0.74025,0.00019,1.56882,0.08259,0.01125,-0.00134,-0.0024,0.1001,-0.0024,0.0073,-0.0073,0.0073,-0.0073,-0.2120,1.4564,-0.0342,1.3407,-0.1050,-0.0366,0.0122,1,1,1,1,1,1,1
5.1850,sweep,2,+up,-0.00629,0.74025,0.00019,1.56882,0.08259,0.01125,-0.00134,-0.0024,0.1001,-0.0024,0.0073,-0.0073,0.0073,-0.0073,-0.2120,1.4564,-0.0342,1.3407,-0.1050,-0.0366,0.0122,1,1,1,1,1,1,1
5.2251,sweep,2,+up,-0.00629,0.74826,0.00019,1.56844,0.08259,0.01125,-0.00134,-0.0024,0.0904,-0.0024,-0.0073,-0.0073,-0.0073,-0.0220,-0.1983,0.8137,-0.0342,1.4090,-0.1001,-0.0366,0.0122,1,1,1,1,1,1,1
5.2651,sweep,2,+up,-0.00629,0.74826,0.00019,1.56844,0.08259,0.01125,-0.00134,-0.0024,0.0904,-0.0024,-0.0073,-0.0073,-0.0073,-0.0220,-0.1983,0.8137,-0.0342,1.4090,-0.1001,-0.0366,0.0122,1,1,1,1,1,1,1
5.3049,sweep,2,+up,-0.00629,0.74826,0.00019,1.56844,0.08259,0.01125,-0.00134,-0.0024,0.0904,-0.0024,-0.0073,-0.0073,-0.0073,-0.0220,-0.1983,0.8137,-0.0342,1.4090,-0.1001,-0.0366,0.0122,1,1,1,1,1,1,1
5.3449,sweep,2,+up,-0.00629,0.75780,0.00019,1.56920,0.08259,0.01125,-0.00095,-0.0024,0.0562,-0.0024,-0.0073,-0.0073,-0.0073,-0.0073,-0.1983,1.2376,-0.0205,1.4530,-0.1001,-0.0366,0.0122,1,1,1,1,1,1,1
5.3852,sweep,2,+up,-0.00629,0.75780,0.00019,1.56920,0.08259,0.01125,-0.00095,-0.0024,0.0562,-0.0024,-0.0073,-0.0073,-0.0073,-0.0073,-0.1983,1.2376,-0.0205,1.4530,-0.1001,-0.0366,0.0122,1,1,1,1,1,1,1
5.4251,sweep,2,+up,-0.00629,0.76390,0.00019,1.56958,0.08259,0.01125,-0.00134,-0.0024,0.0659,-0.0073,-0.0073,-0.0220,-0.0073,-0.0073,-0.1983,1.0735,-0.0342,1.4676,-0.0952,-0.0366,0.0122,1,1,1,1,1,1,1
5.4649,sweep,2,+up,-0.00629,0.76390,0.00019,1.56958,0.08259,0.01125,-0.00134,-0.0024,0.0659,-0.0073,-0.0073,-0.0220,-0.0073,-0.0073,-0.1983,1.0735,-0.0342,1.4676,-0.0952,-0.0366,0.0122,1,1,1,1,1,1,1
5.5052,sweep,2,+up,-0.00629,0.76390,0.00019,1.56958,0.08259,0.01125,-0.00134,-0.0024,0.0659,-0.0073,-0.0073,-0.0220,-0.0073,-0.0073,-0.1983,1.0735,-0.0342,1.4676,-0.0952,-0.0366,0.0122,1,1,1,1,1,1,1
5.5451,sweep,2,+up,-0.00629,0.77153,0.00019,1.56920,0.08259,0.01125,-0.00134,0.0024,0.0611,-0.0024,-0.0220,0.0073,-0.0073,-0.0073,-0.1983,0.8957,-0.0342,1.5458,-0.0904,-0.0415,0.0073,1,1,1,1,1,1,1
5.5852,sweep,2,+up,-0.00629,0.77153,0.00019,1.56920,0.08259,0.01125,-0.00134,0.0024,0.0611,-0.0024,-0.0220,0.0073,-0.0073,-0.0073,-0.1983,0.8957,-0.0342,1.5458,-0.0904,-0.0415,0.0073,1,1,1,1,1,1,1
5.6251,sweep,2,+up,-0.00629,0.77573,0.00019,1.56920,0.08259,0.01125,-0.00134,0.0024,0.0562,-0.0024,0.0073,-0.0073,0.0073,-0.0073,-0.1983,0.7590,-0.0342,1.5946,-0.0904,-0.0415,0.0073,1,1,1,1,1,1,1
5.6648,sweep,2,+up,-0.00629,0.77573,0.00019,1.56920,0.08259,0.01125,-0.00134,0.0024,0.0562,-0.0024,0.0073,-0.0073,0.0073,-0.0073,-0.1983,0.7590,-0.0342,1.5946,-0.0904,-0.0415,0.0073,1,1,1,1,1,1,1
5.7049,sweep,2,+up,-0.00629,0.77573,0.00019,1.56920,0.08259,0.01125,-0.00134,0.0024,0.0562,-0.0024,0.0073,-0.0073,0.0073,-0.0073,-0.1983,0.7590,-0.0342,1.5946,-0.0904,-0.0415,0.0073,1,1,1,1,1,1,1
5.7450,sweep,2,+up,-0.00629,0.78145,0.00019,1.56958,0.08259,0.01087,-0.00134,-0.0024,0.0464,-0.0024,-0.0073,-0.0073,-0.0073,-0.0073,-0.1983,0.8547,-0.0205,1.6532,-0.0855,-0.0415,0.0073,1,1,1,1,1,1,1
5.7849,sweep,2,+up,-0.00629,0.78145,0.00019,1.56958,0.08259,0.01087,-0.00134,-0.0024,0.0464,-0.0024,-0.0073,-0.0073,-0.0073,-0.0073,-0.1983,0.8547,-0.0205,1.6532,-0.0855,-0.0415,0.0073,1,1,1,1,1,1,1
5.8251,sweep,2,+up,-0.00629,0.78489,0.00019,1.56958,0.08259,0.01087,-0.00134,-0.0024,0.0464,0.0024,0.0073,0.0073,-0.0220,-0.0073,-0.1983,0.6632,-0.0342,1.6825,-0.0855,-0.0415,0.0073,1,1,1,1,1,1,1
5.8651,sweep,2,+up,-0.00629,0.78489,0.00019,1.56958,0.08259,0.01087,-0.00134,-0.0024,0.0464,0.0024,0.0073,0.0073,-0.0220,-0.0073,-0.1983,0.6632,-0.0342,1.6825,-0.0855,-0.0415,0.0073,1,1,1,1,1,1,1
5.9051,sweep,2,+up,-0.00629,0.78489,0.00019,1.56958,0.08259,0.01087,-0.00134,-0.0024,0.0464,0.0024,0.0073,0.0073,-0.0220,-0.0073,-0.1983,0.6632,-0.0342,1.6825,-0.0855,-0.0415,0.0073,1,1,1,1,1,1,1
5.9451,sweep,2,+up,-0.00629,0.78946,0.00019,1.56996,0.08259,0.01087,-0.00134,-0.0024,0.0220,-0.0024,0.0220,-0.0220,-0.0220,-0.0073,-0.1983,0.5402,-0.0479,1.6972,-0.0757,-0.0366,0.0122,1,1,1,1,1,1,1
5.9850,sweep,2,+up,-0.00629,0.78946,0.00019,1.56996,0.08259,0.01087,-0.00134,-0.0024,0.0220,-0.0024,0.0220,-0.0220,-0.0220,-0.0073,-0.1983,0.5402,-0.0479,1.6972,-0.0757,-0.0366,0.0122,1,1,1,1,1,1,1
6.0250,sweep,2,+up,-0.00629,0.79175,0.00019,1.57340,0.08259,0.01125,-0.00134,0.0024,0.0171,-0.0024,-0.0073,-0.0220,-0.0073,-0.0220,-0.1983,0.8410,-0.0342,1.4042,-0.0806,-0.0415,0.0073,1,1,1,1,1,1,1
6.0651,sweep,2,+up,-0.00629,0.79175,0.00019,1.57340,0.08259,0.01125,-0.00134,0.0024,0.0171,-0.0024,-0.0073,-0.0220,-0.0073,-0.0220,-0.1983,0.8410,-0.0342,1.4042,-0.0806,-0.0415,0.0073,1,1,1,1,1,1,1
6.1050,sweep,2,+up,-0.00629,0.79175,0.00019,1.57340,0.08259,0.01125,-0.00134,0.0024,0.0171,-0.0024,-0.0073,-0.0220,-0.0073,-0.0220,-0.1983,0.8410,-0.0342,1.4042,-0.0806,-0.0415,0.0073,1,1,1,1,1,1,1
6.1450,sweep,2,+up,-0.00629,0.79480,0.00019,1.57340,0.08259,0.01125,-0.00134,-0.0024,0.0220,-0.0024,-0.0220,-0.0073,-0.0073,-0.0073,-0.1846,0.9231,-0.0342,1.2674,-0.0855,-0.0415,0.0073,1,1,1,1,1,1,1
6.6477,sweep,2,-down,-0.00629,0.79595,0.00019,1.57301,0.08259,0.01125,-0.00134,-0.0024,0.0317,-0.0024,-0.0366,-0.0073,0.0073,-0.0073,-0.1846,0.9778,-0.0205,1.2381,-0.0904,-0.0415,0.0073,1,1,1,1,1,1,1
6.6877,sweep,2,-down,-0.00629,0.79595,0.00019,1.57301,0.08259,0.01125,-0.00134,-0.0024,0.0317,-0.0024,-0.0366,-0.0073,0.0073,-0.0073,-0.1846,0.9778,-0.0205,1.2381,-0.0904,-0.0415,0.0073,1,1,1,1,1,1,1
6.7279,sweep,2,-down,-0.00629,0.79976,0.00019,1.56958,0.08259,0.01125,-0.00134,-0.0073,-0.1978,-0.0024,-0.0073,-0.0220,-0.0073,0.0073,-0.1846,-0.3077,-0.0068,1.6581,-0.0806,-0.0415,0.0073,1,1,1,1,1,1,1
6.7682,sweep,2,-down,-0.00629,0.79976,0.00019,1.56958,0.08259,0.01125,-0.00134,-0.0073,-0.1978,-0.0024,-0.0073,-0.0220,-0.0073,0.0073,-0.1846,-0.3077,-0.0068,1.6581,-0.0806,-0.0415,0.0073,1,1,1,1,1,1,1
6.8076,sweep,2,-down,-0.00629,0.79976,0.00019,1.56958,0.08259,0.01125,-0.00134,-0.0073,-0.1978,-0.0024,-0.0073,-0.0220,-0.0073,0.0073,-0.1846,-0.3077,-0.0068,1.6581,-0.0806,-0.0415,0.0073,1,1,1,1,1,1,1
6.8476,sweep,2,-down,-0.00629,0.77573,0.00019,1.56920,0.08297,0.01125,-0.00134,-0.0024,-0.2076,-0.0024,-0.0366,-0.0073,-0.0073,-0.0073,-0.1983,-0.4718,-0.0205,1.7265,-0.0806,-0.0464,0.0073,1,1,1,1,1,1,1
6.8878,sweep,2,-down,-0.00629,0.77573,0.00019,1.56920,0.08297,0.01125,-0.00134,-0.0024,-0.2076,-0.0024,-0.0366,-0.0073,-0.0073,-0.0073,-0.1983,-0.4718,-0.0205,1.7265,-0.0806,-0.0464,0.0073,1,1,1,1,1,1,1
6.9277,sweep,2,-down,-0.00629,0.75971,0.00019,1.56920,0.08259,0.01087,-0.00134,-0.0024,-0.1783,-0.0073,-0.0073,-0.0220,-0.0220,0.0073,-0.1983,-0.2667,-0.0342,1.7705,-0.0806,-0.0415,0.0073,1,1,1,1,1,1,1
6.9677,sweep,2,-down,-0.00629,0.75971,0.00019,1.56920,0.08259,0.01087,-0.00134,-0.0024,-0.1783,-0.0073,-0.0073,-0.0220,-0.0220,0.0073,-0.1983,-0.2667,-0.0342,1.7705,-0.0806,-0.0415,0.0073,1,1,1,1,1,1,1
7.0080,sweep,2,-down,-0.00629,0.75971,0.00019,1.56920,0.08259,0.01087,-0.00134,-0.0024,-0.1783,-0.0073,-0.0073,-0.0220,-0.0220,0.0073,-0.1983,-0.2667,-0.0342,1.7705,-0.0806,-0.0415,0.0073,1,1,1,1,1,1,1
7.0479,sweep,2,-down,-0.00629,0.73491,0.00019,1.57340,0.08297,0.01125,-0.00134,-0.0024,-0.2271,-0.0024,0.0220,-0.0073,-0.0073,-0.0073,-0.1983,0.0205,-0.0342,1.4676,-0.0855,-0.0415,0.0122,1,1,1,1,1,1,1
7.0876,sweep,2,-down,-0.00629,0.73491,0.00019,1.57340,0.08297,0.01125,-0.00134,-0.0024,-0.2271,-0.0024,0.0220,-0.0073,-0.0073,-0.0073,-0.1983,0.0205,-0.0342,1.4676,-0.0855,-0.0415,0.0122,1,1,1,1,1,1,1
7.1276,sweep,2,-down,-0.00629,0.71851,0.00019,1.57378,0.08259,0.01125,-0.00134,-0.0073,-0.1929,-0.0024,-0.0073,-0.0073,0.0073,-0.0220,-0.1846,0.2256,-0.0479,1.3455,-0.0904,-0.0464,0.0122,1,1,1,1,1,1,1
7.1677,sweep,2,-down,-0.00629,0.71851,0.00019,1.57378,0.08259,0.01125,-0.00134,-0.0073,-0.1929,-0.0024,-0.0073,-0.0073,0.0073,-0.0220,-0.1846,0.2256,-0.0479,1.3455,-0.0904,-0.0464,0.0122,1,1,1,1,1,1,1
7.2077,sweep,2,-down,-0.00629,0.71851,0.00019,1.57378,0.08259,0.01125,-0.00134,-0.0073,-0.1929,-0.0024,-0.0073,-0.0073,0.0073,-0.0220,-0.1846,0.2256,-0.0479,1.3455,-0.0904,-0.0464,0.0122,1,1,1,1,1,1,1
7.2477,sweep,2,-down,-0.00629,0.69448,0.00019,1.57301,0.08297,0.01125,-0.00134,-0.0024,-0.2271,-0.0024,-0.0073,-0.0073,0.0073,-0.0073,-0.1846,0.3761,-0.0342,1.2723,-0.0904,-0.0464,0.0073,1,1,1,1,1,1,1
7.2877,sweep,2,-down,-0.00629,0.69448,0.00019,1.57301,0.08297,0.01125,-0.00134,-0.0024,-0.2271,-0.0024,-0.0073,-0.0073,0.0073,-0.0073,-0.1846,0.3761,-0.0342,1.2723,-0.0904,-0.0464,0.0073,1,1,1,1,1,1,1
7.3277,sweep,2,-down,-0.00629,0.67807,0.00019,1.57301,0.08259,0.01125,-0.00134,-0.0024,-0.2125,0.0024,-0.0073,-0.0220,0.0073,-0.0073,-0.1983,0.5265,-0.0479,1.1746,-0.0952,-0.0464,0.0073,1,1,1,1,1,1,1
7.3678,sweep,2,-down,-0.00629,0.67807,0.00019,1.57301,0.08259,0.01125,-0.00134,-0.0024,-0.2125,0.0024,-0.0073,-0.0220,0.0073,-0.0073,-0.1983,0.5265,-0.0479,1.1746,-0.0952,-0.0464,0.0073,1,1,1,1,1,1,1
7.4078,sweep,2,-down,-0.00629,0.67807,0.00019,1.57301,0.08259,0.01125,-0.00134,-0.0024,-0.2125,0.0024,-0.0073,-0.0220,0.0073,-0.0073,-0.1983,0.5265,-0.0479,1.1746,-0.0952,-0.0464,0.0073,1,1,1,1,1,1,1
7.4477,sweep,2,-down,-0.00629,0.65442,0.00019,1.57149,0.08259,0.01125,-0.00134,-0.0024,-0.1685,-0.0024,-0.0220,0.0073,0.0073,-0.0073,-0.1709,0.3077,-0.0205,1.1990,-0.0904,-0.0513,0.0122,1,1,1,1,1,1,1
7.4880,sweep,2,-down,-0.00629,0.65442,0.00019,1.57149,0.08259,0.01125,-0.00134,-0.0024,-0.1685,-0.0024,-0.0220,0.0073,0.0073,-0.0073,-0.1709,0.3077,-0.0205,1.1990,-0.0904,-0.0513,0.0122,1,1,1,1,1,1,1
7.5277,sweep,2,-down,-0.00629,0.63840,0.00019,1.56996,0.08297,0.01125,-0.00134,-0.0024,-0.2173,-0.0024,-0.0073,0.0073,0.0073,-0.0073,-0.1709,0.4308,-0.0342,1.3260,-0.0952,-0.0513,0.0122,1,1,1,1,1,1,1
7.5675,sweep,2,-down,-0.00629,0.63840,0.00019,1.56996,0.08297,0.01125,-0.00134,-0.0024,-0.2173,-0.0024,-0.0073,0.0073,0.0073,-0.0073,-0.1709,0.4308,-0.0342,1.3260,-0.0952,-0.0513,0.0122,1,1,1,1,1,1,1
7.6075,sweep,2,-down,-0.00629,0.63840,0.00019,1.56996,0.08297,0.01125,-0.00134,-0.0024,-0.2173,-0.0024,-0.0073,0.0073,0.0073,-0.0073,-0.1709,0.4308,-0.0342,1.3260,-0.0952,-0.0513,0.0122,1,1,1,1,1,1,1
7.6476,sweep,2,-down,-0.00629,0.61399,0.00019,1.57034,0.08259,0.01087,-0.00134,0.0024,-0.1929,-0.0024,0.0220,-0.0073,-0.0073,0.0073,-0.1709,0.6085,-0.0205,1.3114,-0.0904,-0.0513,0.0171,1,1,1,1,1,1,1
7.6877,sweep,2,-down,-0.00629,0.61399,0.00019,1.57034,0.08259,0.01087,-0.00134,0.0024,-0.1929,-0.0024,0.0220,-0.0073,-0.0073,0.0073,-0.1709,0.6085,-0.0205,1.3114,-0.0904,-0.0513,0.0171,1,1,1,1,1,1,1
7.7280,sweep,2,-down,-0.00629,0.59796,0.00019,1.57111,0.08297,0.01087,-0.00134,0.0024,-0.2173,-0.0073,0.0073,-0.0073,-0.0073,0.0073,-0.1709,0.9778,-0.0205,1.2381,-0.0855,-0.0513,0.0171,1,1,1,1,1,1,1
7.7678,sweep,2,-down,-0.00629,0.59796,0.00019,1.57111,0.08297,0.01087,-0.00134,0.0024,-0.2173,-0.0073,0.0073,-0.0073,-0.0073,0.0073,-0.1709,0.9778,-0.0205,1.2381,-0.0855,-0.0513,0.0171,1,1,1,1,1,1,1
7.8076,sweep,2,-down,-0.00629,0.59796,0.00019,1.57111,0.08297,0.01087,-0.00134,0.0024,-0.2173,-0.0073,0.0073,-0.0073,-0.0073,0.0073,-0.1709,0.9778,-0.0205,1.2381,-0.0855,-0.0513,0.0171,1,1,1,1,1,1,1
7.8477,sweep,2,-down,-0.00629,0.57393,0.00019,1.57225,0.08259,0.01087,-0.00134,-0.0073,-0.1929,-0.0024,-0.0073,-0.0073,-0.0073,-0.0073,-0.1709,0.8957,-0.0205,1.1013,-0.0806,-0.0513,0.0171,1,1,1,1,1,1,1
7.8877,sweep,2,-down,-0.00629,0.57393,0.00019,1.57225,0.08259,0.01087,-0.00134,-0.0073,-0.1929,-0.0024,-0.0073,-0.0073,-0.0073,-0.0073,-0.1709,0.8957,-0.0205,1.1013,-0.0806,-0.0513,0.0171,1,1,1,1,1,1,1
7.9279,sweep,2,-down,-0.00629,0.55753,0.00019,1.57225,0.08259,0.01087,-0.00134,0.0024,-0.2173,-0.0073,-0.0073,-0.0073,0.0073,-0.0073,-0.1709,1.3607,-0.0205,1.0574,-0.0904,-0.0513,0.0171,1,1,1,1,1,1,1
7.9679,sweep,2,-down,-0.00629,0.55753,0.00019,1.57225,0.08259,0.01087,-0.00134,0.0024,-0.2173,-0.0073,-0.0073,-0.0073,0.0073,-0.0073,-0.1709,1.3607,-0.0205,1.0574,-0.0904,-0.0513,0.0171,1,1,1,1,1,1,1
8.0080,sweep,2,-down,-0.00629,0.55753,0.00019,1.57225,0.08259,0.01087,-0.00134,0.0024,-0.2173,-0.0073,-0.0073,-0.0073,0.0073,-0.0073,-0.1709,1.3607,-0.0205,1.0574,-0.0904,-0.0513,0.0171,1,1,1,1,1,1,1
8.0477,sweep,2,-down,-0.00629,0.53349,0.00019,1.57187,0.08297,0.01087,-0.00095,-0.0024,-0.2125,-0.0024,-0.0073,0.0073,-0.0073,-0.0073,-0.1573,1.3060,-0.0068,0.9841,-0.0904,-0.0513,0.0171,1,1,1,1,1,1,1
8.0877,sweep,2,-down,-0.00629,0.53349,0.00019,1.57187,0.08297,0.01087,-0.00095,-0.0024,-0.2125,-0.0024,-0.0073,0.0073,-0.0073,-0.0073,-0.1573,1.3060,-0.0068,0.9841,-0.0904,-0.0513,0.0171,1,1,1,1,1,1,1
8.1277,sweep,2,-down,-0.00629,0.51747,0.00019,1.57187,0.08297,0.01087,-0.00134,0.0024,-0.2027,0.0024,-0.0073,-0.0073,-0.0073,-0.0073,-0.1709,1.3744,-0.0068,0.9402,-0.0904,-0.0513,0.0171,1,1,1,1,1,1,1
8.1677,sweep,2,-down,-0.00629,0.51747,0.00019,1.57187,0.08297,0.01087,-0.00134,0.0024,-0.2027,0.0024,-0.0073,-0.0073,-0.0073,-0.0073,-0.1709,1.3744,-0.0068,0.9402,-0.0904,-0.0513,0.0171,1,1,1,1,1,1,1
8.2081,sweep,2,-down,-0.00629,0.51747,0.00019,1.57187,0.08297,0.01087,-0.00134,0.0024,-0.2027,0.0024,-0.0073,-0.0073,-0.0073,-0.0073,-0.1709,1.3744,-0.0068,0.9402,-0.0904,-0.0513,0.0171,1,1,1,1,1,1,1
8.2477,sweep,2,-down,-0.00629,0.49344,0.00019,1.57187,0.08259,0.01087,-0.00134,0.0024,-0.2173,-0.0024,-0.0073,-0.0073,-0.0073,-0.0073,-0.1709,1.4564,-0.0205,0.8864,-0.0904,-0.0513,0.0122,1,1,1,1,1,1,1
8.2876,sweep,2,-down,-0.00629,0.49344,0.00019,1.57187,0.08259,0.01087,-0.00134,0.0024,-0.2173,-0.0024,-0.0073,-0.0073,-0.0073,-0.0073,-0.1709,1.4564,-0.0205,0.8864,-0.0904,-0.0513,0.0122,1,1,1,1,1,1,1
8.3276,sweep,2,-down,-0.00629,0.47742,0.00019,1.57149,0.08259,0.01087,-0.00134,-0.0024,-0.1832,-0.0073,-0.0073,0.0073,-0.0220,-0.0220,-0.1846,1.5385,-0.0205,0.8571,-0.0904,-0.0513,0.0171,1,1,1,1,1,1,1
8.3677,sweep,2,-down,-0.00629,0.47742,0.00019,1.57149,0.08259,0.01087,-0.00134,-0.0024,-0.1832,-0.0073,-0.0073,0.0073,-0.0220,-0.0220,-0.1846,1.5385,-0.0205,0.8571,-0.0904,-0.0513,0.0171,1,1,1,1,1,1,1
8.4076,sweep,2,-down,-0.00629,0.47742,0.00019,1.57149,0.08259,0.01087,-0.00134,-0.0024,-0.1832,-0.0073,-0.0073,0.0073,-0.0220,-0.0220,-0.1846,1.5385,-0.0205,0.8571,-0.0904,-0.0513,0.0171,1,1,1,1,1,1,1
8.4475,sweep,2,-down,-0.00629,0.45338,0.00019,1.57149,0.08259,0.01087,-0.00134,-0.0024,-0.2222,-0.0073,0.0073,-0.0220,0.0073,-0.0073,-0.1709,1.6752,-0.0479,0.8083,-0.1001,-0.0513,0.0171,1,1,1,1,1,1,1
8.4877,sweep,2,-down,-0.00629,0.45338,0.00019,1.57149,0.08259,0.01087,-0.00134,-0.0024,-0.2222,-0.0073,0.0073,-0.0220,0.0073,-0.0073,-0.1709,1.6752,-0.0479,0.8083,-0.1001,-0.0513,0.0171,1,1,1,1,1,1,1
8.5277,sweep,2,-down,-0.00629,0.43736,0.00019,1.57187,0.08259,0.01087,-0.00134,-0.0024,-0.2076,-0.0024,0.0073,-0.0073,-0.0220,-0.0073,-0.1846,1.7436,-0.0615,0.7643,-0.1050,-0.0464,0.0171,1,1,1,1,1,1,1
8.5677,sweep,2,-down,-0.00629,0.43736,0.00019,1.57187,0.08259,0.01087,-0.00134,-0.0024,-0.2076,-0.0024,0.0073,-0.0073,-0.0220,-0.0073,-0.1846,1.7436,-0.0615,0.7643,-0.1050,-0.0464,0.0171,1,1,1,1,1,1,1
8.6077,sweep,2,-down,-0.00629,0.43736,0.00019,1.57187,0.08259,0.01087,-0.00134,-0.0024,-0.2076,-0.0024,0.0073,-0.0073,-0.0220,-0.0073,-0.1846,1.7436,-0.0615,0.7643,-0.1050,-0.0464,0.0171,1,1,1,1,1,1,1
8.6476,sweep,2,-down,-0.00629,0.41295,0.00019,1.57187,0.08259,0.01087,-0.00134,-0.0073,-0.2076,-0.0024,-0.0073,-0.0073,-0.0220,-0.0220,-0.1846,2.1128,-0.0479,0.7009,-0.1001,-0.0464,0.0171,1,1,1,1,1,1,1
8.6876,sweep,2,-down,-0.00629,0.41295,0.00019,1.57187,0.08259,0.01087,-0.00134,-0.0073,-0.2076,-0.0024,-0.0073,-0.0073,-0.0220,-0.0220,-0.1846,2.1128,-0.0479,0.7009,-0.1001,-0.0464,0.0171,1,1,1,1,1,1,1
8.7276,sweep,2,-down,-0.00629,0.39692,0.00019,1.57187,0.08259,0.01087,-0.00134,-0.0024,-0.1978,-0.0024,-0.0073,-0.0073,0.0073,-0.0073,-0.1846,1.9487,-0.0342,0.6569,-0.1050,-0.0464,0.0171,1,1,1,1,1,1,1
8.7677,sweep,2,-down,-0.00629,0.39692,0.00019,1.57187,0.08259,0.01087,-0.00134,-0.0024,-0.1978,-0.0024,-0.0073,-0.0073,0.0073,-0.0073,-0.1846,1.9487,-0.0342,0.6569,-0.1050,-0.0464,0.0171,1,1,1,1,1,1,1
8.8078,sweep,2,-down,-0.00629,0.39692,0.00019,1.57187,0.08259,0.01087,-0.00134,-0.0024,-0.1978,-0.0024,-0.0073,-0.0073,0.0073,-0.0073,-0.1846,1.9487,-0.0342,0.6569,-0.1050,-0.0464,0.0171,1,1,1,1,1,1,1
8.8477,sweep,2,-down,-0.00629,0.37289,0.00019,1.57149,0.08259,0.01087,-0.00134,-0.0024,-0.1832,0.0024,-0.0073,0.0073,-0.0073,-0.0073,-0.1983,2.0308,-0.0342,0.6032,-0.1001,-0.0464,0.0171,1,1,1,1,1,1,1
8.8878,sweep,2,-down,-0.00629,0.37289,0.00019,1.57149,0.08259,0.01087,-0.00134,-0.0024,-0.1832,0.0024,-0.0073,0.0073,-0.0073,-0.0073,-0.1983,2.0308,-0.0342,0.6032,-0.1001,-0.0464,0.0171,1,1,1,1,1,1,1
8.9274,sweep,2,-down,-0.00629,0.35687,0.00019,1.57149,0.08259,0.01087,-0.00134,-0.0073,-0.2173,-0.0024,-0.0073,-0.0220,-0.0220,-0.0073,-0.1709,2.0855,-0.0342,0.5641,-0.1001,-0.0464,0.0220,1,1,1,1,1,1,1
8.9677,sweep,2,-down,-0.00629,0.35687,0.00019,1.57149,0.08259,0.01087,-0.00134,-0.0073,-0.2173,-0.0024,-0.0073,-0.0220,-0.0220,-0.0073,-0.1709,2.0855,-0.0342,0.5641,-0.1001,-0.0464,0.0220,1,1,1,1,1,1,1
9.0076,sweep,2,-down,-0.00629,0.35687,0.00019,1.57149,0.08259,0.01087,-0.00134,-0.0073,-0.2173,-0.0024,-0.0073,-0.0220,-0.0220,-0.0073,-0.1709,2.0855,-0.0342,0.5641,-0.1001,-0.0464,0.0220,1,1,1,1,1,1,1
9.0477,sweep,2,-down,-0.00629,0.33284,0.00019,1.57149,0.08259,0.01087,-0.00134,-0.0024,-0.1880,-0.0024,-0.0073,-0.0220,-0.0073,-0.0073,-0.1983,2.2496,-0.0068,0.5104,-0.1001,-0.0415,0.0220,1,1,1,1,1,1,1
9.0878,sweep,2,-down,-0.00629,0.33284,0.00019,1.57149,0.08259,0.01087,-0.00134,-0.0024,-0.1880,-0.0024,-0.0073,-0.0220,-0.0073,-0.0073,-0.1983,2.2496,-0.0068,0.5104,-0.1001,-0.0415,0.0220,1,1,1,1,1,1,1
9.1276,sweep,2,-down,-0.00629,0.31643,0.00019,1.57187,0.08259,0.01087,-0.00095,-0.0024,-0.2125,0.0024,-0.0220,0.0073,-0.0073,-0.0073,-0.1983,2.6051,-0.0342,0.4664,-0.1050,-0.0415,0.0220,1,1,1,1,1,1,1
9.1678,sweep,2,-down,-0.00629,0.31643,0.00019,1.57187,0.08259,0.01087,-0.00095,-0.0024,-0.2125,0.0024,-0.0220,0.0073,-0.0073,-0.0073,-0.1983,2.6051,-0.0342,0.4664,-0.1050,-0.0415,0.0220,1,1,1,1,1,1,1
9.2079,sweep,2,-down,-0.00629,0.31643,0.00019,1.57187,0.08259,0.01087,-0.00095,-0.0024,-0.2125,0.0024,-0.0220,0.0073,-0.0073,-0.0073,-0.1983,2.6051,-0.0342,0.4664,-0.1050,-0.0415,0.0220,1,1,1,1,1,1,1
9.2479,sweep,2,-down,-0.00629,0.29278,0.00019,1.57187,0.08259,0.01087,-0.00134,-0.0024,-0.1929,-0.0024,-0.0073,0.0073,-0.0073,-0.0073,-0.1983,2.2359,-0.0342,0.4176,-0.1001,-0.0366,0.0220,1,1,1,1,1,1,1
9.2878,sweep,2,-down,-0.00629,0.29278,0.00019,1.57187,0.08259,0.01087,-0.00134,-0.0024,-0.1929,-0.0024,-0.0073,0.0073,-0.0073,-0.0073,-0.1983,2.2359,-0.0342,0.4176,-0.1001,-0.0366,0.0220,1,1,1,1,1,1,1
9.3275,sweep,2,-down,-0.00591,0.27638,0.00019,1.57187,0.08259,0.01087,-0.00134,0.0024,-0.2271,-0.0024,-0.0073,-0.0073,-0.0073,-0.0220,-0.1846,2.7419,-0.0205,0.3785,-0.0904,-0.0366,0.0220,1,1,1,1,1,1,1
9.3675,sweep,2,-down,-0.00591,0.27638,0.00019,1.57187,0.08259,0.01087,-0.00134,0.0024,-0.2271,-0.0024,-0.0073,-0.0073,-0.0073,-0.0220,-0.1846,2.7419,-0.0205,0.3785,-0.0904,-0.0366,0.0220,1,1,1,1,1,1,1
9.4076,sweep,2,-down,-0.00591,0.27638,0.00019,1.57187,0.08259,0.01087,-0.00134,0.0024,-0.2271,-0.0024,-0.0073,-0.0073,-0.0073,-0.0220,-0.1846,2.7419,-0.0205,0.3785,-0.0904,-0.0366,0.0220,1,1,1,1,1,1,1
9.4476,sweep,2,-down,-0.00629,0.25311,0.00019,1.57187,0.08259,0.01087,-0.00134,-0.0024,-0.1734,-0.0024,-0.0073,-0.0073,-0.0073,-0.0073,-0.1846,2.7009,-0.0205,0.3199,-0.0904,-0.0366,0.0171,1,1,1,1,1,1,1
9.4877,sweep,2,-down,-0.00629,0.25311,0.00019,1.57187,0.08259,0.01087,-0.00134,-0.0024,-0.1734,-0.0024,-0.0073,-0.0073,-0.0073,-0.0073,-0.1846,2.7009,-0.0205,0.3199,-0.0904,-0.0366,0.0171,1,1,1,1,1,1,1
9.5277,sweep,2,-down,-0.00629,0.23938,0.00019,1.57187,0.08297,0.01087,-0.00134,-0.0024,-0.1832,0.0024,-0.0073,-0.0073,-0.0073,-0.0073,-0.1983,2.9333,-0.0342,0.2759,-0.0855,-0.0366,0.0171,1,1,1,1,1,1,1
9.5677,sweep,2,-down,-0.00629,0.23938,0.00019,1.57187,0.08297,0.01087,-0.00134,-0.0024,-0.1832,0.0024,-0.0073,-0.0073,-0.0073,-0.0073,-0.1983,2.9333,-0.0342,0.2759,-0.0855,-0.0366,0.0171,1,1,1,1,1,1,1
9.6076,sweep,2,-down,-0.00629,0.23938,0.00019,1.57187,0.08297,0.01087,-0.00134,-0.0024,-0.1832,0.0024,-0.0073,-0.0073,-0.0073,-0.0073,-0.1983,2.9333,-0.0342,0.2759,-0.0855,-0.0366,0.0171,1,1,1,1,1,1,1
9.6476,sweep,2,-down,-0.00629,0.22145,0.00019,1.57187,0.08297,0.01087,-0.00134,-0.0073,-0.1441,-0.0024,0.0073,-0.0073,-0.0220,-0.0073,-0.1983,2.7419,-0.0205,0.2222,-0.0806,-0.0317,0.0171,1,1,1,1,1,1,1
9.6876,sweep,2,-down,-0.00629,0.22145,0.00019,1.57187,0.08297,0.01087,-0.00134,-0.0073,-0.1441,-0.0024,0.0073,-0.0073,-0.0220,-0.0073,-0.1983,2.7419,-0.0205,0.2222,-0.0806,-0.0317,0.0171,1,1,1,1,1,1,1
9.7277,sweep,2,-down,-0.00591,0.20619,0.00019,1.57149,0.08297,0.01087,-0.00095,-0.0024,-0.1245,-0.0024,-0.0073,0.0073,-0.0073,-0.0073,-0.1846,2.9060,-0.0342,0.2076,-0.0757,-0.0317,0.0171,1,1,1,1,1,1,1
9.7679,sweep,2,-down,-0.00591,0.20619,0.00019,1.57149,0.08297,0.01087,-0.00095,-0.0024,-0.1245,-0.0024,-0.0073,0.0073,-0.0073,-0.0073,-0.1846,2.9060,-0.0342,0.2076,-0.0757,-0.0317,0.0171,1,1,1,1,1,1,1
9.8077,sweep,2,-down,-0.00591,0.20619,0.00019,1.57149,0.08297,0.01087,-0.00095,-0.0024,-0.1245,-0.0024,-0.0073,0.0073,-0.0073,-0.0073,-0.1846,2.9060,-0.0342,0.2076,-0.0757,-0.0317,0.0171,1,1,1,1,1,1,1
9.8476,sweep,2,-down,-0.00629,0.19703,0.00019,1.57149,0.08297,0.01125,-0.00134,-0.0073,-0.0904,-0.0024,-0.0220,-0.0220,0.0073,-0.0073,-0.1983,2.7966,-0.0068,0.1734,-0.0757,-0.0317,0.0171,1,1,1,1,1,1,1
9.8877,sweep,2,-down,-0.00629,0.19703,0.00019,1.57149,0.08297,0.01125,-0.00134,-0.0073,-0.0904,-0.0024,-0.0220,-0.0220,0.0073,-0.0073,-0.1983,2.7966,-0.0068,0.1734,-0.0757,-0.0317,0.0171,1,1,1,1,1,1,1
9.9277,sweep,2,-down,-0.00629,0.18559,0.00019,1.57187,0.08297,0.01087,-0.00134,-0.0073,-0.0855,-0.0024,0.0073,-0.0073,-0.0073,-0.0220,-0.1983,3.1795,-0.0068,0.1148,-0.0757,-0.0317,0.0171,1,1,1,1,1,1,1
9.9677,sweep,2,-down,-0.00629,0.18559,0.00019,1.57187,0.08297,0.01087,-0.00134,-0.0073,-0.0855,-0.0024,0.0073,-0.0073,-0.0073,-0.0220,-0.1983,3.1795,-0.0068,0.1148,-0.0757,-0.0317,0.0171,1,1,1,1,1,1,1
10.0076,sweep,2,-down,-0.00629,0.18559,0.00019,1.57187,0.08297,0.01087,-0.00134,-0.0073,-0.0855,-0.0024,0.0073,-0.0073,-0.0073,-0.0220,-0.1983,3.1795,-0.0068,0.1148,-0.0757,-0.0317,0.0171,1,1,1,1,1,1,1
10.0476,sweep,2,-down,-0.00629,0.17872,0.00019,1.57187,0.08297,0.01087,-0.00095,-0.0073,-0.0757,-0.0073,0.0073,-0.0073,-0.0220,-0.0073,-0.2120,3.1248,-0.0205,0.0904,-0.0757,-0.0317,0.0122,1,1,1,1,1,1,1
10.0877,sweep,2,-down,-0.00629,0.17872,0.00019,1.57187,0.08297,0.01087,-0.00095,-0.0073,-0.0757,-0.0073,0.0073,-0.0073,-0.0220,-0.0073,-0.2120,3.1248,-0.0205,0.0904,-0.0757,-0.0317,0.0122,1,1,1,1,1,1,1
10.1278,sweep,2,-down,-0.00629,0.16995,0.00019,1.57149,0.08259,0.01087,-0.00134,-0.0073,-0.0757,-0.0024,-0.0073,-0.0220,-0.0073,-0.0073,-0.2120,2.8923,-0.0068,0.0611,-0.0806,-0.0317,0.0122,1,1,1,1,1,1,1
10.1677,sweep,2,-down,-0.00591,0.16995,0.00019,1.57149,0.08259,0.01087,-0.00134,0.0024,-0.0757,-0.0024,-0.0073,-0.0220,-0.0073,-0.0073,-0.2120,2.8923,-0.0068,0.0611,-0.0806,-0.0317,0.0122,1,1,1,1,1,1,1
10.2077,sweep,2,-down,-0.00591,0.16995,0.00019,1.57149,0.08259,0.01087,-0.00134,0.0024,-0.0757,-0.0024,-0.0073,-0.0220,-0.0073,-0.0073,-0.2120,2.8923,-0.0068,0.0611,-0.0806,-0.0317,0.0122,1,1,1,1,1,1,1
10.2477,sweep,2,-down,-0.00629,0.16461,0.00019,1.57111,0.08297,0.01125,-0.00134,-0.0073,-0.0513,-0.0024,-0.0073,-0.0073,-0.0073,-0.0073,-0.2120,3.0427,-0.0068,0.0659,-0.0904,-0.0269,0.0073,1,1,1,1,1,1,1
10.2878,sweep,2,-down,-0.00629,0.16461,0.00019,1.57111,0.08297,0.01125,-0.00134,-0.0073,-0.0513,-0.0024,-0.0073,-0.0073,-0.0073,-0.0073,-0.2120,3.0427,-0.0068,0.0659,-0.0904,-0.0269,0.0073,1,1,1,1,1,1,1
10.3280,sweep,2,-down,-0.00629,0.16461,0.00019,1.57111,0.08297,0.01087,-0.00134,-0.0073,-0.0513,-0.0024,-0.0220,-0.0073,-0.0073,-0.0073,-0.2120,3.0427,-0.0068,0.0513,-0.0855,-0.0269,0.0073,1,1,1,1,1,1,1
10.3677,sweep,2,-down,-0.00629,0.15812,0.00019,1.57111,0.08297,0.01087,-0.00134,-0.0024,-0.0415,-0.0024,-0.0220,-0.0073,-0.0073,-0.0073,-0.2120,2.7966,-0.0342,0.0513,-0.0855,-0.0269,0.0073,1,1,1,1,1,1,1
10.4076,sweep,2,-down,-0.00629,0.15812,0.00019,1.57111,0.08297,0.01087,-0.00134,-0.0024,-0.0415,-0.0024,-0.0220,-0.0073,-0.0073,-0.0073,-0.2120,2.7966,-0.0342,0.0513,-0.0855,-0.0269,0.0073,1,1,1,1,1,1,1
10.4475,sweep,2,-down,-0.00629,0.15392,0.00019,1.57111,0.08297,0.01087,-0.00134,-0.0024,-0.0513,-0.0024,0.0073,-0.0073,0.0073,0.0073,-0.1983,3.0974,-0.0205,0.0415,-0.0806,-0.0269,0.0073,1,1,1,1,1,1,1
10.4879,sweep,2,-down,-0.00629,0.15392,0.00019,1.57111,0.08297,0.01087,-0.00134,-0.0024,-0.0513,-0.0024,0.0073,-0.0073,0.0073,0.0073,-0.1983,3.0974,-0.0205,0.0415,-0.0806,-0.0269,0.0073,1,1,1,1,1,1,1
10.5277,sweep,2,-down,-0.00629,0.15392,0.00019,1.57111,0.08297,0.01087,-0.00134,-0.0024,-0.0513,-0.0024,0.0073,-0.0073,0.0073,0.0073,-0.1983,3.0974,-0.0205,0.0415,-0.0806,-0.0269,0.0073,1,1,1,1,1,1,1
10.5679,sweep,2,-down,-0.00629,0.14897,0.00019,1.57111,0.08259,0.01087,-0.00134,-0.0024,-0.0269,-0.0024,-0.0073,-0.0220,-0.0073,-0.0073,-0.1983,2.7282,-0.0068,0.0366,-0.0904,-0.0269,0.0122,1,1,1,1,1,1,1
10.6078,sweep,2,-down,-0.00629,0.14897,0.00019,1.57111,0.08259,0.01087,-0.00134,-0.0024,-0.0269,-0.0024,-0.0073,-0.0220,-0.0073,-0.0073,-0.1983,2.7282,-0.0068,0.0366,-0.0904,-0.0269,0.0122,1,1,1,1,1,1,1
10.6478,sweep,2,-down,-0.00629,0.14553,0.00019,1.57149,0.08259,0.01087,-0.00095,-0.0024,-0.0513,-0.0024,0.0073,-0.0073,-0.0073,0.0073,-0.1983,3.1521,-0.0068,0.0171,-0.0904,-0.0269,0.0122,1,1,1,1,1,1,1
10.6877,sweep,2,-down,-0.00629,0.14553,0.00019,1.57149,0.08259,0.01087,-0.00095,-0.0024,-0.0513,-0.0024,0.0073,-0.0073,-0.0073,0.0073,-0.1983,3.1521,-0.0068,0.0171,-0.0904,-0.0269,0.0122,1,1,1,1,1,1,1
10.7278,sweep,2,-down,-0.00629,0.14553,0.00019,1.57149,0.08259,0.01087,-0.00095,-0.0024,-0.0513,-0.0024,0.0073,-0.0073,-0.0073,0.0073,-0.1983,3.1521,-0.0068,0.0171,-0.0904,-0.0269,0.0122,1,1,1,1,1,1,1
10.7676,sweep,2,-down,-0.00629,0.14172,0.00019,1.57111,0.08297,0.01087,-0.00134,-0.0024,-0.0464,-0.0073,-0.0073,-0.0073,-0.0073,-0.0220,-0.1983,3.1111,0.0068,0.0073,-0.0855,-0.0220,0.0073,1,1,1,1,1,1,1
10.8077,sweep,2,-down,-0.00629,0.14172,0.00019,1.57111,0.08297,0.01087,-0.00134,-0.0024,-0.0464,-0.0073,-0.0073,-0.0073,-0.0073,-0.0220,-0.1983,3.1111,0.0068,0.0073,-0.0855,-0.0220,0.0073,1,1,1,1,1,1,1
10.8476,sweep,2,-down,-0.00629,0.13981,0.00019,1.57111,0.08297,0.01125,-0.00134,-0.0024,-0.0269,0.0024,-0.0073,-0.0073,-0.0073,-0.0073,-0.1983,3.0291,-0.0068,-0.0073,-0.0904,-0.0220,0.0073,1,1,1,1,1,1,1
11.3500,sweep,2,+up,-0.00591,0.13867,0.00019,1.57111,0.08297,0.01125,-0.00134,-0.0073,-0.0171,0.0024,-0.0220,-0.0073,-0.0073,-0.0073,-0.1983,2.9060,-0.0068,-0.0073,-0.0904,-0.0171,0.0122,1,1,1,1,1,1,1
11.3902,sweep,2,+up,-0.00591,0.13867,0.00019,1.57111,0.08297,0.01125,-0.00134,-0.0073,-0.0171,0.0024,-0.0220,-0.0073,-0.0073,-0.0073,-0.1983,2.9060,-0.0068,-0.0073,-0.0904,-0.0171,0.0122,1,1,1,1,1,1,1
11.4303,sweep,2,+up,-0.00591,0.14248,0.00019,1.57340,0.08259,0.01087,-0.00134,-0.0073,0.1978,-0.0024,0.0073,-0.0073,-0.0073,-0.0073,-0.1983,4.9026,-0.0068,0.0073,-0.0855,-0.0171,0.0024,1,1,1,1,1,1,1
11.4703,sweep,2,+up,-0.00629,0.14248,0.00019,1.57340,0.08259,0.01087,-0.00134,-0.0024,0.1978,-0.0024,0.0073,-0.0073,-0.0073,-0.0073,-0.1983,4.9026,-0.0068,0.0073,-0.0855,-0.0171,0.0024,1,1,1,1,1,1,1
11.5102,sweep,2,+up,-0.00629,0.14248,0.00019,1.57340,0.08259,0.01087,-0.00134,-0.0024,0.1978,-0.0024,0.0073,-0.0073,-0.0073,-0.0073,-0.1983,4.9026,-0.0068,0.0073,-0.0855,-0.0171,0.0024,1,1,1,1,1,1,1
11.5502,sweep,2,+up,-0.00629,0.15850,0.00019,1.57340,0.08259,0.01125,-0.00134,-0.0024,0.2320,-0.0073,-0.0073,-0.0073,0.0220,-0.0073,-0.1983,5.2855,-0.0068,-0.0269,-0.0855,-0.0171,0.0024,1,1,1,1,1,1,1
11.5903,sweep,2,+up,-0.00629,0.15850,0.00019,1.57340,0.08259,0.01125,-0.00134,-0.0024,0.2320,-0.0073,-0.0073,-0.0073,0.0220,-0.0073,-0.1983,5.2855,-0.0068,-0.0269,-0.0855,-0.0171,0.0024,1,1,1,1,1,1,1
11.6303,sweep,2,+up,-0.00629,0.15850,0.00019,1.56920,0.08259,0.01125,-0.00134,-0.0024,0.2320,-0.0024,-0.1538,-0.0073,-0.0220,-0.0073,-0.1983,5.2855,-0.0342,0.0806,-0.0806,-0.0171,0.0024,1,1,1,1,1,1,1
11.6700,sweep,2,+up,-0.00629,0.18215,0.00019,1.56920,0.08259,0.01125,-0.00134,-0.0024,0.1734,-0.0024,-0.1538,-0.0073,-0.0220,-0.0073,-0.1983,5.1624,-0.0342,0.0806,-0.0806,-0.0171,0.0024,1,1,1,1,1,1,1
11.7102,sweep,2,+up,-0.00629,0.18215,0.00019,1.56920,0.08259,0.01125,-0.00134,-0.0024,0.1734,-0.0024,-0.1538,-0.0073,-0.0220,-0.0073,-0.1983,5.1624,-0.0342,0.0806,-0.0806,-0.0171,0.0024,1,1,1,1,1,1,1
11.7501,sweep,2,+up,-0.00629,0.19894,0.00019,1.56767,0.08259,0.01125,-0.00134,-0.0024,0.1978,-0.0024,-0.0220,-0.0220,-0.0073,-0.0073,-0.2120,4.5197,-0.0479,0.2466,-0.0855,-0.0171,0.0024,1,1,1,1,1,1,1
11.7903,sweep,2,+up,-0.00629,0.19894,0.00019,1.56767,0.08259,0.01125,-0.00134,-0.0024,0.1978,-0.0024,-0.0220,-0.0220,-0.0073,-0.0073,-0.2120,4.5197,-0.0479,0.2466,-0.0855,-0.0171,0.0024,1,1,1,1,1,1,1
11.8302,sweep,2,+up,-0.00629,0.19894,0.00019,1.56767,0.08259,0.01125,-0.00134,-0.0024,0.1978,-0.0024,-0.0220,-0.0220,-0.0073,-0.0073,-0.2120,4.5197,-0.0479,0.2466,-0.0855,-0.0171,0.0073,1,1,1,1,1,1,1
11.8702,sweep,2,+up,-0.00629,0.22335,0.00019,1.56806,0.08259,0.01087,-0.00134,-0.0024,0.2027,0.0024,-0.0073,-0.0220,-0.0073,-0.0073,-0.1983,4.3556,-0.0205,0.3297,-0.0904,-0.0171,0.0073,1,1,1,1,1,1,1
11.9104,sweep,2,+up,-0.00629,0.22335,0.00019,1.56806,0.08259,0.01087,-0.00134,-0.0024,0.2027,0.0024,-0.0073,-0.0220,-0.0073,-0.0073,-0.1983,4.3556,-0.0205,0.3297,-0.0904,-0.0171,0.0073,1,1,1,1,1,1,1
11.9503,sweep,2,+up,-0.00629,0.23938,0.00019,1.56806,0.08259,0.01125,-0.00134,-0.0024,0.1978,-0.0024,-0.0073,-0.0073,-0.0220,-0.0220,-0.2120,4.2325,-0.0479,0.4078,-0.0904,-0.0171,0.0122,1,1,1,1,1,1,1
11.9902,sweep,2,+up,-0.00629,0.23938,0.00019,1.56806,0.08259,0.01125,-0.00134,-0.0024,0.1978,-0.0024,-0.0073,-0.0073,-0.0220,-0.0220,-0.2120,4.2325,-0.0479,0.4078,-0.0904,-0.0171,0.0122,1,1,1,1,1,1,1
12.0302,sweep,2,+up,-0.00629,0.23938,0.00019,1.56806,0.08259,0.01125,-0.00134,-0.0024,0.1978,-0.0024,-0.0073,-0.0073,-0.0220,-0.0220,-0.2120,4.2325,-0.0479,0.4078,-0.0904,-0.0171,0.0122,1,1,1,1,1,1,1
12.0702,sweep,2,+up,-0.00629,0.26341,0.00019,1.56844,0.08297,0.01125,-0.00134,0.0024,0.2076,-0.0024,-0.0220,-0.0073,0.0073,-0.0220,-0.2120,4.1504,-0.0342,0.5153,-0.0952,-0.0171,0.0073,1,1,1,1,1,1,1
12.1103,sweep,2,+up,-0.00629,0.26341,0.00019,1.56844,0.08297,0.01125,-0.00134,0.0024,0.2076,-0.0024,-0.0220,-0.0073,0.0073,-0.0220,-0.2120,4.1504,-0.0342,0.5153,-0.0952,-0.0171,0.0073,1,1,1,1,1,1,1
12.1500,sweep,2,+up,-0.00629,0.27943,0.00019,1.56882,0.08259,0.01125,-0.00134,-0.0024,0.1832,-0.0024,-0.0220,-0.0220,-0.0073,-0.0073,-0.1983,4.1778,-0.0342,0.5592,-0.0952,-0.0171,0.0073,1,1,1,1,1,1,1
12.1901,sweep,2,+up,-0.00629,0.27943,0.00019,1.56882,0.08259,0.01125,-0.00134,-0.0024,0.1832,-0.0024,-0.0220,-0.0220,-0.0073,-0.0073,-0.1983,4.1778,-0.0342,0.5592,-0.0952,-0.0171,0.0073,1,1,1,1,1,1,1
12.2301,sweep,2,+up,-0.00629,0.27943,0.00019,1.56882,0.08259,0.01125,-0.00134,-0.0024,0.1832,-0.0024,-0.0220,-0.0220,-0.0073,-0.0073,-0.1983,4.1778,-0.0342,0.5592,-0.0952,-0.0171,0.0073,1,1,1,1,1,1,1
12.2701,sweep,2,+up,-0.00591,0.30385,0.00019,1.56920,0.08297,0.01125,-0.00095,0.0024,0.2173,-0.0024,-0.0073,0.0073,-0.0073,0.0073,-0.1983,3.7128,-0.0479,0.6276,-0.0904,-0.0171,0.0122,1,1,1,1,1,1,1
12.3102,sweep,2,+up,-0.00591,0.30385,0.00019,1.56920,0.08297,0.01125,-0.00095,0.0024,0.2173,-0.0024,-0.0073,0.0073,-0.0073,0.0073,-0.1983,3.7128,-0.0479,0.6276,-0.0904,-0.0171,0.0122,1,1,1,1,1,1,1
12.3501,sweep,2,+up,-0.00629,0.31949,0.00019,1.56958,0.08297,0.01125,-0.00134,-0.0024,0.1783,-0.0024,0.0073,0.0073,-0.0073,0.0073,-0.2120,4.1231,-0.0615,0.6325,-0.0904,-0.0122,0.0122,1,1,1,1,1,1,1
12.3902,sweep,2,+up,-0.00629,0.31949,0.00019,1.56958,0.08297,0.01125,-0.00134,-0.0024,0.1783,-0.0024,0.0073,0.0073,-0.0073,0.0073,-0.2120,4.1231,-0.0615,0.6325,-0.0904,-0.0122,0.0122,1,1,1,1,1,1,1
12.4303,sweep,2,+up,-0.00629,0.31949,0.00019,1.56958,0.08297,0.01125,-0.00134,-0.0024,0.1783,-0.0024,0.0073,0.0073,-0.0073,0.0073,-0.2120,4.1231,-0.0615,0.6325,-0.0904,-0.0122,0.0122,1,1,1,1,1,1,1
12.4702,sweep,2,+up,-0.00629,0.34352,0.00019,1.56958,0.08297,0.01125,-0.00134,-0.0024,0.1880,0.0024,-0.0073,-0.0073,0.0073,-0.0073,-0.1983,3.6855,-0.0479,0.6813,-0.0855,-0.0171,0.0122,1,1,1,1,1,1,1
12.5101,sweep,2,+up,-0.00629,0.34352,0.00019,1.56958,0.08297,0.01125,-0.00134,-0.0024,0.1880,0.0024,-0.0073,-0.0073,0.0073,-0.0073,-0.1983,3.6855,-0.0479,0.6813,-0.0855,-0.0171,0.0122,1,1,1,1,1,1,1
12.5501,sweep,2,+up,-0.00629,0.35954,0.00019,1.56958,0.08259,0.01125,-0.00134,-0.0024,0.1978,-0.0024,-0.0073,-0.0220,-0.0220,-0.0073,-0.1983,3.7265,-0.0342,0.7057,-0.0855,-0.0171,0.0122,1,1,1,1,1,1,1
12.5902,sweep,2,+up,-0.00629,0.35954,0.00019,1.56958,0.08259,0.01125,-0.00134,-0.0024,0.1978,-0.0024,-0.0073,-0.0220,-0.0220,-0.0073,-0.1983,3.7265,-0.0342,0.7057,-0.0855,-0.0171,0.0122,1,1,1,1,1,1,1
12.6301,sweep,2,+up,-0.00629,0.35954,0.00019,1.56958,0.08259,0.01125,-0.00134,-0.0024,0.1978,-0.0024,-0.0073,-0.0220,-0.0220,-0.0073,-0.1983,3.7265,-0.0342,0.7057,-0.0855,-0.0171,0.0122,1,1,1,1,1,1,1
12.6702,sweep,2,+up,-0.00629,0.38396,0.00019,1.56958,0.08297,0.01125,-0.00134,-0.0024,0.2027,0.0024,-0.0073,-0.0073,-0.0073,-0.0073,-0.1983,3.4667,-0.0479,0.7546,-0.0904,-0.0171,0.0122,1,1,1,1,1,1,1
12.7103,sweep,2,+up,-0.00629,0.38396,0.00019,1.56958,0.08297,0.01125,-0.00134,-0.0024,0.2027,0.0024,-0.0073,-0.0073,-0.0073,-0.0073,-0.1983,3.4667,-0.0479,0.7546,-0.0904,-0.0171,0.0122,1,1,1,1,1,1,1
12.7501,sweep,2,+up,-0.00629,0.39998,0.00019,1.56958,0.08259,0.01125,-0.00134,-0.0024,0.1978,-0.0024,-0.0073,-0.0073,0.0073,-0.0073,-0.1846,3.4393,-0.0342,0.7985,-0.0952,-0.0171,0.0122,1,1,1,1,1,1,1
12.7902,sweep,2,+up,-0.00629,0.39998,0.00019,1.56958,0.08259,0.01125,-0.00134,-0.0024,0.1978,-0.0024,-0.0073,-0.0073,0.0073,-0.0073,-0.1846,3.4393,-0.0342,0.7985,-0.0952,-0.0171,0.0122,1,1,1,1,1,1,1
12.8303,sweep,2,+up,-0.00629,0.39998,0.00019,1.56958,0.08259,0.01125,-0.00134,-0.0024,0.1978,-0.0024,-0.0073,-0.0073,0.0073,-0.0073,-0.1846,3.4393,-0.0342,0.7985,-0.0952,-0.0171,0.0122,1,1,1,1,1,1,1
12.8703,sweep,2,+up,-0.00629,0.42401,0.00019,1.56958,0.08259,0.01125,-0.00134,0.0024,0.1783,-0.0024,-0.0073,0.0073,-0.0073,-0.0073,-0.1846,3.3026,-0.0205,0.8620,-0.1050,-0.0171,0.0171,1,1,1,1,1,1,1
12.9102,sweep,2,+up,-0.00629,0.42401,0.00019,1.56958,0.08259,0.01125,-0.00134,0.0024,0.1783,-0.0024,-0.0073,0.0073,-0.0073,-0.0073,-0.1846,3.3026,-0.0205,0.8620,-0.1050,-0.0171,0.0171,1,1,1,1,1,1,1
12.9501,sweep,2,+up,-0.00629,0.44003,0.00019,1.56958,0.08259,0.01125,-0.00134,-0.0024,0.2076,-0.0073,-0.0073,-0.0220,-0.0073,-0.0073,-0.1846,3.1795,-0.0479,0.8913,-0.0952,-0.0220,0.0122,1,1,1,1,1,1,1
12.9901,sweep,2,+up,-0.00629,0.44003,0.00019,1.56958,0.08259,0.01125,-0.00134,-0.0024,0.2076,-0.0073,-0.0073,-0.0220,-0.0073,-0.0073,-0.1846,3.1795,-0.0479,0.8913,-0.0952,-0.0220,0.0122,1,1,1,1,1,1,1
13.0302,sweep,2,+up,-0.00629,0.44003,0.00019,1.56958,0.08259,0.01125,-0.00134,-0.0024,0.2076,-0.0073,-0.0073,-0.0220,-0.0073,-0.0073,-0.1846,3.1795,-0.0479,0.8913,-0.0952,-0.0220,0.0122,1,1,1,1,1,1,1
13.0704,sweep,2,+up,-0.00629,0.46406,0.00019,1.56996,0.08259,0.01125,-0.00134,-0.0024,0.1978,-0.0024,-0.0073,-0.0073,-0.0073,0.0073,-0.1846,3.1795,-0.0342,0.9109,-0.1001,-0.0171,0.0122,1,1,1,1,1,1,1
13.1101,sweep,2,+up,-0.00629,0.46406,0.00019,1.56996,0.08259,0.01125,-0.00134,-0.0024,0.1978,-0.0024,-0.0073,-0.0073,-0.0073,0.0073,-0.1846,3.1795,-0.0342,0.9109,-0.1001,-0.0171,0.0122,1,1,1,1,1,1,1
13.1503,sweep,2,+up,-0.00629,0.48047,0.00019,1.56958,0.08259,0.01125,-0.00134,-0.0024,0.2173,-0.0024,-0.0220,-0.0073,-0.0073,-0.0220,-0.1846,2.7556,-0.0068,0.9499,-0.1050,-0.0220,0.0122,1,1,1,1,1,1,1
13.1902,sweep,2,+up,-0.00629,0.48047,0.00019,1.56958,0.08259,0.01125,-0.00134,-0.0024,0.2173,-0.0024,-0.0220,-0.0073,-0.0073,-0.0220,-0.1846,2.7556,-0.0068,0.9499,-0.1050,-0.0220,0.0122,1,1,1,1,1,1,1
13.2305,sweep,2,+up,-0.00629,0.48047,0.00019,1.56958,0.08259,0.01125,-0.00134,-0.0024,0.2173,-0.0024,-0.0220,-0.0073,-0.0073,-0.0220,-0.1846,2.7556,-0.0068,0.9499,-0.1050,-0.0220,0.0122,1,1,1,1,1,1,1
13.2702,sweep,2,+up,-0.00629,0.50450,0.00019,1.56958,0.08259,0.01125,-0.00134,-0.0073,0.1880,-0.0024,-0.0073,0.0073,0.0073,-0.0073,-0.1846,2.7419,-0.0068,1.0134,-0.1050,-0.0220,0.0122,1,1,1,1,1,1,1
13.3102,sweep,2,+up,-0.00629,0.50450,0.00019,1.56958,0.08259,0.01125,-0.00134,-0.0073,0.1880,-0.0024,-0.0073,0.0073,0.0073,-0.0073,-0.1846,2.7419,-0.0068,1.0134,-0.1050,-0.0220,0.0122,1,1,1,1,1,1,1
13.3502,sweep,2,+up,-0.00629,0.52052,0.00019,1.56958,0.08259,0.01125,-0.00134,-0.0024,0.1978,-0.0024,-0.0220,-0.0073,-0.0220,-0.0073,-0.1846,2.2632,-0.0205,1.0525,-0.1099,-0.0220,0.0122,1,1,1,1,1,1,1
13.3902,sweep,2,+up,-0.00629,0.52052,0.00019,1.56958,0.08259,0.01125,-0.00134,-0.0024,0.1978,-0.0024,-0.0220,-0.0073,-0.0220,-0.0073,-0.1846,2.2632,-0.0205,1.0525,-0.1099,-0.0220,0.0122,1,1,1,1,1,1,1
13.4302,sweep,2,+up,-0.00629,0.52052,0.00019,1.56958,0.08259,0.01125,-0.00134,-0.0024,0.1978,-0.0024,-0.0220,-0.0073,-0.0220,-0.0073,-0.1846,2.2632,-0.0205,1.0525,-0.1099,-0.0220,0.0122,1,1,1,1,1,1,1
13.4700,sweep,2,+up,-0.00629,0.54456,0.00019,1.56996,0.08259,0.01125,-0.00134,0.0024,0.2027,-0.0024,0.0073,-0.0220,-0.0073,-0.0073,-0.1846,2.6462,-0.0068,1.0867,-0.1050,-0.0220,0.0073,1,1,1,1,1,1,1
13.5103,sweep,2,+up,-0.00629,0.54456,0.00019,1.56996,0.08259,0.01125,-0.00134,0.0024,0.2027,-0.0024,0.0073,-0.0220,-0.0073,-0.0073,-0.1846,2.6462,-0.0068,1.0867,-0.1050,-0.0220,0.0073,1,1,1,1,1,1,1
13.5502,sweep,2,+up,-0.00629,0.56058,0.00019,1.56958,0.08259,0.01125,-0.00134,-0.0024,0.1978,-0.0024,-0.0073,-0.0220,0.0073,-0.0073,-0.1846,2.2632,-0.0205,1.1209,-0.1001,-0.0220,0.0122,1,1,1,1,1,1,1
13.5902,sweep,2,+up,-0.00629,0.56058,0.00019,1.56958,0.08259,0.01125,-0.00134,-0.0024,0.1978,-0.0024,-0.0073,-0.0220,0.0073,-0.0073,-0.1846,2.2632,-0.0205,1.1209,-0.1001,-0.0220,0.0122,1,1,1,1,1,1,1
13.6302,sweep,2,+up,-0.00629,0.56058,0.00019,1.56958,0.08259,0.01125,-0.00134,-0.0024,0.1978,-0.0024,-0.0073,-0.0220,0.0073,-0.0073,-0.1846,2.2632,-0.0205,1.1209,-0.1001,-0.0220,0.0122,1,1,1,1,1,1,1
13.6702,sweep,2,+up,-0.00629,0.58499,0.00019,1.56996,0.08259,0.01125,-0.00095,-0.0024,0.2125,-0.0024,-0.0073,-0.0073,-0.0073,0.0073,-0.1846,2.0171,-0.0068,1.1697,-0.1099,-0.0269,0.0122,1,1,1,1,1,1,1
13.7103,sweep,2,+up,-0.00629,0.58499,0.00019,1.56996,0.08259,0.01125,-0.00095,-0.0024,0.2125,-0.0024,-0.0073,-0.0073,-0.0073,0.0073,-0.1846,2.0171,-0.0068,1.1697,-0.1099,-0.0269,0.0122,1,1,1,1,1,1,1
13.7503,sweep,2,+up,-0.00629,0.60063,0.00019,1.56996,0.08259,0.01125,-0.00134,-0.0024,0.1734,-0.0024,-0.0220,-0.0073,-0.0073,0.0073,-0.1846,2.0855,-0.0342,1.1990,-0.1099,-0.0317,0.0122,1,1,1,1,1,1,1
13.7903,sweep,2,+up,-0.00629,0.60063,0.00019,1.56996,0.08259,0.01125,-0.00134,-0.0024,0.1734,-0.0024,-0.0220,-0.0073,-0.0073,0.0073,-0.1846,2.0855,-0.0342,1.1990,-0.1099,-0.0317,0.0122,1,1,1,1,1,1,1
13.8301,sweep,2,+up,-0.00629,0.60063,0.00019,1.56996,0.08259,0.01125,-0.00134,-0.0024,0.1734,-0.0024,-0.0220,-0.0073,-0.0073,0.0073,-0.1846,2.0855,-0.0342,1.1990,-0.1099,-0.0317,0.0122,1,1,1,1,1,1,1
13.8702,sweep,2,+up,-0.00629,0.62505,0.00019,1.56996,0.08259,0.01125,-0.00134,-0.0024,0.2027,-0.0024,-0.0073,-0.0073,-0.0073,-0.0073,-0.1846,1.8940,-0.0068,1.2332,-0.1050,-0.0317,0.0122,1,1,1,1,1,1,1
13.9101,sweep,2,+up,-0.00629,0.62505,0.00019,1.56996,0.08259,0.01125,-0.00134,-0.0024,0.2027,-0.0024,-0.0073,-0.0073,-0.0073,-0.0073,-0.1846,1.8940,-0.0068,1.2332,-0.1050,-0.0317,0.0122,1,1,1,1,1,1,1
13.9501,sweep,2,+up,-0.00629,0.64069,0.00019,1.56996,0.08259,0.01125,-0.00134,-0.0073,0.1929,-0.0024,-0.0220,-0.0073,-0.0220,0.0073,-0.1709,2.0171,-0.0205,1.2625,-0.1050,-0.0317,0.0122,1,1,1,1,1,1,1
13.9902,sweep,2,+up,-0.00629,0.64069,0.00019,1.56996,0.08259,0.01125,-0.00134,-0.0073,0.1929,-0.0024,-0.0220,-0.0073,-0.0220,0.0073,-0.1709,2.0171,-0.0205,1.2625,-0.1050,-0.0317,0.0122,1,1,1,1,1,1,1
14.0302,sweep,2,+up,-0.00629,0.64069,0.00019,1.56996,0.08259,0.01125,-0.00134,-0.0073,0.1929,-0.0024,-0.0220,-0.0073,-0.0220,0.0073,-0.1709,2.0171,-0.0205,1.2625,-0.1050,-0.0317,0.0122,1,1,1,1,1,1,1
14.0702,sweep,2,+up,-0.00629,0.66510,0.00019,1.56996,0.08259,0.01125,-0.00134,-0.0024,0.1832,0.0024,-0.0220,-0.0073,-0.0073,-0.0073,-0.1846,1.6479,-0.0205,1.2967,-0.1001,-0.0317,0.0122,1,1,1,1,1,1,1
14.1102,sweep,2,+up,-0.00629,0.66510,0.00019,1.56996,0.08259,0.01125,-0.00134,-0.0024,0.1832,0.0024,-0.0220,-0.0073,-0.0073,-0.0073,-0.1846,1.6479,-0.0205,1.2967,-0.1001,-0.0317,0.0122,1,1,1,1,1,1,1
14.1501,sweep,2,+up,-0.00629,0.68036,0.00019,1.56958,0.08259,0.01087,-0.00095,-0.0024,0.1783,-0.0024,-0.0073,-0.0073,-0.0073,-0.0073,-0.1846,1.6342,-0.0205,1.3309,-0.1050,-0.0317,0.0122,1,1,1,1,1,1,1
14.1902,sweep,2,+up,-0.00629,0.68036,0.00019,1.56958,0.08259,0.01087,-0.00095,-0.0024,0.1783,-0.0024,-0.0073,-0.0073,-0.0073,-0.0073,-0.1846,1.6342,-0.0205,1.3309,-0.1050,-0.0317,0.0122,1,1,1,1,1,1,1
14.2302,sweep,2,+up,-0.00629,0.68036,0.00019,1.56958,0.08259,0.01087,-0.00095,-0.0024,0.1783,-0.0024,-0.0073,-0.0073,-0.0073,-0.0073,-0.1846,1.6342,-0.0205,1.3309,-0.1050,-0.0317,0.0122,1,1,1,1,1,1,1
14.2702,sweep,2,+up,-0.00629,0.70058,0.00019,1.56958,0.08259,0.01125,-0.00134,-0.0024,0.1587,-0.0024,-0.0220,-0.0073,-0.0073,-0.0073,-0.1846,1.3060,-0.0205,1.3700,-0.1099,-0.0317,0.0122,1,1,1,1,1,1,1
14.3102,sweep,2,+up,-0.00629,0.70058,0.00019,1.56958,0.08259,0.01125,-0.00134,-0.0024,0.1587,-0.0024,-0.0220,-0.0073,-0.0073,-0.0073,-0.1846,1.3060,-0.0205,1.3700,-0.1099,-0.0317,0.0122,1,1,1,1,1,1,1
14.3503,sweep,2,+up,-0.00629,0.71241,0.00019,1.56996,0.08259,0.01125,-0.00134,-0.0024,0.1392,-0.0024,0.0073,-0.0220,-0.0073,-0.0220,-0.1846,1.3333,-0.0205,1.3895,-0.1148,-0.0366,0.0122,1,1,1,1,1,1,1
14.3901,sweep,2,+up,-0.00629,0.71241,0.00019,1.56996,0.08259,0.01125,-0.00134,-0.0024,0.1392,-0.0024,0.0073,-0.0220,-0.0073,-0.0220,-0.1846,1.3333,-0.0205,1.3895,-0.1148,-0.0366,0.0122,1,1,1,1,1,1,1
14.4301,sweep,2,+up,-0.00629,0.71241,0.00019,1.56996,0.08259,0.01125,-0.00134,-0.0024,0.1392,-0.0024,0.0073,-0.0220,-0.0073,-0.0220,-0.1846,1.3333,-0.0205,1.3895,-0.1148,-0.0366,0.0122,1,1,1,1,1,1,1
14.4701,sweep,2,+up,-0.00629,0.72766,0.00019,1.56958,0.08259,0.01125,-0.00134,-0.0024,0.1343,-0.0024,-0.0073,-0.0073,-0.0073,0.0073,-0.1846,1.0735,-0.0205,1.4237,-0.1050,-0.0366,0.0122,1,1,1,1,1,1,1
14.5101,sweep,2,+up,-0.00629,0.72766,0.00019,1.56958,0.08259,0.01125,-0.00134,-0.0024,0.1343,-0.0024,-0.0073,-0.0073,-0.0073,0.0073,-0.1846,1.0735,-0.0205,1.4237,-0.1050,-0.0366,0.0122,1,1,1,1,1,1,1
14.5503,sweep,2,+up,-0.00629,0.73644,0.00019,1.56996,0.08259,0.01125,-0.00134,-0.0024,0.1099,-0.0024,-0.0073,0.0073,-0.0073,-0.0220,-0.1846,1.2103,-0.0205,1.4530,-0.1001,-0.0366,0.0122,1,1,1,1,1,1,1
14.5903,sweep,2,+up,-0.00629,0.73644,0.00019,1.56996,0.08259,0.01125,-0.00134,-0.0024,0.1099,-0.0024,-0.0073,0.0073,-0.0073,-0.0220,-0.1846,1.2103,-0.0205,1.4530,-0.1001,-0.0366,0.0122,1,1,1,1,1,1,1
14.6303,sweep,2,+up,-0.00629,0.73644,0.00019,1.56996,0.08259,0.01125,-0.00134,-0.0024,0.1099,-0.0024,-0.0073,0.0073,-0.0073,-0.0220,-0.1846,1.2103,-0.0205,1.4530,-0.1001,-0.0366,0.0122,1,1,1,1,1,1,1
14.6701,sweep,2,+up,-0.00629,0.74826,0.00019,1.56958,0.08259,0.01125,-0.00095,-0.0073,0.0611,-0.0024,-0.0073,0.0073,0.0073,-0.0073,-0.1846,0.8684,-0.0205,1.4921,-0.1001,-0.0366,0.0122,1,1,1,1,1,1,1
14.7103,sweep,2,+up,-0.00629,0.74826,0.00019,1.56958,0.08259,0.01125,-0.00095,-0.0073,0.0611,-0.0024,-0.0073,0.0073,0.0073,-0.0073,-0.1846,0.8684,-0.0205,1.4921,-0.1001,-0.0366,0.0122,1,1,1,1,1,1,1
14.7505,sweep,2,+up,-0.00629,0.75513,0.00019,1.56996,0.08259,0.01087,-0.00134,0.0024,0.0659,-0.0024,0.0073,-0.0073,-0.0220,-0.0073,-0.1709,0.9368,-0.0205,1.5214,-0.0952,-0.0366,0.0122,1,1,1,1,1,1,1
14.7903,sweep,2,+up,-0.00629,0.75513,0.00019,1.56996,0.08259,0.01087,-0.00134,0.0024,0.0659,-0.0024,0.0073,-0.0073,-0.0220,-0.0073,-0.1709,0.9368,-0.0205,1.5214,-0.0952,-0.0366,0.0122,1,1,1,1,1,1,1
14.8303,sweep,2,+up,-0.00629,0.75513,0.00019,1.56996,0.08259,0.01087,-0.00134,0.0024,0.0659,-0.0024,0.0073,-0.0073,-0.0220,-0.0073,-0.1709,0.9368,-0.0205,1.5214,-0.0952,-0.0366,0.0122,1,1,1,1,1,1,1
14.8702,sweep,2,+up,-0.00629,0.76390,0.00019,1.56996,0.08259,0.01087,-0.00095,-0.0024,0.0513,0.0024,-0.0073,-0.0220,-0.0220,-0.0073,-0.1846,0.9641,-0.0342,1.5653,-0.0952,-0.0366,0.0122,1,1,1,1,1,1,1
14.9102,sweep,2,+up,-0.00629,0.76390,0.00019,1.56996,0.08259,0.01087,-0.00095,-0.0024,0.0513,0.0024,-0.0073,-0.0220,-0.0220,-0.0073,-0.1846,0.9641,-0.0342,1.5653,-0.0952,-0.0366,0.0122,1,1,1,1,1,1,1
14.9503,sweep,2,+up,-0.00629,0.76925,0.00019,1.56996,0.08259,0.01125,-0.00134,-0.0024,0.0513,0.0024,0.0073,-0.0073,-0.0220,-0.0073,-0.1846,0.8547,-0.0205,1.5800,-0.0952,-0.0366,0.0073,1,1,1,1,1,1,1
14.9902,sweep,2,+up,-0.00629,0.76925,0.00019,1.56996,0.08259,0.01125,-0.00134,-0.0024,0.0513,0.0024,0.0073,-0.0073,-0.0220,-0.0073,-0.1846,0.8547,-0.0205,1.5800,-0.0952,-0.0366,0.0073,1,1,1,1,1,1,1
15.0302,sweep,2,+up,-0.00629,0.76925,0.00019,1.56996,0.08259,0.01125,-0.00134,-0.0024,0.0513,0.0024,0.0073,-0.0073,-0.0220,-0.0073,-0.1846,0.8547,-0.0205,1.5800,-0.0952,-0.0366,0.0073,1,1,1,1,1,1,1
15.0704,sweep,2,+up,-0.00629,0.77611,0.00019,1.56996,0.08259,0.01125,-0.00134,-0.0073,0.0562,-0.0073,-0.0073,-0.0073,-0.0073,-0.0073,-0.1846,0.7316,-0.0205,1.5897,-0.1050,-0.0415,0.0122,1,1,1,1,1,1,1
15.1102,sweep,2,+up,-0.00629,0.77611,0.00019,1.56996,0.08259,0.01125,-0.00134,-0.0073,0.0562,-0.0073,-0.0073,-0.0073,-0.0073,-0.0073,-0.1846,0.7316,-0.0205,1.5897,-0.1050,-0.0415,0.0122,1,1,1,1,1,1,1
15.1501,sweep,2,+up,-0.00629,0.77993,0.00019,1.56996,0.08259,0.01125,-0.00134,-0.0073,0.0659,-0.0024,-0.0073,0.0073,-0.0073,-0.0220,-0.1846,0.4718,-0.0205,1.6093,-0.0904,-0.0415,0.0122,1,1,1,1,1,1,1
15.1902,sweep,2,+up,-0.00629,0.77993,0.00019,1.56996,0.08259,0.01125,-0.00134,-0.0073,0.0659,-0.0024,-0.0073,0.0073,-0.0073,-0.0220,-0.1846,0.4718,-0.0205,1.6093,-0.0904,-0.0415,0.0122,1,1,1,1,1,1,1
15.2301,sweep,2,+up,-0.00629,0.77993,0.00019,1.56996,0.08259,0.01125,-0.00134,-0.0073,0.0659,-0.0024,-0.0073,0.0073,-0.0073,-0.0220,-0.1846,0.4718,-0.0205,1.6093,-0.0904,-0.0415,0.0122,1,1,1,1,1,1,1
15.2701,sweep,2,+up,-0.00629,0.78489,0.00019,1.57034,0.08259,0.01125,-0.00134,-0.0024,0.0366,-0.0024,0.0073,0.0073,0.0073,-0.0073,-0.1709,0.6632,-0.0342,1.6142,-0.0904,-0.0415,0.0073,1,1,1,1,1,1,1
15.3103,sweep,2,+up,-0.00629,0.78489,0.00019,1.57034,0.08259,0.01125,-0.00134,-0.0024,0.0366,-0.0024,0.0073,0.0073,0.0073,-0.0073,-0.1709,0.6632,-0.0342,1.6142,-0.0904,-0.0415,0.0073,1,1,1,1,1,1,1
15.3503,sweep,2,+up,-0.00629,0.78794,0.00019,1.57034,0.08259,0.01125,-0.00134,-0.0024,0.0269,-0.0024,0.0073,-0.0220,-0.0220,-0.0073,-0.1846,0.8137,-0.0205,1.6044,-0.0904,-0.0464,0.0024,1,1,1,1,1,1,1
15.3901,sweep,2,+up,-0.00629,0.78794,0.00019,1.57034,0.08259,0.01125,-0.00134,-0.0024,0.0269,-0.0024,0.0073,-0.0220,-0.0220,-0.0073,-0.1846,0.8137,-0.0205,1.6044,-0.0904,-0.0464,0.0024,1,1,1,1,1,1,1
15.4301,sweep,2,+up,-0.00629,0.78794,0.00019,1.57034,0.08259,0.01125,-0.00134,-0.0024,0.0269,-0.0024,0.0073,-0.0220,-0.0220,-0.0073,-0.1846,0.8137,-0.0205,1.6044,-0.0904,-0.0464,0.0024,1,1,1,1,1,1,1
15.4703,sweep,2,+up,-0.00629,0.79175,0.00019,1.57073,0.08259,0.01125,-0.00134,-0.0024,0.0171,-0.0024,-0.0073,-0.0073,-0.0073,-0.0073,-0.1846,0.6769,-0.0342,1.5946,-0.0855,-0.0464,0.0024,1,1,1,1,1,1,1
15.5102,sweep,2,+up,-0.00629,0.79175,0.00019,1.57073,0.08259,0.01125,-0.00134,-0.0024,0.0171,-0.0024,-0.0073,-0.0073,-0.0073,-0.0073,-0.1846,0.6769,-0.0342,1.5946,-0.0855,-0.0464,0.0024,1,1,1,1,1,1,1
15.5503,sweep,2,+up,-0.00629,0.79404,0.00019,1.57073,0.08259,0.01087,-0.00134,0.0024,0.0122,-0.0024,-0.0073,-0.0073,0.0073,-0.0073,-0.1846,0.6906,-0.0342,1.5946,-0.0855,-0.0464,0.0024,1,1,1,1,1,1,1
16.0527,sweep,2,-down,-0.00629,0.79519,0.00019,1.57073,0.08259,0.01125,-0.00134,-0.0073,0.0122,-0.0024,-0.0073,-0.0073,0.0073,-0.0073,-0.1846,0.7316,-0.0342,1.5897,-0.0855,-0.0464,0.0024,1,1,1,1,1,1,1
16.0927,sweep,2,-down,-0.00629,0.79519,0.00019,1.57073,0.08259,0.01125,-0.00134,-0.0073,0.0122,-0.0024,-0.0073,-0.0073,0.0073,-0.0073,-0.1846,0.7316,-0.0342,1.5897,-0.0855,-0.0464,0.0024,1,1,1,1,1,1,1
16.1327,sweep,2,-down,-0.00629,0.79519,0.00019,1.57073,0.08259,0.01125,-0.00134,-0.0073,0.0122,-0.0024,-0.0073,-0.0073,0.0073,-0.0073,-0.1846,0.7316,-0.0342,1.5897,-0.0855,-0.0464,0.0024,1,1,1,1,1,1,1
16.1726,sweep,2,-down,-0.00629,0.79175,0.00019,1.56958,0.08297,0.01125,-0.00134,-0.0073,-0.1734,-0.0024,-0.0220,-0.0220,-0.0073,-0.0073,-0.1573,-0.8547,-0.0479,1.6142,-0.0708,-0.0464,0.0122,1,1,1,1,1,1,1
16.2128,sweep,2,-down,-0.00629,0.79175,0.00019,1.56958,0.08297,0.01125,-0.00134,-0.0073,-0.1734,-0.0024,-0.0220,-0.0220,-0.0073,-0.0073,-0.1573,-0.8547,-0.0479,1.6142,-0.0708,-0.0464,0.0122,1,1,1,1,1,1,1
16.2528,sweep,2,-down,-0.00629,0.77535,0.00019,1.56920,0.08297,0.01125,-0.00134,-0.0073,-0.2222,-0.0024,-0.0220,-0.0073,-0.0220,-0.0073,-0.1573,-0.5265,-0.0342,1.6777,-0.0757,-0.0464,0.0122,1,1,1,1,1,1,1
16.2926,sweep,2,-down,-0.00629,0.77535,0.00019,1.56920,0.08297,0.01125,-0.00134,-0.0073,-0.2222,-0.0024,-0.0220,-0.0073,-0.0220,-0.0073,-0.1573,-0.5265,-0.0342,1.6777,-0.0757,-0.0464,0.0122,1,1,1,1,1,1,1
16.3328,sweep,2,-down,-0.00629,0.77535,0.00019,1.56920,0.08297,0.01125,-0.00134,-0.0073,-0.2222,-0.0024,-0.0220,-0.0073,-0.0220,-0.0073,-0.1573,-0.5265,-0.0342,1.6777,-0.0757,-0.0464,0.0122,1,1,1,1,1,1,1
16.3729,sweep,2,-down,-0.00629,0.75055,0.00019,1.57111,0.08259,0.01087,-0.00134,-0.0024,-0.2076,-0.0024,0.0366,-0.0073,-0.0220,-0.0073,-0.1709,0.0889,-0.0342,1.5800,-0.0806,-0.0464,0.0122,1,1,1,1,1,1,1
16.4129,sweep,2,-down,-0.00629,0.75055,0.00019,1.57111,0.08259,0.01087,-0.00134,-0.0024,-0.2076,-0.0024,0.0366,-0.0073,-0.0220,-0.0073,-0.1709,0.0889,-0.0342,1.5800,-0.0806,-0.0464,0.0122,1,1,1,1,1,1,1
16.4529,sweep,2,-down,-0.00629,0.73415,0.00019,1.57225,0.08259,0.01087,-0.00134,-0.0024,-0.2222,-0.0073,-0.0220,-0.0073,-0.0073,-0.0073,-0.1709,0.1299,-0.0205,1.4579,-0.0806,-0.0464,0.0122,1,1,1,1,1,1,1
16.4928,sweep,2,-down,-0.00629,0.73415,0.00019,1.57225,0.08259,0.01087,-0.00134,-0.0024,-0.2222,-0.0073,-0.0220,-0.0073,-0.0073,-0.0073,-0.1709,0.1299,-0.0205,1.4579,-0.0806,-0.0464,0.0122,1,1,1,1,1,1,1
16.5328,sweep,2,-down,-0.00629,0.73415,0.00019,1.57225,0.08259,0.01087,-0.00134,-0.0024,-0.2222,-0.0073,-0.0220,-0.0073,-0.0073,-0.0073,-0.1709,0.1299,-0.0205,1.4579,-0.0806,-0.0464,0.0122,1,1,1,1,1,1,1
16.5729,sweep,2,-down,-0.00629,0.70973,0.00019,1.57225,0.08297,0.01125,-0.00134,-0.0024,-0.2222,-0.0024,0.0073,-0.0073,-0.0073,-0.0073,-0.1436,0.3077,-0.0068,1.3748,-0.0806,-0.0513,0.0122,1,1,1,1,1,1,1
16.6129,sweep,2,-down,-0.00629,0.70973,0.00019,1.57225,0.08297,0.01125,-0.00134,-0.0024,-0.2222,-0.0024,0.0073,-0.0073,-0.0073,-0.0073,-0.1436,0.3077,-0.0068,1.3748,-0.0806,-0.0513,0.0122,1,1,1,1,1,1,1
16.6527,sweep,2,-down,-0.00629,0.69371,0.00019,1.57225,0.08297,0.01125,-0.00095,0.0024,-0.1880,-0.0024,-0.0073,-0.0220,-0.0073,0.0220,-0.1436,0.4444,-0.0205,1.3211,-0.0806,-0.0513,0.0171,1,1,1,1,1,1,1
16.6930,sweep,2,-down,-0.00629,0.69371,0.00019,1.57225,0.08297,0.01125,-0.00095,0.0024,-0.1880,-0.0024,-0.0073,-0.0220,-0.0073,0.0220,-0.1436,0.4444,-0.0205,1.3211,-0.0806,-0.0513,0.0171,1,1,1,1,1,1,1
16.7327,sweep,2,-down,-0.00629,0.69371,0.00019,1.57225,0.08297,0.01125,-0.00095,0.0024,-0.1880,-0.0024,-0.0073,-0.0220,-0.0073,0.0220,-0.1436,0.4444,-0.0205,1.3211,-0.0806,-0.0513,0.0171,1,1,1,1,1,1,1
16.7731,sweep,2,-down,-0.00629,0.66968,0.00019,1.57187,0.08259,0.01087,-0.00134,-0.0073,-0.2271,-0.0024,-0.0073,-0.0073,-0.0220,-0.0220,-0.1436,0.5812,-0.0205,1.2381,-0.0806,-0.0513,0.0122,1,1,1,1,1,1,1
16.8127,sweep,2,-down,-0.00629,0.66968,0.00019,1.57187,0.08259,0.01087,-0.00134,-0.0073,-0.2271,-0.0024,-0.0073,-0.0073,-0.0220,-0.0220,-0.1436,0.5812,-0.0205,1.2381,-0.0806,-0.0513,0.0122,1,1,1,1,1,1,1
16.8528,sweep,2,-down,-0.00629,0.65366,0.00019,1.57187,0.08297,0.01087,-0.00095,-0.0024,-0.1783,0.0024,-0.0073,-0.0073,-0.0220,-0.0073,-0.1436,0.3897,-0.0342,1.1893,-0.0855,-0.0562,0.0171,1,1,1,1,1,1,1
16.8928,sweep,2,-down,-0.00629,0.65366,0.00019,1.57187,0.08297,0.01087,-0.00095,-0.0024,-0.1783,0.0024,-0.0073,-0.0073,-0.0220,-0.0073,-0.1436,0.3897,-0.0342,1.1893,-0.0855,-0.0562,0.0171,1,1,1,1,1,1,1
16.9328,sweep,2,-down,-0.00629,0.65366,0.00019,1.57187,0.08297,0.01087,-0.00095,-0.0024,-0.1783,0.0024,-0.0073,-0.0073,-0.0220,-0.0073,-0.1436,0.3897,-0.0342,1.1893,-0.0855,-0.0562,0.0171,1,1,1,1,1,1,1
16.9731,sweep,2,-down,-0.00629,0.62924,0.00019,1.57225,0.08297,0.01087,-0.00134,-0.0024,-0.2076,-0.0024,-0.0073,-0.0220,-0.0073,-0.0073,-0.1436,1.0051,-0.0479,1.1062,-0.0904,-0.0562,0.0220,1,1,1,1,1,1,1
17.0130,sweep,2,-down,-0.00629,0.62924,0.00019,1.57225,0.08297,0.01087,-0.00134,-0.0024,-0.2076,-0.0024,-0.0073,-0.0220,-0.0073,-0.0073,-0.1436,1.0051,-0.0479,1.1062,-0.0904,-0.0562,0.0220,1,1,1,1,1,1,1
17.0529,sweep,2,-down,-0.00629,0.61360,0.00019,1.57187,0.08297,0.01087,-0.00134,0.0024,-0.1929,-0.0024,-0.0073,-0.0073,-0.0220,-0.0073,-0.1436,0.8000,-0.0342,1.0574,-0.0904,-0.0513,0.0171,1,1,1,1,1,1,1
17.0931,sweep,2,-down,-0.00629,0.61360,0.00019,1.57187,0.08297,0.01087,-0.00134,0.0024,-0.1929,-0.0024,-0.0073,-0.0073,-0.0220,-0.0073,-0.1436,0.8000,-0.0342,1.0574,-0.0904,-0.0513,0.0171,1,1,1,1,1,1,1
17.1327,sweep,2,-down,-0.00629,0.61360,0.00019,1.57187,0.08297,0.01087,-0.00134,0.0024,-0.1929,-0.0024,-0.0073,-0.0073,-0.0220,-0.0073,-0.1436,0.8000,-0.0342,1.0574,-0.0904,-0.0513,0.0171,1,1,1,1,1,1,1
17.1727,sweep,2,-down,-0.00629,0.58919,0.00019,1.57187,0.08259,0.01125,-0.00134,-0.0024,-0.1880,-0.0024,-0.0073,-0.0220,-0.0073,-0.0073,-0.1573,0.9504,-0.0342,0.9841,-0.0952,-0.0464,0.0220,1,1,1,1,1,1,1
17.2127,sweep,2,-down,-0.00629,0.58919,0.00019,1.57187,0.08259,0.01125,-0.00134,-0.0024,-0.1880,-0.0024,-0.0073,-0.0220,-0.0073,-0.0073,-0.1573,0.9504,-0.0342,0.9841,-0.0952,-0.0464,0.0220,1,1,1,1,1,1,1
17.2528,sweep,2,-down,-0.00629,0.57317,0.00019,1.57187,0.08259,0.01125,-0.00134,-0.0024,-0.1978,-0.0024,0.0073,-0.0073,0.0073,-0.0073,-0.1573,1.1282,-0.0342,0.9353,-0.0952,-0.0464,0.0220,1,1,1,1,1,1,1
17.2928,sweep,2,-down,-0.00629,0.57317,0.00019,1.57187,0.08259,0.01125,-0.00134,-0.0024,-0.1978,-0.0024,0.0073,-0.0073,0.0073,-0.0073,-0.1573,1.1282,-0.0342,0.9353,-0.0952,-0.0464,0.0220,1,1,1,1,1,1,1
17.3328,sweep,2,-down,-0.00629,0.57317,0.00019,1.57187,0.08259,0.01125,-0.00134,-0.0024,-0.1978,-0.0024,0.0073,-0.0073,0.0073,-0.0073,-0.1573,1.1282,-0.0342,0.9353,-0.0952,-0.0464,0.0220,1,1,1,1,1,1,1
17.3728,sweep,2,-down,-0.00629,0.54913,0.00019,1.57187,0.08259,0.01087,-0.00134,-0.0024,-0.1929,-0.0024,0.0073,-0.0073,-0.0073,-0.0073,-0.1436,1.3470,-0.0615,0.8718,-0.0952,-0.0464,0.0171,1,1,1,1,1,1,1
17.4128,sweep,2,-down,-0.00629,0.54913,0.00019,1.57187,0.08259,0.01087,-0.00134,-0.0024,-0.1929,-0.0024,0.0073,-0.0073,-0.0073,-0.0073,-0.1436,1.3470,-0.0615,0.8718,-0.0952,-0.0464,0.0171,1,1,1,1,1,1,1
17.4528,sweep,2,-down,-0.00591,0.53273,0.00019,1.57225,0.08259,0.01125,-0.00134,0.0024,-0.2173,-0.0024,-0.0073,-0.0073,0.0073,-0.0073,-0.1573,1.4701,-0.0342,0.8230,-0.0952,-0.0464,0.0220,1,1,1,1,1,1,1
17.4931,sweep,2,-down,-0.00591,0.53273,0.00019,1.57225,0.08259,0.01125,-0.00134,0.0024,-0.2173,-0.0024,-0.0073,-0.0073,0.0073,-0.0073,-0.1573,1.4701,-0.0342,0.8230,-0.0952,-0.0464,0.0220,1,1,1,1,1,1,1
17.5327,sweep,2,-down,-0.00591,0.53273,0.00019,1.57225,0.08259,0.01125,-0.00134,0.0024,-0.2173,-0.0024,-0.0073,-0.0073,0.0073,-0.0073,-0.1573,1.4701,-0.0342,0.8230,-0.0952,-0.0464,0.0220,1,1,1,1,1,1,1
17.5728,sweep,2,-down,-0.00629,0.50908,0.00019,1.57187,0.08259,0.01087,-0.00134,-0.0024,-0.1880,-0.0024,-0.0220,-0.0073,-0.0073,-0.0073,-0.1436,1.3744,-0.0479,0.7643,-0.0952,-0.0513,0.0171,1,1,1,1,1,1,1
17.6128,sweep,2,-down,-0.00629,0.50908,0.00019,1.57187,0.08259,0.01087,-0.00134,-0.0024,-0.1880,-0.0024,-0.0220,-0.0073,-0.0073,-0.0073,-0.1436,1.3744,-0.0479,0.7643,-0.0952,-0.0513,0.0171,1,1,1,1,1,1,1
17.6528,sweep,2,-down,-0.00629,0.49268,0.00019,1.57187,0.08259,0.01125,-0.00134,-0.0024,-0.2125,-0.0073,-0.0073,-0.0073,-0.0073,0.0073,-0.1436,1.7162,-0.0342,0.7253,-0.0952,-0.0464,0.0171,1,1,1,1,1,1,1
17.6929,sweep,2,-down,-0.00629,0.49268,0.00019,1.57187,0.08259,0.01125,-0.00134,-0.0024,-0.2125,-0.0073,-0.0073,-0.0073,-0.0073,0.0073,-0.1436,1.7162,-0.0342,0.7253,-0.0952,-0.0464,0.0171,1,1,1,1,1,1,1
17.7330,sweep,2,-down,-0.00629,0.49268,0.00019,1.57187,0.08259,0.01125,-0.00134,-0.0024,-0.2125,-0.0073,-0.0073,-0.0073,-0.0073,0.0073,-0.1436,1.7162,-0.0342,0.7253,-0.0952,-0.0464,0.0171,1,1,1,1,1,1,1
17.7727,sweep,2,-down,-0.00629,0.46864,0.00019,1.57187,0.08297,0.01087,-0.00134,-0.0024,-0.1978,-0.0024,-0.0220,-0.0073,-0.0073,-0.0073,-0.1436,1.7846,-0.0205,0.6618,-0.1050,-0.0464,0.0171,1,1,1,1,1,1,1
17.8131,sweep,2,-down,-0.00629,0.46864,0.00019,1.57187,0.08297,0.01087,-0.00134,-0.0024,-0.1978,-0.0024,-0.0220,-0.0073,-0.0073,-0.0073,-0.1436,1.7846,-0.0205,0.6618,-0.1050,-0.0464,0.0171,1,1,1,1,1,1,1
17.8530,sweep,2,-down,-0.00629,0.45262,0.00019,1.57187,0.08259,0.01087,-0.00134,-0.0024,-0.2076,0.0024,-0.0073,-0.0073,-0.0220,-0.0073,-0.1299,1.9214,-0.0068,0.6276,-0.1001,-0.0464,0.0171,1,1,1,1,1,1,1
17.8929,sweep,2,-down,-0.00629,0.45262,0.00019,1.57187,0.08259,0.01087,-0.00134,-0.0024,-0.2076,0.0024,-0.0073,-0.0073,-0.0220,-0.0073,-0.1299,1.9214,-0.0068,0.6276,-0.1001,-0.0464,0.0171,1,1,1,1,1,1,1
17.9328,sweep,2,-down,-0.00629,0.45262,0.00019,1.57187,0.08259,0.01087,-0.00134,-0.0024,-0.2076,0.0024,-0.0073,-0.0073,-0.0220,-0.0073,-0.1299,1.9214,-0.0068,0.6276,-0.1001,-0.0464,0.0171,1,1,1,1,1,1,1
17.9730,sweep,2,-down,-0.00591,0.42859,0.00019,1.57149,0.08297,0.01087,-0.00134,0.0024,-0.2125,-0.0024,-0.0073,-0.0073,-0.0073,-0.0073,-0.1299,1.8393,-0.0068,0.5788,-0.1050,-0.0464,0.0171,1,1,1,1,1,1,1
18.0129,sweep,2,-down,-0.00591,0.42859,0.00019,1.57149,0.08297,0.01087,-0.00134,0.0024,-0.2125,-0.0024,-0.0073,-0.0073,-0.0073,-0.0073,-0.1299,1.8393,-0.0068,0.5788,-0.1050,-0.0464,0.0171,1,1,1,1,1,1,1
18.0529,sweep,2,-down,-0.00629,0.41257,0.00019,1.57149,0.08297,0.01087,-0.00095,-0.0024,-0.1880,-0.0024,-0.0073,-0.0073,-0.0073,0.0073,-0.1299,2.0718,-0.0205,0.5592,-0.1050,-0.0464,0.0171,1,1,1,1,1,1,1
18.0928,sweep,2,-down,-0.00629,0.41257,0.00019,1.57149,0.08297,0.01087,-0.00095,-0.0024,-0.1880,-0.0024,-0.0073,-0.0073,-0.0073,0.0073,-0.1299,2.0718,-0.0205,0.5592,-0.1050,-0.0464,0.0171,1,1,1,1,1,1,1
18.1329,sweep,2,-down,-0.00629,0.41257,0.00019,1.57149,0.08297,0.01087,-0.00095,-0.0024,-0.1880,-0.0024,-0.0073,-0.0073,-0.0073,0.0073,-0.1299,2.0718,-0.0205,0.5592,-0.1050,-0.0464,0.0171,1,1,1,1,1,1,1
18.1729,sweep,2,-down,-0.00629,0.38815,0.00019,1.57149,0.08259,0.01087,-0.00134,0.0024,-0.2173,-0.0073,0.0073,-0.0073,-0.0073,-0.0073,-0.1299,2.3727,-0.0205,0.5201,-0.1050,-0.0464,0.0171,1,1,1,1,1,1,1
18.2127,sweep,2,-down,-0.00629,0.38815,0.00019,1.57149,0.08259,0.01087,-0.00134,0.0024,-0.2173,-0.0073,0.0073,-0.0073,-0.0073,-0.0073,-0.1299,2.3727,-0.0205,0.5201,-0.1050,-0.0464,0.0171,1,1,1,1,1,1,1
18.2529,sweep,2,-down,-0.00629,0.37251,0.00019,1.57149,0.08259,0.01087,-0.00134,-0.0024,-0.1783,-0.0024,-0.0073,-0.0073,-0.0073,-0.0073,-0.1299,1.9897,-0.0205,0.5006,-0.1001,-0.0415,0.0171,1,1,1,1,1,1,1
18.2928,sweep,2,-down,-0.00629,0.37251,0.00019,1.57149,0.08259,0.01087,-0.00134,-0.0024,-0.1783,-0.0024,-0.0073,-0.0073,-0.0073,-0.0073,-0.1299,1.9897,-0.0205,0.5006,-0.1001,-0.0415,0.0171,1,1,1,1,1,1,1
18.3331,sweep,2,-down,-0.00629,0.37251,0.00019,1.57149,0.08259,0.01087,-0.00134,-0.0024,-0.1783,-0.0024,-0.0073,-0.0073,-0.0073,-0.0073,-0.1299,1.9897,-0.0205,0.5006,-0.1001,-0.0415,0.0171,1,1,1,1,1,1,1
18.3728,sweep,2,-down,-0.00591,0.34810,0.00019,1.57149,0.08259,0.01087,-0.00134,-0.0024,-0.2173,-0.0024,-0.0073,-0.0073,-0.0220,-0.0073,-0.1299,2.5231,-0.0205,0.4420,-0.1050,-0.0415,0.0171,1,1,1,1,1,1,1
18.4127,sweep,2,-down,-0.00591,0.34810,0.00019,1.57149,0.08259,0.01087,-0.00134,-0.0024,-0.2173,-0.0024,-0.0073,-0.0073,-0.0220,-0.0073,-0.1299,2.5231,-0.0205,0.4420,-0.1050,-0.0415,0.0171,1,1,1,1,1,1,1
18.4527,sweep,2,-down,-0.00629,0.33207,0.00019,1.57149,0.08259,0.01087,-0.00134,-0.0024,-0.1978,-0.0024,-0.0073,-0.0220,-0.0073,0.0073,-0.1162,2.4547,-0.0068,0.4127,-0.1099,-0.0415,0.0171,1,1,1,1,1,1,1
18.4930,sweep,2,-down,-0.00629,0.33207,0.00019,1.57149,0.08259,0.01087,-0.00134,-0.0024,-0.1978,-0.0024,-0.0073,-0.0220,-0.0073,0.0073,-0.1162,2.4547,-0.0068,0.4127,-0.1099,-0.0415,0.0171,1,1,1,1,1,1,1
18.5329,sweep,2,-down,-0.00629,0.33207,0.00019,1.57149,0.08259,0.01087,-0.00134,-0.0024,-0.1978,-0.0024,-0.0073,-0.0220,-0.0073,0.0073,-0.1162,2.4547,-0.0068,0.4127,-0.1099,-0.0415,0.0171,1,1,1,1,1,1,1
18.5730,sweep,2,-down,-0.00591,0.30804,0.00019,1.57187,0.08259,0.01087,-0.00134,0.0024,-0.1978,0.0024,-0.0073,-0.0073,-0.0073,-0.0220,-0.1299,2.6735,-0.0342,0.3492,-0.1099,-0.0415,0.0122,1,1,1,1,1,1,1
18.6129,sweep,2,-down,-0.00591,0.30804,0.00019,1.57187,0.08259,0.01087,-0.00134,0.0024,-0.1978,0.0024,-0.0073,-0.0073,-0.0073,-0.0220,-0.1299,2.6735,-0.0342,0.3492,-0.1099,-0.0415,0.0122,1,1,1,1,1,1,1
18.6528,sweep,2,-down,-0.00591,0.29240,0.00019,1.57187,0.08259,0.01087,-0.00134,-0.0073,-0.1880,-0.0024,-0.0073,-0.0073,-0.0220,-0.0073,-0.1299,2.3453,-0.0205,0.3101,-0.1099,-0.0366,0.0122,1,1,1,1,1,1,1
18.6927,sweep,2,-down,-0.00591,0.29240,0.00019,1.57187,0.08259,0.01087,-0.00134,-0.0073,-0.1880,-0.0024,-0.0073,-0.0073,-0.0220,-0.0073,-0.1299,2.3453,-0.0205,0.3101,-0.1099,-0.0366,0.0122,1,1,1,1,1,1,1
18.7331,sweep,2,-down,-0.00591,0.29240,0.00019,1.57187,0.08259,0.01087,-0.00134,-0.0073,-0.1880,-0.0024,-0.0073,-0.0073,-0.0220,-0.0073,-0.1299,2.3453,-0.0205,0.3101,-0.1099,-0.0366,0.0122,1,1,1,1,1,1,1
18.7730,sweep,2,-down,-0.00591,0.26799,0.00019,1.57149,0.08259,0.01087,-0.00134,-0.0024,-0.1832,-0.0024,0.0073,-0.0073,-0.0220,-0.0073,-0.1299,2.7009,-0.0342,0.2711,-0.1099,-0.0366,0.0171,1,1,1,1,1,1,1
18.8129,sweep,2,-down,-0.00591,0.26799,0.00019,1.57149,0.08259,0.01087,-0.00134,-0.0024,-0.1832,-0.0024,0.0073,-0.0073,-0.0220,-0.0073,-0.1299,2.7009,-0.0342,0.2711,-0.1099,-0.0366,0.0171,1,1,1,1,1,1,1
18.8527,sweep,2,-down,-0.00591,0.25273,0.00019,1.57149,0.08259,0.01087,-0.00134,-0.0024,-0.1929,-0.0024,0.0073,0.0073,-0.0073,-0.0073,-0.1299,2.8239,-0.0342,0.2320,-0.1050,-0.0366,0.0122,1,1,1,1,1,1,1
18.8928,sweep,2,-down,-0.00591,0.25273,0.00019,1.57149,0.08259,0.01087,-0.00134,-0.0024,-0.1929,-0.0024,0.0073,0.0073,-0.0073,-0.0073,-0.1299,2.8239,-0.0342,0.2320,-0.1050,-0.0366,0.0122,1,1,1,1,1,1,1
18.9329,sweep,2,-down,-0.00591,0.25273,0.00019,1.57149,0.08259,0.01087,-0.00134,-0.0024,-0.1929,-0.0024,0.0073,0.0073,-0.0073,-0.0073,-0.1299,2.8239,-0.0342,0.2320,-0.1050,-0.0366,0.0122,1,1,1,1,1,1,1
18.9729,sweep,2,-down,-0.00591,0.23251,0.00019,1.57187,0.08259,0.01087,-0.00134,-0.0024,-0.1685,0.0024,-0.0073,-0.0073,0.0073,-0.0073,-0.1436,3.1385,-0.0342,0.1734,-0.1050,-0.0366,0.0122,1,1,1,1,1,1,1
19.0127,sweep,2,-down,-0.00591,0.23251,0.00019,1.57187,0.08259,0.01087,-0.00134,-0.0024,-0.1685,0.0024,-0.0073,-0.0073,0.0073,-0.0073,-0.1436,3.1385,-0.0342,0.1734,-0.1050,-0.0366,0.0122,1,1,1,1,1,1,1
19.0527,sweep,2,-down,-0.00629,0.22107,0.00019,1.57187,0.08259,0.01087,-0.00134,-0.0024,-0.1392,-0.0024,-0.0073,-0.0073,-0.0220,-0.0073,-0.1436,2.8376,-0.0205,0.1490,-0.1099,-0.0366,0.0122,1,1,1,1,1,1,1
19.0927,sweep,2,-down,-0.00629,0.22107,0.00019,1.57187,0.08259,0.01087,-0.00134,-0.0024,-0.1392,-0.0024,-0.0073,-0.0073,-0.0220,-0.0073,-0.1436,2.8376,-0.0205,0.1490,-0.1099,-0.0366,0.0122,1,1,1,1,1,1,1
19.1329,sweep,2,-down,-0.00629,0.22107,0.00019,1.57187,0.08259,0.01087,-0.00134,-0.0024,-0.1392,-0.0024,-0.0073,-0.0073,-0.0220,-0.0073,-0.1436,2.8376,-0.0205,0.1490,-0.1099,-0.0366,0.0122,1,1,1,1,1,1,1
19.1727,sweep,2,-down,-0.00591,0.20581,0.00019,1.57149,0.08259,0.01087,-0.00134,-0.0024,-0.1294,-0.0024,-0.0073,0.0073,-0.0073,-0.0073,-0.1436,2.9607,-0.0342,0.1148,-0.1099,-0.0366,0.0171,1,1,1,1,1,1,1
19.2129,sweep,2,-down,-0.00591,0.20581,0.00019,1.57149,0.08259,0.01087,-0.00134,-0.0024,-0.1294,-0.0024,-0.0073,0.0073,-0.0073,-0.0073,-0.1436,2.9607,-0.0342,0.1148,-0.1099,-0.0366,0.0171,1,1,1,1,1,1,1
19.2529,sweep,2,-down,-0.00629,0.19703,0.00019,1.57149,0.08259,0.01087,-0.00134,-0.0073,-0.0855,0.0024,-0.0073,-0.0073,0.0073,-0.0220,-0.1436,2.8103,-0.0342,0.1050,-0.1099,-0.0366,0.0171,1,1,1,1,1,1,1
19.2929,sweep,2,-down,-0.00629,0.19703,0.00019,1.57149,0.08259,0.01087,-0.00134,-0.0073,-0.0855,0.0024,-0.0073,-0.0073,0.0073,-0.0220,-0.1436,2.8103,-0.0342,0.1050,-0.1099,-0.0366,0.0171,1,1,1,1,1,1,1
19.3327,sweep,2,-down,-0.00629,0.19703,0.00019,1.57149,0.08259,0.01087,-0.00134,-0.0073,-0.0855,0.0024,-0.0073,-0.0073,0.0073,-0.0220,-0.1436,2.8103,-0.0342,0.1050,-0.1099,-0.0366,0.0171,1,1,1,1,1,1,1
19.3730,sweep,2,-down,-0.00591,0.18482,0.00019,1.57149,0.08259,0.01087,-0.00134,-0.0024,-0.1050,-0.0024,-0.0073,-0.0073,0.0073,-0.0220,-0.1436,3.2615,-0.0342,0.0659,-0.1099,-0.0366,0.0171,1,1,1,1,1,1,1
19.4129,sweep,2,-down,-0.00591,0.18482,0.00019,1.57149,0.08259,0.01087,-0.00134,-0.0024,-0.1050,-0.0024,-0.0073,-0.0073,0.0073,-0.0220,-0.1436,3.2615,-0.0342,0.0659,-0.1099,-0.0366,0.0171,1,1,1,1,1,1,1
19.4528,sweep,2,-down,-0.00591,0.17834,0.00019,1.57149,0.08259,0.01087,-0.00134,-0.0024,-0.0855,0.0024,0.0073,-0.0220,-0.0073,-0.0220,-0.1436,3.1521,-0.0479,0.0513,-0.1050,-0.0366,0.0171,1,1,1,1,1,1,1
19.4926,sweep,2,-down,-0.00591,0.17834,0.00019,1.57149,0.08259,0.01087,-0.00134,-0.0024,-0.0855,0.0024,0.0073,-0.0220,-0.0073,-0.0220,-0.1436,3.1521,-0.0479,0.0513,-0.1050,-0.0366,0.0171,1,1,1,1,1,1,1
19.5329,sweep,2,-down,-0.00591,0.17834,0.00019,1.57149,0.08259,0.01087,-0.00134,-0.0024,-0.0855,0.0024,0.0073,-0.0220,-0.0073,-0.0220,-0.1436,3.1521,-0.0479,0.0513,-0.1050,-0.0366,0.0171,1,1,1,1,1,1,1
19.5730,sweep,2,-down,-0.00629,0.16957,0.00019,1.57187,0.08259,0.01087,-0.00134,-0.0073,-0.0904,-0.0024,-0.0073,-0.0220,-0.0073,-0.0073,-0.1436,3.1385,-0.0342,0.0317,-0.1050,-0.0366,0.0171,1,1,1,1,1,1,1
19.6130,sweep,2,-down,-0.00629,0.16957,0.00019,1.57187,0.08259,0.01087,-0.00134,-0.0073,-0.0904,-0.0024,-0.0073,-0.0220,-0.0073,-0.0073,-0.1436,3.1385,-0.0342,0.0317,-0.1050,-0.0366,0.0171,1,1,1,1,1,1,1
19.6529,sweep,2,-down,-0.00629,0.16461,0.00019,1.57187,0.08259,0.01087,-0.00134,-0.0024,-0.0415,0.0024,0.0073,-0.0073,-0.0073,-0.0073,-0.1436,3.0701,-0.0479,0.0171,-0.1001,-0.0317,0.0171,1,1,1,1,1,1,1
19.6929,sweep,2,-down,-0.00629,0.16461,0.00019,1.57187,0.08259,0.01087,-0.00134,-0.0024,-0.0415,0.0024,0.0073,-0.0073,-0.0073,-0.0073,-0.1436,3.0701,-0.0479,0.0171,-0.1001,-0.0317,0.0171,1,1,1,1,1,1,1
19.7328,sweep,2,-down,-0.00629,0.16461,0.00019,1.57187,0.08259,0.01087,-0.00134,-0.0024,-0.0415,0.0024,0.0073,-0.0073,-0.0073,-0.0073,-0.1436,3.0701,-0.0479,0.0171,-0.1001,-0.0317,0.0171,1,1,1,1,1,1,1
19.7727,sweep,2,-down,-0.00629,0.15774,0.00019,1.57187,0.08259,0.01087,-0.00134,-0.0073,-0.0464,-0.0024,-0.0073,-0.0073,0.0073,-0.0366,-0.1299,2.8103,-0.0205,-0.0073,-0.0952,-0.0366,0.0171,1,1,1,1,1,1,1
19.8130,sweep,2,-down,-0.00629,0.15774,0.00019,1.57187,0.08259,0.01087,-0.00134,-0.0073,-0.0464,-0.0024,-0.0073,-0.0073,0.0073,-0.0366,-0.1299,2.8103,-0.0205,-0.0073,-0.0952,-0.0366,0.0171,1,1,1,1,1,1,1
19.8527,sweep,2,-down,-0.00591,0.15354,0.00019,1.57149,0.08297,0.01125,-0.00134,-0.0073,-0.0562,-0.0024,-0.0073,-0.0073,-0.0073,-0.0220,-0.1299,3.1248,-0.0205,-0.0171,-0.0952,-0.0366,0.0171,1,1,1,1,1,1,1
19.8928,sweep,2,-down,-0.00591,0.15354,0.00019,1.57149,0.08297,0.01125,-0.00134,-0.0073,-0.0562,-0.0024,-0.0073,-0.0073,-0.0073,-0.0220,-0.1299,3.1248,-0.0205,-0.0171,-0.0952,-0.0366,0.0171,1,1,1,1,1,1,1
19.9328,sweep,2,-down,-0.00591,0.15354,0.00019,1.57149,0.08297,0.01125,-0.00134,-0.0073,-0.0562,-0.0024,-0.0073,-0.0073,-0.0073,-0.0220,-0.1299,3.1248,-0.0205,-0.0171,-0.0952,-0.0366,0.0171,1,1,1,1,1,1,1
19.9729,sweep,2,-down,-0.00591,0.14897,0.00019,1.57149,0.08259,0.01087,-0.00134,-0.0024,-0.0415,-0.0024,0.0073,-0.0073,0.0073,-0.0220,-0.1162,2.7556,0.0068,-0.0317,-0.0904,-0.0366,0.0171,1,1,1,1,1,1,1
20.0131,sweep,2,-down,-0.00591,0.14897,0.00019,1.57149,0.08259,0.01087,-0.00134,-0.0024,-0.0415,-0.0024,0.0073,-0.0073,0.0073,-0.0220,-0.1162,2.7556,0.0068,-0.0317,-0.0904,-0.0366,0.0171,1,1,1,1,1,1,1
20.0530,sweep,2,-down,-0.00591,0.14553,0.00019,1.57149,0.08259,0.01087,-0.00134,-0.0024,-0.0366,-0.0024,-0.0073,-0.0073,0.0073,-0.0073,-0.1162,3.2205,-0.0068,-0.0464,-0.0806,-0.0366,0.0171,1,1,1,1,1,1,1
20.0928,sweep,2,-down,-0.00591,0.14553,0.00019,1.57149,0.08259,0.01087,-0.00134,-0.0024,-0.0366,-0.0024,-0.0073,-0.0073,0.0073,-0.0073,-0.1162,3.2205,-0.0068,-0.0464,-0.0806,-0.0366,0.0171,1,1,1,1,1,1,1
20.1331,sweep,2,-down,-0.00591,0.14553,0.00019,1.57149,0.08259,0.01087,-0.00134,-0.0024,-0.0366,-0.0024,-0.0073,-0.0073,0.0073,-0.0073,-0.1162,3.2205,-0.0068,-0.0464,-0.0806,-0.0366,0.0171,1,1,1,1,1,1,1
20.1730,sweep,2,-down,-0.00591,0.14172,0.00019,1.57149,0.08259,0.01087,-0.00134,-0.0024,-0.0366,-0.0024,-0.0220,-0.0073,-0.0220,-0.0073,-0.1299,3.2205,-0.0068,-0.0659,-0.0757,-0.0366,0.0220,1,1,1,1,1,1,1
20.2131,sweep,2,-down,-0.00591,0.14172,0.00019,1.57149,0.08259,0.01087,-0.00134,-0.0024,-0.0366,-0.0024,-0.0220,-0.0073,-0.0220,-0.0073,-0.1299,3.2205,-0.0068,-0.0659,-0.0757,-0.0366,0.0220,1,1,1,1,1,1,1
20.2528,sweep,2,-down,-0.00591,0.13981,0.00019,1.57149,0.08297,0.01087,-0.00134,-0.0073,-0.0220,-0.0024,-0.0073,-0.0073,-0.0073,-0.0073,-0.1299,3.0017,0.0068,-0.0806,-0.0855,-0.0366,0.0220,1,1,1,1,1,1,1
20.7553,approach,2,return,-0.00591,0.13867,0.00019,1.57149,0.08259,0.01087,-0.00134,-0.0024,-0.0269,-0.0024,-0.0073,-0.0073,-0.0220,0.0073,-0.1299,2.9607,-0.0205,-0.0757,-0.0806,-0.0366,0.0220,1,1,1,1,1,1,1
20.7953,approach,2,return,-0.00591,0.13867,0.00019,1.57149,0.08259,0.01087,-0.00134,-0.0024,-0.0269,-0.0024,-0.0073,-0.0073,-0.0220,0.0073,-0.1299,2.9607,-0.0205,-0.0757,-0.0806,-0.0366,0.0220,1,1,1,1,1,1,1
20.8355,approach,2,return,-0.00591,0.13867,0.00019,1.57149,0.08259,0.01087,-0.00134,-0.0024,-0.0269,-0.0024,-0.0073,-0.0073,-0.0220,0.0073,-0.1299,2.9607,-0.0205,-0.0757,-0.0806,-0.0366,0.0220,1,1,1,1,1,1,1
20.8755,approach,2,return,-0.00591,0.11807,0.00019,1.56500,0.08259,0.01125,-0.00134,0.0024,-0.1245,0.0024,0.0220,-0.0220,0.0220,-0.0073,-0.1299,2.7145,-0.0068,0.2955,-0.0855,-0.0317,0.0220,1,1,1,1,1,1,1
20.9153,approach,2,return,-0.00591,0.11807,0.00019,1.56500,0.08259,0.01125,-0.00134,0.0024,-0.1245,0.0024,0.0220,-0.0220,0.0220,-0.0073,-0.1299,2.7145,-0.0068,0.2955,-0.0855,-0.0317,0.0220,1,1,1,1,1,1,1
20.9555,approach,2,return,-0.00591,0.10700,0.00019,1.56920,0.08297,0.01087,-0.00134,-0.0024,-0.1294,-0.0024,0.0220,0.0073,-0.0220,-0.0073,-0.1299,3.4256,-0.0205,0.1148,-0.0855,-0.0269,0.0220,1,1,1,1,1,1,1
20.9952,approach,2,return,-0.00591,0.10700,0.00019,1.56920,0.08297,0.01087,-0.00134,-0.0024,-0.1294,-0.0024,0.0220,0.0073,-0.0220,-0.0073,-0.1299,3.4256,-0.0205,0.1148,-0.0855,-0.0269,0.0220,1,1,1,1,1,1,1
21.0355,approach,2,return,-0.00591,0.10700,0.00019,1.56920,0.08297,0.01087,-0.00134,-0.0024,-0.1294,-0.0024,0.0220,0.0073,-0.0220,-0.0073,-0.1299,3.4256,-0.0205,0.1148,-0.0855,-0.0269,0.0220,1,1,1,1,1,1,1
21.0753,approach,2,return,-0.00591,0.09289,0.00019,1.56958,0.08259,0.01087,-0.00134,-0.0024,-0.1148,0.0024,0.0073,-0.0073,-0.0073,-0.0220,-0.1299,3.3709,-0.0068,0.1441,-0.0855,-0.0269,0.0220,1,1,1,1,1,1,1
21.1153,approach,2,return,-0.00591,0.09289,0.00019,1.56958,0.08259,0.01087,-0.00134,-0.0024,-0.1148,0.0024,0.0073,-0.0073,-0.0073,-0.0220,-0.1299,3.3709,-0.0068,0.1441,-0.0855,-0.0269,0.0220,1,1,1,1,1,1,1
21.1552,approach,2,return,-0.00591,0.08526,0.00019,1.56958,0.08259,0.01087,-0.00134,-0.0024,-0.0806,-0.0024,-0.0073,-0.0220,-0.0073,-0.0073,-0.1299,3.0154,-0.0205,0.1538,-0.0855,-0.0269,0.0220,1,1,1,1,1,1,1
21.1955,approach,2,return,-0.00591,0.08526,0.00019,1.56958,0.08259,0.01087,-0.00134,-0.0024,-0.0806,-0.0024,-0.0073,-0.0220,-0.0073,-0.0073,-0.1299,3.0154,-0.0205,0.1538,-0.0855,-0.0269,0.0220,1,1,1,1,1,1,1
21.2354,approach,2,return,-0.00591,0.08526,0.00019,1.56958,0.08259,0.01087,-0.00134,-0.0024,-0.0806,-0.0024,-0.0073,-0.0220,-0.0073,-0.0073,-0.1299,3.0154,-0.0205,0.1538,-0.0855,-0.0269,0.0220,1,1,1,1,1,1,1
21.2755,approach,2,return,-0.00591,0.07420,0.00019,1.57263,0.08297,0.01087,-0.00095,-0.0024,-0.0806,-0.0024,-0.0073,0.0220,-0.0073,0.0073,-0.1299,3.1111,-0.0342,0.0220,-0.0904,-0.0220,0.0220,1,1,1,1,1,1,1
21.3153,approach,2,return,-0.00591,0.07420,0.00019,1.57263,0.08297,0.01087,-0.00095,-0.0024,-0.0806,-0.0024,-0.0073,0.0220,-0.0073,0.0073,-0.1299,3.1111,-0.0342,0.0220,-0.0904,-0.0220,0.0220,1,1,1,1,1,1,1
21.3553,approach,2,return,-0.00591,0.06809,0.00019,1.57263,0.08259,0.01125,-0.00134,-0.0024,-0.0708,-0.0024,-0.0220,0.0073,-0.0073,-0.0073,-0.1299,2.9744,-0.0205,-0.0122,-0.0855,-0.0220,0.0220,1,1,1,1,1,1,1
21.3955,approach,2,return,-0.00591,0.06809,0.00019,1.57263,0.08259,0.01125,-0.00134,-0.0024,-0.0708,-0.0024,-0.0220,0.0073,-0.0073,-0.0073,-0.1299,2.9744,-0.0205,-0.0122,-0.0855,-0.0220,0.0220,1,1,1,1,1,1,1
21.4356,approach,2,return,-0.00591,0.06809,0.00019,1.57263,0.08259,0.01125,-0.00134,-0.0024,-0.0708,-0.0024,-0.0220,0.0073,-0.0073,-0.0073,-0.1299,2.9744,-0.0205,-0.0122,-0.0855,-0.0220,0.0220,1,1,1,1,1,1,1
21.4755,approach,2,return,-0.00591,0.06008,0.00019,1.57263,0.08297,0.01087,-0.00095,-0.0024,-0.0659,-0.0024,-0.0220,-0.0073,-0.0073,-0.0073,-0.1299,2.9197,-0.0205,-0.0513,-0.0904,-0.0220,0.0220,1,1,1,1,1,1,1
21.5155,approach,2,return,-0.00591,0.06008,0.00019,1.57263,0.08297,0.01087,-0.00095,-0.0024,-0.0659,-0.0024,-0.0220,-0.0073,-0.0073,-0.0073,-0.1299,2.9197,-0.0205,-0.0513,-0.0904,-0.0220,0.0220,1,1,1,1,1,1,1
21.5553,approach,2,return,-0.00591,0.05512,0.00019,1.57263,0.08259,0.01087,-0.00134,-0.0024,-0.0708,-0.0024,-0.0073,-0.0073,-0.0073,-0.0073,-0.1436,2.9880,-0.0342,-0.0757,-0.0952,-0.0220,0.0171,1,1,1,1,1,1,1
21.5953,approach,2,return,-0.00591,0.05512,0.00019,1.57263,0.08259,0.01087,-0.00134,-0.0024,-0.0708,-0.0024,-0.0073,-0.0073,-0.0073,-0.0073,-0.1436,2.9880,-0.0342,-0.0757,-0.0952,-0.0220,0.0171,1,1,1,1,1,1,1
21.6355,approach,2,return,-0.00591,0.05512,0.00019,1.57263,0.08259,0.01087,-0.00134,-0.0024,-0.0708,-0.0024,-0.0073,-0.0073,-0.0073,-0.0073,-0.1436,2.9880,-0.0342,-0.0757,-0.0952,-0.0220,0.0171,1,1,1,1,1,1,1
21.6754,approach,2,return,-0.00591,0.04864,0.00019,1.57416,0.08259,0.01087,-0.00134,-0.0073,-0.0513,-0.0073,0.0073,-0.0073,-0.0073,-0.0073,-0.1299,3.0154,-0.0479,-0.2906,-0.0904,-0.0220,0.0220,1,1,1,1,1,1,1
21.7153,approach,2,return,-0.00591,0.04864,0.00019,1.57416,0.08259,0.01087,-0.00134,-0.0073,-0.0513,-0.0073,0.0073,-0.0073,-0.0073,-0.0073,-0.1299,3.0154,-0.0479,-0.2906,-0.0904,-0.0220,0.0220,1,1,1,1,1,1,1
21.7553,approach,2,return,-0.00591,0.04597,0.00019,1.57225,0.08297,0.01087,-0.00095,-0.0024,-0.0415,-0.0024,-0.0366,0.0073,-0.0220,-0.0073,-0.1299,2.1402,-0.0479,-0.2271,-0.0952,-0.0171,0.0171,1,1,1,1,1,1,1
21.7953,approach,2,return,-0.00591,0.04597,0.00019,1.57225,0.08297,0.01087,-0.00095,-0.0024,-0.0415,-0.0024,-0.0366,0.0073,-0.0220,-0.0073,-0.1299,2.1402,-0.0479,-0.2271,-0.0952,-0.0171,0.0171,1,1,1,1,1,1,1
21.8358,approach,2,return,-0.00591,0.04597,0.00019,1.57225,0.08297,0.01087,-0.00095,-0.0024,-0.0415,-0.0024,-0.0366,0.0073,-0.0220,-0.0073,-0.1299,2.1402,-0.0479,-0.2271,-0.0952,-0.0171,0.0171,1,1,1,1,1,1,1
21.8753,approach,2,return,-0.00591,0.04063,0.00019,1.57225,0.08259,0.01087,-0.00134,-0.0024,-0.0269,-0.0024,-0.0220,-0.0073,-0.0220,-0.0073,-0.1299,2.4957,-0.0615,-0.3150,-0.0952,-0.0171,0.0220,1,1,1,1,1,1,1
21.9153,approach,2,return,-0.00591,0.04063,0.00019,1.57225,0.08259,0.01087,-0.00134,-0.0024,-0.0269,-0.0024,-0.0220,-0.0073,-0.0220,-0.0073,-0.1299,2.4957,-0.0615,-0.3150,-0.0952,-0.0171,0.0220,1,1,1,1,1,1,1
21.9553,approach,2,return,-0.00591,0.03834,0.00019,1.57187,0.08259,0.01125,-0.00095,-0.0024,-0.0317,-0.0024,-0.0073,-0.0073,-0.0220,0.0073,-0.1299,2.0171,-0.0479,-0.3150,-0.1001,-0.0171,0.0220,1,1,1,1,1,1,1
21.9953,approach,2,return,-0.00591,0.03834,0.00019,1.57187,0.08259,0.01125,-0.00095,-0.0024,-0.0317,-0.0024,-0.0073,-0.0073,-0.0220,0.0073,-0.1299,2.0171,-0.0479,-0.3150,-0.1001,-0.0171,0.0220,1,1,1,1,1,1,1
22.0354,approach,2,return,-0.00591,0.03834,0.00019,1.57187,0.08259,0.01125,-0.00095,-0.0024,-0.0317,-0.0024,-0.0073,-0.0073,-0.0220,0.0073,-0.1299,2.0171,-0.0479,-0.3150,-0.1001,-0.0171,0.0220,1,1,1,1,1,1,1
