peipl15/reBot_Arm/outputs/gravity_calib_20260622_154012.csv
t_s,phase,swept_joint,direction,q1,q2,q3,q4,q5,q6,q7,v1,v2,v3,v4,v5,v6,v7,tau1,tau2,tau3,tau4,tau5,tau6,tau7,st1,st2,st3,st4,st5,st6,st7
0.0025,approach,2,to_lo,-0.01888,0.07992,2.06741,-0.47055,0.16423,1.59628,-0.00744,-0.0024,-0.0024,-0.0024,-0.0073,-0.0073,-0.0073,-0.0073,0.0479,0.7726,-0.0889,-0.2808,-0.0073,0.0024,-0.0073,1,1,1,1,1,1,1
0.0424,approach,2,to_lo,-0.01888,0.07992,2.06741,-0.47055,0.16423,1.59628,-0.00744,-0.0024,-0.0024,-0.0024,-0.0073,-0.0073,-0.0073,-0.0073,0.0479,0.7726,-0.0889,-0.2808,-0.0073,0.0024,-0.0073,1,1,1,1,1,1,1
0.0826,approach,2,to_lo,-0.01888,0.07954,2.06741,-0.47665,0.16537,1.59628,-0.00744,-0.0024,0.0269,-0.0024,-0.0073,-0.0073,-0.0220,-0.0073,0.0342,3.8632,-0.1299,0.0073,-0.0464,-0.0024,-0.0073,1,1,1,1,1,1,1
0.1227,approach,2,to_lo,-0.01888,0.07954,2.06741,-0.47665,0.16537,1.59628,-0.00744,-0.0024,0.0269,-0.0024,-0.0073,-0.0073,-0.0220,-0.0073,0.0342,3.8632,-0.1299,0.0073,-0.0464,-0.0024,-0.0073,1,1,1,1,1,1,1
0.1623,approach,2,to_lo,-0.01888,0.07954,2.06741,-0.47665,0.16537,1.59628,-0.00744,-0.0024,0.0269,-0.0024,-0.0073,-0.0073,-0.0220,-0.0073,0.0342,3.8632,-0.1299,0.0073,-0.0464,-0.0024,-0.0073,1,1,1,1,1,1,1
0.2023,approach,2,to_lo,-0.01888,0.08488,2.06741,-0.47665,0.16537,1.59667,-0.00744,-0.0024,0.0415,0.0024,-0.0073,-0.0220,-0.0073,-0.0073,-0.0068,4.7385,-0.1846,0.0171,-0.0611,-0.0073,-0.0073,1,1,1,1,1,1,1
0.2424,approach,2,to_lo,-0.01888,0.08488,2.06741,-0.47665,0.16537,1.59667,-0.00744,-0.0024,0.0415,0.0024,-0.0073,-0.0220,-0.0073,-0.0073,-0.0068,4.7385,-0.1846,0.0171,-0.0611,-0.0073,-0.0073,1,1,1,1,1,1,1
0.2823,approach,2,to_lo,-0.01888,0.08831,2.06741,-0.47665,0.16537,1.59667,-0.00744,-0.0073,0.0269,0.0024,0.0073,0.0073,-0.0073,0.0073,-0.0068,5.0803,-0.2530,0.0269,-0.0806,-0.0122,-0.0073,1,1,1,1,1,1,1
0.3224,approach,2,to_lo,-0.01888,0.08831,2.06741,-0.47665,0.16537,1.59667,-0.00744,-0.0073,0.0269,0.0024,0.0073,0.0073,-0.0073,0.0073,-0.0068,5.0803,-0.2530,0.0269,-0.0806,-0.0122,-0.0073,1,1,1,1,1,1,1
0.3625,approach,2,to_lo,-0.01888,0.08831,2.06741,-0.47665,0.16537,1.59667,-0.00744,-0.0073,0.0269,0.0024,0.0073,0.0073,-0.0073,0.0073,-0.0068,5.0803,-0.2530,0.0269,-0.0806,-0.0122,-0.0073,1,1,1,1,1,1,1
0.4024,approach,2,to_lo,-0.01888,0.09289,2.06779,-0.47665,0.16499,1.59628,-0.00744,0.0024,0.0366,-0.0024,-0.0073,-0.0073,-0.0073,-0.0073,-0.0068,5.4769,-0.4991,0.0317,-0.1148,-0.0171,-0.0171,1,1,1,1,1,1,1
0.4425,approach,2,to_lo,-0.01888,0.09289,2.06779,-0.47665,0.16499,1.59628,-0.00744,0.0024,0.0366,-0.0024,-0.0073,-0.0073,-0.0073,-0.0073,-0.0068,5.4769,-0.4991,0.0317,-0.1148,-0.0171,-0.0171,1,1,1,1,1,1,1
0.4823,approach,2,to_lo,-0.01888,0.09480,2.06817,-0.47665,0.16499,1.59628,-0.00744,-0.0024,0.0317,0.0073,-0.0220,-0.0073,-0.0220,-0.0073,-0.0068,6.4889,-0.8547,0.0366,-0.1392,-0.0220,-0.0171,1,1,1,1,1,1,1
0.5224,approach,2,to_lo,-0.01888,0.09480,2.06817,-0.47665,0.16499,1.59628,-0.00744,-0.0024,0.0317,0.0073,-0.0220,-0.0073,-0.0220,-0.0073,-0.0068,6.4889,-0.8547,0.0366,-0.1392,-0.0220,-0.0171,1,1,1,1,1,1,1
0.5625,approach,2,to_lo,-0.01888,0.09480,2.06817,-0.47665,0.16499,1.59628,-0.00744,-0.0024,0.0317,0.0073,-0.0220,-0.0073,-0.0220,-0.0073,-0.0068,6.4889,-0.8547,0.0366,-0.1392,-0.0220,-0.0171,1,1,1,1,1,1,1
0.6028,approach,2,to_lo,-0.01888,0.09632,2.06855,-0.47665,0.16461,1.59628,-0.00744,-0.0024,0.0171,0.0024,-0.0073,-0.0220,0.0073,-0.0073,-0.0889,9.6752,-1.7436,0.0513,-0.1490,-0.0317,-0.0269,1,1,1,1,1,1,1
0.6424,approach,2,to_lo,-0.01888,0.09632,2.06855,-0.47665,0.16461,1.59628,-0.00744,-0.0024,0.0171,0.0024,-0.0073,-0.0220,0.0073,-0.0073,-0.0889,9.6752,-1.7436,0.0513,-0.1490,-0.0317,-0.0269,1,1,1,1,1,1,1
0.6826,approach,2,to_lo,-0.01888,0.09747,2.06893,-0.47665,0.16461,1.59628,-0.00744,0.0024,-0.0024,-0.0024,-0.0073,0.0513,-0.0220,0.0073,-0.0479,11.5761,-2.6188,0.0464,-0.1734,-0.0317,-0.0220,1,1,1,1,1,1,1
0.7226,approach,2,to_lo,-0.01888,0.09747,2.06893,-0.47665,0.16461,1.59628,-0.00744,0.0024,-0.0024,-0.0024,-0.0073,0.0513,-0.0220,0.0073,-0.0479,11.5761,-2.6188,0.0464,-0.1734,-0.0317,-0.0220,1,1,1,1,1,1,1
0.7630,approach,2,to_lo,-0.01888,0.09747,2.06893,-0.47665,0.16461,1.59628,-0.00744,0.0024,-0.0024,-0.0024,-0.0073,0.0513,-0.0220,0.0073,-0.0479,11.5761,-2.6188,0.0464,-0.1734,-0.0317,-0.0220,1,1,1,1,1,1,1
0.8025,approach,2,to_lo,-0.01888,0.09976,2.06931,-0.47627,0.16461,1.59628,-0.00744,-0.0024,0.0073,-0.0073,0.0073,-0.0073,-0.0073,-0.0073,-0.0615,12.8752,-3.1111,0.0513,-0.2027,-0.0366,-0.0269,1,1,1,1,1,1,1
0.8428,approach,2,to_lo,-0.01888,0.09976,2.06931,-0.47627,0.16461,1.59628,-0.00744,-0.0024,0.0073,-0.0073,0.0073,-0.0073,-0.0073,-0.0073,-0.0615,12.8752,-3.1111,0.0513,-0.2027,-0.0366,-0.0269,1,1,1,1,1,1,1
0.8827,approach,2,to_lo,-0.01888,0.10090,2.06931,-0.47627,0.16461,1.59628,-0.00744,-0.0024,0.0122,-0.0024,-0.0073,-0.0073,-0.0220,0.0073,-0.0752,14.2701,-3.3709,0.0562,-0.2173,-0.0317,-0.0220,1,1,1,1,1,1,1
1.3850,sweep,2,+up,-0.01888,0.10128,2.06931,-0.47627,0.16461,1.59628,-0.00744,-0.0024,0.0122,-0.0024,-0.0073,-0.0073,-0.0073,-0.0073,-0.0615,14.9538,-3.5214,0.0513,-0.2320,-0.0366,-0.0269,1,1,1,1,1,1,1
1.4251,sweep,2,+up,-0.01888,0.10128,2.06931,-0.47627,0.16461,1.59628,-0.00744,-0.0024,0.0122,-0.0024,-0.0073,-0.0073,-0.0073,-0.0073,-0.0615,14.9538,-3.5214,0.0513,-0.2320,-0.0366,-0.0269,1,1,1,1,1,1,1
1.4651,sweep,2,+up,-0.01888,0.10128,2.06931,-0.47627,0.16461,1.59628,-0.00744,-0.0024,0.0122,-0.0024,-0.0073,-0.0073,-0.0073,-0.0073,-0.0615,14.9538,-3.5214,0.0513,-0.2320,-0.0366,-0.0269,1,1,1,1,1,1,1
1.5053,sweep,2,+up,-0.01926,0.12074,2.06931,-0.47322,0.16423,1.59590,-0.00744,-0.0024,0.2125,-0.0024,0.0366,-0.0220,-0.0073,0.0073,0.0068,21.7778,-5.5179,-0.3980,-0.3394,-0.0464,-0.0366,1,1,1,1,1,1,1
1.5454,sweep,2,+up,-0.01926,0.12074,2.06931,-0.47322,0.16423,1.59590,-0.00744,-0.0024,0.2125,-0.0024,0.0366,-0.0220,-0.0073,0.0073,0.0068,21.7778,-5.5179,-0.3980,-0.3394,-0.0464,-0.0366,1,1,1,1,1,1,1
1.5851,sweep,2,+up,-0.01926,0.13752,2.06931,-0.47398,0.16384,1.59590,-0.00744,-0.0024,0.2564,-0.0024,-0.0806,-0.0073,-0.0073,-0.0073,-0.0068,21.0120,-5.8325,-0.4322,-0.3248,-0.0415,-0.0366,1,1,1,1,1,1,1
1.6256,sweep,2,+up,-0.01926,0.13752,2.06931,-0.47398,0.16384,1.59590,-0.00744,-0.0024,0.2564,-0.0024,-0.0806,-0.0073,-0.0073,-0.0073,-0.0068,21.0120,-5.8325,-0.4322,-0.3248,-0.0415,-0.0366,1,1,1,1,1,1,1
1.6651,sweep,2,+up,-0.01926,0.13752,2.06931,-0.47398,0.16384,1.59590,-0.00744,-0.0024,0.2564,-0.0024,-0.0806,-0.0073,-0.0073,-0.0073,-0.0068,21.0120,-5.8325,-0.4322,-0.3248,-0.0415,-0.0366,1,1,1,1,1,1,1
1.7054,sweep,2,+up,-0.01926,0.16346,2.06855,-0.47742,0.16384,1.59590,-0.00744,-0.0024,0.1734,-0.0073,-0.0073,0.0073,-0.0073,-0.0073,0.0479,18.0855,-5.0667,-0.1685,-0.3004,-0.0366,-0.0317,1,1,1,1,1,1,1
1.7453,sweep,2,+up,-0.01926,0.16346,2.06855,-0.47742,0.16384,1.59590,-0.00744,-0.0024,0.1734,-0.0073,-0.0073,0.0073,-0.0073,-0.0073,0.0479,18.0855,-5.0667,-0.1685,-0.3004,-0.0366,-0.0317,1,1,1,1,1,1,1
1.7853,sweep,2,+up,-0.01926,0.17948,2.06817,-0.47742,0.16384,1.59552,-0.00744,-0.0024,0.1880,-0.0073,-0.0073,-0.0220,-0.0073,-0.0073,0.0479,18.4410,-5.1487,-0.1294,-0.2955,-0.0220,-0.0415,1,1,1,1,1,1,1
1.8251,sweep,2,+up,-0.01926,0.17948,2.06817,-0.47742,0.16384,1.59552,-0.00744,-0.0024,0.1880,-0.0073,-0.0073,-0.0220,-0.0073,-0.0073,0.0479,18.4410,-5.1487,-0.1294,-0.2955,-0.0220,-0.0415,1,1,1,1,1,1,1
1.8653,sweep,2,+up,-0.01926,0.17948,2.06817,-0.47742,0.16384,1.59552,-0.00744,-0.0024,0.1880,-0.0073,-0.0073,-0.0220,-0.0073,-0.0073,0.0479,18.4410,-5.1487,-0.1294,-0.2955,-0.0220,-0.0415,1,1,1,1,1,1,1
1.9055,sweep,2,+up,-0.01926,0.20352,2.06817,-0.47704,0.16384,1.59552,-0.00744,-0.0024,0.2125,0.0024,0.0073,-0.0073,0.0073,-0.0073,0.0205,18.2085,-5.3675,-0.1050,-0.2857,-0.0122,-0.0415,1,1,1,1,1,1,1
1.9457,sweep,2,+up,-0.01926,0.20352,2.06817,-0.47704,0.16384,1.59552,-0.00744,-0.0024,0.2125,0.0024,0.0073,-0.0073,0.0073,-0.0073,0.0205,18.2085,-5.3675,-0.1050,-0.2857,-0.0122,-0.0415,1,1,1,1,1,1,1
1.9857,sweep,2,+up,-0.01926,0.21954,2.06817,-0.47704,0.16384,1.59552,-0.00744,-0.0024,0.2222,-0.0024,0.0073,-0.0073,-0.0073,-0.0220,-0.0068,18.1538,-5.3949,-0.0855,-0.2711,0.0024,-0.0366,1,1,1,1,1,1,1
2.0256,sweep,2,+up,-0.01926,0.21954,2.06817,-0.47704,0.16384,1.59552,-0.00744,-0.0024,0.2222,-0.0024,0.0073,-0.0073,-0.0073,-0.0220,-0.0068,18.1538,-5.3949,-0.0855,-0.2711,0.0024,-0.0366,1,1,1,1,1,1,1
2.0653,sweep,2,+up,-0.01926,0.21954,2.06817,-0.47704,0.16384,1.59552,-0.00744,-0.0024,0.2222,-0.0024,0.0073,-0.0073,-0.0073,-0.0220,-0.0068,18.1538,-5.3949,-0.0855,-0.2711,0.0024,-0.0366,1,1,1,1,1,1,1
2.1056,sweep,2,+up,-0.01926,0.24395,2.06779,-0.47742,0.16384,1.59552,-0.00744,0.0024,0.1880,-0.0122,-0.0073,-0.0220,-0.0073,-0.0073,-0.0068,17.5385,-5.1214,-0.0562,-0.2662,0.0073,-0.0415,1,1,1,1,1,1,1
2.1455,sweep,2,+up,-0.01926,0.24395,2.06779,-0.47742,0.16384,1.59552,-0.00744,0.0024,0.1880,-0.0122,-0.0073,-0.0220,-0.0073,-0.0073,-0.0068,17.5385,-5.1214,-0.0562,-0.2662,0.0073,-0.0415,1,1,1,1,1,1,1
2.1852,sweep,2,+up,-0.01926,0.26112,2.06741,-0.47742,0.16384,1.59552,-0.00744,-0.0024,0.1783,-0.0073,-0.0073,-0.0073,0.0073,0.0073,0.0068,16.4034,-4.6154,-0.0317,-0.2564,0.0122,-0.0415,1,1,1,1,1,1,1
2.2253,sweep,2,+up,-0.01926,0.26112,2.06741,-0.47742,0.16384,1.59552,-0.00744,-0.0024,0.1783,-0.0073,-0.0073,-0.0073,0.0073,0.0073,0.0068,16.4034,-4.6154,-0.0317,-0.2564,0.0122,-0.0415,1,1,1,1,1,1,1
2.2653,sweep,2,+up,-0.01926,0.26112,2.06741,-0.47742,0.16384,1.59552,-0.00744,-0.0024,0.1783,-0.0073,-0.0073,-0.0073,0.0073,0.0073,0.0068,16.4034,-4.6154,-0.0317,-0.2564,0.0122,-0.0415,1,1,1,1,1,1,1
2.3052,sweep,2,+up,-0.01926,0.28515,2.06741,-0.48047,0.16384,1.59552,-0.00744,-0.0024,0.2125,-0.0073,-0.0220,-0.0073,-0.0220,-0.0073,0.0342,15.9658,-4.4103,0.1636,-0.2564,0.0220,-0.0464,1,1,1,1,1,1,1
2.3455,sweep,2,+up,-0.01926,0.28515,2.06741,-0.48047,0.16384,1.59552,-0.00744,-0.0024,0.2125,-0.0073,-0.0220,-0.0073,-0.0220,-0.0073,0.0342,15.9658,-4.4103,0.1636,-0.2564,0.0220,-0.0464,1,1,1,1,1,1,1
2.3853,sweep,2,+up,-0.01926,0.30156,2.06664,-0.48123,0.16384,1.59552,-0.00744,-0.0024,0.2222,-0.0024,-0.0073,0.0073,-0.0073,-0.0220,0.0479,15.5692,-3.6171,0.4029,-0.2418,0.0220,-0.0464,1,1,1,1,1,1,1
2.4253,sweep,2,+up,-0.01926,0.30156,2.06664,-0.48123,0.16384,1.59552,-0.00744,-0.0024,0.2222,-0.0024,-0.0073,0.0073,-0.0073,-0.0220,0.0479,15.5692,-3.6171,0.4029,-0.2418,0.0220,-0.0464,1,1,1,1,1,1,1
2.4651,sweep,2,+up,-0.01926,0.30156,2.06664,-0.48123,0.16384,1.59552,-0.00744,-0.0024,0.2222,-0.0024,-0.0073,0.0073,-0.0073,-0.0220,0.0479,15.5692,-3.6171,0.4029,-0.2418,0.0220,-0.0464,1,1,1,1,1,1,1
2.5053,sweep,2,+up,-0.01926,0.32406,2.06664,-0.47894,0.16384,1.59552,-0.00744,0.0024,0.1832,0.0024,0.0659,-0.0073,-0.0220,0.0073,0.0342,17.9077,-3.5761,0.4518,-0.2418,0.0269,-0.0415,1,1,1,1,1,1,1
2.5455,sweep,2,+up,-0.01926,0.32406,2.06664,-0.47894,0.16384,1.59552,-0.00744,0.0024,0.1832,0.0024,0.0659,-0.0073,-0.0220,0.0073,0.0342,17.9077,-3.5761,0.4518,-0.2418,0.0269,-0.0415,1,1,1,1,1,1,1
2.5853,sweep,2,+up,-0.01926,0.34047,2.06664,-0.47742,0.16384,1.59590,-0.00744,-0.0024,0.2125,0.0024,0.0220,-0.0220,0.0073,-0.0073,0.0205,17.2786,-3.4940,0.3785,-0.2369,0.0366,-0.0464,1,1,1,1,1,1,1
2.6252,sweep,2,+up,-0.01926,0.34047,2.06664,-0.47742,0.16384,1.59590,-0.00744,-0.0024,0.2125,0.0024,0.0220,-0.0220,0.0073,-0.0073,0.0205,17.2786,-3.4940,0.3785,-0.2369,0.0366,-0.0464,1,1,1,1,1,1,1
2.6653,sweep,2,+up,-0.01926,0.34047,2.06664,-0.47742,0.16384,1.59590,-0.00744,-0.0024,0.2125,0.0024,0.0220,-0.0220,0.0073,-0.0073,0.0205,17.2786,-3.4940,0.3785,-0.2369,0.0366,-0.0464,1,1,1,1,1,1,1
2.7054,sweep,2,+up,-0.01926,0.36603,2.06664,-0.47742,0.16384,1.59590,-0.00744,-0.0024,0.2076,-0.0024,-0.0073,-0.0220,-0.0220,-0.0073,0.0068,15.3504,-3.2889,0.4664,-0.2320,0.0366,-0.0513,1,1,1,1,1,1,1
2.7453,sweep,2,+up,-0.01926,0.36603,2.06664,-0.47742,0.16384,1.59590,-0.00744,-0.0024,0.2076,-0.0024,-0.0073,-0.0220,-0.0220,-0.0073,0.0068,15.3504,-3.2889,0.4664,-0.2320,0.0366,-0.0513,1,1,1,1,1,1,1
2.7851,sweep,2,+up,-0.01888,0.38167,2.06664,-0.47818,0.16384,1.59590,-0.00744,-0.0073,0.2173,0.0024,-0.0073,-0.0073,0.0073,0.0073,-0.0342,15.8838,-3.0017,0.5934,-0.2320,0.0464,-0.0513,1,1,1,1,1,1,1
2.8257,sweep,2,+up,-0.01888,0.38167,2.06664,-0.47818,0.16384,1.59590,-0.00744,-0.0073,0.2173,0.0024,-0.0073,-0.0073,0.0073,0.0073,-0.0342,15.8838,-3.0017,0.5934,-0.2320,0.0464,-0.0513,1,1,1,1,1,1,1
2.8654,sweep,2,+up,-0.01888,0.38167,2.06664,-0.47818,0.16384,1.59590,-0.00744,-0.0073,0.2173,0.0024,-0.0073,-0.0073,0.0073,0.0073,-0.0342,15.8838,-3.0017,0.5934,-0.2320,0.0464,-0.0513,1,1,1,1,1,1,1
2.9056,sweep,2,+up,-0.01888,0.40532,2.06664,-0.47665,0.16384,1.59590,-0.00744,-0.0024,0.1978,0.0024,0.0513,-0.0073,-0.0220,-0.0073,-0.0342,15.9248,-2.9333,0.5299,-0.2222,0.0415,-0.0562,1,1,1,1,1,1,1
2.9459,sweep,2,+up,-0.01888,0.40532,2.06664,-0.47665,0.16384,1.59590,-0.00744,-0.0024,0.1978,0.0024,0.0513,-0.0073,-0.0220,-0.0073,-0.0342,15.9248,-2.9333,0.5299,-0.2222,0.0415,-0.0562,1,1,1,1,1,1,1
2.9853,sweep,2,+up,-0.01888,0.42248,2.06664,-0.47704,0.16384,1.59590,-0.00744,-0.0024,0.1832,-0.0024,-0.0073,0.0073,-0.0366,-0.0073,0.0068,14.8855,-2.7829,0.5690,-0.2173,0.0415,-0.0611,1,1,1,1,1,1,1
3.0257,sweep,2,+up,-0.01888,0.42248,2.06664,-0.47704,0.16384,1.59590,-0.00744,-0.0024,0.1832,-0.0024,-0.0073,0.0073,-0.0366,-0.0073,0.0068,14.8855,-2.7829,0.5690,-0.2173,0.0415,-0.0611,1,1,1,1,1,1,1
3.0655,sweep,2,+up,-0.01888,0.42248,2.06664,-0.47704,0.16384,1.59590,-0.00744,-0.0024,0.1832,-0.0024,-0.0073,0.0073,-0.0366,-0.0073,0.0068,14.8855,-2.7829,0.5690,-0.2173,0.0415,-0.0611,1,1,1,1,1,1,1
3.1054,sweep,2,+up,-0.01926,0.44728,2.06626,-0.47704,0.16384,1.59590,-0.00782,-0.0024,0.2369,-0.0024,-0.0220,-0.0073,-0.0073,-0.0073,0.0068,13.9282,-2.3863,0.6276,-0.2125,0.0415,-0.0562,1,1,1,1,1,1,1
3.1459,sweep,2,+up,-0.01926,0.44728,2.06626,-0.47704,0.16384,1.59590,-0.00782,-0.0024,0.2369,-0.0024,-0.0220,-0.0073,-0.0073,-0.0073,0.0068,13.9282,-2.3863,0.6276,-0.2125,0.0415,-0.0562,1,1,1,1,1,1,1
3.1850,sweep,2,+up,-0.01926,0.46254,2.06626,-0.47704,0.16384,1.59628,-0.00744,0.0024,0.2027,-0.0024,-0.0220,-0.0220,-0.0073,-0.0073,0.0205,14.8718,-2.2632,0.6618,-0.2027,0.0464,-0.0562,1,1,1,1,1,1,1
3.2251,sweep,2,+up,-0.01926,0.46254,2.06626,-0.47704,0.16384,1.59628,-0.00744,0.0024,0.2027,-0.0024,-0.0220,-0.0220,-0.0073,-0.0073,0.0205,14.8718,-2.2632,0.6618,-0.2027,0.0464,-0.0562,1,1,1,1,1,1,1
3.2651,sweep,2,+up,-0.01926,0.46254,2.06626,-0.47704,0.16384,1.59628,-0.00744,0.0024,0.2027,-0.0024,-0.0220,-0.0220,-0.0073,-0.0073,0.0205,14.8718,-2.2632,0.6618,-0.2027,0.0464,-0.0562,1,1,1,1,1,1,1
3.3051,sweep,2,+up,-0.01888,0.48695,2.06626,-0.47665,0.16384,1.59628,-0.00744,-0.0024,0.2076,-0.0073,0.0220,-0.0073,-0.0073,0.0073,-0.0068,14.2564,-2.1128,0.6764,-0.2173,0.0464,-0.0562,1,1,1,1,1,1,1
3.3452,sweep,2,+up,-0.01888,0.48695,2.06626,-0.47665,0.16384,1.59628,-0.00744,-0.0024,0.2076,-0.0073,0.0220,-0.0073,-0.0073,0.0073,-0.0068,14.2564,-2.1128,0.6764,-0.2173,0.0464,-0.0562,1,1,1,1,1,1,1
3.3853,sweep,2,+up,-0.01926,0.50298,2.06626,-0.47818,0.16384,1.59628,-0.00744,-0.0024,0.1880,0.0024,-0.0366,-0.0073,-0.0220,0.0073,-0.0205,14.1197,-1.9897,0.7937,-0.2076,0.0415,-0.0562,1,1,1,1,1,1,1
3.4251,sweep,2,+up,-0.01926,0.50298,2.06626,-0.47818,0.16384,1.59628,-0.00744,-0.0024,0.1880,0.0024,-0.0366,-0.0073,-0.0220,0.0073,-0.0205,14.1197,-1.9897,0.7937,-0.2076,0.0415,-0.0562,1,1,1,1,1,1,1
3.4652,sweep,2,+up,-0.01926,0.50298,2.06626,-0.47818,0.16384,1.59628,-0.00744,-0.0024,0.1880,0.0024,-0.0366,-0.0073,-0.0220,0.0073,-0.0205,14.1197,-1.9897,0.7937,-0.2076,0.0415,-0.0562,1,1,1,1,1,1,1
3.5053,sweep,2,+up,-0.01888,0.52701,2.06626,-0.47780,0.16384,1.59590,-0.00782,0.0024,0.1734,-0.0024,-0.0073,-0.0220,-0.0073,0.0073,-0.0205,14.1060,-1.7162,0.8767,-0.2027,0.0415,-0.0562,1,1,1,1,1,1,1
3.5453,sweep,2,+up,-0.01888,0.52701,2.06626,-0.47780,0.16384,1.59590,-0.00782,0.0024,0.1734,-0.0024,-0.0073,-0.0220,-0.0073,0.0073,-0.0205,14.1060,-1.7162,0.8767,-0.2027,0.0415,-0.0562,1,1,1,1,1,1,1
3.5852,sweep,2,+up,-0.01888,0.54303,2.06626,-0.47780,0.16384,1.59590,-0.00782,-0.0024,0.1783,-0.0024,0.0073,0.0073,-0.0073,-0.0220,-0.0205,13.7231,-1.5932,0.9304,-0.2125,0.0415,-0.0562,1,1,1,1,1,1,1
3.6255,sweep,2,+up,-0.01888,0.54303,2.06626,-0.47780,0.16384,1.59590,-0.00782,-0.0024,0.1783,-0.0024,0.0073,0.0073,-0.0073,-0.0220,-0.0205,13.7231,-1.5932,0.9304,-0.2125,0.0415,-0.0562,1,1,1,1,1,1,1
3.6653,sweep,2,+up,-0.01888,0.54303,2.06626,-0.47780,0.16384,1.59590,-0.00782,-0.0024,0.1783,-0.0024,0.0073,0.0073,-0.0073,-0.0220,-0.0205,13.7231,-1.5932,0.9304,-0.2125,0.0415,-0.0562,1,1,1,1,1,1,1
3.7054,sweep,2,+up,-0.01888,0.56783,2.06626,-0.47780,0.16384,1.59628,-0.00744,0.0024,0.1734,-0.0024,-0.0073,-0.0073,-0.0073,-0.0220,0.0068,12.6701,-1.3744,0.9988,-0.2076,0.0415,-0.0611,1,1,1,1,1,1,1
3.7457,sweep,2,+up,-0.01888,0.56783,2.06626,-0.47780,0.16384,1.59628,-0.00744,0.0024,0.1734,-0.0024,-0.0073,-0.0073,-0.0073,-0.0220,0.0068,12.6701,-1.3744,0.9988,-0.2076,0.0415,-0.0611,1,1,1,1,1,1,1
3.7855,sweep,2,+up,-0.01888,0.58423,2.06626,-0.47780,0.16384,1.59590,-0.00744,-0.0073,0.2027,-0.0024,-0.0073,-0.0073,-0.0073,-0.0073,-0.0205,12.2188,-1.1829,1.0379,-0.2076,0.0366,-0.0562,1,1,1,1,1,1,1
3.8260,sweep,2,+up,-0.01888,0.58423,2.06626,-0.47780,0.16384,1.59590,-0.00744,-0.0073,0.2027,-0.0024,-0.0073,-0.0073,-0.0073,-0.0073,-0.0205,12.2188,-1.1829,1.0379,-0.2076,0.0366,-0.0562,1,1,1,1,1,1,1
3.8650,sweep,2,+up,-0.01888,0.58423,2.06626,-0.47780,0.16384,1.59590,-0.00744,-0.0073,0.2027,-0.0024,-0.0073,-0.0073,-0.0073,-0.0073,-0.0205,12.2188,-1.1829,1.0379,-0.2076,0.0366,-0.0562,1,1,1,1,1,1,1
3.9059,sweep,2,+up,-0.01926,0.60826,2.06626,-0.47742,0.16384,1.59628,-0.00744,0.0024,0.1783,-0.0073,0.0073,0.0073,-0.0073,-0.0073,0.0068,12.3282,-0.9778,1.0916,-0.2027,0.0415,-0.0562,1,1,1,1,1,1,1
3.9458,sweep,2,+up,-0.01926,0.60826,2.06626,-0.47742,0.16384,1.59628,-0.00744,0.0024,0.1783,-0.0073,0.0073,0.0073,-0.0073,-0.0073,0.0068,12.3282,-0.9778,1.0916,-0.2027,0.0415,-0.0562,1,1,1,1,1,1,1
3.9856,sweep,2,+up,-0.01926,0.62467,2.06626,-0.47742,0.16384,1.59628,-0.00782,-0.0024,0.1929,-0.0024,-0.0220,-0.0073,-0.0073,-0.0073,0.0068,11.8632,-0.8000,1.1453,-0.1978,0.0415,-0.0513,1,1,1,1,1,1,1
4.0257,sweep,2,+up,-0.01926,0.62467,2.06626,-0.47742,0.16384,1.59628,-0.00782,-0.0024,0.1929,-0.0024,-0.0220,-0.0073,-0.0073,-0.0073,0.0068,11.8632,-0.8000,1.1453,-0.1978,0.0415,-0.0513,1,1,1,1,1,1,1
4.0654,sweep,2,+up,-0.01926,0.62467,2.06626,-0.47742,0.16384,1.59628,-0.00782,-0.0024,0.1929,-0.0024,-0.0220,-0.0073,-0.0073,-0.0073,0.0068,11.8632,-0.8000,1.1453,-0.1978,0.0415,-0.0513,1,1,1,1,1,1,1
4.1054,sweep,2,+up,-0.01926,0.64946,2.06588,-0.47742,0.16384,1.59628,-0.00744,-0.0073,0.2027,-0.0024,0.0073,0.0073,-0.0073,-0.0073,0.0205,11.0017,-0.4855,1.1844,-0.1978,0.0415,-0.0562,1,1,1,1,1,1,1
4.1455,sweep,2,+up,-0.01926,0.64946,2.06588,-0.47742,0.16384,1.59628,-0.00744,-0.0073,0.2027,-0.0024,0.0073,0.0073,-0.0073,-0.0073,0.0205,11.0017,-0.4855,1.1844,-0.1978,0.0415,-0.0562,1,1,1,1,1,1,1
4.1853,sweep,2,+up,-0.01888,0.66548,2.06588,-0.47742,0.16423,1.59628,-0.00744,0.0024,0.1978,-0.0122,-0.0073,-0.0073,-0.0073,-0.0073,0.0342,10.9333,-0.2803,1.2283,-0.2027,0.0415,-0.0562,1,1,1,1,1,1,1
4.2251,sweep,2,+up,-0.01888,0.66548,2.06588,-0.47742,0.16423,1.59628,-0.00744,0.0024,0.1978,-0.0122,-0.0073,-0.0073,-0.0073,-0.0073,0.0342,10.9333,-0.2803,1.2283,-0.2027,0.0415,-0.0562,1,1,1,1,1,1,1
4.2653,sweep,2,+up,-0.01888,0.66548,2.06588,-0.47742,0.16423,1.59628,-0.00744,0.0024,0.1978,-0.0122,-0.0073,-0.0073,-0.0073,-0.0073,0.0342,10.9333,-0.2803,1.2283,-0.2027,0.0415,-0.0562,1,1,1,1,1,1,1
4.3051,sweep,2,+up,-0.01926,0.68914,2.06550,-0.47704,0.16384,1.59628,-0.00782,-0.0024,0.1880,-0.0024,-0.0073,-0.0073,0.0073,-0.0220,0.0068,11.1248,0.0615,1.2625,-0.2027,0.0415,-0.0611,1,1,1,1,1,1,1
4.3453,sweep,2,+up,-0.01926,0.68914,2.06550,-0.47704,0.16384,1.59628,-0.00782,-0.0024,0.1880,-0.0024,-0.0073,-0.0073,0.0073,-0.0220,0.0068,11.1248,0.0615,1.2625,-0.2027,0.0415,-0.0611,1,1,1,1,1,1,1
4.3852,sweep,2,+up,-0.01926,0.70516,2.06550,-0.47704,0.16384,1.59628,-0.00744,-0.0024,0.1929,-0.0073,0.0073,-0.0220,0.0220,-0.0073,-0.0205,10.8650,0.1709,1.2967,-0.1978,0.0366,-0.0611,1,1,1,1,1,1,1
4.4253,sweep,2,+up,-0.01926,0.70516,2.06550,-0.47704,0.16384,1.59628,-0.00744,-0.0024,0.1929,-0.0073,0.0073,-0.0220,0.0220,-0.0073,-0.0205,10.8650,0.1709,1.2967,-0.1978,0.0366,-0.0611,1,1,1,1,1,1,1
4.4653,sweep,2,+up,-0.01926,0.70516,2.06550,-0.47704,0.16384,1.59628,-0.00744,-0.0024,0.1929,-0.0073,0.0073,-0.0220,0.0220,-0.0073,-0.0205,10.8650,0.1709,1.2967,-0.1978,0.0366,-0.0611,1,1,1,1,1,1,1
4.5051,sweep,2,+up,-0.01926,0.73224,2.06435,-0.48047,0.16384,1.59628,-0.00744,-0.0024,0.2076,-0.0122,-0.0073,0.0073,0.0073,-0.0073,-0.0342,7.2000,1.7573,1.6923,-0.1929,0.0366,-0.0611,1,1,1,1,1,1,1
4.5458,sweep,2,+up,-0.01926,0.73224,2.06435,-0.48047,0.16384,1.59628,-0.00744,-0.0024,0.2076,-0.0122,-0.0073,0.0073,0.0073,-0.0073,-0.0342,7.2000,1.7573,1.6923,-0.1929,0.0366,-0.0611,1,1,1,1,1,1,1
4.5853,sweep,2,+up,-0.01888,0.74903,2.06397,-0.48009,0.16384,1.59628,-0.00782,-0.0024,0.1929,-0.0024,-0.0073,0.0073,-0.0073,-0.0073,-0.0752,5.9556,2.7009,1.7802,-0.1929,0.0366,-0.0611,1,1,1,1,1,1,1
4.6251,sweep,2,+up,-0.01888,0.74903,2.06397,-0.48009,0.16384,1.59628,-0.00782,-0.0024,0.1929,-0.0024,-0.0073,0.0073,-0.0073,-0.0073,-0.0752,5.9556,2.7009,1.7802,-0.1929,0.0366,-0.0611,1,1,1,1,1,1,1
4.6652,sweep,2,+up,-0.01888,0.74903,2.06397,-0.48009,0.16384,1.59628,-0.00782,-0.0024,0.1929,-0.0024,-0.0073,0.0073,-0.0073,-0.0073,-0.0752,5.9556,2.7009,1.7802,-0.1929,0.0366,-0.0611,1,1,1,1,1,1,1
4.7054,sweep,2,+up,-0.01926,0.77115,2.06474,-0.47475,0.16423,1.59628,-0.00744,-0.0073,0.1685,0.0171,0.0806,-0.0220,0.0073,-0.0073,-0.0479,8.6906,1.9897,1.5116,-0.1978,0.0317,-0.0513,1,1,1,1,1,1,1
4.7458,sweep,2,+up,-0.01926,0.77115,2.06474,-0.47475,0.16423,1.59628,-0.00744,-0.0073,0.1685,0.0171,0.0806,-0.0220,0.0073,-0.0073,-0.0479,8.6906,1.9897,1.5116,-0.1978,0.0317,-0.0513,1,1,1,1,1,1,1
4.7855,sweep,2,+up,-0.01926,0.78756,2.06550,-0.47437,0.16384,1.59628,-0.00744,-0.0024,0.2222,-0.0024,-0.0220,-0.0220,-0.0073,-0.0073,-0.0479,8.3624,1.7436,1.4188,-0.1880,0.0317,-0.0562,1,1,1,1,1,1,1
4.8254,sweep,2,+up,-0.01926,0.78756,2.06550,-0.47437,0.16384,1.59628,-0.00744,-0.0024,0.2222,-0.0024,-0.0220,-0.0220,-0.0073,-0.0073,-0.0479,8.3624,1.7436,1.4188,-0.1880,0.0317,-0.0562,1,1,1,1,1,1,1
4.8651,sweep,2,+up,-0.01926,0.78756,2.06550,-0.47437,0.16384,1.59628,-0.00744,-0.0024,0.2222,-0.0024,-0.0220,-0.0220,-0.0073,-0.0073,-0.0479,8.3624,1.7436,1.4188,-0.1880,0.0317,-0.0562,1,1,1,1,1,1,1
4.9055,sweep,2,+up,-0.01926,0.81273,2.06550,-0.47513,0.16384,1.59628,-0.00782,-0.0024,0.2125,-0.0024,-0.0366,0.0073,-0.0220,-0.0220,-0.0479,6.5709,2.1538,1.4335,-0.1783,0.0269,-0.0562,1,1,1,1,1,1,1
4.9457,sweep,2,+up,-0.01926,0.81273,2.06550,-0.47513,0.16384,1.59628,-0.00782,-0.0024,0.2125,-0.0024,-0.0366,0.0073,-0.0220,-0.0220,-0.0479,6.5709,2.1538,1.4335,-0.1783,0.0269,-0.0562,1,1,1,1,1,1,1
4.9856,sweep,2,+up,-0.01888,0.82914,2.06512,-0.47742,0.16384,1.59628,-0.00782,-0.0024,0.1929,-0.0024,-0.0220,-0.0073,-0.0073,-0.0073,-0.0342,6.0376,2.4000,1.6239,-0.1783,0.0269,-0.0562,1,1,1,1,1,1,1
5.0257,sweep,2,+up,-0.01888,0.82914,2.06512,-0.47742,0.16384,1.59628,-0.00782,-0.0024,0.1929,-0.0024,-0.0220,-0.0073,-0.0073,-0.0073,-0.0342,6.0376,2.4000,1.6239,-0.1783,0.0269,-0.0562,1,1,1,1,1,1,1
5.0655,sweep,2,+up,-0.01888,0.82914,2.06512,-0.47742,0.16384,1.59628,-0.00782,-0.0024,0.1929,-0.0024,-0.0220,-0.0073,-0.0073,-0.0073,-0.0342,6.0376,2.4000,1.6239,-0.1783,0.0269,-0.0562,1,1,1,1,1,1,1
5.1053,sweep,2,+up,-0.01888,0.85317,2.06550,-0.47704,0.16384,1.59628,-0.00744,-0.0024,0.2222,-0.0073,-0.0073,-0.0220,0.0073,-0.0073,-0.0205,6.0513,2.8376,1.6630,-0.1783,0.0220,-0.0562,1,1,1,1,1,1,1
5.1457,sweep,2,+up,-0.01888,0.85317,2.06550,-0.47704,0.16384,1.59628,-0.00744,-0.0024,0.2222,-0.0073,-0.0073,-0.0220,0.0073,-0.0073,-0.0205,6.0513,2.8376,1.6630,-0.1783,0.0220,-0.0562,1,1,1,1,1,1,1
5.1853,sweep,2,+up,-0.01926,0.86919,2.06550,-0.47704,0.16384,1.59628,-0.00782,-0.0073,0.1880,0.0024,-0.0073,0.0073,-0.0073,0.0073,0.0068,5.9556,3.0974,1.7021,-0.1734,0.0171,-0.0562,1,1,1,1,1,1,1
5.2252,sweep,2,+up,-0.01926,0.86919,2.06550,-0.47704,0.16384,1.59628,-0.00782,-0.0073,0.1880,0.0024,-0.0073,0.0073,-0.0073,0.0073,0.0068,5.9556,3.0974,1.7021,-0.1734,0.0171,-0.0562,1,1,1,1,1,1,1
5.2660,sweep,2,+up,-0.01926,0.86919,2.06550,-0.47704,0.16384,1.59628,-0.00782,-0.0073,0.1880,0.0024,-0.0073,0.0073,-0.0073,0.0073,0.0068,5.9556,3.0974,1.7021,-0.1734,0.0171,-0.0562,1,1,1,1,1,1,1
5.3055,sweep,2,+up,-0.01888,0.89399,2.06550,-0.47704,0.16384,1.59628,-0.00744,-0.0024,0.1978,0.0024,-0.0073,0.0073,-0.0220,-0.0073,-0.0068,5.2718,3.4940,1.7460,-0.1636,0.0171,-0.0611,1,1,1,1,1,1,1
5.3454,sweep,2,+up,-0.01888,0.89399,2.06550,-0.47704,0.16384,1.59628,-0.00744,-0.0024,0.1978,0.0024,-0.0073,0.0073,-0.0220,-0.0073,-0.0068,5.2718,3.4940,1.7460,-0.1636,0.0171,-0.0611,1,1,1,1,1,1,1
5.3851,sweep,2,+up,-0.01888,0.91001,2.06550,-0.47704,0.16384,1.59628,-0.00782,-0.0024,0.2076,-0.0024,-0.0073,-0.0220,-0.0073,-0.0073,-0.0068,4.9026,3.6991,1.7851,-0.1685,0.0122,-0.0611,1,1,1,1,1,1,1
5.4252,sweep,2,+up,-0.01888,0.91001,2.06550,-0.47704,0.16384,1.59628,-0.00782,-0.0024,0.2076,-0.0024,-0.0073,-0.0220,-0.0073,-0.0073,-0.0068,4.9026,3.6991,1.7851,-0.1685,0.0122,-0.0611,1,1,1,1,1,1,1
5.4651,sweep,2,+up,-0.01888,0.91001,2.06550,-0.47704,0.16384,1.59628,-0.00782,-0.0024,0.2076,-0.0024,-0.0073,-0.0220,-0.0073,-0.0073,-0.0068,4.9026,3.6991,1.7851,-0.1685,0.0122,-0.0611,1,1,1,1,1,1,1
5.5052,sweep,2,+up,-0.01926,0.93442,2.06550,-0.47704,0.16384,1.59628,-0.00782,-0.0024,0.1734,-0.0024,-0.0073,0.0073,-0.0073,-0.0073,0.0068,4.3829,4.0684,1.8242,-0.1734,0.0171,-0.0611,1,1,1,1,1,1,1
5.5455,sweep,2,+up,-0.01926,0.93442,2.06550,-0.47704,0.16384,1.59628,-0.00782,-0.0024,0.1734,-0.0024,-0.0073,0.0073,-0.0073,-0.0073,0.0068,4.3829,4.0684,1.8242,-0.1734,0.0171,-0.0611,1,1,1,1,1,1,1
5.5858,sweep,2,+up,-0.01926,0.95083,2.06550,-0.47704,0.16384,1.59628,-0.00782,-0.0073,0.2222,-0.0024,-0.0073,0.0073,0.0073,-0.0073,0.0068,3.8496,4.2462,1.8535,-0.1734,0.0122,-0.0562,1,1,1,1,1,1,1
5.6254,sweep,2,+up,-0.01926,0.95083,2.06550,-0.47704,0.16384,1.59628,-0.00782,-0.0073,0.2222,-0.0024,-0.0073,0.0073,0.0073,-0.0073,0.0068,3.8496,4.2462,1.8535,-0.1734,0.0122,-0.0562,1,1,1,1,1,1,1
5.6653,sweep,2,+up,-0.01926,0.95083,2.06550,-0.47704,0.16384,1.59628,-0.00782,-0.0073,0.2222,-0.0024,-0.0073,0.0073,0.0073,-0.0073,0.0068,3.8496,4.2462,1.8535,-0.1734,0.0122,-0.0562,1,1,1,1,1,1,1
5.7059,sweep,2,+up,-0.01926,0.97524,2.06550,-0.47704,0.16384,1.59628,-0.00744,-0.0073,0.2125,-0.0024,0.0073,-0.0073,-0.0220,-0.0073,-0.0068,3.3436,4.6017,1.9023,-0.1734,0.0122,-0.0611,1,1,1,1,1,1,1
5.7455,sweep,2,+up,-0.01926,0.97524,2.06550,-0.47704,0.16384,1.59628,-0.00744,-0.0073,0.2125,-0.0024,0.0073,-0.0073,-0.0220,-0.0073,-0.0068,3.3436,4.6017,1.9023,-0.1734,0.0122,-0.0611,1,1,1,1,1,1,1
5.7853,sweep,2,+up,-0.01926,0.99165,2.06550,-0.47704,0.16384,1.59628,-0.00782,0.0024,0.2076,-0.0024,-0.0073,-0.0366,-0.0073,-0.0073,-0.0068,2.9060,4.8342,1.9267,-0.1636,0.0122,-0.0659,1,1,1,1,1,1,1
5.8258,sweep,2,+up,-0.01926,0.99165,2.06550,-0.47704,0.16384,1.59628,-0.00782,0.0024,0.2076,-0.0024,-0.0073,-0.0366,-0.0073,-0.0073,-0.0068,2.9060,4.8342,1.9267,-0.1636,0.0122,-0.0659,1,1,1,1,1,1,1
5.8657,sweep,2,+up,-0.01926,0.99165,2.06550,-0.47704,0.16384,1.59628,-0.00782,0.0024,0.2076,-0.0024,-0.0073,-0.0366,-0.0073,-0.0073,-0.0068,2.9060,4.8342,1.9267,-0.1636,0.0122,-0.0659,1,1,1,1,1,1,1
5.9054,sweep,2,+up,-0.01926,1.01568,2.06550,-0.47704,0.16384,1.59628,-0.00782,-0.0073,0.1978,0.0024,-0.0073,-0.0073,-0.0073,-0.0073,0.0068,2.7829,5.0803,1.9609,-0.1685,0.0073,-0.0659,1,1,1,1,1,1,1
5.9457,sweep,2,+up,-0.01926,1.01568,2.06550,-0.47704,0.16384,1.59628,-0.00782,-0.0073,0.1978,0.0024,-0.0073,-0.0073,-0.0073,-0.0073,0.0068,2.7829,5.0803,1.9609,-0.1685,0.0073,-0.0659,1,1,1,1,1,1,1
5.9855,sweep,2,+up,-0.01926,1.03208,2.06550,-0.47665,0.16384,1.59628,-0.00782,-0.0024,0.1929,-0.0024,-0.0073,-0.0073,-0.0366,-0.0073,0.0205,2.4410,5.2718,1.9951,-0.1587,0.0073,-0.0659,1,1,1,1,1,1,1
6.0258,sweep,2,+up,-0.01926,1.03208,2.06550,-0.47665,0.16384,1.59628,-0.00782,-0.0024,0.1929,-0.0024,-0.0073,-0.0073,-0.0366,-0.0073,0.0205,2.4410,5.2718,1.9951,-0.1587,0.0073,-0.0659,1,1,1,1,1,1,1
6.0657,sweep,2,+up,-0.01926,1.03208,2.06550,-0.47665,0.16384,1.59628,-0.00782,-0.0024,0.1929,-0.0024,-0.0073,-0.0073,-0.0366,-0.0073,0.0205,2.4410,5.2718,1.9951,-0.1587,0.0073,-0.0659,1,1,1,1,1,1,1
6.1053,sweep,2,+up,-0.01926,1.05688,2.06550,-0.47665,0.16384,1.59628,-0.00782,-0.0024,0.2076,-0.0024,-0.0220,-0.0073,-0.0220,-0.0073,0.0342,1.1692,5.5727,2.0244,-0.1538,0.0073,-0.0708,1,1,1,1,1,1,1
6.1458,sweep,2,+up,-0.01926,1.05688,2.06550,-0.47665,0.16384,1.59628,-0.00782,-0.0024,0.2076,-0.0024,-0.0220,-0.0073,-0.0220,-0.0073,0.0342,1.1692,5.5727,2.0244,-0.1538,0.0073,-0.0708,1,1,1,1,1,1,1
6.1853,sweep,2,+up,-0.01926,1.07328,2.06550,-0.47665,0.16384,1.59628,-0.00782,-0.0024,0.1978,-0.0024,-0.0073,0.0073,0.0073,-0.0073,0.0342,0.8957,5.8051,2.0391,-0.1490,-0.0024,-0.0659,1,1,1,1,1,1,1
6.2253,sweep,2,+up,-0.01926,1.07328,2.06550,-0.47665,0.16384,1.59628,-0.00782,-0.0024,0.1978,-0.0024,-0.0073,0.0073,0.0073,-0.0073,0.0342,0.8957,5.8051,2.0391,-0.1490,-0.0024,-0.0659,1,1,1,1,1,1,1
6.2655,sweep,2,+up,-0.01926,1.07328,2.06550,-0.47665,0.16384,1.59628,-0.00782,-0.0024,0.1978,-0.0024,-0.0073,0.0073,0.0073,-0.0073,0.0342,0.8957,5.8051,2.0391,-0.1490,-0.0024,-0.0659,1,1,1,1,1,1,1
6.3052,sweep,2,+up,-0.01888,1.09731,2.06550,-0.47665,0.16384,1.59628,-0.00782,-0.0024,0.1880,-0.0024,-0.0073,-0.0073,-0.0073,-0.0073,0.0205,0.5265,6.0923,2.0781,-0.1441,-0.0073,-0.0659,1,1,1,1,1,1,1
6.3453,sweep,2,+up,-0.01888,1.09731,2.06550,-0.47665,0.16384,1.59628,-0.00782,-0.0024,0.1880,-0.0024,-0.0073,-0.0073,-0.0073,-0.0073,0.0205,0.5265,6.0923,2.0781,-0.1441,-0.0073,-0.0659,1,1,1,1,1,1,1
6.3850,sweep,2,+up,-0.01926,1.11372,2.06588,-0.47665,0.16384,1.59628,-0.00782,-0.0024,0.2076,-0.0024,-0.0220,-0.0220,-0.0220,0.0073,0.0205,0.3487,6.2154,2.0879,-0.1392,-0.0073,-0.0659,1,1,1,1,1,1,1
6.4250,sweep,2,+up,-0.01926,1.11372,2.06588,-0.47665,0.16384,1.59628,-0.00782,-0.0024,0.2076,-0.0024,-0.0220,-0.0220,-0.0220,0.0073,0.0205,0.3487,6.2154,2.0879,-0.1392,-0.0073,-0.0659,1,1,1,1,1,1,1
6.4651,sweep,2,+up,-0.01926,1.11372,2.06588,-0.47665,0.16384,1.59628,-0.00782,-0.0024,0.2076,-0.0024,-0.0220,-0.0220,-0.0220,0.0073,0.0205,0.3487,6.2154,2.0879,-0.1392,-0.0073,-0.0659,1,1,1,1,1,1,1
6.5055,sweep,2,+up,-0.01926,1.13775,2.06588,-0.47665,0.16384,1.59628,-0.00782,0.0024,0.1685,-0.0024,-0.0073,-0.0073,-0.0073,-0.0073,0.0205,0.1709,6.3795,2.1074,-0.1441,-0.0073,-0.0611,1,1,1,1,1,1,1
6.5457,sweep,2,+up,-0.01926,1.13775,2.06588,-0.47665,0.16384,1.59628,-0.00782,0.0024,0.1685,-0.0024,-0.0073,-0.0073,-0.0073,-0.0073,0.0205,0.1709,6.3795,2.1074,-0.1441,-0.0073,-0.0611,1,1,1,1,1,1,1
6.5854,sweep,2,+up,-0.01926,1.15492,2.06588,-0.47665,0.16384,1.59628,-0.00782,-0.0024,0.2466,-0.0024,-0.0073,-0.0073,-0.0073,-0.0073,0.0068,-0.1573,6.5026,2.1368,-0.1392,-0.0024,-0.0611,1,1,1,1,1,1,1
6.6255,sweep,2,+up,-0.01926,1.15492,2.06588,-0.47665,0.16384,1.59628,-0.00782,-0.0024,0.2466,-0.0024,-0.0073,-0.0073,-0.0073,-0.0073,0.0068,-0.1573,6.5026,2.1368,-0.1392,-0.0024,-0.0611,1,1,1,1,1,1,1
6.6653,sweep,2,+up,-0.01926,1.15492,2.06588,-0.47665,0.16384,1.59628,-0.00782,-0.0024,0.2466,-0.0024,-0.0073,-0.0073,-0.0073,-0.0073,0.0068,-0.1573,6.5026,2.1368,-0.1392,-0.0024,-0.0611,1,1,1,1,1,1,1
6.7057,sweep,2,+up,-0.01926,1.17933,2.06588,-0.47665,0.16384,1.59628,-0.00782,-0.0024,0.2125,-0.0024,-0.0073,0.0073,-0.0073,-0.0073,0.0342,-0.6769,6.5436,2.1612,-0.1392,-0.0024,-0.0562,1,1,1,1,1,1,1
6.7453,sweep,2,+up,-0.01926,1.17933,2.06588,-0.47665,0.16384,1.59628,-0.00782,-0.0024,0.2125,-0.0024,-0.0073,0.0073,-0.0073,-0.0073,0.0342,-0.6769,6.5436,2.1612,-0.1392,-0.0024,-0.0562,1,1,1,1,1,1,1
6.7859,sweep,2,+up,-0.01926,1.19573,2.06588,-0.47665,0.16384,1.59628,-0.00782,0.0024,0.1832,-0.0024,-0.0073,-0.0073,-0.0073,-0.0073,0.0068,-1.1556,6.7077,2.1807,-0.1343,0.0024,-0.0562,1,1,1,1,1,1,1
6.8254,sweep,2,+up,-0.01926,1.19573,2.06588,-0.47665,0.16384,1.59628,-0.00782,0.0024,0.1832,-0.0024,-0.0073,-0.0073,-0.0073,-0.0073,0.0068,-1.1556,6.7077,2.1807,-0.1343,0.0024,-0.0562,1,1,1,1,1,1,1
6.8655,sweep,2,+up,-0.01926,1.19573,2.06588,-0.47665,0.16384,1.59628,-0.00782,0.0024,0.1832,-0.0024,-0.0073,-0.0073,-0.0073,-0.0073,0.0068,-1.1556,6.7077,2.1807,-0.1343,0.0024,-0.0562,1,1,1,1,1,1,1
6.9054,sweep,2,+up,-0.01926,1.22168,2.06588,-0.47742,0.16384,1.59628,-0.00744,-0.0024,0.2027,-0.0024,-0.0073,-0.0073,-0.0220,-0.0073,0.0068,-3.4120,6.9265,2.2686,-0.1245,-0.0024,-0.0562,1,1,1,1,1,1,1
6.9453,sweep,2,+up,-0.01926,1.22168,2.06588,-0.47742,0.16384,1.59628,-0.00744,-0.0024,0.2027,-0.0024,-0.0073,-0.0073,-0.0220,-0.0073,0.0068,-3.4120,6.9265,2.2686,-0.1245,-0.0024,-0.0562,1,1,1,1,1,1,1
6.9850,sweep,2,+up,-0.01926,1.23808,2.06588,-0.47780,0.16384,1.59628,-0.00782,0.0024,0.2173,-0.0024,-0.0073,0.0073,-0.0073,-0.0073,0.0068,-4.3556,7.0769,2.3419,-0.1197,-0.0024,-0.0513,1,1,1,1,1,1,1
7.0256,sweep,2,+up,-0.01926,1.23808,2.06588,-0.47780,0.16384,1.59628,-0.00782,0.0024,0.2173,-0.0024,-0.0073,0.0073,-0.0073,-0.0073,0.0068,-4.3556,7.0769,2.3419,-0.1197,-0.0024,-0.0513,1,1,1,1,1,1,1
7.0653,sweep,2,+up,-0.01926,1.23808,2.06588,-0.47780,0.16384,1.59628,-0.00782,0.0024,0.2173,-0.0024,-0.0073,0.0073,-0.0073,-0.0073,0.0068,-4.3556,7.0769,2.3419,-0.1197,-0.0024,-0.0513,1,1,1,1,1,1,1
7.1059,sweep,2,+up,-0.01926,1.26059,2.06588,-0.47513,0.16384,1.59628,-0.00782,-0.0024,0.1832,-0.0024,0.0513,-0.0073,-0.0073,-0.0220,-0.0068,-2.2085,7.2957,2.1856,-0.1197,-0.0073,-0.0513,1,1,1,1,1,1,1
7.1460,sweep,2,+up,-0.01926,1.26059,2.06588,-0.47513,0.16384,1.59628,-0.00782,-0.0024,0.1832,-0.0024,0.0513,-0.0073,-0.0073,-0.0220,-0.0068,-2.2085,7.2957,2.1856,-0.1197,-0.0073,-0.0513,1,1,1,1,1,1,1
7.1853,sweep,2,+up,-0.01926,1.27699,2.06626,-0.47475,0.16384,1.59628,-0.00782,-0.0024,0.2320,-0.0024,-0.0220,-0.0073,0.0073,-0.0220,-0.0068,-2.7829,7.3231,2.1123,-0.1148,-0.0073,-0.0464,1,1,1,1,1,1,1
7.2251,sweep,2,+up,-0.01926,1.27699,2.06626,-0.47475,0.16384,1.59628,-0.00782,-0.0024,0.2320,-0.0024,-0.0220,-0.0073,0.0073,-0.0220,-0.0068,-2.7829,7.3231,2.1123,-0.1148,-0.0073,-0.0464,1,1,1,1,1,1,1
7.2653,sweep,2,+up,-0.01926,1.27699,2.06626,-0.47475,0.16384,1.59628,-0.00782,-0.0024,0.2320,-0.0024,-0.0220,-0.0073,0.0073,-0.0220,-0.0068,-2.7829,7.3231,2.1123,-0.1148,-0.0073,-0.0464,1,1,1,1,1,1,1
7.3054,sweep,2,+up,-0.01926,1.30179,2.06626,-0.47704,0.16384,1.59628,-0.00782,-0.0024,0.1929,-0.0024,-0.0220,0.0073,0.0073,-0.0073,0.0205,-3.8496,7.5692,2.2393,-0.1001,-0.0073,-0.0513,1,1,1,1,1,1,1
7.3454,sweep,2,+up,-0.01926,1.30179,2.06626,-0.47704,0.16384,1.59628,-0.00782,-0.0024,0.1929,-0.0024,-0.0220,0.0073,0.0073,-0.0073,0.0205,-3.8496,7.5692,2.2393,-0.1001,-0.0073,-0.0513,1,1,1,1,1,1,1
7.3852,sweep,2,+up,-0.01926,1.31781,2.06626,-0.47665,0.16384,1.59628,-0.00782,-0.0024,0.2125,-0.0073,0.0073,0.0073,-0.0073,-0.0073,0.0205,-3.5761,7.6786,2.2344,-0.1001,-0.0024,-0.0464,1,1,1,1,1,1,1
7.4253,sweep,2,+up,-0.01926,1.31781,2.06626,-0.47665,0.16384,1.59628,-0.00782,-0.0024,0.2125,-0.0073,0.0073,0.0073,-0.0073,-0.0073,0.0205,-3.5761,7.6786,2.2344,-0.1001,-0.0024,-0.0464,1,1,1,1,1,1,1
7.4653,sweep,2,+up,-0.01926,1.31781,2.06626,-0.47665,0.16384,1.59628,-0.00782,-0.0024,0.2125,-0.0073,0.0073,0.0073,-0.0073,-0.0073,0.0205,-3.5761,7.6786,2.2344,-0.1001,-0.0024,-0.0464,1,1,1,1,1,1,1
7.5052,sweep,2,+up,-0.01926,1.34222,2.06626,-0.47665,0.16384,1.59628,-0.00744,0.0024,0.2125,-0.0024,-0.0073,0.0073,0.0073,-0.0366,0.0342,-4.4376,7.9111,2.2540,-0.0952,-0.0024,-0.0415,1,1,1,1,1,1,1
7.5452,sweep,2,+up,-0.01926,1.34222,2.06626,-0.47665,0.16384,1.59628,-0.00744,0.0024,0.2125,-0.0024,-0.0073,0.0073,0.0073,-0.0366,0.0342,-4.4376,7.9111,2.2540,-0.0952,-0.0024,-0.0415,1,1,1,1,1,1,1
7.5850,sweep,2,+up,-0.01926,1.35863,2.06626,-0.47665,0.16384,1.59628,-0.00744,-0.0024,0.1832,-0.0024,-0.0220,-0.0073,-0.0073,-0.0220,0.0342,-4.9026,8.0342,2.2882,-0.0904,-0.0073,-0.0366,1,1,1,1,1,1,1
7.6252,sweep,2,+up,-0.01926,1.35863,2.06626,-0.47665,0.16384,1.59628,-0.00744,-0.0024,0.1832,-0.0024,-0.0220,-0.0073,-0.0073,-0.0220,0.0342,-4.9026,8.0342,2.2882,-0.0904,-0.0073,-0.0366,1,1,1,1,1,1,1
7.6651,sweep,2,+up,-0.01926,1.35863,2.06626,-0.47665,0.16384,1.59628,-0.00744,-0.0024,0.1832,-0.0024,-0.0220,-0.0073,-0.0073,-0.0220,0.0342,-4.9026,8.0342,2.2882,-0.0904,-0.0073,-0.0366,1,1,1,1,1,1,1
7.7055,sweep,2,+up,-0.01926,1.38228,2.06626,-0.47627,0.16384,1.59628,-0.00744,-0.0073,0.1978,-0.0024,-0.0073,-0.0073,0.0073,0.0073,-0.0068,-4.2872,8.2667,2.3126,-0.0855,-0.0024,-0.0366,1,1,1,1,1,1,1
7.7455,sweep,2,+up,-0.01926,1.38228,2.06626,-0.47627,0.16384,1.59628,-0.00744,-0.0073,0.1978,-0.0024,-0.0073,-0.0073,0.0073,0.0073,-0.0068,-4.2872,8.2667,2.3126,-0.0855,-0.0024,-0.0366,1,1,1,1,1,1,1
7.7855,sweep,2,+up,-0.01926,1.39830,2.06626,-0.47627,0.16384,1.59628,-0.00744,-0.0024,0.1832,-0.0024,-0.0073,-0.0220,0.0073,0.0073,-0.0068,-4.3692,8.4171,2.3077,-0.0855,-0.0024,-0.0317,1,1,1,1,1,1,1
7.8253,sweep,2,+up,-0.01926,1.39830,2.06626,-0.47627,0.16384,1.59628,-0.00744,-0.0024,0.1832,-0.0024,-0.0073,-0.0220,0.0073,0.0073,-0.0068,-4.3692,8.4171,2.3077,-0.0855,-0.0024,-0.0317,1,1,1,1,1,1,1
7.8657,sweep,2,+up,-0.01926,1.39830,2.06626,-0.47627,0.16384,1.59628,-0.00744,-0.0024,0.1832,-0.0024,-0.0073,-0.0220,0.0073,0.0073,-0.0068,-4.3692,8.4171,2.3077,-0.0855,-0.0024,-0.0317,1,1,1,1,1,1,1
7.9053,sweep,2,+up,-0.01926,1.42348,2.06626,-0.47627,0.16384,1.59628,-0.00744,0.0024,0.2076,0.0024,-0.0220,-0.0220,0.0073,-0.0073,-0.0068,-5.7778,8.6222,2.3077,-0.0806,0.0024,-0.0366,1,1,1,1,1,1,1
7.9457,sweep,2,+up,-0.01926,1.42348,2.06626,-0.47627,0.16384,1.59628,-0.00744,0.0024,0.2076,0.0024,-0.0220,-0.0220,0.0073,-0.0073,-0.0068,-5.7778,8.6222,2.3077,-0.0806,0.0024,-0.0366,1,1,1,1,1,1,1
7.9856,sweep,2,+up,-0.01926,1.43912,2.06626,-0.47627,0.16384,1.59590,-0.00744,-0.0073,0.1929,0.0024,-0.0073,0.0073,-0.0220,0.0073,0.0068,-5.4906,8.7453,2.3077,-0.0806,-0.0024,-0.0415,1,1,1,1,1,1,1
8.0253,sweep,2,+up,-0.01926,1.43912,2.06626,-0.47627,0.16384,1.59590,-0.00744,-0.0073,0.1929,0.0024,-0.0073,0.0073,-0.0220,0.0073,0.0068,-5.4906,8.7453,2.3077,-0.0806,-0.0024,-0.0415,1,1,1,1,1,1,1
8.0652,sweep,2,+up,-0.01926,1.43912,2.06626,-0.47627,0.16384,1.59590,-0.00744,-0.0073,0.1929,0.0024,-0.0073,0.0073,-0.0220,0.0073,0.0068,-5.4906,8.7453,2.3077,-0.0806,-0.0024,-0.0415,1,1,1,1,1,1,1
8.1055,sweep,2,+up,-0.01926,1.46315,2.06626,-0.47627,0.16384,1.59628,-0.00744,-0.0024,0.1734,-0.0073,-0.0073,-0.0073,-0.0220,-0.0073,0.0205,-5.5043,8.9368,2.2930,-0.0806,-0.0024,-0.0317,1,1,1,1,1,1,1
8.1455,sweep,2,+up,-0.01926,1.46315,2.06626,-0.47627,0.16384,1.59628,-0.00744,-0.0024,0.1734,-0.0073,-0.0073,-0.0073,-0.0220,-0.0073,0.0205,-5.5043,8.9368,2.2930,-0.0806,-0.0024,-0.0317,1,1,1,1,1,1,1
8.1857,sweep,2,+up,-0.01926,1.47917,2.06626,-0.47627,0.16384,1.59628,-0.00744,-0.0024,0.2027,-0.0024,-0.0220,-0.0073,0.0073,0.0073,0.0068,-5.6821,9.0735,2.3077,-0.0855,0.0024,-0.0366,1,1,1,1,1,1,1
8.2253,sweep,2,+up,-0.01926,1.47917,2.06626,-0.47627,0.16384,1.59628,-0.00744,-0.0024,0.2027,-0.0024,-0.0220,-0.0073,0.0073,0.0073,0.0068,-5.6821,9.0735,2.3077,-0.0855,0.0024,-0.0366,1,1,1,1,1,1,1
8.2652,sweep,2,+up,-0.01926,1.47917,2.06626,-0.47627,0.16384,1.59628,-0.00744,-0.0024,0.2027,-0.0024,-0.0220,-0.0073,0.0073,0.0073,0.0068,-5.6821,9.0735,2.3077,-0.0855,0.0024,-0.0366,1,1,1,1,1,1,1
8.3053,sweep,2,+up,-0.01926,1.50359,2.06626,-0.47627,0.16384,1.59628,-0.00744,-0.0024,0.1783,-0.0024,-0.0073,-0.0220,0.0073,0.0073,0.0205,-6.3795,9.3060,2.3175,-0.0757,-0.0073,-0.0415,1,1,1,1,1,1,1
8.3453,sweep,2,+up,-0.01926,1.50359,2.06626,-0.47627,0.16384,1.59628,-0.00744,-0.0024,0.1783,-0.0024,-0.0073,-0.0220,0.0073,0.0073,0.0205,-6.3795,9.3060,2.3175,-0.0757,-0.0073,-0.0415,1,1,1,1,1,1,1
8.3852,sweep,2,+up,-0.01926,1.51999,2.06626,-0.47627,0.16384,1.59628,-0.00782,-0.0024,0.2173,-0.0024,-0.0073,-0.0220,-0.0073,-0.0220,0.0342,-6.7350,9.4154,2.3077,-0.0757,-0.0024,-0.0464,1,1,1,1,1,1,1
8.4253,sweep,2,+up,-0.01926,1.51999,2.06626,-0.47627,0.16384,1.59628,-0.00782,-0.0024,0.2173,-0.0024,-0.0073,-0.0220,-0.0073,-0.0220,0.0342,-6.7350,9.4154,2.3077,-0.0757,-0.0024,-0.0464,1,1,1,1,1,1,1
8.4653,sweep,2,+up,-0.01926,1.51999,2.06626,-0.47627,0.16384,1.59628,-0.00782,-0.0024,0.2173,-0.0024,-0.0073,-0.0220,-0.0073,-0.0220,0.0342,-6.7350,9.4154,2.3077,-0.0757,-0.0024,-0.0464,1,1,1,1,1,1,1
8.5051,sweep,2,+up,-0.01926,1.54402,2.06626,-0.47627,0.16384,1.59628,-0.00744,0.0024,0.1978,-0.0024,-0.0073,-0.0073,-0.0220,-0.0073,0.0205,-6.9812,9.5932,2.3028,-0.0659,-0.0024,-0.0464,1,1,1,1,1,1,1
8.5455,sweep,2,+up,-0.01926,1.54402,2.06626,-0.47627,0.16384,1.59628,-0.00744,0.0024,0.1978,-0.0024,-0.0073,-0.0073,-0.0220,-0.0073,0.0205,-6.9812,9.5932,2.3028,-0.0659,-0.0024,-0.0464,1,1,1,1,1,1,1
8.5853,sweep,2,+up,-0.01926,1.56081,2.06626,-0.47589,0.16384,1.59628,-0.00744,-0.0024,0.1978,-0.0024,-0.0073,0.0073,-0.0073,0.0073,0.0205,-7.5692,9.7026,2.3077,-0.0659,-0.0024,-0.0464,1,1,1,1,1,1,1
8.6255,sweep,2,+up,-0.01926,1.56081,2.06626,-0.47589,0.16384,1.59628,-0.00744,-0.0024,0.1978,-0.0024,-0.0073,0.0073,-0.0073,0.0073,0.0205,-7.5692,9.7026,2.3077,-0.0659,-0.0024,-0.0464,1,1,1,1,1,1,1
8.6658,sweep,2,+up,-0.01926,1.56081,2.06626,-0.47589,0.16384,1.59628,-0.00744,-0.0024,0.1978,-0.0024,-0.0073,0.0073,-0.0073,0.0073,0.0205,-7.5692,9.7026,2.3077,-0.0659,-0.0024,-0.0464,1,1,1,1,1,1,1
8.7055,sweep,2,+up,-0.01926,1.58522,2.06626,-0.47627,0.16384,1.59628,-0.00744,0.0024,0.2173,-0.0024,-0.0073,-0.0073,-0.0220,-0.0073,0.0068,-8.1983,9.8667,2.3126,-0.0659,0.0024,-0.0464,1,1,1,1,1,1,1
8.7455,sweep,2,+up,-0.01926,1.58522,2.06626,-0.47627,0.16384,1.59628,-0.00744,0.0024,0.2173,-0.0024,-0.0073,-0.0073,-0.0220,-0.0073,0.0068,-8.1983,9.8667,2.3126,-0.0659,0.0024,-0.0464,1,1,1,1,1,1,1
8.7853,sweep,2,+up,-0.01926,1.60849,2.06626,-0.47627,0.16384,1.59628,-0.00782,-0.0073,0.1783,-0.0024,-0.0073,-0.0073,-0.0073,-0.0073,-0.0068,-7.9385,9.9761,2.3126,-0.0611,-0.0024,-0.0464,1,1,1,1,1,1,1
8.8260,sweep,2,+up,-0.01926,1.60849,2.06626,-0.47627,0.16384,1.59628,-0.00782,-0.0073,0.1783,-0.0024,-0.0073,-0.0073,-0.0073,-0.0073,-0.0068,-7.9385,9.9761,2.3126,-0.0611,-0.0024,-0.0464,1,1,1,1,1,1,1
8.8656,sweep,2,+up,-0.01926,1.60849,2.06626,-0.47627,0.16384,1.59628,-0.00782,-0.0073,0.1783,-0.0024,-0.0073,-0.0073,-0.0073,-0.0073,-0.0068,-7.9385,9.9761,2.3126,-0.0611,-0.0024,-0.0464,1,1,1,1,1,1,1
8.9052,sweep,2,+up,-0.01926,1.62490,2.06626,-0.47627,0.16384,1.59628,-0.00782,-0.0024,0.2125,-0.0024,-0.0073,-0.0073,-0.0220,-0.0073,-0.0068,-7.7470,10.0718,2.3175,-0.0611,-0.0073,-0.0464,1,1,1,1,1,1,1
8.9451,sweep,2,+up,-0.01926,1.62490,2.06626,-0.47627,0.16384,1.59628,-0.00782,-0.0024,0.2125,-0.0024,-0.0073,-0.0073,-0.0220,-0.0073,-0.0068,-7.7470,10.0718,2.3175,-0.0611,-0.0073,-0.0464,1,1,1,1,1,1,1
8.9853,sweep,2,+up,-0.01926,1.64931,2.06664,-0.47627,0.16384,1.59628,-0.00744,-0.0024,0.1929,-0.0024,-0.0073,-0.0073,0.0073,-0.0073,-0.0068,-8.7453,10.1675,2.3126,-0.0562,-0.0024,-0.0415,1,1,1,1,1,1,1
9.0256,sweep,2,+up,-0.01926,1.64931,2.06664,-0.47627,0.16384,1.59628,-0.00744,-0.0024,0.1929,-0.0024,-0.0073,-0.0073,0.0073,-0.0073,0.0068,-8.7453,10.1675,2.3126,-0.0562,-0.0024,-0.0415,1,1,1,1,1,1,1
9.0654,sweep,2,+up,-0.01926,1.64931,2.06664,-0.47627,0.16384,1.59628,-0.00744,-0.0024,0.1929,-0.0024,-0.0073,-0.0073,0.0073,-0.0073,0.0068,-8.7453,10.1675,2.3126,-0.0562,-0.0024,-0.0415,1,1,1,1,1,1,1
9.1053,sweep,2,+up,-0.01926,1.66571,2.06664,-0.47589,0.16384,1.59628,-0.00744,-0.0024,0.1929,-0.0024,0.0073,0.0073,-0.0073,-0.0073,-0.0068,-8.8410,10.2222,2.2930,-0.0562,-0.0024,-0.0415,1,1,1,1,1,1,1
9.1453,sweep,2,+up,-0.01926,1.66571,2.06664,-0.47589,0.16384,1.59628,-0.00744,-0.0024,0.1929,-0.0024,0.0073,0.0073,-0.0073,-0.0073,-0.0068,-8.8410,10.2222,2.2930,-0.0562,-0.0024,-0.0415,1,1,1,1,1,1,1
9.1856,sweep,2,+up,-0.01926,1.66571,2.06664,-0.47551,0.16384,1.59628,-0.00744,-0.0024,0.1929,0.0024,-0.0220,0.0073,-0.0073,-0.0073,-0.0068,-8.8410,10.0444,2.2344,-0.0464,0.0024,-0.0415,1,1,1,1,1,1,1
9.2252,sweep,2,+up,-0.01926,1.68898,2.06664,-0.47551,0.16384,1.59628,-0.00744,-0.0024,0.1880,0.0024,-0.0220,0.0073,-0.0073,-0.0073,-0.0205,-8.4991,10.0444,2.2344,-0.0464,0.0024,-0.0415,1,1,1,1,1,1,1
9.2653,sweep,2,+up,-0.01926,1.68898,2.06664,-0.47551,0.16384,1.59628,-0.00744,-0.0024,0.1880,0.0024,-0.0220,0.0073,-0.0073,-0.0073,-0.0205,-8.4991,10.0444,2.2344,-0.0464,0.0024,-0.0415,1,1,1,1,1,1,1
9.3052,sweep,2,+up,-0.01926,1.70577,2.06664,-0.47551,0.16384,1.59590,-0.00782,-0.0024,0.1734,-0.0024,0.0220,0.0073,-0.0073,-0.0073,-0.0068,-9.1145,10.0444,2.2100,-0.0464,-0.0024,-0.0415,1,1,1,1,1,1,1
9.3452,sweep,2,+up,-0.01926,1.70577,2.06664,-0.47551,0.16384,1.59590,-0.00782,-0.0024,0.1734,-0.0024,0.0220,0.0073,-0.0073,-0.0073,-0.0068,-9.1145,10.0444,2.2100,-0.0464,-0.0024,-0.0415,1,1,1,1,1,1,1
9.3854,sweep,2,+up,-0.01926,1.70577,2.06664,-0.47551,0.16384,1.59628,-0.00782,-0.0024,0.1734,-0.0024,-0.0073,0.0073,-0.0220,-0.0073,-0.0068,-9.1145,10.0444,2.2002,-0.0415,-0.0122,-0.0464,1,1,1,1,1,1,1
9.4252,sweep,2,+up,-0.01926,1.73018,2.06664,-0.47551,0.16384,1.59628,-0.00782,-0.0024,0.2173,-0.0024,-0.0073,0.0073,-0.0220,-0.0073,-0.0205,-9.7573,10.0855,2.2002,-0.0415,-0.0122,-0.0464,1,1,1,1,1,1,1
9.4651,sweep,2,+up,-0.01926,1.73018,2.06664,-0.47551,0.16384,1.59628,-0.00782,-0.0024,0.2173,-0.0024,-0.0073,0.0073,-0.0220,-0.0073,-0.0205,-9.7573,10.0855,2.2002,-0.0415,-0.0122,-0.0464,1,1,1,1,1,1,1
9.5052,sweep,2,+up,-0.01926,1.74620,2.06664,-0.47551,0.16384,1.59590,-0.00744,-0.0073,0.1978,-0.0024,0.0073,-0.0073,-0.0073,-0.0073,-0.0205,-9.6479,10.0991,2.1807,-0.0317,-0.0122,-0.0464,1,1,1,1,1,1,1
9.5451,sweep,2,+up,-0.01926,1.74620,2.06664,-0.47551,0.16384,1.59590,-0.00744,-0.0073,0.1978,-0.0024,0.0073,-0.0073,-0.0073,-0.0073,-0.0205,-9.6479,10.0991,2.1807,-0.0317,-0.0122,-0.0464,1,1,1,1,1,1,1
9.5852,sweep,2,+up,-0.01926,1.74620,2.06664,-0.47551,0.16384,1.59590,-0.00744,-0.0073,0.1978,-0.0024,0.0073,-0.0073,-0.0073,-0.0073,-0.0205,-9.6479,10.0991,2.1807,-0.0317,-0.0122,-0.0464,1,1,1,1,1,1,1
9.6251,sweep,2,+up,-0.01926,1.77024,2.06664,-0.47589,0.16384,1.59590,-0.00744,-0.0024,0.1880,-0.0024,-0.0073,-0.0073,-0.0220,-0.0073,-0.0068,-9.8530,10.1265,2.1856,-0.0269,-0.0122,-0.0415,1,1,1,1,1,1,1
9.6653,sweep,2,+up,-0.01926,1.77024,2.06664,-0.47589,0.16384,1.59590,-0.00744,-0.0024,0.1880,-0.0024,-0.0073,-0.0073,-0.0220,-0.0073,-0.0068,-9.8530,10.1265,2.1856,-0.0269,-0.0122,-0.0415,1,1,1,1,1,1,1
9.7056,sweep,2,+up,-0.01926,1.78664,2.06664,-0.47589,0.16384,1.59628,-0.00744,-0.0024,0.1978,-0.0024,-0.0073,-0.0073,0.0073,0.0073,-0.0068,-10.1538,10.1675,2.2002,-0.0220,-0.0122,-0.0415,1,1,1,1,1,1,1
9.7453,sweep,2,+up,-0.01926,1.78664,2.06664,-0.47589,0.16384,1.59628,-0.00744,-0.0024,0.1978,-0.0024,-0.0073,-0.0073,0.0073,0.0073,-0.0068,-10.1538,10.1675,2.2002,-0.0220,-0.0122,-0.0415,1,1,1,1,1,1,1
9.7856,sweep,2,+up,-0.01926,1.78664,2.06664,-0.47589,0.16384,1.59628,-0.00744,-0.0024,0.1978,-0.0024,-0.0073,-0.0073,0.0073,0.0073,-0.0068,-10.1538,10.1675,2.2002,-0.0220,-0.0122,-0.0415,1,1,1,1,1,1,1
9.8256,sweep,2,+up,-0.01926,1.81067,2.06664,-0.47589,0.16384,1.59590,-0.00782,-0.0024,0.2076,0.0024,-0.0073,-0.0073,-0.0073,-0.0073,0.0068,-10.1675,10.2632,2.1807,-0.0122,-0.0073,-0.0464,1,1,1,1,1,1,1
9.8654,sweep,2,+up,-0.01926,1.81067,2.06664,-0.47589,0.16384,1.59590,-0.00782,-0.0024,0.2076,0.0024,-0.0073,-0.0073,-0.0073,-0.0073,0.0068,-10.1675,10.2632,2.1807,-0.0122,-0.0073,-0.0464,1,1,1,1,1,1,1
9.9054,sweep,2,+up,-0.01926,1.82670,2.06664,-0.47589,0.16384,1.59590,-0.00744,-0.0024,0.2320,-0.0073,-0.0220,-0.0073,-0.0220,-0.0073,-0.0342,-10.1265,10.3179,2.1709,-0.0073,-0.0073,-0.0464,1,1,1,1,1,1,1
9.9457,sweep,2,+up,-0.01926,1.82670,2.06664,-0.47589,0.16384,1.59590,-0.00744,-0.0024,0.2320,-0.0073,-0.0220,-0.0073,-0.0220,-0.0073,-0.0342,-10.1265,10.3179,2.1709,-0.0073,-0.0073,-0.0464,1,1,1,1,1,1,1
9.9855,sweep,2,+up,-0.01926,1.82670,2.06664,-0.47589,0.16384,1.59590,-0.00744,-0.0024,0.2320,-0.0073,-0.0220,-0.0073,-0.0220,-0.0073,-0.0342,-10.1265,10.3179,2.1709,-0.0073,-0.0073,-0.0464,1,1,1,1,1,1,1
10.0259,sweep,2,+up,-0.01926,1.85073,2.06703,-0.47589,0.16384,1.59628,-0.00782,-0.0024,0.2027,-0.0024,-0.0220,-0.0073,-0.0073,-0.0073,-0.0068,-10.4821,10.3179,2.1563,0.0024,-0.0024,-0.0415,1,1,1,1,1,1,1
10.0653,sweep,2,+up,-0.01926,1.85073,2.06703,-0.47589,0.16384,1.59628,-0.00782,-0.0024,0.2027,-0.0024,-0.0220,-0.0073,-0.0073,-0.0073,-0.0068,-10.4821,10.3179,2.1563,0.0024,-0.0024,-0.0415,1,1,1,1,1,1,1
10.1054,sweep,2,+up,-0.01926,1.86713,2.06703,-0.47589,0.16384,1.59628,-0.00782,-0.0024,0.2173,0.0024,-0.0073,-0.0220,0.0073,-0.0073,0.0205,-10.9607,10.3453,2.1514,0.0073,0.0024,-0.0415,1,1,1,1,1,1,1
10.1453,sweep,2,+up,-0.01926,1.86713,2.06703,-0.47589,0.16384,1.59628,-0.00782,-0.0024,0.2173,0.0024,-0.0073,-0.0220,0.0073,-0.0073,0.0205,-10.9607,10.3453,2.1514,0.0073,0.0024,-0.0415,1,1,1,1,1,1,1
10.1853,sweep,2,+up,-0.01926,1.86713,2.06703,-0.47589,0.16384,1.59628,-0.00782,-0.0024,0.2173,0.0024,-0.0073,-0.0220,0.0073,-0.0073,0.0205,-10.9607,10.3453,2.1514,0.0073,0.0024,-0.0415,1,1,1,1,1,1,1
10.2254,sweep,2,+up,-0.01926,1.89078,2.06703,-0.47589,0.16346,1.59628,-0.00782,-0.0073,0.1978,0.0024,-0.0220,-0.0220,-0.0073,-0.0073,0.0205,-10.5504,10.4000,2.1416,0.0122,0.0024,-0.0415,1,1,1,1,1,1,1
10.2651,sweep,2,+up,-0.01926,1.89078,2.06703,-0.47589,0.16346,1.59628,-0.00782,-0.0073,0.1978,0.0024,-0.0220,-0.0220,-0.0073,-0.0073,0.0205,-10.5504,10.4000,2.1416,0.0122,0.0024,-0.0415,1,1,1,1,1,1,1
10.3052,sweep,2,+up,-0.01926,1.90719,2.06703,-0.47627,0.16384,1.59628,-0.00782,-0.0073,0.2173,-0.0024,-0.0073,-0.0073,-0.0073,-0.0073,0.0205,-11.1111,10.4547,2.1319,0.0171,0.0024,-0.0415,1,1,1,1,1,1,1
10.3452,sweep,2,+up,-0.01926,1.90719,2.06703,-0.47627,0.16384,1.59628,-0.00782,-0.0073,0.2173,-0.0024,-0.0073,-0.0073,-0.0073,-0.0073,0.0205,-11.1111,10.4547,2.1319,0.0171,0.0024,-0.0415,1,1,1,1,1,1,1
10.3851,sweep,2,+up,-0.01926,1.90719,2.06703,-0.47627,0.16384,1.59628,-0.00782,-0.0073,0.2173,-0.0024,-0.0073,-0.0073,-0.0073,-0.0073,0.0205,-11.1111,10.4547,2.1319,0.0171,0.0024,-0.0415,1,1,1,1,1,1,1
10.4253,sweep,2,+up,-0.01926,1.93160,2.06703,-0.47589,0.16384,1.59628,-0.00782,0.0024,0.1929,-0.0024,-0.0073,0.0073,0.0073,-0.0073,0.0068,-11.5897,10.5094,2.1123,0.0171,0.0024,-0.0415,1,1,1,1,1,1,1
10.4653,sweep,2,+up,-0.01926,1.93160,2.06703,-0.47589,0.16384,1.59628,-0.00782,0.0024,0.1929,-0.0024,-0.0073,0.0073,0.0073,-0.0073,0.0068,-11.5897,10.5094,2.1123,0.0171,0.0024,-0.0415,1,1,1,1,1,1,1
10.5053,sweep,2,+up,-0.01926,1.93923,2.06703,-0.47589,0.16384,1.59590,-0.00744,0.0024,0.2125,-0.0024,0.0073,-0.0073,0.0073,-0.0073,0.0205,-11.4120,10.5231,2.0928,0.0220,-0.0024,-0.0464,1,1,1,1,1,1,1
10.5453,sweep,2,+up,-0.01926,1.93923,2.06703,-0.47589,0.16384,1.59590,-0.00744,0.0024,0.2125,-0.0024,0.0073,-0.0073,0.0073,-0.0073,0.0205,-11.4120,10.5231,2.0928,0.0220,-0.0024,-0.0464,1,1,1,1,1,1,1
10.5853,sweep,2,+up,-0.01926,1.93923,2.06703,-0.47589,0.16384,1.59590,-0.00744,0.0024,0.2125,-0.0024,0.0073,-0.0073,0.0073,-0.0073,0.0205,-11.4120,10.5231,2.0928,0.0220,-0.0024,-0.0464,1,1,1,1,1,1,1
10.6256,sweep,2,+up,-0.01926,1.97128,2.06703,-0.47589,0.16384,1.59590,-0.00782,-0.0073,0.1880,-0.0024,-0.0073,-0.0073,-0.0220,-0.0073,-0.0068,-10.9060,10.5778,2.1026,0.0220,-0.0073,-0.0513,1,1,1,1,1,1,1
10.6652,sweep,2,+up,-0.01926,1.97128,2.06703,-0.47589,0.16384,1.59590,-0.00782,-0.0073,0.1880,-0.0024,-0.0073,-0.0073,-0.0220,-0.0073,-0.0068,-10.9060,10.5778,2.1026,0.0220,-0.0073,-0.0513,1,1,1,1,1,1,1
10.7051,sweep,2,+up,-0.01926,1.98692,2.06703,-0.47551,0.16384,1.59590,-0.00744,-0.0073,0.1636,-0.0073,-0.0073,-0.0073,0.0073,-0.0073,0.0068,-10.7556,10.4957,2.0733,0.0317,-0.0024,-0.0513,1,1,1,1,1,1,1
10.7455,sweep,2,+up,-0.01926,1.98692,2.06703,-0.47551,0.16384,1.59590,-0.00744,-0.0073,0.1636,-0.0073,-0.0073,-0.0073,0.0073,-0.0073,0.0068,-10.7556,10.4957,2.0733,0.0317,-0.0024,-0.0513,1,1,1,1,1,1,1
10.7856,sweep,2,+up,-0.01926,1.98692,2.06703,-0.47551,0.16384,1.59590,-0.00744,-0.0073,0.1636,-0.0073,-0.0073,-0.0073,0.0073,-0.0073,0.0068,-10.7556,10.4957,2.0733,0.0317,-0.0024,-0.0513,1,1,1,1,1,1,1
10.8253,sweep,2,+up,-0.01926,2.01209,2.06703,-0.47589,0.16384,1.59590,-0.00782,-0.0024,0.2271,-0.0024,0.0073,-0.0073,0.0073,-0.0073,0.0342,-12.0684,10.5231,2.0537,0.0366,0.0024,-0.0513,1,1,1,1,1,1,1
10.8655,sweep,2,+up,-0.01926,2.01209,2.06703,-0.47589,0.16384,1.59590,-0.00782,-0.0024,0.2271,-0.0024,0.0073,-0.0073,0.0073,-0.0073,0.0342,-12.0684,10.5231,2.0537,0.0366,0.0024,-0.0513,1,1,1,1,1,1,1
10.9057,sweep,2,+up,-0.01926,2.02811,2.06703,-0.47551,0.16384,1.59590,-0.00782,-0.0024,0.1978,-0.0024,-0.0073,-0.0073,-0.0220,-0.0073,0.0205,-11.8906,10.5504,2.0147,0.0366,0.0024,-0.0464,1,1,1,1,1,1,1
10.9457,sweep,2,+up,-0.01926,2.02811,2.06703,-0.47551,0.16384,1.59590,-0.00782,-0.0024,0.1978,-0.0024,-0.0073,-0.0073,-0.0220,-0.0073,0.0205,-11.8906,10.5504,2.0147,0.0366,0.0024,-0.0464,1,1,1,1,1,1,1
10.9853,sweep,2,+up,-0.01926,2.02811,2.06703,-0.47551,0.16384,1.59590,-0.00782,-0.0024,0.1978,-0.0024,-0.0073,-0.0073,-0.0220,-0.0073,0.0205,-11.8906,10.5504,2.0147,0.0366,0.0024,-0.0464,1,1,1,1,1,1,1
11.0256,sweep,2,+up,-0.01926,2.05177,2.06703,-0.47513,0.16384,1.59590,-0.00744,-0.0024,0.1538,0.0024,-0.0073,-0.0073,-0.0073,-0.0073,-0.0068,-11.7812,10.4684,1.9853,0.0366,-0.0024,-0.0513,1,1,1,1,1,1,1
11.0656,sweep,2,+up,-0.01926,2.05177,2.06703,-0.47513,0.16384,1.59590,-0.00744,-0.0024,0.1538,0.0024,-0.0073,-0.0073,-0.0073,-0.0073,-0.0068,-11.7812,10.4684,1.9853,0.0366,-0.0024,-0.0513,1,1,1,1,1,1,1
11.1054,sweep,2,+up,-0.01926,2.06779,2.06703,-0.47513,0.16384,1.59628,-0.00744,-0.0024,0.1929,-0.0024,-0.0073,-0.0220,0.0073,0.0073,-0.0068,-11.6308,10.4547,1.9365,0.0415,0.0024,-0.0513,1,1,1,1,1,1,1
11.1452,sweep,2,+up,-0.01926,2.06779,2.06703,-0.47513,0.16384,1.59628,-0.00744,-0.0024,0.1929,-0.0024,-0.0073,-0.0220,0.0073,0.0073,-0.0068,-11.6308,10.4547,1.9365,0.0415,0.0024,-0.0513,1,1,1,1,1,1,1
11.1853,sweep,2,+up,-0.01926,2.06779,2.06703,-0.47513,0.16384,1.59628,-0.00744,-0.0024,0.1929,-0.0024,-0.0073,-0.0220,0.0073,0.0073,-0.0068,-11.6308,10.4547,1.9365,0.0415,0.0024,-0.0513,1,1,1,1,1,1,1
11.2252,sweep,2,+up,-0.01926,2.09220,2.06703,-0.47513,0.16384,1.59590,-0.00782,-0.0024,0.1929,-0.0024,-0.0073,-0.0073,-0.0220,-0.0073,0.0342,-12.1231,10.3863,1.8926,0.0464,0.0073,-0.0513,1,1,1,1,1,1,1
11.2653,sweep,2,+up,-0.01926,2.09220,2.06703,-0.47513,0.16384,1.59590,-0.00782,-0.0024,0.1929,-0.0024,-0.0073,-0.0073,-0.0220,-0.0073,0.0342,-12.1231,10.3863,1.8926,0.0464,0.0073,-0.0513,1,1,1,1,1,1,1
11.3052,sweep,2,+up,-0.01926,2.10784,2.06703,-0.47513,0.16384,1.59590,-0.00782,-0.0024,0.1929,-0.0024,-0.0073,0.0073,-0.0073,-0.0073,0.0342,-11.9179,10.3863,1.8779,0.0513,0.0073,-0.0513,1,1,1,1,1,1,1
11.3452,sweep,2,+up,-0.01926,2.10784,2.06703,-0.47513,0.16384,1.59590,-0.00782,-0.0024,0.1929,-0.0024,-0.0073,0.0073,-0.0073,-0.0073,0.0342,-11.9179,10.3863,1.8779,0.0513,0.0073,-0.0513,1,1,1,1,1,1,1
11.3852,sweep,2,+up,-0.01926,2.10784,2.06703,-0.47513,0.16384,1.59590,-0.00782,-0.0024,0.1929,-0.0024,-0.0073,0.0073,-0.0073,-0.0073,0.0342,-11.9179,10.3863,1.8779,0.0513,0.0073,-0.0513,1,1,1,1,1,1,1
11.4254,sweep,2,+up,-0.01926,2.13188,2.06741,-0.47513,0.16384,1.59590,-0.00782,-0.0024,0.1832,0.0024,-0.0220,-0.0073,-0.0073,-0.0220,0.0479,-11.8632,10.2496,1.8291,0.0611,0.0073,-0.0513,1,1,1,1,1,1,1
11.4650,sweep,2,+up,-0.01926,2.13188,2.06741,-0.47513,0.16384,1.59590,-0.00782,-0.0024,0.1832,0.0024,-0.0220,-0.0073,-0.0073,-0.0220,0.0479,-11.8632,10.2496,1.8291,0.0611,0.0073,-0.0513,1,1,1,1,1,1,1
11.5052,sweep,2,+up,-0.01926,2.14790,2.06703,-0.47551,0.16384,1.59590,-0.00782,-0.0024,0.2027,-0.0024,-0.0073,-0.0073,0.0073,-0.0073,0.0479,-11.8906,10.2632,1.8242,0.0659,0.0073,-0.0513,1,1,1,1,1,1,1
11.5453,sweep,2,+up,-0.01926,2.14790,2.06703,-0.47551,0.16384,1.59590,-0.00782,-0.0024,0.2027,-0.0024,-0.0073,-0.0073,0.0073,-0.0073,0.0479,-11.8906,10.2632,1.8242,0.0659,0.0073,-0.0513,1,1,1,1,1,1,1
11.5853,sweep,2,+up,-0.01926,2.14790,2.06703,-0.47551,0.16384,1.59590,-0.00782,-0.0024,0.2027,-0.0024,-0.0073,-0.0073,0.0073,-0.0073,0.0479,-11.8906,10.2632,1.8242,0.0659,0.0073,-0.0513,1,1,1,1,1,1,1
11.6253,sweep,2,+up,-0.01926,2.17193,2.06741,-0.47551,0.16384,1.59590,-0.00744,-0.0024,0.1783,-0.0024,-0.0220,-0.0073,-0.0073,-0.0073,0.0479,-11.7675,10.2359,1.7705,0.0757,0.0073,-0.0464,1,1,1,1,1,1,1
11.6653,sweep,2,+up,-0.01926,2.17193,2.06741,-0.47551,0.16384,1.59590,-0.00744,-0.0024,0.1783,-0.0024,-0.0220,-0.0073,-0.0073,-0.0073,0.0479,-11.7675,10.2359,1.7705,0.0757,0.0073,-0.0464,1,1,1,1,1,1,1
11.7054,sweep,2,+up,-0.01926,2.18757,2.06741,-0.47513,0.16384,1.59590,-0.00782,-0.0024,0.2271,-0.0024,0.0073,-0.0073,-0.0220,-0.0073,0.0342,-11.4120,10.1128,1.7558,0.0757,0.0073,-0.0513,1,1,1,1,1,1,1
11.7452,sweep,2,+up,-0.01926,2.18757,2.06741,-0.47513,0.16384,1.59590,-0.00782,-0.0024,0.2271,-0.0024,0.0073,-0.0073,-0.0220,-0.0073,0.0342,-11.4120,10.1128,1.7558,0.0757,0.0073,-0.0513,1,1,1,1,1,1,1
11.7851,sweep,2,+up,-0.01926,2.18757,2.06741,-0.47513,0.16384,1.59590,-0.00782,-0.0024,0.2271,-0.0024,0.0073,-0.0073,-0.0220,-0.0073,0.0342,-11.4120,10.1128,1.7558,0.0757,0.0073,-0.0513,1,1,1,1,1,1,1
11.8251,sweep,2,+up,-0.01926,2.21122,2.06741,-0.47513,0.16384,1.59590,-0.00782,-0.0024,0.1783,-0.0024,-0.0073,-0.0073,-0.0220,-0.0073,0.0342,-10.9197,9.9350,1.7021,0.0855,0.0122,-0.0464,1,1,1,1,1,1,1
11.8650,sweep,2,+up,-0.01926,2.21122,2.06741,-0.47513,0.16384,1.59590,-0.00782,-0.0024,0.1783,-0.0024,-0.0073,-0.0073,-0.0220,-0.0073,0.0342,-10.9197,9.9350,1.7021,0.0855,0.0122,-0.0464,1,1,1,1,1,1,1
11.9052,sweep,2,+up,-0.01926,2.22801,2.06741,-0.47513,0.16384,1.59590,-0.00744,-0.0024,0.2125,-0.0024,-0.0073,-0.0073,-0.0220,-0.0073,-0.0068,-11.9179,9.8667,1.6777,0.0855,0.0122,-0.0464,1,1,1,1,1,1,1
11.9451,sweep,2,+up,-0.01926,2.22801,2.06741,-0.47513,0.16384,1.59590,-0.00744,-0.0024,0.2125,-0.0024,-0.0073,-0.0073,-0.0220,-0.0073,-0.0068,-11.9179,9.8667,1.6777,0.0855,0.0122,-0.0464,1,1,1,1,1,1,1
11.9851,sweep,2,+up,-0.01926,2.22801,2.06741,-0.47513,0.16384,1.59590,-0.00744,-0.0024,0.2125,-0.0024,-0.0073,-0.0073,-0.0220,-0.0073,-0.0068,-11.9179,9.8667,1.6777,0.0855,0.0122,-0.0464,1,1,1,1,1,1,1
12.0265,sweep,2,+up,-0.01926,2.25166,2.06741,-0.47551,0.16384,1.59590,-0.00782,-0.0024,0.2271,-0.0024,-0.0220,-0.0073,-0.0073,-0.0073,-0.0068,-11.6171,9.8530,1.6532,0.1050,0.0171,-0.0513,1,1,1,1,1,1,1
12.0654,sweep,2,+up,-0.01926,2.25166,2.06741,-0.47551,0.16384,1.59590,-0.00782,-0.0024,0.2271,-0.0024,-0.0220,-0.0073,-0.0073,-0.0073,-0.0068,-11.6171,9.8530,1.6532,0.1050,0.0171,-0.0513,1,1,1,1,1,1,1
12.1052,sweep,2,+up,-0.01926,2.26692,2.06741,-0.47551,0.16384,1.59590,-0.00744,0.0024,0.1978,-0.0024,-0.0366,-0.0073,-0.0220,0.0073,-0.0068,-11.3709,9.8667,1.6435,0.1148,0.0171,-0.0513,1,1,1,1,1,1,1
12.1454,sweep,2,+up,-0.01926,2.26692,2.06741,-0.47551,0.16384,1.59590,-0.00744,0.0024,0.1978,-0.0024,-0.0366,-0.0073,-0.0220,0.0073,-0.0068,-11.3709,9.8667,1.6435,0.1148,0.0171,-0.0513,1,1,1,1,1,1,1
12.1853,sweep,2,+up,-0.01926,2.26692,2.06741,-0.47551,0.16384,1.59590,-0.00744,0.0024,0.1978,-0.0024,-0.0366,-0.0073,-0.0220,0.0073,-0.0068,-11.3709,9.8667,1.6435,0.1148,0.0171,-0.0513,1,1,1,1,1,1,1
12.2251,sweep,2,+up,-0.01926,2.28714,2.06741,-0.47513,0.16384,1.59590,-0.00782,-0.0024,0.1538,0.0024,-0.0073,-0.0073,-0.0073,-0.0220,-0.0342,-11.7402,9.8256,1.5946,0.1197,0.0171,-0.0562,1,1,1,1,1,1,1
12.2654,sweep,2,+up,-0.01926,2.28714,2.06741,-0.47513,0.16384,1.59590,-0.00782,-0.0024,0.1538,0.0024,-0.0073,-0.0073,-0.0073,-0.0220,-0.0342,-11.7402,9.8256,1.5946,0.1197,0.0171,-0.0562,1,1,1,1,1,1,1
12.3056,sweep,2,+up,-0.01926,2.29820,2.06741,-0.47551,0.16384,1.59590,-0.00782,-0.0024,0.1392,-0.0024,-0.0073,-0.0220,-0.0220,-0.0073,-0.0342,-10.9744,9.7709,1.5702,0.1245,0.0171,-0.0513,1,1,1,1,1,1,1
12.3453,sweep,2,+up,-0.01926,2.29820,2.06741,-0.47551,0.16384,1.59590,-0.00782,-0.0024,0.1392,-0.0024,-0.0073,-0.0220,-0.0220,-0.0073,-0.0342,-10.9744,9.7709,1.5702,0.1245,0.0171,-0.0513,1,1,1,1,1,1,1
12.3853,sweep,2,+up,-0.01926,2.29820,2.06741,-0.47551,0.16384,1.59590,-0.00782,-0.0024,0.1392,-0.0024,-0.0073,-0.0220,-0.0220,-0.0073,-0.0342,-10.9744,9.7709,1.5702,0.1245,0.0171,-0.0513,1,1,1,1,1,1,1
12.4252,sweep,2,+up,-0.01926,2.31346,2.06741,-0.47551,0.16384,1.59628,-0.00782,-0.0073,0.0757,-0.0024,0.0073,-0.0220,0.0220,-0.0073,-0.0479,-10.9744,9.6752,1.5311,0.1245,0.0171,-0.0562,1,1,1,1,1,1,1
12.4652,sweep,2,+up,-0.01926,2.31346,2.06741,-0.47551,0.16384,1.59628,-0.00782,-0.0073,0.0757,-0.0024,0.0073,-0.0220,0.0220,-0.0073,-0.0479,-10.9744,9.6752,1.5311,0.1245,0.0171,-0.0562,1,1,1,1,1,1,1
12.5051,sweep,2,+up,-0.01926,2.32223,2.06741,-0.47551,0.16384,1.59590,-0.00782,-0.0024,0.0757,0.0024,0.0220,-0.0220,0.0073,-0.0073,-0.0479,-11.2615,9.6479,1.5116,0.1197,0.0171,-0.0562,1,1,1,1,1,1,1
12.5453,sweep,2,+up,-0.01926,2.32223,2.06741,-0.47551,0.16384,1.59590,-0.00782,-0.0024,0.0757,0.0024,0.0220,-0.0220,0.0073,-0.0073,-0.0479,-11.2615,9.6479,1.5116,0.1197,0.0171,-0.0562,1,1,1,1,1,1,1
12.5851,sweep,2,+up,-0.01926,2.32223,2.06741,-0.47551,0.16384,1.59590,-0.00782,-0.0024,0.0757,0.0024,0.0220,-0.0220,0.0073,-0.0073,-0.0479,-11.2615,9.6479,1.5116,0.1197,0.0171,-0.0562,1,1,1,1,1,1,1
12.6252,sweep,2,+up,-0.01888,2.33406,2.06741,-0.47551,0.16384,1.59590,-0.00782,-0.0024,0.0806,-0.0024,-0.0366,0.0073,-0.0073,-0.0220,-0.0615,-11.0017,9.5658,1.5018,0.1294,0.0171,-0.0562,1,1,1,1,1,1,1
12.6652,sweep,2,+up,-0.01888,2.33406,2.06741,-0.47551,0.16384,1.59590,-0.00782,-0.0024,0.0806,-0.0024,-0.0366,0.0073,-0.0073,-0.0220,-0.0615,-11.0017,9.5658,1.5018,0.1294,0.0171,-0.0562,1,1,1,1,1,1,1
12.7053,sweep,2,+up,-0.01888,2.34092,2.06741,-0.47551,0.16384,1.59590,-0.00782,-0.0024,0.0806,-0.0024,-0.0220,0.0073,-0.0366,-0.0073,-0.0479,-11.2342,9.4701,1.4872,0.1343,0.0171,-0.0562,1,1,1,1,1,1,1
12.7454,sweep,2,+up,-0.01888,2.34092,2.06741,-0.47551,0.16384,1.59590,-0.00782,-0.0024,0.0806,-0.0024,-0.0220,0.0073,-0.0366,-0.0073,-0.0479,-11.2342,9.4701,1.4872,0.1343,0.0171,-0.0562,1,1,1,1,1,1,1
12.7852,sweep,2,+up,-0.01888,2.34092,2.06741,-0.47551,0.16384,1.59590,-0.00782,-0.0024,0.0806,-0.0024,-0.0220,0.0073,-0.0366,-0.0073,-0.0479,-11.2342,9.4701,1.4872,0.1343,0.0171,-0.0562,1,1,1,1,1,1,1
12.8255,sweep,2,+up,-0.01888,2.34970,2.06741,-0.47551,0.16384,1.59590,-0.00782,0.0024,0.0952,-0.0024,-0.0073,0.0073,-0.0073,-0.0220,-0.0068,-11.0291,9.3470,1.4432,0.1441,0.0220,-0.0562,1,1,1,1,1,1,1
12.8652,sweep,2,+up,-0.01888,2.34970,2.06741,-0.47551,0.16384,1.59590,-0.00782,0.0024,0.0952,-0.0024,-0.0073,0.0073,-0.0073,-0.0220,-0.0068,-11.0291,9.3470,1.4432,0.1441,0.0220,-0.0562,1,1,1,1,1,1,1
12.9052,sweep,2,+up,-0.01888,2.35504,2.06741,-0.47589,0.16384,1.59590,-0.00782,-0.0024,0.0708,-0.0024,-0.0220,-0.0073,-0.0073,-0.0073,-0.0068,-11.1111,9.2650,1.4530,0.1441,0.0220,-0.0562,1,1,1,1,1,1,1
12.9454,sweep,2,+up,-0.01888,2.35504,2.06741,-0.47589,0.16384,1.59590,-0.00782,-0.0024,0.0708,-0.0024,-0.0220,-0.0073,-0.0073,-0.0073,-0.0068,-11.1111,9.2650,1.4530,0.1441,0.0220,-0.0562,1,1,1,1,1,1,1
12.9851,sweep,2,+up,-0.01888,2.35504,2.06741,-0.47589,0.16384,1.59590,-0.00782,-0.0024,0.0708,-0.0024,-0.0220,-0.0073,-0.0073,-0.0073,-0.0068,-11.1111,9.2650,1.4530,0.1441,0.0220,-0.0562,1,1,1,1,1,1,1
13.0251,sweep,2,+up,-0.01888,2.36152,2.06741,-0.47589,0.16384,1.59628,-0.00782,-0.0024,0.0171,0.0024,-0.0073,-0.0073,0.0073,-0.0073,-0.0205,-10.9060,9.1692,1.4383,0.1490,0.0269,-0.0513,1,1,1,1,1,1,1
13.0651,sweep,2,+up,-0.01888,2.36152,2.06741,-0.47589,0.16384,1.59628,-0.00782,-0.0024,0.0171,0.0024,-0.0073,-0.0073,0.0073,-0.0073,-0.0205,-10.9060,9.1692,1.4383,0.1490,0.0269,-0.0513,1,1,1,1,1,1,1
13.1050,sweep,2,+up,-0.01888,2.36534,2.06741,-0.47589,0.16384,1.59590,-0.00782,-0.0024,0.0269,-0.0024,-0.0220,-0.0073,-0.0220,-0.0366,-0.0068,-10.7145,9.1556,1.4139,0.1636,0.0269,-0.0513,1,1,1,1,1,1,1
13.1454,sweep,2,+up,-0.01888,2.36534,2.06741,-0.47589,0.16384,1.59590,-0.00782,-0.0024,0.0269,-0.0024,-0.0220,-0.0073,-0.0220,-0.0366,-0.0068,-10.7145,9.1556,1.4139,0.1636,0.0269,-0.0513,1,1,1,1,1,1,1
13.1852,sweep,2,+up,-0.01888,2.36534,2.06741,-0.47589,0.16384,1.59590,-0.00782,-0.0024,0.0269,-0.0024,-0.0220,-0.0073,-0.0220,-0.0366,-0.0068,-10.7145,9.1556,1.4139,0.1636,0.0269,-0.0513,1,1,1,1,1,1,1
13.2267,sweep,2,+up,-0.01888,2.37106,2.06741,-0.47589,0.16384,1.59590,-0.00782,-0.0073,0.0415,-0.0073,-0.0073,-0.0366,-0.0073,-0.0073,-0.0068,-11.6444,9.0462,1.4188,0.1685,0.0220,-0.0513,1,1,1,1,1,1,1
13.2655,sweep,2,+up,-0.01888,2.37106,2.06741,-0.47589,0.16384,1.59590,-0.00782,-0.0073,0.0415,-0.0073,-0.0073,-0.0366,-0.0073,-0.0073,-0.0068,-11.6444,9.0462,1.4188,0.1685,0.0220,-0.0513,1,1,1,1,1,1,1
13.3051,sweep,2,+up,-0.01888,2.37449,2.06741,-0.47627,0.16384,1.59590,-0.00782,-0.0024,0.0122,0.0024,-0.0220,-0.0073,-0.0073,-0.0220,-0.0342,-12.0137,9.0325,1.4335,0.1685,0.0220,-0.0513,1,1,1,1,1,1,1
13.3455,sweep,2,+up,-0.01888,2.37449,2.06741,-0.47627,0.16384,1.59590,-0.00782,-0.0024,0.0122,0.0024,-0.0220,-0.0073,-0.0073,-0.0220,-0.0342,-12.0137,9.0325,1.4335,0.1685,0.0220,-0.0513,1,1,1,1,1,1,1
13.3853,sweep,2,+up,-0.01888,2.37449,2.06741,-0.47627,0.16384,1.59590,-0.00782,-0.0024,0.0122,0.0024,-0.0220,-0.0073,-0.0073,-0.0220,-0.0342,-12.0137,9.0325,1.4335,0.1685,0.0220,-0.0513,1,1,1,1,1,1,1
13.4250,sweep,2,+up,-0.01888,2.37793,2.06741,-0.47627,0.16384,1.59590,-0.00782,0.0024,0.0122,0.0024,-0.0073,-0.0073,-0.0220,-0.0220,-0.0479,-11.8769,9.0188,1.4286,0.1685,0.0220,-0.0513,1,1,1,1,1,1,1
13.4652,sweep,2,+up,-0.01888,2.37793,2.06741,-0.47627,0.16384,1.59590,-0.00782,0.0024,0.0122,0.0024,-0.0073,-0.0073,-0.0220,-0.0220,-0.0479,-11.8769,9.0188,1.4286,0.1685,0.0220,-0.0513,1,1,1,1,1,1,1
13.5052,sweep,2,+up,-0.01888,2.38022,2.06741,-0.47627,0.16384,1.59590,-0.00744,-0.0024,0.0269,-0.0024,-0.0073,-0.0073,-0.0073,-0.0073,-0.0342,-11.8906,8.9504,1.4335,0.1636,0.0269,-0.0464,1,1,1,1,1,1,1
14.0078,sweep,2,-down,-0.01888,2.38174,2.06741,-0.47627,0.16423,1.59590,-0.00782,-0.0024,0.0171,-0.0024,-0.0220,0.0073,-0.0073,-0.0073,-0.0205,-12.6974,8.8957,1.4237,0.1636,0.0220,-0.0464,1,1,1,1,1,1,1
14.0476,sweep,2,-down,-0.01888,2.38174,2.06741,-0.47627,0.16423,1.59590,-0.00782,-0.0024,0.0171,-0.0024,-0.0220,0.0073,-0.0073,-0.0073,-0.0205,-12.6974,8.8957,1.4237,0.1636,0.0220,-0.0464,1,1,1,1,1,1,1
14.0876,sweep,2,-down,-0.01888,2.38174,2.06741,-0.47627,0.16423,1.59590,-0.00782,-0.0024,0.0171,-0.0024,-0.0220,0.0073,-0.0073,-0.0073,-0.0205,-12.6974,8.8957,1.4237,0.1636,0.0220,-0.0464,1,1,1,1,1,1,1
